/* XPM */
static char * NO_xpm[] = {
"64 64 167 2",
"  	c #40423E",
". 	c #3E403C",
"+ 	c #3F413D",
"@ 	c #424440",
"# 	c #434541",
"$ 	c #444642",
"% 	c #454743",
"& 	c #41433F",
"* 	c #464844",
"= 	c #44553B",
"- 	c #40433E",
"; 	c #424540",
"> 	c #424340",
", 	c #3E3F3C",
"' 	c #3D3F3B",
") 	c #41433E",
"! 	c #444643",
"~ 	c #3C3E3A",
"{ 	c #41423F",
"] 	c #3A3C38",
"^ 	c #474945",
"/ 	c #6B706C",
"( 	c #6A6F6B",
"_ 	c #696E6A",
": 	c #6A706B",
"< 	c #6D726E",
"[ 	c #707671",
"} 	c #737874",
"| 	c #757A76",
"1 	c #747A76",
"2 	c #717672",
"3 	c #6F7470",
"4 	c #6E736F",
"5 	c #6C716D",
"6 	c #676C68",
"7 	c #656A66",
"8 	c #616762",
"9 	c #5F6460",
"0 	c #5E635F",
"a 	c #606561",
"b 	c #40423D",
"c 	c #707571",
"d 	c #646965",
"e 	c #636864",
"f 	c #686D69",
"g 	c #727773",
"h 	c #767B77",
"i 	c #747975",
"j 	c #626763",
"k 	c #666B67",
"l 	c #777C78",
"m 	c #727873",
"n 	c #6B716C",
"o 	c #56674D",
"p 	c #54664B",
"q 	c #54654B",
"r 	c #737974",
"s 	c #717772",
"t 	c #616662",
"u 	c #55674D",
"v 	c #636964",
"w 	c #6F7571",
"x 	c #41443F",
"y 	c #6E726F",
"z 	c #6B716D",
"A 	c #454843",
"B 	c #474A45",
"C 	c #42443F",
"D 	c #484A46",
"E 	c #3D403B",
"F 	c #494B47",
"G 	c #3B3D39",
"H 	c #444742",
"I 	c #6E746F",
"J 	c #666C67",
"K 	c #6E7470",
"L 	c #55674C",
"M 	c #6A706C",
"N 	c #676D68",
"O 	c #646A65",
"P 	c #526349",
"Q 	c #56684D",
"R 	c #6F7570",
"S 	c #696F6A",
"T 	c #737975",
"U 	c #767C78",
"V 	c #787D79",
"W 	c #777D78",
"X 	c #686E69",
"Y 	c #656B67",
"Z 	c #757B76",
"` 	c #707672",
" .	c #434540",
"..	c #686E6A",
"+.	c #6D736E",
"@.	c #6C726D",
"#.	c #444641",
"$.	c #434641",
"%.	c #717773",
"&.	c #464944",
"*.	c #56684E",
"=.	c #57684E",
"-.	c #52644A",
";.	c #666C68",
">.	c #656B66",
",.	c #747A75",
"'.	c #464843",
").	c #797E7A",
"!.	c #474944",
"~.	c #424441",
"{.	c #44543A",
"].	c #6A6E6A",
"^.	c #696F6B",
"/.	c #636764",
"(.	c #5D625E",
"_.	c #6B6F6B",
":.	c #474946",
"<.	c #717572",
"[.	c #656966",
"}.	c #53644A",
"|.	c #434441",
"1.	c #3F413E",
"2.	c #425339",
"3.	c #3F413C",
"4.	c #676B68",
"5.	c #6B6F6C",
"6.	c #5F6360",
"7.	c #727874",
"8.	c #606461",
"9.	c #6F736F",
"0.	c #5C615D",
"a.	c #666A67",
"b.	c #696D6A",
"c.	c #6C706D",
"d.	c #5E625F",
"e.	c #656965",
"f.	c #6A6E6B",
"g.	c #3B3D3A",
"h.	c #393B38",
"i.	c #6E726E",
"j.	c #636763",
"k.	c #666A66",
"l.	c #414340",
"m.	c #3C3D3A",
"n.	c #646865",
"o.	c #5B5F5C",
"p.	c #707471",
"q.	c #696D69",
"r.	c #626663",
"s.	c #676B67",
"t.	c #646864",
"u.	c #40413E",
"v.	c #40423F",
"w.	c #3F403D",
"x.	c #3C3E3B",
"y.	c #616562",
"z.	c #5B605C",
"A.	c #6F7370",
"B.	c #5A5F5B",
"C.	c #686C69",
"D.	c #5D615E",
"E.	c #454643",
"F.	c #3D3F3C",
"G.	c #3E403D",
"H.	c #3D3E3B",
"I.	c #626662",
"J.	c #6C706C",
"  . + @ # # @ # $ % @     @ # @ & @ % * $ = - @ ; &   & # $ # &   & >   . + & @ @ &   & &   . , + & &   & @ @ & + . +       & # ",
"  ' . & # &   @ * * # ) & $ $ & + - $ % @   @ * * @ + & $ # + ' + # $ & + @ % !   ~ . {   ' ~   $ % @   & # & ~ ] ' & # & & % ^ ",
"&   / / / / ( _ _ : < [ } | 1 }   & 2 2 [ 3 4 5 ( _ 6 7 8 9 0 a b @ ( / ( _ ( / 4 c 2 2 c 3 4 4 * * 6 d e d 6 _ ( f 7 e e d 6 _ ",
"@ $ _ _ _ _ _ / < 3 2 g g } 1 h # & i g 3 < 5 / _ 6 d 8 a a a j   + k f ( 5 4 c 2 2 c c c c c 4 $ $ f 6 k k 6 k k 7 7 7 k k 6 k ",
"# $ 6 6 6 f ( < 2 } } g 2 2 i l $ & l m 4 n ( _ f 7 j a a j d 7   . e 7 ( 3 g i g c 4 4 3 c o < @ # ( ( ( _ k d j e k _ p q k d ",
"# # 7 7 k f / 3 g i r s c c } l @ & l } 4 / _ f k e 8 t e k f f   & j 7 ( c i i g 3 < 5 < u < / @ # / < < / k e t d f / < / 6 v ",
"# @ e d k _ 5 w g } g 2 c c g | x ; h } 3 5 _ k d e e 7 6 _ ( _ & $ 7 6 / c g g 2 4 5 / ( ( _ f @ @ < 4 y / 6 d d k ( < < 5 f 7 ",
"# # d 7 6 / < 3 c c c c 2 2 s g $ % } g c < _ k d 7 6 ( z 5 / ( $ % ( 5 < 4 4 4 4 < 5 q 6 7 7 k   . < < 5 ( _ f _ ( 5 5 5 5 ( _ ",
"@ % % $ $ % A $ &   & # ; & @ % B ^ % $ $ $ @ + .   # $ # $ * ^ * @ + + + . ' . & % * % $ # @   ~ ] ~ + & @ $ * ^ * # + ' ' ' ' ",
"@ $ $ @ @ % ^ % C   @ $ @   & % D ^ $ $ * * # . E & $ # & # ^ F *   +   & . G E # ^ * # @ % $ + ] ] . @ &   # D F % + .     ' ~ ",
"3 3 3 4 < n ( _ H $ / < I I < ( f k J f ( n < K & @ g g 2 c 2 } | l h } 4 _ k d # $ e e j j e d 7 7 7 k f L 2 i % @ 3 5 / 5 4 c ",
"c g } 2 4 / _ f ^ ^ / 5 5 n M _ N k d O J ( 3 m % @ } g 2 g i h l l | g 4 ( k P & + a t e 7 7 7 e e e k ( Q g i + + c 3 4 < 4 4 ",
"c } i } R 5 ( _ ^ D n / ( _ _ _ f k d e 7 S 3 i * # T g g i U V W | g R < / f d   . 0 t d 6 6 7 j j d f < c 2 2 G + 2 2 c 4 5 5 ",
"3 2 m g c 4 5 z % % 5 ( X f f f f 6 Y 7 k ( 3 } % % r } r Z l l | g 3 < 5 / _ 7 &   9 j 7 f 6 7 d d 6 / 4 3 3 < ~ + c 2 ` 4 5 / ",
"< 4 3 c c c R 3  .# 5 ( _ f f f X _ .._ ( n 4 c $ ^ } i | h h i 2 4 5 / / ( _ k # @ e d k 6 6 6 6 _ / < 4 < / ( + . 4 c 3 < 5 / ",
"5 / / < c g } g @  .< / ( _ X f _ : 5 +.4 < 5 5 % ^ } | h | g 3 < / ( ( _ f f f # @ f 6 k k 6 _ 5 3 3 4 5 ( f f ) + / 5 5 5 @.< ",
"# # % * * # & & # # @ @ $ ^ ^ % # # $ $ C   @ % * % # $ % $ C b   # #.@ & @ $ $ @ + + & @ &   & # $ @     & @ &   & # $ $ @ @ # ",
"$.$ % ^ ^ $ & & @ @ &   # ^ D * $ % * % & + & H % @ & $ ^ * @   @ % #   . & $ $   + @ * $   + & # @ . '   $ $ & & $ ^ $ + '   # ",
"$ % ( / < c } i i } %.c 3 3 3 R &.* } } g c < / M / z 5 / S f k $ # d d 7 6 ( 4 2 g g c 3 *.=.g   . c < ( f k 7 d j t j -.q ( / ",
"# * 5 < < 4 w 2 } } } g 2 2 %.m D ^ g 2 c c c 3 < / X ;.Y 7 >.7 % & e d k _ 5 4 c 2 g } i | | } ~ G < 5 / _ 6 d j t t j d k 6 6 ",
"@ $ 3 3 4 < @.4 c g } } m } r ,.* '.2 3 3 c g g c 5 6 e j j d 7 % & d 7 f / < 4 4 3 2 | V ).l } G ~ ( ( / ( 6 d j j e d O d d 7 ",
"& & c c 3 5 ( / @.3 s } r i ,.| @ $.c I 3 [ } } 2 5 6 j a t e d $ $ k f ( 5 < 5 5 < c | ).).h 2 +   f _ ( _ 6 7 d d k k 7 v e O ",
"@ + c c 3 5 ( X _ 5 3 s } i i } + @ 3 3 c 2 g g c < X 7 j 8 j d # * _ / 5 5 5 / / < c i h h } 4 $ # k 6 6 f f 6 f f f f k 7 7 6 ",
" .+ K 3 4 5 ( f N _ n 3 s } g 2   & 3 c 2 2 2 c K < / _ k d e d @ $ @.< < / ( ( 5 4 3 c c 3 < / % $ k 7 7 k f ( 5 5 / _ f f _ 5 ",
"@ & + . + @ $ $ $ % ^ ^ $ @ & @ @ & - @ % !.* $ $ % % ; b + - @ &   @ $ * % @ & & & + ~ ~ + @ # ~.# % % # + ' ' . . .   $ ^ D * ",
"& @ @     @ $ $ # # % * % @ C # $ @   & $ * % # # * * #   + & @   .   % ^ $ & {.# @ . G ~   # @   # ^ ^ @ ' ' +   ' ~   * F * # ",
"2 < ( f f _ / / # @ k 7 7 J X / < I c c w 4 5 / $ H 3 2 g s [ 3 4 4 < < < < < < # & k j 9 0 9 t d 7 k k k 6 ].5 + . c g | l l i ",
"c < ( f 6 f ( / @ & 6 d e d k ^.< 3 3 I < 5 n / $  .4 c } | | } 2 4 5 / < 4 3 4 & + /.9 (.(.(.9 a e 7 f _ ( ( ( . & g h V V h g ",
"3 5 ( _ f f _ (     f >.e e >._ 5 4 4 @./ / / 5 ; @ < 3 m Z l h g 4 5 / < 3 3 <     a 9 0 0 (.(.0 t 7 _ 5 5 / (   $ } l ).l } 3 ",
"< 5 / ( _ f f _ . + ( f 6 k 6 _ / 5 5 / ( ( / 5   @ < 4 2 i | | } 3 < 5 < 4 < ( & # a a a a 9 0 0 t 7 ( 5 < / _.% % } h h } 3 < ",
"/ / / / ( _ f f + + 5 5 5 / ( ( ( ( ( S _ ( / 5 + @ < +.3 c 2 g g 2 c 4 < 5 _ 6 @ $ j j j j t a t e k _ / 5 5 < :.$ c <.3 < / / ",
"_ ( / n / ( _ f @ & < R ` c 4 / _ f f _ _ ( ( / & & < 5 5 5 5 4 c g g c < _ k d & @ 7 7 7 d d [.7 k k 6 _ / < 3 % @ < ( f }.f ( ",
"&         + ) # % % $ # # # & + + & $.$ # # $ % #   +   & &   & # $ $ & +   {   . .   |.# & +   &   . ' + & @ &   & @ @ 1.2.+ & ",
"@ . ' ' +     @ * ^ * $ ; @ & 3.' + ; $ $ $ % * % & . + &   + + @ % $ &   & @   ' ~ + @ & . . & $ @ . ,   @   ' '   # > + + # * ",
"@ . 6 _ ( 5 4 3 c 2 g } | | i g . + _ f f _ S _ _ f f 6 k 7 7 k & @ ( ( f 4.7 7 k f ( / 5 4 3 3 @ @ / _ _ ( / 5._ 7 t 9 0 6.a j ",
"  + k f ( < 3 2 } } } } 7.} m g &   / _ _ _ _ _ f 6 k k k k k k   + d 7 k 6 f f f f ( 5 4 c c c 1.& < < 5 ( f 7 e t a a 8.9 0 9 ",
".   7 f ( < c g i | i g c 3 3 c @ @ 4 / _ f f f 6 k k k 6 f f k + . a t 7 f ( ( _ _ ( 5 9.c c 3 + & 3 3 4 ( 7 a 0 0 a j j a 0 0 ",
".   7 f / < c g i i } c < / 5 < # $ c < / _ f 6 6 6 6 6 f _ _ k +   0 a e 6 ( / / ( ( 5 < 4 4 4   & c c < f j 0 0.0 t e d j a 9 ",
"  & k _ / 4 3 2 g g c 4 / _ X ( $ $ c 3 5 ( f 6 6 f _ ( ( ( _ k +   9 a j a.b.5./ / / / / / c.5 &   3 4 / k j 0 d.9 t e e.d d d ",
"& @ f ( c.< 4 4 4 +.5 ( _ 6 6 f % $ 4 3 +./ _ f _ ( / 5 5 ( f k   + j j j d k _ / 5 / f.f f _ / + ' 5 ( 6 d j t t t j e 7 6 f _ ",
"& # $ % % $ @ + ' ' . +   @ $ * * $ @ & &   . ' + @ # # @ # $ #   . ' + + . ' + > # &     &   . G g., + . .   # $ @   + + + ' G ",
"  # % $ @ & @ & . ' + & @ @ @ # % $ &   & &   + + & # @   & # # & . .     . ~ . & @   +   @ @ . G ~ . + ' ~   $ % & + + & + G h.",
"} g c 4 / _ 6 7 &   t j d 7 k 7 d e d 6 / 3 2 g &   3 i.5 5.( ( ( / / ( f 7 e j.. + 7 k k k.[.e j a 9 9 t d 6 ( l.& f._ _.< 3 <.",
"} } g 3 5 f 7 j # $ a t e 7 7 7 d e d k ( 4 g i #   3 5 / / / / c.5 5 / ( f 7 j m.G j.[.k k d t 0 0.0.0 t [.6 _ . & < < y 4 4 3 ",
"2 g g c 5 6 e a $ ^ t j e d d 7 7 7 k 6 _ < 2 } $ & 4 c.( 5./ 5 5 5 / / / _ 6 d ~ G t n.7 7 e 9 0.o.0.9 j 7 4.f ~   3 c c 4 < 4 ",
"4 3 p.4 / 6 e a $ ^ j e e e d k 6 f _ _ f./ 4 c # @ < / ( ( / 5 5 / ( ( ( ( q.k . ' r.e d e t 6.0.0.0 a e [.k 6 ' , c 2 2 3 < < ",
"/ / / / _ s.d e $ $ 7 7 d d 7 6 ( 5 5 5 / ( ( / & @ c./ ( ( ( ( ( ( _ _ _ ( f._   + t.j r.t a 9 9 8.t j e d 7 s.. ~ 4 p.c 3 4 < ",
"_ 6 k k k k 6 6 # & 6 k k k 6 _ 5 4 3 4 5 ( f 6     _ ( ( _ _ f f f f f f _ ( /     k e a 9 8.t e d d n.e n.7 k . ~ / 5 i.4 4 < ",
". + & @ @ @ @ @ & + . +   & @ @ # $ $ @   + +   + + & # $ # &     + . ~ ' 1.& &   u.v.v.. ~ m.' + + . + & @   . ' . + + . . & # ",
"    & $ ^ % @ + . . ' ~ ' & % % % $ $ #   ' ~ . +   & # % % @   + + ' G G . & @     @ @ 1.~ G ' + . ~ , & # & . .   & w.~ x.  @ ",
"  & 9 9 j 4./ 4 3 3 4 3 c g } g * $ 3 4 5 _ k j a 9 a j.d 7 7 d + ' 7 6 f ( / 5 5 5 ( b.6 a.k 6 ~ x.( _ f 6 k 7 [.d n.d 7 7 7 e ",
"+ # y.j d 6 ( < 3 c g } i i i } * % < 5 ( f k d j a 9 a t e d d + ' k 6 _ ( ( ( _ _ ( ( / ( _ q.G ~ f.( ( _ 6 7 d t.e e j t 9 9 ",
"+ # d k 6 6 f ( < 2 i h h h | } $ $ 5 _ f 6 6 k 7 /.a 9 9 t e 7   + 6 f _ _ _ f 6 6 _ / < y 5 ( x.' _ ( / ( f k 7 d n.j a (.z.0.",
"& @ 6 _ _ f 6 f 5 c i l l | } g & & ( 6 k k 6 f f k e a 9 a e k & @ _ _ _ f 6 a.7 7 6 / y A.< / v.+ f _ ( 5.f.f 4.7 d t 0 z.B.0.",
"#   _ / / _ C.f / 3 } | | } 2 3 ' ' f k 7 k 6 _ ( _ k e j j d 6 & # / f.f k 7 d n.d k _ / < < / # & 6 f _ ( ( ( b.4.d t 0 0.D.9 ",
"$ . ( / / ( ( ( / < 3 2 2 c 4 5 G G 6 k k 6 f ( / / ( f 4.k 6 b.  # / ( 6 7 t.e e d 7 k f _ ( / |.& 6 4.6 _ ( / ( 6 d t a a t e ",
"& . ~ G ~ ' + @ % ^ ^ * # & + ' ' ' + @ $ * A % $ #   ' ~ ' +     & # E.# & w.. . ' ~ ~ . & l.{   & @ & . ~ ' . w.F..   # # @ & ",
". + + ' G ' @ % % # $ % $   ' '   &   & # * % # & & &   . .   & &   & @ # & G.. + + . H..   & + G.  @ @ + ' .   + ' ~ + # # &   ",
"4 / _ _ / 4 c c # & 7 j j j e e e d k X ( / / / + + 2 | l h } 3 5 _ f 6 k 7 [.d   & j y.9 9 t t.k _ ( _ f 6 k k + . _ / < 4 4 i.",
"4 5 / / 5 4 3 4 & & d t 9 0 9 t e 7 f ( / n 5 5 + + m h V V | 2 5 b.k 7 a.k k 7 & & t a 9 9 a j d 6 _ ( _ 6 7 d G.  / 4 c 2 c 3 ",
"4 4 4 4 4 < 5 / +   7 j 0 (.(.a e 6 _ : / / 5 4     } | h h | g < _ k 7 7 k 6 k # @ r.t t t t I.e a.f f._ 6 d e   & 5 c 2 2 c 3 ",
"4 3 2 2 3 5 ( f 3.. 6 d a 0 0 t 7 f ( / / 5 < c + & } g g g g <.4 ( 6 7 7 k 6 6 $ $ e e e t.e e e d k 6 f 6 7 d @   5 3 c c p.p.",
"3 2 g s 3 / f 6 + ~ 6 k d j j d k _ ( / / < 3 2 + & 2 3 < < < 4 < / f 6 k k k 6 # $ a.k k 6 4.k [.d d [.7 k 6 6 #   ( J.< 4 3 c ",
"c 2 g c 4 / f 6 + ' N f f f f f _ _ ( / < 3 2 g   @ 3 5 _ f f _ ( / ( _ 6 k k k   & _ f.( ( ( b.4.d /.j e 7 f _ @ & f f _ / < 3 "};
