/* XPM */
static char * greystone_xpm[] = {
"64 64 7 1",
" 	c #9A927A",
".	c #3A342A",
"+	c #BEB69E",
"@	c #A39B83",
"#	c #D0C8B0",
"$	c #B5AD95",
"%	c #ACA48C",
" ......++++++.........@@@@@@.......##$$$$$......$..#.....       ",
"..............................#.................................",
"..###.........##..##......######..#.....########..#....#####...#",
"..##############..##############..##############..##############",
"..######        ..######%%%%%##%..######++++++++..######@@@@@@@@",
"...##            ..##%%%%%%%%%%%%.###+++++++++++..###@@@@@@@@@@@",
"...##             .##%%%%%%%%%%%%..#++++++++++++...##@@@@@@@@@@@",
"@..##             .#%%%%%%%%%%%%%..#++++++++++++...#@@@@@@@@@@@@",
"@..##             .#%%%%%%%%%%%%%..#++++++++++++..##@@@@@@@@@@@@",
"...##             .#%%%%%%%%%%%%%.##++++++++++++..##@@@@@@@@@@@@",
"...##            ..#%%%%%%%%%%%%%.##++++++++++++..##@@@@@@@@@@@@",
"..###            ..#%%%%%%%%%%%%%.##++++++++++++.###@@@@@@@@@@@@",
"..###            .##%%%%%%%%%%%%%.##++++++++++++.###@@@@@@@@@@@@",
"..##             .##%%%%%%%%%%%%..##++++++++++++..##@@@@@@@@@@@@",
"..##            ..##%%%%%%%%%%%%..##++++++++++++..##@@@@@@@@@@@@",
"..##            ..##%%%%%%%%%%%%...#+++++++++++++..#@@@@@@@@@@@@",
".......      .........%%%%%%.......#...++++.....+.......@@@@@...",
"..............................#.................................",
"..####........##.###......######..#.....#######.......######....",
"..##############.####...########..##...##%%%#####..######+######",
"..##$$########$$.#########      ...#####%%%%%%###..###++++++####",
"+.##$$$$$$$$$$$$..###           ...###%%%%%%%%%%%..##+++++++++++",
"+..#$$$$$$$$$$$$..###           ...##%%%%%%%%%%%%%.##+++++++++++",
"+..#$$$$$$$$$$$$$..#             ..##%%%%%%%%%%%%%.#++++++++++++",
"+..#$$$$$$$$$$$$$..#             ..##%%%%%%%%%%%%..#++++++++++++",
"+..#$$$$$$$$$$$$$..#             ..#%%%%%%%%%%%%%..#++++++++++++",
"..###$$$$$$$$$$$$.##             .##%%%%%%%%%%%%..##++++++++++++",
"..###$$$$$$$$$$$$.##             .##%%%%%%%%%%%%..##++++++++++++",
"..###$$$$$$$$$$$$.##             .#%%%%%%%%%%%%%.###++++++++++++",
"..###$$$$$$$$$$$$..#             .#%%%%%%%%%%%%%.###++++++++++++",
"...##$$$$$$$$$$$$..#             .#%%%%%%%%%%%%%..##++++++++++++",
"...##$$$$$$$$$$$$..# ..          .#...%%%%%%%%%%..##+++++++++...",
"...##$$$$$......$..#.....        ......%%%%%%.........++++++....",
"..............................................................#.",
"..#.....########..#....#####...#..###.........##..##......######",
"..##############..##############..##############..##############",
"..######@@@@@@@@..######$$$$$$$$..######        ..######%%%%%##%",
"%.###@@@@@@@@@@@..###$$$$$$$$$$$...##            ..##%%%%%%%%%%%",
"%..#@@@@@@@@@@@@...##$$$$$$$$$$$...##             .##%%%%%%%%%%%",
"%..#@@@@@@@@@@@@...#$$$$$$$$$$$$$..##             .#%%%%%%%%%%%%",
"%..#@@@@@@@@@@@@..##$$$$$$$$$$$$$..##             .#%%%%%%%%%%%%",
"%.##@@@@@@@@@@@@..##$$$$$$$$$$$$...##             .#%%%%%%%%%%%%",
"%.##@@@@@@@@@@@@..##$$$$$$$$$$$$...##            ..#%%%%%%%%%%%%",
"%.##@@@@@@@@@@@@.###$$$$$$$$$$$$..###            ..#%%%%%%%%%%%%",
"%.##@@@@@@@@@@@@.###$$$$$$$$$$$$..###            .##%%%%%%%%%%%%",
"..##@@@@@@@@@@@@..##$$$$$$$$$$$$..##             .##%%%%%%%%%%%%",
"..##@@@@@@@@@@@@..##$$$$$$$$$$$$..##            ..##%%%%%%%%%%%%",
"...#@@@@@@@@@@@@@..#$$$$$$$$$$$$..##            ..##%%%%%%%%%%%%",
"...#...@@@@.....@.......$$$$$..........      .........%%%%%%....",
"..............................................................#.",
"..#.....#######.......######......####........##.###......######",
"..##...##+++#####..######@######..##############.####...########",
"...#####++++++###..###@@@@@@####..##$$########$$.#########      ",
"...###+++++++++++..##@@@@@@@@@@@@.##$$$$$$$$$$$$..###           ",
"...##+++++++++++++.##@@@@@@@@@@@@..#$$$$$$$$$$$$..###           ",
" ..##+++++++++++++.#@@@@@@@@@@@@@..#$$$$$$$$$$$$$..#            ",
" ..##++++++++++++..#@@@@@@@@@@@@@..#$$$$$$$$$$$$$..#            ",
" ..#+++++++++++++..#@@@@@@@@@@@@@..#$$$$$$$$$$$$$..#            ",
" .##++++++++++++..##@@@@@@@@@@@@..###$$$$$$$$$$$$.##            ",
" .##++++++++++++..##@@@@@@@@@@@@..###$$$$$$$$$$$$.##            ",
" .#+++++++++++++.###@@@@@@@@@@@@..###$$$$$$$$$$$$.##            ",
" .#+++++++++++++.###@@@@@@@@@@@@..###$$$$$$$$$$$$..#            ",
" .#+++++++++++++..##@@@@@@@@@@@@...##$$$$$$$$$$$$..#            ",
" .#...++++++++++..##@@@@@@@@@......##$$$$$$$$$$$$..# ..         "};
