/* XPM */
static char * red_xpm[] = {
"64 64 12 1",
" 	c #3C2614",
".	c #E2B076",
"+	c #C48C4E",
"@	c #CE9658",
"#	c #B27A40",
"$	c #BC844A",
"%	c #BA8244",
"&	c #A87036",
"*	c #B0824C",
"=	c #A67842",
"-	c #9C6E38",
";	c #8A5C2A",
"  ..+++++++++@@@  ..########$###  ..%%%%+++++%%%  ..########&&&#",
"  ..++++++++@@@@  ..$###########  ..%%%%%+++%%%%  ..#######&&&&#",
"  ..++++++++@@@@  ..$###########  ..%%%%%%%%%%%%  ..#######&&&##",
"  ..++++++@@@@@@  ..$$#########&  ..%%%%%%%%%%%%  ..#######&&###",
"  ..++++@@@@@@    ..$$$$######&&  ..%%%%%%%%%%%+  ..############",
"  ..++++@@@@@ **  ..$$$$####&&&&  ..++%%%%%%%+++  ..#&&&&&##### ",
"  ..++++@@@@@ ==  ..$$$$###&&&&&  ..+++%%%%%++++  ..#&&&&&##### ",
"  ..++++@@@@@ ==  ..#$$####&&&&&  ..++++%%%+++++  ..#&&&&###### ",
"  ..++++@@@@++    ..######&&&&&&  ..++++++++++@@  ..#&&&&#######",
"  ..++++++++++++  ..######&&&&&#  ..+++++++++@@@  ..############",
"  ..++++++++++++  ..##&&&&&&&###  ..++++@@@@@@@@  ..############",
"  ..++++++%%%+++  ..&&&&&&&#####  ..++@@@@@@@@@@  ..#########&&&",
"  ..++++%%%%%%++  ..&&&&&&&#####  ..++@@@@@@@@@+  ..#$$#####&&&&",
"  ..+++%%%%%%%++  ..&&&&&&&#####  ..++@@@@@@@@@+  ..$$$$###&&&&#",
"  ..+++%%%%%%%++  ..&&&&&&######  ..+@@@@@@@@@++  ..#$$#####&&&#",
"  ..+++%%%%%%%%%  ..&&&&&&######  ..+@@@@@@@@@++  ..############",
"  ..+++++%%%%%%%  ..&&&&&#######  ..@@@  @@@@+++  ..############",
"  ..+++++++++%%%  ..&&&#########  ..@@ *= ++++++  ..############",
"  ..++++++++++%%  ..############  ..@ === ++++++  ..##&&########",
"  ..++++++++++%%  ..############  ..@ === %%++++  ..&&&&&###$$$#",
"  ..++++@@@++++%  ..############  ..++   %%%%%++  ..&&&&&###$$$$",
"  ..+++@@@@+++++  ..##$$########  ..+++%%%%%%%%+  ..&&&&&###$$$#",
"  ..++@@@@@+++++  ..#$$$########  ..++%%%%%%%%%%  ..&&&&########",
"  ..@@@@++++++++  ..############  ..+%%%%%%%%%%%  ..&&&#########",
"  ..@@@+++++++@@  ..#######$$$##  ..%%%%%%%%%%%%  ..&###########",
"  ..@@++++++++@@  ..######$$$$$#  ..%%%%%%%%%%%%  ..############",
"  ..@@++++++++@@  ..######$$$$$#  ..%%%%%%%%%%%%  ..############",
"  ..@+++++++++@@  ..######$$$$##  ..%%%%+++%%%%%  ..############",
"  ..++++++++++    ..######$$$###  ..%%%%+++%%%%%  ..############",
"  ..+++++++++ ==  ..############  ..++++++++++++  ..############",
"  ..%%%%++++ ==   ..############  ..++++++++++++  ..############",
"  ..%%%%+++++  %  ..############  ..+++++++++++@  ..############",
"  ..%%%%+++++%%%  ..########&&&#  ..+++++++++@@@  ..########$###",
"  ..%%%%%+++%%%%  ..#######&&&&#  ..++++++++@@@@  ..$###########",
"  ..%%%%%%%%%%%%  ..#######&&&##  ..++++++++@@@@  ..$###########",
"  ..%%%%%%%%%%%%  ..#######&&###  ..++++++@@@@@@  ..$$#########&",
"  ..%%  %%%%%%%+  ..#  #########  ..++++@@@@@@@@  ..$$$$######&&",
"  ..+ -- %%%%+++  .. ;; &&######  ..++++@@@@@@@@  ..$$$$####&&&&",
"  ..+ =- %%%++++  .. ;; &&######  ..++++@@@@@@++  ..$$$$###&&&&&",
"  ..++  %%%+++++  ..#  &&#######  ..++++@@@@@+++  ..#$$####&&&&&",
"  ..++++++++++@@  ..#&&&&#######  ..++++@@@@++++  ..######&&&&&&",
"  ..+++++++++@@@  ..############  ..++++++++++++  ..######&&&&&#",
"  ..++++@@@@@@@@  ..############  ..++++++++++++  ..##&&&&&&&###",
"  ..++@@@@@@@@@@  ..#########&&&  ..++++++%%%+++  ..&&&&&&&#####",
"  ..++@@@@@@@@@+  ..#$$#####&&&&  ..++++%%%%%%++  ..&&&&&&&#####",
"  ..++@@@@@@@@@+  ..$$$$###&&&&#  ..+++%%%%%%%++  ..&&&&&&&#####",
"  ..+@@@@@@@@@++  ..#$$#####&&&#  ..+++%%%%%%%++  ..&&&&&&######",
"  ..+@@@@@@@@@++  ..############  ..+++%%%%%%%%   ..&&&&&&######",
"  ..@@@@@@@@@+++  ..############  ..+++++%%%%  -  ..&&&&&#######",
"  ..@@@@++++++++  ..############  ..++++++++ ---  ..&&&#########",
"  ..@@++++++++++  ..##&&########  ..++++++++ =--  ..############",
"  ..@++++%%%++++  ..&&&&&###$$$#  ..++++++++ =--  ..############",
"  ..++++%%%%%%++  ..&&&&&###$$$$  ..++++@@@++     ..############",
"  ..+++%%%%%%%%+  ..&&&&&###$$$#  ..+++@@@@+++++  ..##$$########",
"  ..++%%%%%%%%%%  ..&&&&########  ..++@@@@@+++++  ..#$$$########",
"  ..+%%%%%%%%%%%  ..&&&#########  ..@@@@++++++++  ..############",
"  ..%%%%%%%%%%%%  ..&###########  ..@@@ ++++++@@  ..#######$$$##",
"  ..%%%%%%%%%%%%  ..############  ..@@ = +++++@@  ..######$$$$$#",
"  ..%%%%%%%%%%%%  ..############  ..@ == +++++@@  ..######$$$$$#",
"  ..%%%%+++%%%%%  ..############  ..@+  ++++++@@  ..######$$$$##",
"  ..%%%%+++%%%%%  ..############  ..++++++++++++  ..######$$$###",
"  ..++++++++++++  ..############  ..++++++++++++  ..############",
"  ..++++++++++++  ..############  ..%%%%++++++++  ..############",
"  ..+++++++++++@  ..############  ..%%%%++++++%%  ..############"};
