/* XPM */
static char * eagle_xpm[] = {
"64 64 6 1",
" 	c #232624",
".	c #A8B0A8",
"+	c #6B736D",
"@	c #78807A",
"#	c #858D87",
"$	c #609646",
"                                                                ",
"                                                                ",
"                                                                ",
"   ............    ............    ............    ............ ",
"   .+@@@@##@@@#    .@@@@+++++++    .@@###$@@###    .@@@+++@$$$@ ",
"   .+@@@###@@@#    .@@@+++++++@    .@###$$$@@@@    .@@@+++$$$$@ ",
"   .+@@@@#@@@@@    .@@@++++++@@    .@@#$$$@@@@@    .@@@++@$$$@@ ",
"                                                                ",
"                                                                ",
"                                                                ",
"                                                                ",
".......    ............    ............    ............    .....",
"@###@@@    .@++++++++@@    .@######@@@@    .+@@++++@@##    .@@@@",
"@@#@@@@    .+++++++++@@    .######@@@@@    .+@@++$$$@@@    .@@@@",
"@@@@@@@    .++++++++@@@    .###$$@@@@@@    .@@@@@$$$@@@    .@@@@",
"                                                                ",
"                                                                ",
"                                                                ",
"                                                                ",
"   ............    ............    ............    ............ ",
"   .@@@@@@@@@@@    .@@@@@@+++++    .@@@@@@#####    .@@@++++++++ ",
"   .@@@@@@@@@##    .@@@@@@+++++    .@@@@@@#####    .@@@+++++$$+ ",
"   .@@@+@@@@@##    .@@@@@@@++++    .@@@@@$$####    .@@@@@@@$$$+ ",
"                                                                ",
"                                                                ",
"                                                                ",
"                                                                ",
".......    ............    ............    ............    .....",
"@@@@@@@    .+++@@@@@@@@    .#####@@@@@@    .++++++@@@@@    .###@",
"@@@@@@@    .+++@@@@@@@@    .@####@@@@@@    .++++++@@@@@    .##@@",
"@@@@@@@    .@@@@@@@@@@@    .@@#####@@@@    .++++++@@@@@    .#@@@",
"                                                                ",
"                                                                ",
"                                                                ",
"                                                                ",
"   ............    ............    ............    ............ ",
"   .@@@#####@@@    .@@@@@@++@@@    .@@@@@@@@###    .#@@++++++++ ",
"   .@@#####@@@@    .@@@@@@@@@@@    .+@@@@@@@###    .#@+++++++++ ",
"   .@@@####@@@@    .@@@@@@@@@@@    .+@@@@@@@@@@    .@@+++++@@@+ ",
"                                                                ",
"                                                                ",
"                                                                ",
"                                                                ",
".......    ............    ............    ............    .....",
"####@@+    .+++++++@@@#    .@@@@@@@@@@@    .@@@+++++@@@    .####",
"####@@+    .+++@@@@@@@@    .@@@@@@@@@@@    .@@++++++@@@    .####",
"@@@@@@+    .+++@@@@@@@@    .@@@@@@@@@@@    .+++++++@@@@    .####",
"                                                                ",
"                                                                ",
"                                                                ",
"                                                                ",
"   ............    ............    ............    ............ ",
"   .@@@@@######    .@@@@+++++++    .@@@@@@@@###    .@@@@@@@++++ ",
"   .@@@@@######    .@@@@@@+++++    .@@@@@@@@###    .@@@@@@@++++ ",
"   .@@@@@@#####    .++@@@@@++++    .@@@@@@@@@##    .@@@@@@@++++ ",
"                                                                ",
"                                                                ",
"                                                                ",
"                                                                ",
".....$.    ............    ............    ............    .....",
"@@@@$$$    .+++++@@@@@@    .####@@@@@@@    .++++@@@@@@@    .####",
"@###$$@    .+++++@@@@@@    .####@@@@@@@    .@@@@@@@@@@@    .####",
"@###@@@    .+++++@@@@@@    .@@@@@@@@@@@    .@@@@@@@@@@@    .@@@#",
"                                                                "};
