/* XPM */
static char * S_xpm[] = {
"64 64 6 1",
" 	c #463422",
".	c #E8CA98",
"+	c #D1AD79",
"@	c #C4A06C",
"#	c #B7935F",
"$	c #8CA050",
"                                                                ",
"                                                                ",
"                                                                ",
"   ............    ............    ............    ............ ",
"   .++++++@@@++    .#@######@@@    .@@+++++@@@@    .####$$@@@@# ",
"   .+++++++++@@    .#########@@    .++$$$+++@@@    .###$$$###@@ ",
"   .+++++++++@@    .#########@@    .+++$++++++@    .###$$####@@ ",
"                                                                ",
"                                                                ",
"                                                                ",
"                                                                ",
".......    ............    ............    ............    .....",
"@@@+@@+    .@@@@@##@@@@    .@@@@+++@@@@    .@@@@$@@@@##    .@@@@",
"@@@@+++    .@@@@@@@@@@@    .@@@+++@@@@@    .@#@$$@@@@##    .@@@@",
"@@@@++@    .@@@@@@@@@@@    .@@@++@@@@@@    .@@#@@@@@@@#    .@@@@",
"                                                                ",
"                                                                ",
"                                                                ",
"                                                                ",
"   ............    ............    ............    ............ ",
"   .#####@@@@@@    .+++@@++++@@    .#########@@    .++++++@@@@@ ",
"   .######@@@##    .+++++++++@@    .#########@@    .++++++++++@ ",
"   .######@@@$@    .+++++++@@++    .########@@@    .+++++++++@@ ",
"                                                                ",
"                                                                ",
"                                                                ",
"                                                                ",
".......    ............    ............    ............    .....",
"@@@@###    .@@@@@@@+++@    .@@@@@@@@###    .@@+@@@@@+++    .@@@@",
"@@@@###    .@@@@@+++@$$    .@@@@@@@@@@@    .@@@@@@@@@++    .@@@@",
"@@@@$$#    .@@@@@+++@$$    .@@@@@##@@@@    .@@@@@@@@@@@    .@@@@",
"                                                                ",
"                                                                ",
"                                                                ",
"                                                                ",
"   ............    ............    ............    ............ ",
"   .++++++@@@++    .###@@#####@    .@@++++++@@@    .@######@@@@ ",
"   .++++++++$$+    .###@@#####@    .+++++++++@@    .########@@@ ",
"   .+++++++++@@    .#########@@    .+++++++++@@    .#########@@ ",
"                                                                ",
"                                                                ",
"                                                                ",
"                                                                ",
".......    ............    ............    ............    .....",
"@@@+@++    .@@@@@@###@@    .@@@@@@@@@@+    .@@@@@@@@@@#    .@@@@",
"@@@@+++    .@@@@@@###@@    .@@@@@@@@@@@    .@@@@@@@@@##    .@@@@",
"@@@@+++    .@@@@@@###@@    .@@@@+@@@@@@    .@@##@@@@@@@    .@@@@",
"                                                                ",
"                                                                ",
"                                                                ",
"                                                                ",
"   ............    ............    ............    ............ ",
"   .####@@@####    .+++@@@++++@    .@@@######@@    .++++++++@@@ ",
"   .##########@    .++++++++++@    .@@######@@@    .@+++++++@@@ ",
"   .########@@@    .+++++++++@@    .########@@@    .@++++++@@@@ ",
"                                                                ",
"                                                                ",
"                                                                ",
"                                                                ",
".......    ............    ............    ............    .....",
"@@@####    .@@@@@@@++++    .@@@@@@@@@#@    .@@@@@@@@+++    .@@@@",
"@@@####    .@@@@@@+++@@    .@$$@##@@@@@    .@@@@@@@@@@@    .@@@@",
"$@@##@@    .@@$@@+++@@@    .@$$$###@@@@    .@@@++@@@@@@    .#@@@",
"                                                                "};
