/* XPM */
static char * purplestone_xpm[] = {
"64 64 12 1",
" 	c #2A1A0E",
".	c #B0804E",
"+	c #82522A",
"@	c #8C5C34",
"#	c #704420",
"$	c #7A4E2A",
"%	c #96663E",
"&	c #785232",
"*	c #5C3A1E",
"=	c #523014",
"-	c #845834",
";	c #6E4828",
"  ..+++++++++@@@  ..#########$$$  ..%%%%%%%%%%%%  ..$$$$$$$$$$$#",
"  ..++++++++++++  ..########$$$$  ..%%%%%%%%%%%%  ..$$$$$$$$$$$#",
"  ..++++++++++++  ..########$$$$  ..%%%%%%%%%%%%  ..$$$$$$$$$$##",
"  ..++++++++++++  ..######$$$$$$  ..%%%%%   %%%%  ..$$$$$$$$$$##",
"  ..++++++++++++  ..####$$$$$$$$  ..%%%% &&& %%%  ..$$$$$$$$$###",
"  ..@+++++++++++  ..###$$$$$$$$$  ..%%%% &&& %%%  ..$$$$$$$$####",
"  ..@@++++++++++  ..##$$$$$$$$$$  ..%%%%%   %%%%  ..$$$$$$######",
"  ..@@++++++++++  ..##$$$$$$$$$$  ..%%%%%%%%%%%%  ..$$$$$#######",
"  ..@@@@++++++++  ..##$$$$$$$$$$  ..%%%%%%%%%%%%  ..$$$$########",
"  ..@@@@@+++++++  ..#$$$$$$$$$$$  ..@@@%%%%%%%%%  ..$$$$########",
"  ..@@@@@@++++++  ..#$$$$$$$$$$$  ..@@@@@@@@@@@@  ..$$$$########",
"  ..@@@@@@@@++++  ..#$$$$$$$$$$$  ..@@@@@@@@@@@@  ..$$$$#######$",
"  ..@@@@@@@@@@@+  ..$$$$$$$$$$$$  ..@@@@@@@@@@@@  ..$$$$#######$",
"  ..@@@@@@@@@@@@  ..$$$$$$$$$$$$  ..@@@@@@@@@@@@  ..$$$$#####$$$",
"  ..@@@@@@@@@@@@  ..$$$$$$$$$$$$  ..@@@@++++++++  ..$$  $$$$$$$$",
"  ..@@@@@@@@@@@@  ..$$$$$$$$$$$$  ..@@++++++++++  ..# ** $$$$$$$",
"  ..@@@@@@@%@@@@  ..$$$$$$$$$$$$  ..@@++++++++++  .. =** $$$$$$$",
"  ..@@@@@%%%%%%%  ..$$$$$$$$$$$$  ..@+++++++++++  .. =** $$$$$$$",
"  ..@@@@@%%%%%%%  ..$$$$$$$$$$$$  ..@+++++++++++  ..#   $$$$$$$$",
"  ..@@@@@@%%%%%%  ..-$$$$$$$$$$$  ..@+++++++++++  ..###$$$$$$$--",
"  ..@@@@@@%%%%%%  ..--$$$$$$$$$$  ..@+++++++++++  ..###$$$$$$---",
"  ..@@@@@@@%%%%%  ..---$$$$$$$$$  ..++++++++++++  ..###$$$$$----",
"  ..@@@@@@@%%%%%  ..---$$$$$$$$$  ..++++++++++++  ..##$$$$$-----",
"  ..@@@@@@@@%%%%  ..----$$$$$$$$  ..++++++++++++  ..##$$$$$-----",
"  ..@@@@@@@@@%%%  ..----$$$$$$$$  ..++++++++++++  ..##$$$$$$----",
"  ..@@@@@@@@@@@%  ..----$$$$$$$$  ..++++++++++++  ..#$$$$$$$----",
"  ..@@@@@@@@@@@@  ..----$$$$$$$$  ..+++@@@@@@@++  ..$$$$$$$$$---",
"  ..@@@@@@@@@@@@  ..----$$$$$$$$  ..+@@@@@@@@@@@  ..$$$$$$$$$$--",
"  ..@@@@@@@@@@@@  ..$$$$$$$$$$$$  ..@@@@@@@@@@@@  ..$$$$$$$$$$$$",
"  ..@@@@@@@@@@@@  ..$$$$$$$$$$$$  ..@@@@@@@@@@@@  ..$$$$$$$$$$$$",
"  ..@@@@@@@@@@@@  ..$$$$$$$$$$$$  ..@@@@@@@@@@@%  ..$$$$$$$$$$$$",
"  ..@@@@@@@@@@@@  ..$$$$$$$$$$$$  ..@@@@@@@@@%%%  ..-$$$$$$$$$ $",
"  ..@@@@@@@@@+++  ..$$$$$$$$$$$$  ..@@@@@@@@%%%%  ..---$$$$$$ * ",
"  ..@@@@@@@@@+++  ..$$$$$$$$$$$$  ..@@@@@@@%%%%%  ..---$$$$$$$ $",
"  ..+@@@@@@@@+++  ..#$$$$$$$$$$$  ..@@@@@@@%%%%%  ..----$$$$$$$#",
"  .. +@@@@@@@@++  ..##$$$$$$$$$$  ..@@@@@@%%%%%%  ..----$$$$$$##",
"  .. +@@@@@@@@@+  ..###$$$$$$$$$  ..@@@@@%%%%%%%  ..-----$$$$$# ",
"  .. +@@@@@@@@@@  ..#####$$$$$$$  ..@@%%%%%%%%%%  ..-----$$$$$# ",
"  ..++@@@@@@@@@@  ..######$$$$$$  ..%%%%%%%%%%%%  ..-----$$$$$# ",
"  ..+@@@@@@@@@@@  ..#######$$$$$  ..%%%%%%%%%%%%  ..-----$$$$$$#",
"  ..@@@@@@@@@@@@  ..########$$$$  ..%%%%%%%%%%%%  ..----$$$$$$$#",
"  ..@@@@@@@@@@@@  ..$########$$$  ..@%%%%%%%%@@@  ..$$$$$$$$$$$$",
"  ..@@@@@@@@@@@@  ..$$########$$  ..@@%%%%%@@@@@  ..$$$$$$$$$$$$",
"  ..@@@@@@@@@@@@  ..$$$########$  ..@@@@@@@@@@@@  ..$$$$$$$$$$$$",
"  ..@@@@@@@@@@@@  ..$$$$########  ..@@@@@@@@@@@@  ..$$$$$$$$$$$$",
"  ..@@@@@@@@@@@@  ..$$$$$#######  ..@@@@@@@@@@@@  ..$$$$$$$$$$$$",
"  ..%%@@@@@@@@@@  ..$$$$$$######  ..@@@@@@@@@@@@  ..$$$$$$$$$$$$",
"  ..%%%%@@@@@@@@  ..$$$$$$$#####  ..@@@@@@@@@@@@  ..###$$$$$$$$$",
"  ..%%%%%%@@@@@@  ..$$$$$$$$$###  ..@@@@@@@@@@@@  ..#####$$$$$$$",
"  ..%%%%%%%@@@@@  ..$$$$$$$$$$##  ..+++@@@@@@@@@  ..######$$$$$$",
"  ..%%%%%%  @@@@  ..$$$$$$$$$$$$  ..++++++@@@@@@  ..#######$$$$$",
"  ..%%%%% &; @@@  ..$$$$$$$$$$$$  ..++++++++@@@@  ..########$$$$",
"  ..%%%% &&& @@@  ..$$$$$$$$$$$$  ..+++++++++++@  ..########$$$$",
"  ..%%%% &&; @@@  ..$$$$$$$$$$$$  ..++++++++++++  ..########$$$$",
"  ..%%%%%   @@@@  ..$$$$$$$$$$$$  ..++++++++++++  ..########$$$$",
"  ..%%%%%%@@@@@@  ..$$$$$$$$$$$$  ..@+++++++++++  ..########$$$$",
"  ..@@@@@@@@@@@@  ..$$$$$$$$$$$$  ..@@++++++++++  ..$$$#####$$$$",
"  ..@@@@@@@@@@@@  ..$$$$$$$$$$$$  ..@@@@++++++++  ..$$$$$$$$$$$$",
"  ..@@@@@@@@@@@@  ..$$$$$$$$$$$$  ..@@@@@@++++++  ..$$$$$$$$$$$$",
"  ..@@@@@@@@@@@@  ..$$$$$$$$$$$-  ..@@@@@@@@@++@  ..$$$$$$$$$$$$",
"  ..+++++@@@@@@@  ..$$$$$$$$$$$-  ..@@@@@@@@@@@@  ..$$$$$$$$$$$$",
"  ..++++++++@@@@  ..$$$$$$$$$$$-  ..%%@@@@@@@@@@  ..$$$$$$$$$$$$",
"  ..+++++++++@@@  ..$$$$$$$$$$$-  ..%%%%@@@@@@@@  ..$$$$$$$$$$$$",
"  ..++++++++++@@  ..$$$$$$$$$$$-  ..%%%%%@@@@@@@  ..$$$$$$$$$$$$"};
