/* XPM */
static char * S_xpm[] = {
"64 64 214 2",
"  	c #706A5C",
". 	c #48443A",
"+ 	c #908A7C",
"@ 	c #908A7B",
"# 	c #90897B",
"$ 	c #8F897B",
"% 	c #8F887A",
"& 	c #49453B",
"* 	c #817B6C",
"= 	c #807A6C",
"- 	c #807A6B",
"; 	c #7F796A",
"> 	c #7E7869",
", 	c #7C7668",
"' 	c #474339",
") 	c #817B6D",
"! 	c #827C6E",
"~ 	c #847E71",
"{ 	c #888274",
"] 	c #8A8577",
"^ 	c #8B8678",
"/ 	c #464239",
"( 	c #464238",
"_ 	c #827C6F",
": 	c #6E685A",
"< 	c #464339",
"[ 	c #787265",
"} 	c #797365",
"| 	c #787264",
"1 	c #756F61",
"2 	c #736D5F",
"3 	c #726C5E",
"4 	c #49443A",
"5 	c #49453A",
"6 	c #8E887A",
"7 	c #8E8879",
"8 	c #7A7465",
"9 	c #847E6F",
"0 	c #7E7769",
"a 	c #70695B",
"b 	c #7A7466",
"c 	c #736C5E",
"d 	c #7B7466",
"e 	c #857E70",
"f 	c #7E786A",
"g 	c #7B7567",
"h 	c #857F71",
"i 	c #938E80",
"j 	c #928C7E",
"k 	c #8D8779",
"l 	c #8A8477",
"m 	c #857F72",
"n 	c #837D6F",
"o 	c #6F695B",
"p 	c #7D776A",
"q 	c #7D7769",
"r 	c #746E60",
"s 	c #797264",
"t 	c #7C7667",
"u 	c #777062",
"v 	c #726B5D",
"w 	c #716B5C",
"x 	c #7F786A",
"y 	c #8C8678",
"z 	c #8A8476",
"A 	c #868072",
"B 	c #827B6D",
"C 	c #7B7566",
"D 	c #898375",
"E 	c #938D7F",
"F 	c #918B7E",
"G 	c #807A6D",
"H 	c #736E60",
"I 	c #797466",
"J 	c #7F796B",
"K 	c #746E5F",
"L 	c #787263",
"M 	c #7D7768",
"N 	c #756F60",
"O 	c #6F695A",
"P 	c #827C6D",
"Q 	c #837D6E",
"R 	c #857F70",
"S 	c #888273",
"T 	c #8B8476",
"U 	c #8B8577",
"V 	c #777163",
"W 	c #767062",
"X 	c #918B7D",
"Y 	c #908A7D",
"Z 	c #736D5E",
"` 	c #787163",
" .	c #7C7567",
"..	c #716B5D",
"+.	c #4A453B",
"@.	c #847E70",
"#.	c #868071",
"$.	c #8A8475",
"%.	c #8B8576",
"&.	c #8E897B",
"*.	c #716A5C",
"=.	c #726C5D",
"-.	c #4A463B",
";.	c #878172",
">.	c #878072",
",.	c #8C8779",
"'.	c #817B6E",
").	c #847F71",
"!.	c #746D5F",
"~.	c #797364",
"{.	c #878173",
"].	c #858072",
"^.	c #767061",
"/.	c #777162",
"(.	c #766F61",
"_.	c #756E60",
":.	c #7A7365",
"<.	c #80796B",
"[.	c #868173",
"}.	c #898376",
"|.	c #4A463C",
"1.	c #817A6C",
"2.	c #7D7668",
"3.	c #837C6E",
"4.	c #847D6F",
"5.	c #8C8677",
"6.	c #7C7669",
"7.	c #938C7E",
"8.	c #8F897A",
"9.	c #958F80",
"0.	c #888173",
"a.	c #948E80",
"b.	c #898374",
"c.	c #958F81",
"d.	c #898274",
"e.	c #979183",
"f.	c #706A5B",
"g.	c #928B7D",
"h.	c #918B7C",
"i.	c #8A8375",
"j.	c #8D8778",
"k.	c #8E8779",
"l.	c #8C8577",
"m.	c #867F71",
"n.	c #878174",
"o.	c #8D8678",
"p.	c #6D6758",
"q.	c #6C6658",
"r.	c #7C7769",
"s.	c #7A7567",
"t.	c #787365",
"u.	c #969082",
"v.	c #7D786A",
"w.	c #777164",
"x.	c #908B7D",
"y.	c #888275",
"z.	c #837D70",
"A.	c #898476",
"B.	c #8D877A",
"C.	c #7E786B",
"D.	c #7A7467",
"E.	c #7B7568",
"F.	c #8B8578",
"G.	c #827D6F",
"H.	c #716B5E",
"I.	c #797366",
"J.	c #7B7668",
"K.	c #777264",
"L.	c #6E685B",
"M.	c #6D6759",
"N.	c #6B6658",
"O.	c #6B6558",
"P.	c #6F695C",
"Q.	c #6C6659",
"R.	c #756F62",
"S.	c #736D60",
"T.	c #7F796C",
"U.	c #817C6E",
"V.	c #716C5E",
"W.	c #6B6557",
"X.	c #6D685A",
"Y.	c #6F6A5C",
"Z.	c #726C5F",
"`.	c #454238",
" +	c #746E61",
".+	c #807B6D",
"++	c #454138",
"@+	c #767163",
"#+	c #6E695B",
"$+	c #706A5D",
"%+	c #706B5D",
"&+	c #726D5F",
"*+	c #6C6759",
"=+	c #767063",
"-+	c #6D675A",
";+	c #454137",
">+	c #7E796B",
",+	c #757062",
"'+	c #837E70",
")+	c #746F61",
"!+	c #6A6557",
"~+	c #6A6456",
"{+	c #686255",
"]+	c #696356",
"^+	c #696456",
"/+	c #7F7A6C",
"(+	c #878274",
"_+	c #868073",
":+	c #686254",
"<+	c #696355",
"[+	c #686355",
"}+	c #676153",
"|+	c #948D7F",
"1+	c #6A6457",
"  . . . . . . + @ # # $ % & & & & & & & & & * = - ; > , . . . . . ' ' ) ) ! ~ { ] ^ / ( ( ( ( ( _ ( ( : ( ( / / < [ } | 1 2 3 3 ",
". . . . . . . 4 5 6 7 & & & & & & 8 , & & & & 9 ! 4 . . . 0 , . . . ' ' ' ' ' ' ' ' < / / / ( ( ( ( ( / / / < ' ' ' ' ' ' ' ' . ",
". . a 1 b . 5 5 & & & & & & c   & d , - & & & & & 5 e ) f , g b . . h ' ' ' ' ' i j + k l { m n / / o / < ' ' f p q q f ' ' . 1 ",
". .   r s , > q t } u r c v w w & 0 x = n & & y y z A B 0 C } | . . A D y ' ' i E F + 6 y D h G < < : H I f = = J f f f f , | K ",
". . 3 2 1 L C q f M } N w O O w & & P ! Q R S T y U S n f b V W . . { y $ X j j j X Y $ y { n J ' '   1 b f G ) ) ) = f g | 1 Z ",
". . . 2 Z r ` t ; ;  .W ..: : w r +.+.9 9 @.#.{ $.z { @.J d V W V . %.6 + X X X X X X &.U A ! J ' ' 2 W b q = ! @.@.) q | r 3 3 ",
". . 5 5 3 2 W b M q g ` K ..*.=.K W -.h h h h #.A ;.>.e ) q } L s . . $ X X X X X + $ ,.D h ! '.' ' ' V } , J n ).@.) g W 2 3 2 ",
"d b 5 & !.N W L ~.} } ~.L W N 2 2 r -.h {.{.A @.n Q n n ! = f , g . . 6 + X j X + 6 y D {.].h m ' ' ' V } , = ! n ) f 8 W r 2 r ",
"} 5 & & ^././.(._.N /.:. .g } ^.2 Z -.e {.S ;.9 * J <.* ! n Q ) <.. . y 6 + j X $ y D [.A {.{ }.' ' V | b q J = J q g ~.V /.W 1 ",
"5 & & 1 V V (.2 3 Z W 8 M > t ~.^.r |.n h A h n 1.x f J B @.#.#.@.. y U y 6 $ $ 6 z {.A A { ] y ' ' b b g q q , g } } } } } L W ",
"5 & & W W 1 2 =.3 K /.8 t M 2.g 8 |.|.3.P P ! P ) - ; ; * 4.>.{ { 4 $ y U U U 5.U D { {.{ D U k ' q p q 6.g } V u V | } b } | | ",
"& & V W r 3 v =.K ^.L ~.:.C , 0 > |.|.P ; > x - ) ) * = * n A D z 5 7.8.U { >.A {.{ D z z U y k ' = ) = q } 1 2 2 1 | } b } 8 g ",
"& & ` 1 3 w ..2 (./.V V L :.2.J = |.{.! > t t > - B ! 3.Q @.A { z 5 9.X y {.n ! @.{.z y k k k $ ' ) ! ) q V 2 ..v !.W | } b 2.<.",
"& & u !.=.=.2 N ^.^.(.^.V 8 q - = |.0.n J M t t > - ! @.#.>.{.S & 5 a.j k { n * ) @.{ y $ + X X ' ' ) J g V r 3 ....Z 1 | M ) R ",
"& & 1 2 2 r 1 ^.N K K 1 |  .> ; |.|.;.e P J M g  .> B h { D b.S & & j X 6 D h B = ! A U + E c.c.' ' q g } | W 2 ..o   2 } <.h { ",
"& & W 1 (.+.^.N 2 Z K W :.t M M |.|.;.#.@.B f t C M * h d.z $.{ & & 5 8.k z {.@.! ! h D $ a.e.e.c.. . | V V W r ..o f.2 b ) ;.D ",
"& & & & & -.-.Z 3 2 1 L 8 |.|.|.|.|.|.|.|.|.J q M f * @.& & & & & & 5 y . . . {.A h A . . . . . c.. . . . . . . 3 3 2 /. .4 5 & ",
"& & & & & +.-.-.-.N V |.|.|.|.|.|.C  .|.|.|.|.- - -.-.+.& :.g & & & 5 4 . . . . . . . . . . . . ' . . . . . . . . . . . . 4 5 & ",
"& & g.h.k b.-.-.-.|.|.|.|.|.b.|.|.d C 8 |.|.|.|.-.-.1 N 1 /.~.& & & ) . . . . . = ) 1.= = = ! ' ' ' . . . . Q @.{ y + X . . 5 & ",
"& & # $ k %.d.0.0.S { S S b.i.|.|.~.| L | |.|.|.~./.1 K r 1 /.& & 5 ) J . . . = ! n n ! = J f J ) ' ' y D A @.A z 6 X j X . 5 6 ",
"& & %.5.j.k.k l.D ;.h m.{.i.%.U |.^.^./.} t M , 8 V N r r _.N & & 5 4 . 1.) ) B ! n 9 n ) J q , q ' ' U z D D z y 6 + X X + $ 6 ",
"7 & A { 5.$ + % T A 9 @.;.i.%.T |._.N /.8 M > M b L W 1 _.!.3 & & 5 . . n n n n n n n n ) J , b } } ' D y 6 $ $ 6 6 6 $ + X + 7 ",
"k & & A z 6 + $ y d.A m.>.S { { |.|.u | b  .t t C b ~./.r v o : 5 4 . . @.h h @.@.n n ! = f , } V W ' n.y X E E X $ k k 8.@ $ y ",
"o.& & A d.%.j.7 k.o.%.b.A R @.h {.|.|.8 8 ~.} b t 2. .| K o p.q.: ... Q @.h A A h @.n ) J r.b | W W ' {.y X a.c.a.X $ k j.y U b.",
"y 5 & {.;.{.b.U % + $ 5.;.Q ) Q ;.-.-.b ~.V ` :., 0 , s 2 O q.q.: . . ! @.h A {.A h _ = q s.t.V W V ' { y + E c.u.a.j 6 U S m.h ",
"T 4 5 {.#.h ;.z 6 X h.k.{ 9 P Q #.-.-.~.| L s b  .t b V K w O : O . . = n h {.{.{.@.! J , } | V V ' ' D y $ j a.u.u.E $ D e ! ! ",
". . #.A #.A 0.z k 8.$ k %.S #.R e -.K ^.| b g g b | u 1 N r Z ..o . , x ! h {.{.A n = v.g } | w.' ' { z y 6 x.E c.c.E 6 D @.) B ",
". . ! @.A { z U U U 5.y k o.T ;.n +.a 2 L t q t | 1 K r ^./.W 2   . g q ) @.A A @.! J q g I } } ' {.y.z y 6 + X j j + k D A 4.n ",
". . <.3.>.z 5.U $.b.i.5.6 $ k d.4.& : =./.C , C ` N !.r W V u N 3 . , q J ! n z.n ) J q g b b b ' { A.U y B.$ $ $ 6 k U z { A h ",
". . J ! A D U %.i.D $.5.k.7 y b.h & & =.r u L | ` /.W W (.1 1 N r . J f f f C.= ) ) = f , s.D.E.< z U F.y y k ,.y U l z z z D { ",
". . . Q h ;.{ D z U 5.5.U z D b.{ & & Z v ..3 N L 8 8 L 1 2 2 r W . ! = , b b , C.= = J q , , q / U y y F.U z }.D y.D D z z z . ",
". . . n n @.#.{ %.j.j.U D & {.b.%.U & K   & & & V b g ~.1 2 2 N V . n ' ' ' ' } g q J J J J C.( ( ( ( ^ U z { {.A A {.y.z ' ' . ",
". . . @.n n R {.z y 5 & & & & & 5.& & r & & 5 5 4 ` ~.| V W 1 W W ' ' ' ' ' ' | | } , J ) ( ( ( ( ( ( ( ( ( {.h @.@.h {.' ' ' ' ",
"' . . . . . . . . . 4 5 5 5 & & & & & 5 5 5 4 . . . . . . . . . ' ' ' ' ' ' ' < / W } ( ( ( ( ( ( J p ( ( ( ( @.G.< ' ' ' ) h ' ",
"' ' g . . . . . } ~.~.8 t > J ; 5 5 {.5 4 . . n ) 1.n {.. . . z ' ' ..H.3 ' / / ( ( ( ( ( ( D.I.( = p J.( ( ( ( ( / K.b f ! A D ",
"' ' q , g . . V W 1 /.} , x J f 4 4 {.b.D D A Q = J ) #.z k k U ' ' H.....  L.M.N.O.M.P.2 W [ I ( _ J g | ( ( W V | } g f ! A { ",
"' ' = J f g V 1 2 r W } , q 0 q . . i.z z { h ! * * ! @.{.D z z ' ' r ..L.M.Q.M.L.o P.P.  3 R.[ ( ( ) , V r S.1 V I.E.p T.U.@.A ",
"n ' ! ) J g W 2 3 2 W s b g , , . . 5.U D A @.n n n n n n @.[.D ' ' ' V.M.W.O.X.  V...  o Y.Z.W [ `.`.q |  +2 r V D.q T..+'.! n ",
"n ' ' ) J g V r Z 2 1 V | } g q . . . z 0.h @.@.@.@.n ) ) ! h { ' ' / / L.q.Q.:   H...  P.Y...2 1 R.++p b V 1 1 @+I q = U.! ! '.",
"G.' ' f q g | W r 2 2 r W ~., ; . . . D {.A A A h @.! = = ! @.{.{ { / ( H.  P.o #+o P.$+..H.H.%+$+%+++p q E.} w.V t.J.J '._ ! ) ",
"n ' ' g g g b } W r 3 3 1 | , J . . D { {.{.{.A h ! ) = ) n @.~ ~ / ( ( 1  +Z.P.M.Q.: $+Z.&+H.o *+Q.++6.C.J p g } t.b q = ! ! .+",
"n ' } | | } b b | W 2 2 1 | t f . . D { { { {.A @.! ) ! n n n ! / ( ( R.V =+r $+-+Q.X.  V.V.  -+O.W.;+E.f = = >+6.g D.g q J = T.",
"G.< } V =+V } b I.| V W W V } g . D D D D { A @.n n @.@.@.! G J / ( ( ,+V W H H.P.o o P.P.L.-+Q.N.;+;+D.6.>+G '.G >+6.s.b g , q ",
"= / } V W W @+| b g g b } V W V . S z z D {.~ n @.h A A '+) J f ( ( 2 )+)+r S.2 2 Z.%+L.q.!+!+N.M.;+;+b g q = _ z._ J E.[ V w.} ",
", / | | V W W V b , f f g | 1 1 . h { D { A h h ].{.{.h n = J T.( ( 3 3 3 Z.H R.W  +H.-+~+{+]+O.-+;+D.D.s.6.T._ @.'+) r.[ R. +1 ",
"( / W V | w.V | b , J J q b V 1 . . @.h A {.{.n.n.{.A @.! '.'.'.( ( o #+  Z.R.V V  +%+*+~+]+^+O.Q.;+I D., v.= U.G._ ) f b =+S.2 ",
"( ( 3 R.| I b b g , f f f , b W . . J ) @.{ z U D {.@.n n z.@.z.( ( q.Q.P.2 =+w.=+S.  -+q.O.W.!+;+;+t.E.v.T.G G G = /+C., [ )+Z.",
"( ( / 2 V D.q p q q q q q q g | r . ' f ! {.U y z {.@.n @.h h n ( ( W.Q.P.`.R.R. +Z.%+Y.#+-+O.~+;+;+[ , >+G G T.C.C.C.f 6.b @+r ",
"( ( / ..' ' ' = = J q ' ' ' ' ' 1 ' ' ' ' ' ' ' U D {.A h < / ( ( ( ( ( ( ++++Z.Z.&+2 Z.%+;+;+;+;+;+;+;+;+;+J C.f v.p q ( ( ( ( ",
"( ( / < ' ' ' ' ' ' ' ' ' ' ' . . . ' ' ' ' ' ' ' ' ' ' ' < / ( ( ( ( ( ( `.++++++H 1 ;+;+;+;+;+;+*+#+;+;+;+;+v.f ++++`.( : : ( ",
"( ( _ ' ' ' ' ' a.a.E $ y D {.. . . . ' ' ' W } f ) ! = ' ' / ( ( ( n G.) >+++++++;+;+;+;+;+C.;+;+: L.L.;+;+;+;+++++$+o L.#+  ( ",
"( / h h ' ' ' + j E j + y D A A { . . | W 1 1 | , = '.= , ' / 2 ( ( ! '.= J J = U.z.~ ~ z.G.! ;+;+: M.Q.M.;+;+;+H.$+P.#+o $+3 ( ",
"( / < ' z U y k $ + + $ k z { {.{.. . } | | | } b , q q , D.[ =+( ( J J = ) U.! '..+.+U.z.m A ).;+-+O.O.Q.L.    P.L.: o ..2  +( ",
"( / ' ' y y y U U y k k k y U D { { . } b g g b } | | b E.q r.b =+( q p = _ @.n ) >+C.G z.[.(+_+;+L.q.N.*+X.L.: -+-+L.%+2 1 R.( ",
"/ < ' ' 6 k U D D D z U y k k y z $.. } g q q g | R.1 V b q f 6.t.( ( f = ! z._ G J >+G n m [.A ;+;+o X.*+q.O.W.q.X.$+Z.r 1 1 R.",
"1 K.' Y $ y z { {.{.{.D U k 6 6 k y . b g , , b V 1 r R.| g q 6.g ( ( .+= = = G G ) '.U.! _ z.~ m ;+;+$+*+]+:+<+N.o 3 r  +r  +R.",
"| ' ' X $ y D {.A h A {.D y 6 + h.+ . M , g 8 | V W 1 W W | I.g q / ( ~ ) f q f G G.'+n '.= .+n _+++++Z.-+[+}+{+N.Y.&+r r r 1 W ",
"b ' ' X 6 y D {.h @.@.A { y $ X E . . J , } V W W W W W 1 W V b f < / n._ f , r.T.! z.G.) = G n A ++++&+L.W.]+^+q.L.$+3 H 1 =+K.",
"g ' x.$ 6 y z {.@.n n h { y @ E . . 3.= M } W 1 1 W W W 1 W V b ' ' F.D h ) f p f T.G ) '.! n @.h ++2 3 %+P.: *+N.N.M.  H V } } ",
"E.' $ 6 k y z {.@.n n h b.o.+ |+. @.n * q 8 /.1 r r 1 1 W V } g ' ' z D {.h ! J r.J.6.J _ h A m z.`.  ..2 r &+Y.q.~+1+: 2 w.I } ",
", ' $ 6 y z { {.h R h {.D j.+ E . @.n * 0 b V 1 r 2 2 1 V } g , ' ' { D D { h ) 6.b D.p ! A {.].n ( o ..r R.)+H.-+W.W.: 3 R.w.V ",
"g ' X 6 z { A A {.{ b.D %.j.# j 4 n 3.= 0 C | ^.r 2 r (.| b , , ' ' n.y.D y.A ! f g E.v.) @.h ).z.( ( Z.H r S.3   o L.o   ..2 r ",
"b ' j 6 i.A h A b.U y j.j.k $ X 5 ) ) - q g | W 1 N 1 V } b g ' ' ' ' { { {.h _ G J >+J J = '.n h ( ( r Z.....3 2 r 2 %+: M.: ..",
"V . + . . . . S z j.6 $ $ $ $ & & & & f q  .8 | V /.V | } . . . ' ' ' {.A ~ z.n '+z.! = f ( C.U.].y.( 1 V.( ( ( 1 =+R.3 : W.O.L."};
