/* XPM */
static char * EA_xpm[] = {
"64 64 552 2",
"  	c #3A2616",
". 	c #996A3E",
"+ 	c #996B3F",
"@ 	c #97683C",
"# 	c #9A6B3F",
"$ 	c #9C6E41",
"% 	c #95663A",
"& 	c #926437",
"* 	c #9B6C3F",
"= 	c #996A3D",
"- 	c #9D6E41",
"; 	c #A07145",
"> 	c #9F7043",
", 	c #96673A",
"' 	c #956639",
") 	c #3B2616",
"! 	c #82572E",
"~ 	c #83582F",
"{ 	c #8B6138",
"] 	c #8E633A",
"^ 	c #8C6239",
"/ 	c #875D34",
"( 	c #895E35",
"_ 	c #865B33",
": 	c #7F542C",
"< 	c #81562E",
"[ 	c #8A6037",
"} 	c #8A5F37",
"| 	c #895F37",
"1 	c #8A6038",
"2 	c #8D5F33",
"3 	c #916337",
"4 	c #976A3E",
"5 	c #95673B",
"6 	c #986A3F",
"7 	c #9D6F44",
"8 	c #9B6D42",
"9 	c #94663B",
"0 	c #8F6237",
"a 	c #926539",
"b 	c #92653A",
"c 	c #8E6136",
"d 	c #94673C",
"e 	c #9B6E42",
"f 	c #96693E",
"g 	c #382515",
"h 	c #845B33",
"i 	c #855B34",
"j 	c #815730",
"k 	c #7D542D",
"l 	c #845A33",
"m 	c #865D36",
"n 	c #80572F",
"o 	c #835A32",
"p 	c #865C35",
"q 	c #825831",
"r 	c #875D36",
"s 	c #865C34",
"t 	c #80562E",
"u 	c #9A6C40",
"v 	c #9B6D41",
"w 	c #96683B",
"x 	c #946538",
"y 	c #9C6D40",
"z 	c #9E6F42",
"A 	c #A17346",
"B 	c #A37447",
"C 	c #97683B",
"D 	c #926337",
"E 	c #82572F",
"F 	c #865B32",
"G 	c #8C6138",
"H 	c #91663D",
"I 	c #865C33",
"J 	c #845931",
"K 	c #885D35",
"L 	c #8C623A",
"M 	c #8B6038",
"N 	c #8C6139",
"O 	c #875D35",
"P 	c #926438",
"Q 	c #9A6D41",
"R 	c #9C6F43",
"S 	c #996B40",
"T 	c #93663A",
"U 	c #926439",
"V 	c #906237",
"W 	c #8F6236",
"X 	c #916439",
"Y 	c #95673C",
"Z 	c #986B40",
"` 	c #875E37",
" .	c #805730",
"..	c #825931",
"+.	c #865D35",
"@.	c #855B33",
"#.	c #845A32",
"$.	c #9D6E42",
"%.	c #9F7044",
"&.	c #98693D",
"*.	c #98693C",
"=.	c #97693C",
"-.	c #996B3E",
";.	c #9A6B3E",
">.	c #926336",
",.	c #845930",
"'.	c #8B6037",
").	c #8F643B",
"!.	c #845A31",
"~.	c #885D34",
"{.	c #895E36",
"].	c #8E633B",
"^.	c #875C34",
"/.	c #835830",
"(.	c #986A3E",
"_.	c #96683C",
":.	c #9A6C41",
"<.	c #96683D",
"[.	c #906338",
"}.	c #95683C",
"|.	c #392515",
"1.	c #835A33",
"2.	c #845B34",
"3.	c #855C34",
"4.	c #7E542D",
"5.	c #7C532B",
"6.	c #835932",
"7.	c #885E36",
"8.	c #81572F",
"9.	c #835931",
"0.	c #986A3D",
"a.	c #9C6D41",
"b.	c #875C33",
"c.	c #835930",
"d.	c #9C6E42",
"e.	c #986B3F",
"f.	c #94663A",
"g.	c #936539",
"h.	c #916338",
"i.	c #94673B",
"j.	c #93663B",
"k.	c #93653A",
"l.	c #885F37",
"m.	c #7F552D",
"n.	c #815226",
"o.	c #946639",
"p.	c #916236",
"q.	c #A27346",
"r.	c #A17245",
"s.	c #7B4C1F",
"t.	c #956638",
"u.	c #9C6C3F",
"v.	c #3B2716",
"w.	c #81562D",
"x.	c #90653D",
"y.	c #855A31",
"z.	c #7D532A",
"A.	c #A07246",
"B.	c #8F6135",
"C.	c #8F6136",
"D.	c #9C6E43",
"E.	c #996C40",
"F.	c #8B623A",
"G.	c #7F552E",
"H.	c #7D532B",
"I.	c #946539",
"J.	c #95673A",
"K.	c #9B6C3E",
"L.	c #996A3C",
"M.	c #7C4D20",
"N.	c #916235",
"O.	c #9A6B3D",
"P.	c #9D6D40",
"Q.	c #84592F",
"R.	c #80552B",
"S.	c #8E643B",
"T.	c #855B32",
"U.	c #9E7043",
"V.	c #9E7044",
"W.	c #906236",
"X.	c #97693D",
"Y.	c #96693D",
"Z.	c #96673B",
"`.	c #9B6B3E",
" +	c #97673A",
".+	c #966739",
"++	c #9E6E41",
"@+	c #9C6D3F",
"#+	c #8B6036",
"$+	c #895D34",
"%+	c #84582F",
"&+	c #8D6138",
"*+	c #8A5F36",
"=+	c #764B22",
"-+	c #936438",
";+	c #8D633A",
">+	c #9D6F42",
",+	c #9B6D40",
"'+	c #99693C",
")+	c #9A6A3D",
"!+	c #98693B",
"~+	c #855930",
"{+	c #8B5F36",
"]+	c #8A5E35",
"^+	c #70441B",
"/+	c #6A3F16",
"(+	c #8F653C",
"_+	c #8F643C",
":+	c #916438",
"<+	c #875E36",
"[+	c #825830",
"}+	c #855A32",
"|+	c #A07144",
"1+	c #98683B",
"2+	c #A07143",
"3+	c #9D6E40",
"4+	c #956538",
"5+	c #83572E",
"6+	c #8E6239",
"7+	c #90653C",
"8+	c #8E6339",
"9+	c #895E34",
"0+	c #6C4117",
"a+	c #92673E",
"b+	c #92683F",
"c+	c #93683F",
"d+	c #8F6034",
"e+	c #906135",
"f+	c #9D6F43",
"g+	c #683F17",
"h+	c #A27245",
"i+	c #936437",
"j+	c #3C2716",
"k+	c #865B31",
"l+	c #8C6037",
"m+	c #946940",
"n+	c #895F36",
"o+	c #885E37",
"p+	c #885E35",
"q+	c #966639",
"r+	c #9B6B3D",
"s+	c #98683A",
"t+	c #855A30",
"u+	c #885D33",
"v+	c #865A31",
"w+	c #8D6239",
"x+	c #8B6139",
"y+	c #976739",
"z+	c #956537",
"A+	c #9A6A3C",
"B+	c #9C6C3E",
"C+	c #885C33",
"D+	c #875B32",
"E+	c #81562C",
"F+	c #8C6137",
"G+	c #92663D",
"H+	c #92673D",
"I+	c #8D5F32",
"J+	c #916336",
"K+	c #8B613A",
"L+	c #97683A",
"M+	c #9F6F42",
"N+	c #A17244",
"O+	c #9E6E40",
"P+	c #6D4118",
"Q+	c #6A3E15",
"R+	c #90653B",
"S+	c #94683F",
"T+	c #8F6134",
"U+	c #8D633B",
"V+	c #82582F",
"W+	c #9E6F41",
"X+	c #936336",
"Y+	c #72461D",
"Z+	c #6B4016",
"`+	c #693D14",
" @	c #93673E",
".@	c #7B4D21",
"+@	c #9F6F41",
"@@	c #6E4319",
"#@	c #6E4218",
"$@	c #8C6036",
"%@	c #8F633A",
"&@	c #91653C",
"*@	c #90643B",
"=@	c #8A5F35",
"-@	c #8E6033",
";@	c #8E6034",
">@	c #7C4E22",
",@	c #9F7145",
"'@	c #9F7042",
")@	c #A07043",
"!@	c #936335",
"~@	c #84582E",
"{@	c #8D6137",
"]@	c #8F643A",
"^@	c #7E542C",
"/@	c #A17143",
"(@	c #865A30",
"_@	c #8D6238",
":@	c #92663C",
"<@	c #9A6C3F",
"[@	c #936538",
"}@	c #9B6C40",
"|@	c #8D5E32",
"1@	c #8F653D",
"2@	c #946537",
"3@	c #82562D",
"4@	c #91663C",
"5@	c #80552C",
"6@	c #8B5C30",
"7@	c #8E5F33",
"8@	c #8E643C",
"9@	c #7F552C",
"0@	c #805023",
"a@	c #7B4B1E",
"b@	c #9D6D3F",
"c@	c #906235",
"d@	c #9E6F43",
"e@	c #865629",
"f@	c #825224",
"g@	c #7D4D1F",
"h@	c #99693B",
"i@	c #7B4D20",
"j@	c #7B4C20",
"k@	c #80562D",
"l@	c #7C5229",
"m@	c #815124",
"n@	c #825225",
"o@	c #8D5E31",
"p@	c #7E542B",
"q@	c #7F4F22",
"r@	c #A07042",
"s@	c #875C32",
"t@	c #8C5D30",
"u@	c #835529",
"v@	c #80562F",
"w@	c #97693E",
"x@	c #80552D",
"y@	c #7C522A",
"z@	c #9F7144",
"A@	c #9E7045",
"B@	c #8A6139",
"C@	c #7F562E",
"D@	c #825326",
"E@	c #805124",
"F@	c #7F5023",
"G@	c #7E532A",
"H@	c #7F5125",
"I@	c #896038",
"J@	c #7A4B1E",
"K@	c #7A4C1F",
"L@	c #6A4017",
"M@	c #71471E",
"N@	c #6E441C",
"O@	c #8E6135",
"P@	c #8D6034",
"Q@	c #9D7045",
"R@	c #8C623B",
"S@	c #815830",
"T@	c #7E552D",
"U@	c #7B512A",
"V@	c #72471E",
"W@	c #6E441B",
"X@	c #71461E",
"Y@	c #9D7044",
"Z@	c #8D5F34",
"`@	c #9C6F44",
" #	c #7A5129",
".#	c #6E441D",
"+#	c #714720",
"@#	c #81572E",
"##	c #6E431B",
"$#	c #6B421A",
"%#	c #6C421B",
"&#	c #A07245",
"*#	c #A17246",
"=#	c #976A3F",
"-#	c #8B623B",
";#	c #8A6039",
">#	c #895F38",
",#	c #996C41",
"'#	c #9A6D42",
")#	c #8B5E33",
"!#	c #7B522A",
"~#	c #815831",
"{#	c #885F38",
"]#	c #7E552E",
"^#	c #906337",
"/#	c #95683D",
"(#	c #9B6E43",
"_#	c #8B5F34",
":#	c #7F562F",
"<#	c #855C35",
"[#	c #693F17",
"}#	c #6B4119",
"|#	c #906339",
"1#	c #8E6237",
"2#	c #8E6137",
"3#	c #825932",
"4#	c #673C14",
"5#	c #673D15",
"6#	c #8E653D",
"7#	c #8F6238",
"8#	c #8C6035",
"9#	c #382415",
"0#	c #663D16",
"a#	c #673E17",
"b#	c #7B522B",
"c#	c #8D643C",
"d#	c #6C4219",
"e#	c #6A3F17",
"f#	c #92653B",
"g#	c #95693E",
"h#	c #673F18",
"i#	c #643B14",
"j#	c #7C532C",
"k#	c #8C633B",
"l#	c #895D32",
"m#	c #91653A",
"n#	c #6A411A",
"o#	c #7C532D",
"p#	c #7A522B",
"q#	c #825A33",
"r#	c #7E5126",
"s#	c #94673D",
"t#	c #92663B",
"u#	c #906439",
"v#	c #93673C",
"w#	c #845C35",
"x#	c #805731",
"y#	c #8A613A",
"z#	c #8C5F33",
"A#	c #976B40",
"B#	c #93663C",
"C#	c #835B34",
"D#	c #89603A",
"E#	c #815932",
"F#	c #7A512A",
"G#	c #7F5730",
"H#	c #8D643D",
"I#	c #95683E",
"J#	c #8F6338",
"K#	c #372415",
"L#	c #7B532C",
"M#	c #815832",
"N#	c #865D37",
"O#	c #825933",
"P#	c #7D552E",
"Q#	c #7C542D",
"R#	c #896039",
"S#	c #906740",
"T#	c #94683D",
"U#	c #8C5F35",
"V#	c #8D6136",
"W#	c #7E562F",
"X#	c #8C5E32",
"Y#	c #986B41",
"Z#	c #96693F",
"`#	c #8D6036",
" $	c #7E552F",
".$	c #7F5630",
"+$	c #886039",
"@$	c #89613A",
"#$	c #8C633C",
"$$	c #74471B",
"%$	c #72461C",
"&$	c #74481D",
"*$	c #8B5F35",
"=$	c #815933",
"-$	c #795029",
";$	c #855D36",
">$	c #8B633C",
",$	c #885F39",
"'$	c #7B4E22",
")$	c #784A1F",
"!$	c #966A3F",
"~$	c #7A4D23",
"{$	c #764A1F",
"]$	c #8A5E34",
"^$	c #91643A",
"/$	c #90643A",
"($	c #7B532D",
"_$	c #855C36",
":$	c #8C643D",
"<$	c #7C5025",
"[$	c #7A4E24",
"}$	c #8E6238",
"|$	c #865E37",
"1$	c #875E38",
"2$	c #A17347",
"3$	c #95693F",
"4$	c #976B41",
"5$	c #895D33",
"6$	c #8A5E33",
"7$	c #7A512B",
"8$	c #785029",
"9$	c #7D542E",
"0$	c #91653B",
"a$	c #885C32",
"b$	c #774F28",
"c$	c #7C542E",
"d$	c #825A34",
"e$	c #875F38",
"f$	c #845B35",
"g$	c #8B5D32",
"h$	c #7D532C",
"i$	c #94683E",
"j$	c #8E6035",
"k$	c #8A5C31",
"l$	c #8F6339",
"m$	c #805832",
"n$	c #835A34",
"o$	c #8B5E32",
"p$	c #815429",
"q$	c #996C42",
"r$	c #8B5E34",
"s$	c #8A623B",
"t$	c #835B35",
"u$	c #8D6035",
"v$	c #895B30",
"w$	c #724820",
"x$	c #744A22",
"y$	c #6D431B",
"z$	c #784E27",
"A$	c #6C431D",
"B$	c #69401A",
"C$	c #805831",
"D$	c #895C30",
"E$	c #734922",
"F$	c #784F27",
"G$	c #7D542C",
"H$	c #684019",
"I$	c #6A411B",
"J$	c #8A5D32",
"K$	c #7B5129",
"L$	c #986C41",
"M$	c #643B15",
"N$	c #7A5028",
"O$	c #764C23",
"P$	c #704720",
"Q$	c #693F18",
"R$	c #7E532B",
"S$	c #82552A",
"T$	c #7A4D22",
"U$	c #906134",
"V$	c #7C5129",
"W$	c #8D623A",
"X$	c #7D5025",
"Y$	c #7C4F24",
"Z$	c #7C522B",
"`$	c #794B20",
"  . + @ # $ % & * = . - ; > , ' ) ! ~ { ] ^ / ( _ : < [ } | } 1   2 3 4 5 6 7 8 9 0 a b c d e f g h i j k l m n o p i q j r s t ",
"  $ u v $ w x ' ' y z A B * C D ) E F G H ^ { I < < J K L M N O   3 P 5 + Q R S T U V W X Y 6 Z g ` h j n  .n ..o r +.@.i o j #.",
"  % $.%.&.' *.=.C -.B B * ;.*.>.) ,.G '.( ).'.!.~ ~.{.I K ].^./.  (._.5 :.R 5 T <.9 V [.f }.U f |.+.1.2.3.4.5.6.i ..s 1 7.8.9.K ",
"  &.0.. =.;.. * a.z z * = *., ' ) ~.( ~.~.b.~.~.G G '.{.^.c.J !.  u v d.e.f.g.h.T i.}.6 Y j.9 k.|.+.r l.o q 8.m.j 9.i | s 7.K @.",
"  n.o.p.* y - z q.r.C s.= ' t.u.v.G ,.F F w.,.).x.).{ { y.z.< [   d.A.%._.B.3 g.C.5 D.E.Y T Y k.|.+.F.i i 3.l G.H.#.s 8.7.L | O ",
"  o.I.=.J.- %.q.q.K.L.M.N., O.P.v.( ( Q.R.,.( G H ).S./ ~ J T.^.  U.V.+ f.g.W.W.Y X.(.(.Y.<.k.U |.i h r p p o ..o 8.8.s s | { [ ",
"  Z.. -.# &.q.q.;.`.K. +x .+++@+v.#+$+%+~ $+&+*+( =+*+T.~.G M {.  U.Z.-+_._.g.f.(.(.h.k.6 }.f.Y.|.h n h r 9.#.l.r 8.8.I @.9.7.;+",
"  >+,+$ y > * = * `.'+)+u.u.!+ +v.~+y.$+&+G {+]+^+/+b.} ).(+x._+  D P -+f._.u v _.P g.:+U _.E.v |.@.l n 8.@.<+| O 7.s 8.[+}+@.^.",
"  z |+z r.|+1+t.;.L.L.P.2+3+t.4+v.5+,.6+7+8+9+]+0+w.y.7+a+b+c+H   d+e+% -+X.f+v 5 P g.g.W.<.f+e.|.s @.g+m.s 1 @.| M O /.< T.J < ",
"  - > B h+`.* O.i+'+@+++++L.`..+j+k+{+{+6+l+&+y.5+~.G G c+m+a+n+  J.& p.&.. X.Z._._.P U (.X.5 X.|.s 9.@.o+@.#.| p+s I s s < 8.K ",
"  , > q.3+- z ;.L..+P.u.q+`.r+s+j+$+&+]+t+l+u+v+( ] 7+).w+a+*+_   # =.w w X.e+W._._._.+ u X.3 P |.6.3.x+L O @.s s E }+| ^.J _ ~.",
") - = = z |+3+- 3+++y+z+A+ + +B+j+&+C+D+u+E+~+F+H G+H+G+] ,.b.n+) * >+$ Z.I+W.W.J+_.f+f+4 f.f.W.|.s K+L 1 x+| [+t }+@.}+^.M n+T.",
") * *.L+y - z M+N+++.+t.y+q+L+O+j+&+P+P+Q+5+v+R+c+S+a+H ( ,.y.'.) - > a.-+T+T+D 3 @ $.u _.5 f.U |.7.U+1 1 x+O 9.8.#.@.V+p+{ n+n+",
") C ;.y .+O.W+N+M+r+++)+X+L+B+r+j+$+Y+Z+`+]+8+&+H  @a+]+~.'.*+b.) >+;.I.% J.D p.0.X.g.f._._..@X.|.| s 1 | s #.O n+c.V+7.@.}+n+w+",
") y y = ;., P.W+O.M++@B+K.!+)+s+j+@@P+#@$@%@&@*@'.*@=@( w+%@] w+) ;.& D w =.=.(._.f.-@;@o.>@+ ,@|.L O @.@.[+@.1 | / s T.}+c.~.w+",
") > * ;.)+++L+.+'@++@+M+)@O+z+!@j+R.~@{@H+G+*@*@]@~ b.6+).).7+7+) -@i+% I.&.$.a.o.I+W.;@2 X.A.A.|.L x+9.^@_ 7.^.K x+n+/./.p+b.T.",
") ;.* ;.++* L.)+`.@+O+'@/@u.y+t.j+5+(@_@:@G+R+*@9+~.~.w+).7+).w+) x i+, w . u =.3 W.;@W.g.. V.f+  L 7.@.T._ O @.O 7.s I ^./ ^.F ",
") ' *.z @+)+> M+1+O.+@++)+'+P.y+j+D+F+]+l+]@G+=@*+]@).=@w+%@'.J ) # *.' <@(.D d+P [@3 f.d.u 5 + |.7./ x+].O c.O #.8.}+[ { b.^.M ",
") >.*.;.;.2+)@3+M+O.`.A+.+`.'+A+j+{+{+{+D+l+9+F+7+H &@*@]+=@,.F ) }@a.$ w [@|@|@W.g.(.f+v + 5 g.|.s x+1@U+x+O [+8.< }+} } M [ F ",
") * , t.M+> 3+M+M+)@.+2@B+q+ +O+j+%@9+$+F+3@D+]@H+H 4@7+w+5@y.*+) * U.$ % 6@T+B.7@w V.V.+ _.(.g.|.| 8@L x+L | V+9@s I J p+N p+,.",
") *.;.u.;.* - 3+'@K.O.0@a@1+)+b@j+6+&+l+~+u+u+l+%@7+7+] ~.*+b.( ) * -.Z.c@3 ;@J+5 (.u + X.(.f.5 |.o+1 1 1 | s ^.p+@._ }+}+J J ^.",
") . d@> *.1+K.- = )+e@f@g@h@3+`.j+l+*@$+u+l+6+u+]+w+8+C+G (+] K ) = D |@& i@j@J.v <@[@g.X.}.5 u |.1 #.O O 9.s L U+p+#.s k@l@E p+",
"  |+> * - L.'+!+'+++m@n@M+B+)+O.j+#+C+F+]@_@#+F+b.u+y.G ).7+7+7+  D o@-@W.j@n.f+. _.g.3 :+5 e ,@|.1 <+[+[+#.| L x+x+p+m.p@p@< T.",
"  - * y * > C ' - = q@P.'@r@L.h@j+~+s@_@]@w+#+{+l+E+b.w+] ).x.]   t@e+3 c@>@u@d.X.P 5 g.W.(.V.d.|.o+7.9.v@| x+7.| 1 @.m.p@!./.E ",
"  % = ;.z ;.- W+, *.;.`.P.@+M+W+v.=@( 9+*+F+&+'.y.G =@*+G ] { K   @ D D _.X._.5 f.X.g.5 Q + (.w@|.+.#.<+L 7.7.O @.[+< #.s 9.I K ",
"  p.o.}@= y r.z = C `.;.1+u.N+u.v.=@F+s@v+]+G b.G ] ).( ( {.T.x@  . . @ -.X.W.;@f.5 Y.:.V.:.U g.|.9.s U+1@x+l @.t y@t O | 7.p+} ",
"  [@o.o.;.|+y * > u.*.'+;.P.*.P.v.'.b.( b.s@,._@).] w+] b.! : }+  0.d.z@X.P W.W.B.f.e A@S w@<.h.|.i L U+x+B@<+^@y@C@9.@.7.L M c.",
"  <@% x D@E@F@y - |+* O.'@C C `.v.'.$+$+G ~ ~.G w+N N [ K G@/.T.  H@>+a.0.W.g.P W.}.:.+ Y.i.Y.i.|.I@L l.O p 6.G.^@@.@.#.K | I }+",
"  Z.<@$ J@K@*.;.- y q.q.L+O.L., v.~.G G y.6+'.~.( '.*+b.E } }+L@  # =.5 f.u k.f.S <.a U T <.T e.|.I@+.3.6.G.^@o | #.s 7.#.t /.O ",
"  }@$ -.J.& J.;.= > B z - *.'+' ) C+F+~.w+G ] ~.F b.F < p+p+M@N@  X.P W.X.X.S u E.<.O@P@U a 4 Q@|.R@o S@T@U@C@r | I@p s 8.H.[+K ",
"  f+0.% &.&., Z.- |+;.- > * ' L+) b./+V@] G ( G ~.E 9@/ ^.W@X@U+  3 3 }.a <.D.Y@<.:+U 0 Z@9 D.`@|.o+m k  #n h h .#+#l.C@v@#.#.J ",
"  5 f._.@ $ ;.;.>+*.*.. ;.y ;.= ) ,.b.~.*+*+} {.n+@#}+}+_ ##} {.  P }.5 i.w@E.4 }.a 9 k.b 4 Z f g 1...j n 3.3.l $#%#q 9.6.<+O @.",
"  B.g._.u . &#*#' Z.C J.Z.= |+|+) G {.J J / *+~.~ ^ ^./.@.K _ #.  d._.i.E.4 U h.T =#T f Q@4 X [.g G.k i -#3.h i S@5.m.s ;#s >#1 ",
"|.W.P (.(.V.z@<@-.I.I.% ' * z * ) *+*+_ /.}+T./.[ / } O @.@.9.8.|.Y.:.u w@Y V c 9 j.,#`@'#=#0 )#g !#~#{#{#B@i q ]#5.j +.<+K+l.s ",
"|.X._.5 d.d@@ _.0.&.-+' * # J.-   N b.n+p+E p@/ _ I ^.^ 7.[+[+7.|.}.S d.}.^#k.d 0 /#`@(#/#b b _#g :#<#2.<#r ` G.4.h i ..+.| O t ",
"|.v Q v u f.f.f.f.&.-.# }@, 0.=.  } G } {./.!.@#[#}#p+O | s 7.l |.Y <.i.Y 9 /#Y f Z =#d b |#1#2#g 3#3#~#~#~# .1.<#` +.3.6.S@C@#.",
"|.6 ,@A.g.3 P P o.5 U.%.o.. &.%   p+;+{ J { @.4#5#}#@.@.@.6#7.l |._.h.0 k.Q /#=#Q@Z [.1#0 7#8#b 9#3#0#a#0#b#]#<+c#<+` <+n  #G.s ",
"|.A@D._.Y.3 W.g.I.u u X.d.w w @   7.p+I L T.s d#e#/.[+[+1 i 1 1 |.k.h.V /#j.8 `@Z f |#8#8#_#f#g#9#<#h#i#b#j#3#` ` k#` 3#:#G.q s ",
"|.:.f.P f.X.g.g.u (.P =.0.# Z..   s 8.{.s ^.}+| n+V+t <+[+#.s ;#|.:+9 =#:+/#'#'#/#X j.[.l#[.d m#9# .n#o#p#q#<#3#<#m m v@..{#r h ",
"|.W W h.U _.+ v X.P f.-+o.X.d.$   @./ 8.c.@.} 7.7.O O t S@q l 6.|.6 Z }.Z r#s#b t#t#u#|#v#b 1#1#9#]#o#~#w#2.q#1.x#:#C@p I@y#-#F.",
"|.z#P@V T 9 d.f+P f.g.P [@=.f+$.  } _ V+8.^.| 7.@.U+i 8.n q v@n |.`@Z Z (#A#|#c [.f#7#B#Z f#8#_#9#b#o#C#D#C#3#E#]#F#G#{#H#-#6#k#",
"|.^#O@h.U + <.U + f.g.5 @ + =.J.  !.T.O O O s s F...3.s q C@v@S@|.k.(#Q@Z I#j.J#0 8#d g#u#f#J#_#K#L#3#C#M#N#O#P#Q# .2.{#R#S#F.i ",
"|.f i.h.Y.T ;@3 g.(._.(.$.@ W.Z.  / _ x+S.O #.| [+6...+.p n S@m |.d =#'#Z B#g#T#U#u#f#|#J#V#m#1#K#E#q#W#x#:#E#]# .{#R#m y#{#m ~#",
"g Y.Z :.P X#O@O@3 5 f+f+X.f.w B.  @.U+L 1 1 1 C@8.[+h ..h <+r n g d 9 t#g#Y#I#f#Z#f#`#8#`#1#U#u#K#O# $.$o#L#p#C#D#+$@$#$<#~#C@3.",
"g f '#Z C.$$Z@B.3 5 e v f._.g.[@  7.L L 7.L s ..v@6.q q 6.I@i i g /#X [.j.=#d Z#A#B#`#%$&$*$$@f#K#=$W#Q#o#-$ $;$>$y#-#,$1.k S@2.",
"g '#Y c '$)$C.3 f.w@g.3 + g.f.(.  1 O O U+q h O s q S@9.+.G.+.+#g b j.j.b 2#!$Y#t#B#~${$%$]$^$/$K#E#x#($p#G#w#;$_$:${#O#E#2.1.1.",
"g b O@V V <.Y f.4 3 X#3 W.X.+ f+  x+@.7.8.@.#.7.I@l 9.s 4...6..#g j./#/#c b f#t#s#m#<$[$`#|#}$]$K#p#.$ $G#|$1$C#|$1.2.E#2.R#` 2.",
"g )#O@V U T :.v 3 z#W X#C.5 A.2$  L L t 8.9.7.s i I@o+^@..3#o ~#g ,#/#0 g#f#1#7#f#3$m#f#4$/$5$6$K#7$8$=$@$|$;$+$O#.$9$m R#m B@-#",
"g c c :+T }.(.Y C.B.2 W.P + f+V.  k#O s 9.s @.@.h <+6.h 6.2...q g d b s#v#B#u#J#0$0$t#I#T#/$$@a$K#b$c$d$1$e$e$f$q#P#3#<#1${#R#<#",
"g d b b i.w@W g$g.W.V 5 u v _._.  s O x+L O 9.o s h$6.o+<+o l h g )#j.f f#t#g#T#|#1#i$v#{@|#|#8#K#c$=$M#G#e$N#O#M#|$m 2.2.R#h :#",
"g =#e.}.<.j$k$Z@X#9 4 v f+(.f._.  | 1 U+1@| @.h y@[+q 3.l.+.3.h g [.0 X /#T#!$Z#^$B#l$`#J#$@l$J#K#q#m$W#E# $O#n$m @$+$_$m :# . .",
"g d E.8 C.k$Z@o$B.g.Y@,@X.X.+ W.  s 1@U+| L 1 ^@S@[+@...o I@3.h$g X [.J#B#p$s#f#q$t#8#$@$@7#r$/$K#q#.$O#P#9$L#;$s$` ,$-#~#]#k 2.",
"g Y.<.:+C.j$z#V g.(.+ e.(.(.o.X.  1 1 1 1 | l 7.h s 9.....j C@h g 9 j.j.d f#B#Z#B#t#/$V#{@_#l$:@K#w#t$.$.$o#~#1._$+$R#2.2. .1.o ",
"g /#u$v$^#:+P 9 E.S g.P + 5 @ v   M I s | 8.s w$x$y$o 9.C@z$C@h g d =#Z b c d d [.m#s#f#U#1#t#u#K#C#A$B$P#C#C#C$x#|$f$3#2.y#` 2.",
"|.)#D$P@o$T e.:.u f.P f.B.(.d.V.  1 O @.^@O | w$E$1 i n F$T@G$n |.Z Z f b s#7#2#t#^$t#t#f#B#J#2#K# $H$I$w#w#1.M#q#k C$2.{#y#-#{#",
"|.J$z#2 ^#P Q f+f.g._.J+f._.,@%.  1 1 t @.^.L | +.1 s K$v@G.n n |.:.Y.X ,#d [.[.|#v#1#^$L$t#7#m#K#x#M$n$,$1.3#m :#]#P#m B@` y#R@",
"|.:+C.3 g.X.Y g._._.g.(.+ d.. 0.  K #.x+[ x+p+O s 8.m.3.[+o 6.l |.V a e.j.I#f j.m#V#m#v#u#s#g#u#9#P#O#M# .w#;$ .q#~#<#1.<#R#<+j ",
"|.Y._.5 w@_.B.;@5 5 (.v A.v J.f.  J {.U+b+{ s }+8.K$8.3.| 3.O +.|.)#X 9 d /#,#Z [.J#t#u#J#B#g#T#9#n$q#W#P#q#q#q#3#y#` 1.1.i v@G.",
"|.<.8 e (.W.W.P ;@_.>+,@$.-.X.Z.  | ;+_+].L O 8.N$[+[+#.l.x+7.9.|.k.c 0 <.=#f /#/#g#J#7#s#^$m#t#9#C# . .3#Q# .2.R#` ` <+h !#k n ",
"|.Y Q f+f.P f.J+f.J.d.>+@ . u o.  } O$L O n+s H.9.c.s @.@.I@s t |.k.U U b f b b '#f B#T#b j.`#^$9#E#C$2. .~#]#<#P$<#m {#:#T@h$9.",
"|.S Y.P (.(.f.X.0.u % [@. &.Z.%.  x.{./ O < : {.s 7.s O s m.8.| |.<.w@}.k.Z@a 4 b Z (#!$d c b [.9#1.m ~#2.3#m 3#Q$<+<#]#o q l S@",
"|.}.3 3 _.+ ,+}@f+&.D J+% w $ ;   ].K y.@#R$9.O ].| {.O 8.H.9.@.|.w@S 4 0 c U b /#Z (#S$T$j.X u$g ~#1.<#3#R#m 3#q ..v@j  .>#s i ",
"|.W.P _.g.(.V.; # % J.o.U$-.; q.  w+*+/.V$T.^.K n+W$| [+x@s 9.9.|.Q X.U T }.^#U Z Z X$Y$Z d 1#0 g ]#n 1.R#<#2.+.2.Z$T@~#p o | x+",
"|.f._.f.(.&.a.$ w =.= ' # ;.d@- ) ( ~.E K I } K _ K _ E 7.s 7.s |.<.a :+6 <.Y.4 }.Y.`$T f j.j./#g 6.C@1.<#l i <+S@~#G.6.o h <+1 "};
