/* XPM */
static char * WE_xpm[] = {
"64 64 410 2",
"  	c #281A10",
". 	c #684628",
"+ 	c #674527",
"@ 	c #6A4829",
"# 	c #6C4A2B",
"$ 	c #684627",
"% 	c #6E4C2E",
"& 	c #6B482A",
"* 	c #674425",
"= 	c #684526",
"- 	c #6B492A",
"; 	c #735031",
"> 	c #67462C",
", 	c #614126",
"' 	c #5F3E24",
") 	c #603F25",
"! 	c #604025",
"~ 	c #5D3C22",
"{ 	c #644429",
"] 	c #65452B",
"^ 	c #69482E",
"/ 	c #65442A",
"( 	c #604026",
"_ 	c #5D3D23",
": 	c #59391F",
"< 	c #5E3E24",
"[ 	c #725033",
"} 	c #735133",
"| 	c #6F4D2F",
"1 	c #694729",
"2 	c #6A482B",
"3 	c #634124",
"4 	c #614022",
"5 	c #644225",
"6 	c #684729",
"7 	c #6C4B2E",
"8 	c #6C4B2D",
"9 	c #664527",
"0 	c #664427",
"a 	c #5D3C1E",
"b 	c #27190F",
"c 	c #57381E",
"d 	c #5F4026",
"e 	c #64452B",
"f 	c #63442A",
"g 	c #624229",
"h 	c #64442B",
"i 	c #5C3D23",
"j 	c #5C3C22",
"k 	c #5B3B21",
"l 	c #614128",
"m 	c #67472D",
"n 	c #694A30",
"o 	c #68482E",
"p 	c #614127",
"q 	c #634123",
"r 	c #6A4729",
"s 	c #6D4A2C",
"t 	c #6F4C2E",
"u 	c #6E4C2D",
"v 	c #6C492B",
"w 	c #654224",
"x 	c #654223",
"y 	c #694628",
"z 	c #6C492A",
"A 	c #724F30",
"B 	c #68482D",
"C 	c #624227",
"D 	c #5B3A20",
"E 	c #5C3B21",
"F 	c #624127",
"G 	c #644329",
"H 	c #68472D",
"I 	c #5D3D22",
"J 	c #5C3C21",
"K 	c #58381E",
"L 	c #5F3F25",
"M 	c #775537",
"N 	c #6E4C2F",
"O 	c #6A482A",
"P 	c #644224",
"Q 	c #624123",
"R 	c #664426",
"S 	c #6F4E30",
"T 	c #6D4C2E",
"U 	c #684629",
"V 	c #5E3D1F",
"W 	c #5F3D20",
"X 	c #58391F",
"Y 	c #604127",
"Z 	c #67482E",
"` 	c #65452C",
" .	c #5E3E25",
"..	c #5D3D24",
"+.	c #6A4A30",
"@.	c #69492F",
"#.	c #634329",
"$.	c #684527",
"%.	c #704E2F",
"&.	c #6E4B2C",
"*.	c #704D2F",
"=.	c #724F31",
"-.	c #735132",
";.	c #614026",
">.	c #58371D",
",.	c #634328",
"'.	c #66452B",
").	c #59391E",
"!.	c #5A391F",
"~.	c #5F3F24",
"{.	c #624228",
"].	c #714F31",
"^.	c #69482A",
"/.	c #644325",
"(.	c #6A492B",
"_.	c #603E21",
":.	c #5F3E20",
"<.	c #45260C",
"[.	c #604027",
"}.	c #66462C",
"|.	c #5E3D23",
"1.	c #6D4B2D",
"2.	c #694728",
"3.	c #6D4B2C",
"4.	c #714E30",
"5.	c #735032",
"6.	c #291A10",
"7.	c #624126",
"8.	c #603F24",
"9.	c #644328",
"0.	c #5F3E23",
"a.	c #64442A",
"b.	c #6B492B",
"c.	c #674528",
"d.	c #69472A",
"e.	c #4C2B0D",
"f.	c #47280E",
"g.	c #5D3E24",
"h.	c #5B3B22",
"i.	c #5F3F26",
"j.	c #68482F",
"k.	c #6A4728",
"l.	c #6B4829",
"m.	c #614025",
"n.	c #66452A",
"o.	c #664325",
"p.	c #634224",
"q.	c #5F3D1F",
"r.	c #613F22",
"s.	c #6C4A2D",
"t.	c #553416",
"u.	c #47270E",
"v.	c #68492F",
"w.	c #6F4D2E",
"x.	c #644123",
"y.	c #714F30",
"z.	c #5E3D22",
"A.	c #634228",
"B.	c #69482D",
"C.	c #6A492E",
"D.	c #65452A",
"E.	c #5B3A1F",
"F.	c #66462B",
"G.	c #69492E",
"H.	c #6B4B31",
"I.	c #654325",
"J.	c #674526",
"K.	c #755335",
"L.	c #603F21",
"M.	c #704E31",
"N.	c #735134",
"O.	c #5B3B20",
"P.	c #5A3A20",
"Q.	c #714E2F",
"R.	c #6E4B2D",
"S.	c #6D4A2B",
"T.	c #654429",
"U.	c #68472C",
"V.	c #59381D",
"W.	c #5D3C21",
"X.	c #704E30",
"Y.	c #6C4A2C",
"Z.	c #613F21",
"`.	c #6D4B2E",
" +	c #5C3C23",
".+	c #704D2E",
"++	c #6D492B",
"@+	c #6F4C2D",
"#+	c #6C4829",
"$+	c #634227",
"%+	c #6B492C",
"&+	c #624329",
"*+	c #624022",
"=+	c #66472D",
"-+	c #664425",
";+	c #745132",
">+	c #745133",
",+	c #734F30",
"'+	c #67462B",
")+	c #6B4A30",
"!+	c #6B4A2F",
"~+	c #765335",
"{+	c #745234",
"]+	c #674628",
"^+	c #57371D",
"/+	c #755233",
"(+	c #725031",
"_+	c #694627",
":+	c #704C2D",
"<+	c #613F24",
"[+	c #58371C",
"}+	c #6A492F",
"|+	c #714D2E",
"1+	c #6D492A",
"2+	c #603E24",
"3+	c #523011",
"4+	c #573516",
"5+	c #46260C",
"6+	c #4C2C12",
"7+	c #47270C",
"8+	c #5E3E23",
"9+	c #6E4A2B",
"0+	c #291B10",
"a+	c #654329",
"b+	c #654324",
"c+	c #573517",
"d+	c #563416",
"e+	c #4E2D13",
"f+	c #4B2B11",
"g+	c #4C2B11",
"h+	c #5A3A1F",
"i+	c #6B4728",
"j+	c #5C3B20",
"k+	c #634122",
"l+	c #583618",
"m+	c #58381D",
"n+	c #513117",
"o+	c #4D2C12",
"p+	c #59381E",
"q+	c #765233",
"r+	c #724E2F",
"s+	c #624025",
"t+	c #644227",
"u+	c #725032",
"v+	c #724F2F",
"w+	c #654328",
"x+	c #704D2D",
"y+	c #674426",
"z+	c #775334",
"A+	c #634126",
"B+	c #5C3A1F",
"C+	c #5A391E",
"D+	c #785637",
"E+	c #765436",
"F+	c #735030",
"G+	c #603E23",
"H+	c #755234",
"I+	c #5E3C22",
"J+	c #664429",
"K+	c #56351B",
"L+	c #765334",
"M+	c #634127",
"N+	c #67472C",
"O+	c #56361C",
"P+	c #543419",
"Q+	c #55351A",
"R+	c #745031",
"S+	c #54341A",
"T+	c #46260B",
"U+	c #55351B",
"V+	c #45250B",
"W+	c #45250A",
"X+	c #49280E",
"Y+	c #46250B",
"Z+	c #735234",
"`+	c #714F32",
" @	c #715032",
".@	c #654426",
"+@	c #5E3F25",
"@@	c #66462D",
"#@	c #502E0F",
"$@	c #4F2D0E",
"%@	c #755436",
"&@	c #6E4D2F",
"*@	c #6B4A2C",
"=@	c #523218",
"-@	c #543113",
";@	c #6F4D30",
">@	c #5B3C22",
",@	c #57371C",
"'@	c #5A3B21",
")@	c #58381F",
"!@	c #5A3A21",
"~@	c #57371E",
"{@	c #614228",
"]@	c #533319",
"^@	c #593A20",
"/@	c #745235",
"(@	c #56371D",
"_@	c #55351C",
":@	c #593920",
"<@	c #745233",
"[@	c #664528",
"}@	c #6D4C2F",
"|@	c #6F4E31",
"1@	c #654427",
"2@	c #5F4027",
"3@	c #63432A",
"4@	c #5D3E25",
"5@	c #53341A",
"6@	c #512E10",
"7@	c #715033",
"8@	c #6E4D30",
"9@	c #6B4A2D",
"0@	c #603F22",
"a@	c #56371E",
"b@	c #5E3F26",
"c@	c #56361D",
"d@	c #553315",
"e@	c #553314",
"f@	c #553214",
"g@	c #6A492C",
"h@	c #26190F",
"i@	c #5B3C23",
"j@	c #583517",
"k@	c #593719",
"l@	c #543214",
"m@	c #68472A",
"n@	c #674629",
"o@	c #69482B",
"p@	c #5A3B22",
"q@	c #593A21",
"r@	c #57381F",
"s@	c #654326",
"t@	c #624124",
"u@	c #634225",
"v@	c #604128",
"w@	c #53341B",
"x@	c #65462C",
"y@	c #54351B",
"z@	c #614023",
"A@	c #55361D",
"B@	c #583920",
"C@	c #5C3D24",
"D@	c #62432A",
"E@	c #55361C",
"F@	c #644326",
"G@	c #704F31",
"H@	c #614229",
"I@	c #704F32",
"J@	c #644427",
"K@	c #5B3D24",
"L@	c #64452C",
"M@	c #62442A",
"N@	c #66472E",
"O@	c #6B4B2E",
"P@	c #69492C",
"Q@	c #67472A",
"R@	c #614024",
"S@	c #5E4026",
"T@	c #65462D",
"U@	c #523013",
"V@	c #512F12",
"W@	c #68472B",
"X@	c #68482B",
"Y@	c #543315",
"Z@	c #553316",
"`@	c #26180F",
" #	c #59371A",
".#	c #725133",
"+#	c #624225",
"@#	c #6A4A2D",
"##	c #5F4128",
"$#	c #593B21",
"%#	c #63442B",
"&#	c #432309",
"*#	c #5D3F26",
"=#	c #55371E",
"-#	c #513013",
";#	c #4F2E10",
">#	c #69482C",
",#	c #664629",
"'#	c #56371F",
")#	c #5B3D23",
"!#	c #634226",
"~#	c #593B22",
"{#	c #694A31",
"]#	c #664529",
"^#	c #67462A",
"/#	c #644327",
"(#	c #5F3E22",
"_#	c #5A3B23",
":#	c #644223",
"<#	c #634326",
"[#	c #624125",
"}#	c #654528",
"|#	c #67482F",
"1#	c #674729",
"2#	c #4D2D13",
"3#	c #48280E",
"4#	c #502E10",
"5#	c #57361C",
"6#	c #4A2A10",
"7#	c #48280F",
"8#	c #6B4B2D",
"9#	c #5C3E24",
"0#	c #523012",
"a#	c #512F11",
"b#	c #634022",
"c#	c #623F21",
"  . + @ # $ # % # & * = - @ - ;   > , ' ) ! ~ { ] ^ / ( _ ) : <   [ } | 1 2 3 4 5 6 7 8 9 0 3 a b c d e f g h i j k l m n ] o p ",
"  . q + r s t u u v w x y z A ;   B C D ~ E F G H ^ H I J K j L   } M N O P Q 3 R 6 S T U 3 V W b X Y Z ` h  ...j _ ( +.@.+.#.( ",
"  $.1 q $ %.u u &.y @ * w *.=.-.  { F ;.>.' ,./ > '., G ).!.~.{.  } % ].^.Q /.+ . 8 6 (.2 _.:.Q b <.[.[.Z Y ..< L l }.l n }.p |.",
"  1.y @ 1 2.t 3.y # & & &.- 4.5.6.7.,.8.9.~.F '.,.0.C I F ! ) a.  b.1.1 O (.c.d.T c.+ /.Q 9 /.e.b f.g.d h.[.[.i.a.j.#.] < ( p ~.",
"  b.% t b.y $ k.v l.s =.4.t v z 6.m.' n.> > F ! |.8.D ! { B ] #.  # o.R O | | % 1 . p.q.r.+ s.t.b u.d X X k g }.v.] o ( j : < p ",
"  w.4.*.u - x.= z # y.; ; A r * 6.z.A.n.B.C.D.E.z.D |.F F.G.H.)   R I.J.- 1.K.% . I.L.L.p.+ M.N.b Y k : : k p H.m m {.< k O.P.> ",
"  -.w.*.w.r - * = A Q.A ; R.S.l.6.7.T.T.U.F.F A.V.W.F G '.^ ,.'.  x.$ @ O X.Y.% O Z.q R 0 8 `.N b  +P.j j L f p @.#.< _ < I G L ",
"  u =.t v .+s z S.S.A Q.++&.@+#+6.0.A.n.$+8.9.) $+) $+F.'.~.A.'   r 2.v | . 1 + + . 9 1 | 1.2 %+b d g.< &+] ( p _ L < _ ) m A.a.",
"  r R.&.w.@+%.; *.z S.S.z S.z A 6.$+8.m.|.) z.9.U.B.G / ) ) O.~   y.R.u 1 . P *+I.8 % X.| 1.b.I.b < #.a.=+#.#.k K K L ;.m ] o #.",
"  - -+u %.t ;+>+; Q.= = S.k.@+,+6.'+m.V.0.W.8./ B.)+!+|.~.J E.|.  4.~+b.+ -+Z.*++ b.K.{+1.1.]+I.b  +a.H.a.a.L P.^+K O.^ F.m '.F ",
"  l.S.2.&./+(+; /+@+S._+* :+.+.+6.9.<+8.[+0.9.T.U.}+T.D.D E.' )   (+1.w.$ Z.I.$.. | X.].].. ]+O b p a.#.o L k k k O.C ) o ] ! ' ",
"  4.&.v &.Q.; A @+Q.|+z z 1+.+.+6.8.9.8.8.2+9.n./ m.T.7.;.|.! F   2.& r 1 + . 3+4+Y.b.1.Y.%+O Y.b ] L p < L j ~ 5+6+7+p ~.;.8+' ",
"  %.Q.A @+z Q.@+@+Q..+; A z S.9+0+8.2+9.'+a+7.T.0.8.z.) T.F.;.G   _+o.b+1 %.1.c+d+b.1 R + % X.X.b #.p P.^+k ( ) e+f+g+L h+>.L |.",
"  u ;+; *.@+= S.Q.9+; /+; ,+i+* 0+W.<+n.U.B.T.E.8.E j+m./ > C.|.  $.k+o.v w.M l+Y.3.R P . b.{+M b a.< K m+: ' n+f+o+#.|.p+).>.F.",
"  =.*.A -.s S.l.z ,+A A q+r+S.l.0+s+$+t+'+U.7.m.V.j+~.) F U.A.A.  w $ @ - 5.u+u+% + . @ . % ].].b _ k j k j #.,.o A.< _ |.: ( ) ",
"  .+.+*.@+A .+z z .+r+v+.+.+,+&.0+m.w+9.t+8.9.m.z.W.m.m.C z.m.m.  $ # R.y.R.1.w.R.O b.1.| | & Y.b _ k < ( ] ( p ;., j < < D.p m.",
"  2.*.S.R.A Q.A .+l..+x+1+Q.Q.; 0+7.7.w+W.0.0.m.9.$+z.A.W.D O.W.  (+R.-.4.v & . O ].t X.} Y.O I.  < p ( o a.#.8+: P.;._ F.F.D.;.",
"  & y+@+.+S.; ;+Q.|+k.#+Q.S.Q.z+0+U.A+B+m.j+j+7.T.T.T.C+W.E.[+E   (+D+%.R.R.+ R Y.w.E+{+1.% . *+b k {.+.#.'.{.k >.!.k B a.] D.) ",
"  r r @ s .+.+Q./+.+1+z 1+Q.A F+0+B.7.G+E.z.0.8.7.'.m.8+V.C+E 8+  H+>+u+1.@ O b.- y.{+u+| 2.+ + b j a.a.}.( < j j : , C > {.~.E ",
"  *.&.y l..+&..+|+Q.,+&.z Q.A Q.0+9.n.7.W.0.7.0.m.I+8.8.j+E.m.)   &.u 4.t O % | X.%.Y.% R.. . Y.b #.L ( p L k L < { ( L L ) p+E ",
"  =.@+R.z _+.+S.S.; A ,+,+S.|+r+0+$+9.9.J+m.0.$+E.E.W.I , $+0.D.  2.O & R.-.t } {+Y.O . + 1.1.1.b {.L h.K j ( j > ] {._ K K+~ >.",
"  &.=.y.S.S._+S..+9+A L+; A S.l.6.0.<+n.'+T.M+E.~ C+>.z.9.T.N+~.  & o.+ t ].M } t | . P . Y.u+K.b ] L K O+P._ }.{.a.{.k P+K+Q+, ",
"  R..+*.=.s @ z &.@+Q.A /+R+S.z 6.8.m.$+T.U.m.W.E.j+j+8+! N+/ ,   2.$ @ - u+K.u+% b.1 1 1 Y.{+} b ( < k P.K ( {.#.< _ ).: S+D T+",
"  w.- %.Q.Q.Q.z l.Q.@+.+,+|+A &.6.7.$+2+$+m.$+7.j+W.7.|.7.! ;.A.  + R.# 1.% s | % . Y.% T ].1.| b < j ( _ p _ _ < j U+k : ' V+W+",
"  $ *.v u >+A .+@+l..+@+l.Q.A .+6.8.8.$+E.z.;.;.A.7.0./ |.O.|.'   *.- ].| . 1 1 O X.% ].E+N Y.O b L ( < m {...: O+U+P.K+( G X+Y+",
"  r 2.u t t ; /+.+R.z z &.z @+;+6.$+m.W.0.j+W.C F.T.T.' ' E ).E   %.u+% Y.O I.P b.| Z+K.`+ @%+.@b +@p @@g #.< ^+n+S+U+L L #.G ;.",
"  #@$@s @+s 4.A ;+Q.& z &.z &..+6.'+8.W.z.I W.;.A.B G ' z.|.h+_   ].u+1.@ O R c.1 % %@Z+X.&@*@U b j h ] {.<  +O+O+=@: L p < p j ",
"  -@-@2.@ %.z *.5.Q.A &.r .+S.z 6.7.$+, j+' 7.~ $+F C A.|.J C I   3.v u b.R 8 Y.b.;@T X.M.O *@| b g i.L ( k O+j K >@k k 8+< ,@< ",
"  ].1.& & 2.w.s 3.>+;+.+.+z &.&.6.;.G F $+! ~.,.E J m.;., C ' {   R . O O % *@X.u+b.O (.2 `.`.T b {...'@)@K !@~@{@p ..P.: O+k >.",
"  1.% t 1 @ - s R..+A /+Q.&.S.& 6.|.) T.'.F 7.0.z.D O.' / ,.#.,   + I.I.Y.| ]. @X.`.U I.. `.| [ b f ..^+]@)@^@i.( #.d k ]@O+^+< ",
"  + R.s % # y s w.- *.=.; ; z l.  |.0.,.9.> , J 8+~ ).' ) ] / <   O I.]+O | /@X.s.T 6 9 U ^. @`+b d g.(@c _@..{@( < [.X : U+: p ",
"  O I.1.| 1.u v @ *.- &.;+4.4.t   C ;.~ 9.C F , J ~ ( P.' ;.) p   + `.^.O &@T | % U s.8 U 7 *@*@b '@:@+@X i ..g.L _ ^+ .k _ L L ",
"  b+r . Y.].%.v # @ &.s v =.<@%.  , ;.7.E 8+C p ) ) |.;.k : _ L   1.Y.X.N 6 d.*@(.8 s.N `+2 [@9 b ^@>@>@f Y i !@!@c k : {@h {.< ",
"b I.. 1 O t t X.v @ s s v w.4.>+  F F ! ~ j 8+;.a.( ) L E K : k b | | M.&@^.c..@2 &@}@M.|@*@1@4 b h.>@2@&+3@4@!@5@X ^@< {.=+#.p ",
"b + R O b.J.% % % % 6@# %.& u 5.  N+F 8+F I D ;.( G p k j j O+j b | [ 1.*@T 9 9 ^.%+7@8@2 9@[@0@b a@d g b@d Y c :@c@>@g {.d h j ",
"b ^.O . + & R Y.y.d@e@f@- w.# v   D.G ,.' ! ) h+) , L L j k L P.b `.8 `.s.6 `.(.]+7 9@*@g@1@c.^.h@ +g.4@+@i@:@d '@i +@d d i.K  .",
"b | Y.R . R 2.1 Y.j@k@l@3.s s #   ,.> a.p p L ~.O.k ' ( _ L  .( b 9 U Y.(.*@8 &@}@m@9 n@]+9 m@o@h@ .p@q@p@r@p@>@&+&+[.>@_ )@:@K ",
"b ;@b.%+R R O 1 1 X.*.y.t & 1.3.  , #.a.}.( ( ;.O.: j _ {.( L {@b 5 0 .@%+}@s.S ;@n@s@t@u@o@m@8 h@v@p@X w@'@'@g.3@x@d g.y@~@X P.",
"b R % (.O O . b.1.+ u X.% *.v -   |.< / ,.D.C _ ) _ ^+< L {.&+..b 2 Q .@m@%+|@7 o@8 .@z@1@1@7 }@h@v@b@A@B@a@C@{@2@d D@X X E@X d ",
"b . I.8 | Y.b.Y.1 b.+ - y.| R.t   , ~.j #.a.p p L < L : ..p d +@b ]+(.1@.@g@g@o@o@[@^.m@F@m@g@g@h@C@i@b@B@h.4@b@g.i X  .!@!@..Y ",
"b s@9 d.&@X.G@O O 1 . . Y.| u+w.  p L _ |.) #.{ ( p ( < >@h._ [.b ^.%+2 n@1@F@n@]+[@g@9@9@o@[@n@h@q@C@b@H@2@C@q@i@(@r@q@d l g g.",
"b .@O 6 2 u+% % O + b.O + | %.|   < ( ;.P._ {.p ] p ( {.j K  +h.b *@d.7 (.Q u@t@.@g@m@7 I@o@1@J@h@4@K@b@L@M@i@p@5@c r@B@Y N@l {@",
"b U 6 b.Y.c.| 1.b.Y.O O u . Y.X.  {.( < p _ k {.{@#.#.+@i.< (@ +b (.7 ^.n@m@0@4 1@[@O@7 P@7 Q@R@h@q@S@H@2@v@v@A@a@A@B@+@2@2@T@g.",
"b U@V@Y.. U 0 Y.| % Y.% Y.O . 1   #.( p p L < k ( #.p d Y +@< :@b 2 2 ]+n@[@]+F@t@n@g@m@m@W@X@o@h@K@2@2@C@C@p@4@B@B@i@2@g.+@i@2@",
"b Y@Z@9 . + s@6 | | u+1.b.Y.. J.  p a.#.L {@L k _ < ( #.L Y p i b 9 s@m@[@9 g@m@[@[@F@[@n@J@P@O@`@b@C@p@C@r@q@4@2@d 2@h.+@q@X i ",
"b  #V@O .@.@^.1 6 .#X.| 1.1 b.b.  ( #.{.#.L L p P.P.Y L &+Y +@{@b 4 1@F@]+o@n@9@7 u@u@u@+#W@n@@#`@##p@p@A@p@$#i@%#T@+@b@r@:@'@^@",
"b [@7 6 ]+1 O 2 1.1 % | Y.Y.Y.b.  &#< #.( Y p +@L _ : d ( [.l i.b m@z@/.n@n@g@g@m@o@u@0@J@1@o@9@`@v@*#=#B@B@i@2@{@H@L@>@'@^@p@ .",
"b /.s@(.Y.8 O % (.. . b.% X.Y.d@  V+j j ( {.( L {.+@ +!@i ( [...b -#;#F@F@n@g@[@n@m@n@1@u@1@o@m@`@4@C@C@q@p@*#H@4@2@b@Y ..i g.D@",
"b 3 Q 6 S 1.G@2 O d.I.+ | % u+c+  p  +: < L p 3@L p ( ^@'@.. +Y b 2 `.6 F@n@F@n@n@J@g@>#1@,#J@F@`@'#K@##b@b@2@)#2@p@>@v@g v@h +@",
"b /.]+]+^.} 1.Y.1 + 1 d.+ ].].%   < < L : _ #.( {.d  .[.'@~@ .i b 9@o@7 g@t@1@1@1@m@n@g@}@1@t@!#`@~#~#4@L@%#C@b@q@i@C@C@h {#H@H@",
"b U (.6 %+1 T b.1 d.Y.O Y.O 1.|   L p L L _ j p ( L ( d g. +)@i b 2 g@8 (.^.u@u@[@]#^#P@>#X@/#(#`@B@_#*#H@D@D@p@i@i@4@2@%#e N@b@",
"b 7 2 N U .@+ (.%+% b.% 1.. + O   ,.( p a.< k j g.( [.g.{.i.h.!@b d.9@n@g@9@n@1@J@1@o@[@1@o@]#F@`@B@C@b@i@##v@2@4@4@d e i.Y v@d ",
"b T G@d.6 0 q + X.8 M.1.O O I.:#  ( #.] ( {.< K i L < &+i.p l !@b d.0 (.^.m@}@o@<#n@F@/#[@u@X@g@`@K@C@q@4@q@C@D@H@v@e b@l i@:@+@",
"b %@8 %+]+0 + . 6 u+&@Y.O + + .   p D.{.#.( L L P.k {.d p Y i.[.b Q U n@6 g@o@9@9@u@u@F@[#}#[@o@h@4@q@i@B@p@i@b@T@|#Y {@i '@q@q@",
"b T ;@(.1 1 1.1 O O Y.b.y + b.1   _ L {.p L p {.< g._ ( Y L L {@b n@F@9 m@m@n@9@g@1#F@t@F@}#}#o@h@2@4@B@q@i@C@4@%#L@e 4@>@h.>@!@",
"b U %+1.Y.X.b.d+V@I.R 1 $.Y.O Y.  k O.< < p {.p 2#3#j g.g. .l ..b 8 9 1@[@1@2 [@6 9@[@F@1@F@m@m@h@v@S@i@i i@4@H@C@v@H@b@....>@{@",
"b 9 R 1.Z+% u+l@4#R Z.q Y.O 1.t   L P.5#L p p }.6#f+7#P.j ( i l b 8 }@c.3 6 F@[@n@[@9@g@F@n@n@1@h@q@b@D@4@4@v@i +@'@h.{@Y g.3@i.",
"b 6 6 1.| K.| Y.y R :#I.-+R.% v   8+E E P.L ] #.a.#.{.( _ '@Y d b 8 8 %+m@t@.@0 1@n@o@g@8#[@F@n@h@p@9#v@%#D@C@+@p@^@q@C@{@@@p l ",
"b %+X.b.% | % O . R 0#+ + @ b.&   E ) ( j ' ;.{.{.;.p ] L < < i.b %+d.}@(.9 F@F@1@n@1@g@T o@[@1@h@C@i@4@L@&+2@i@'@p@>@!@g h f [.",
"b [ T u+b.+ 1 O $ R.a#1.# w o.1   L ( ;.D.< j ( < ( a.p m #._  .b . s.6 *@`.9 F@[@u@U n@n@}@o@9 h@>@C@2@i@H@H@i C@C@>@Y  +i.3@i.",
"b ;@{+1.O I.q + *.v *.t - $.b#c#  ~.;.D.A.{.|.K |.C ( ] ] }.f j b *@]+2 %+*@`.6 t@]+1@F@n@n@8 7 h@g.i.h.C@h.+@&+i.g.g g. .h.k [.",
"b E+| Y.. + q y b.].*.s O 2.:#b+  ! G C F F ' E j 8+G #.a.] e ( b + 2 (.2 (.`.(.m@/./.0 .@0 (.7 h@b@i@C@p@q@ +Y &+h d ( g.'@: ..",
"b ].1.1 1 + 1.$ O % R.@ @ y+v @   ) , ) ! |.) ,.~ ~.{.{.#.{.p }.b d.(.2 O %+c.`.8 0 1@.@F@n@1@^.b i.C@ +'@i  +>@L@e {@d _ j g.: ",
"b . b.O . *.# w.b.-+y & y+3.3.u   E j+~.O.8+C , }.p |.p ( < a.p b ].O O %+0 2 6 2 T ]+s@U /.9 U b {@d p@4@..i@[...g h L +@Y i p "};
