/* XPM */
static char * open_door_xpm[] = {
"64 64 1166 2",
"  	c #000000",
". 	c #433C38",
"+ 	c #6F6863",
"@ 	c #746E68",
"# 	c #49433E",
"$ 	c #6F665D",
"% 	c #6E5D4E",
"& 	c #6F5C4B",
"* 	c #6A5A4B",
"= 	c #7C7269",
"- 	c #4D4844",
"; 	c #77716C",
"> 	c #79736C",
", 	c #7E7872",
"' 	c #817B75",
") 	c #827B74",
"! 	c #7F7770",
"~ 	c #7C746D",
"{ 	c #7F7973",
"] 	c #7B746D",
"^ 	c #777068",
"/ 	c #746C65",
"( 	c #776E66",
"_ 	c #847D76",
": 	c #8A847D",
"< 	c #847C75",
"[ 	c #807871",
"} 	c #7D756D",
"| 	c #7D746C",
"1 	c #867E77",
"2 	c #837D76",
"3 	c #87807A",
"4 	c #867F79",
"5 	c #847E77",
"6 	c #857E79",
"7 	c #857F79",
"8 	c #827B75",
"9 	c #807973",
"0 	c #7D766F",
"a 	c #807972",
"b 	c #817A73",
"c 	c #827C75",
"d 	c #79726C",
"e 	c #78726C",
"f 	c #4F4A46",
"g 	c #7E756D",
"h 	c #6E5C4C",
"i 	c #706052",
"j 	c #6F6053",
"k 	c #726A61",
"l 	c #48433E",
"m 	c #716B65",
"n 	c #726D67",
"o 	c #403A35",
"p 	c #332E2B",
"q 	c #494645",
"r 	c #3E3A39",
"s 	c #272321",
"t 	c #665B51",
"u 	c #67594D",
"v 	c #6C5C4F",
"w 	c #695A4D",
"x 	c #776B62",
"y 	c #383430",
"z 	c #5D5651",
"A 	c #685F59",
"B 	c #675F58",
"C 	c #67594E",
"D 	c #6D6157",
"E 	c #70675F",
"F 	c #746B65",
"G 	c #78706A",
"H 	c #7A736D",
"I 	c #7B736D",
"J 	c #736A62",
"K 	c #72665D",
"L 	c #796E63",
"M 	c #81776F",
"N 	c #74685F",
"O 	c #73665A",
"P 	c #706257",
"Q 	c #7A6C61",
"R 	c #7E746B",
"S 	c #827A73",
"T 	c #837C77",
"U 	c #807974",
"V 	c #7F766F",
"W 	c #7B7269",
"X 	c #7E746C",
"Y 	c #817A74",
"Z 	c #7C746E",
"` 	c #726962",
" .	c #726961",
"..	c #6E6258",
"+.	c #63574D",
"@.	c #6A6159",
"#.	c #6B625A",
"$.	c #625B56",
"%.	c #3A3532",
"&.	c #7C7169",
"*.	c #6D5D50",
"=.	c #6E5F52",
"-.	c #6C5F54",
";.	c #6C6258",
">.	c #2B2826",
",.	c #423F3E",
"'.	c #494543",
").	c #322D2A",
"!.	c #3B3633",
"~.	c #484442",
"{.	c #3A3634",
"].	c #25221F",
"^.	c #62584F",
"/.	c #62574F",
"(.	c #5A5149",
"_.	c #6E6156",
":.	c #796F67",
"<.	c #36322F",
"[.	c #605B56",
"}.	c #67605A",
"|.	c #635B55",
"1.	c #62554A",
"2.	c #685B4F",
"3.	c #7A716B",
"4.	c #7B726C",
"5.	c #7E7771",
"6.	c #7A726B",
"7.	c #64584D",
"8.	c #68594C",
"9.	c #6A5B4F",
"0.	c #6B5D51",
"a.	c #675A4F",
"b.	c #7C7168",
"c.	c #82766C",
"d.	c #7E7269",
"e.	c #837B74",
"f.	c #847D78",
"g.	c #7E7670",
"h.	c #7A7068",
"i.	c #71655B",
"j.	c #797068",
"k.	c #7E766F",
"l.	c #766D66",
"m.	c #6F6359",
"n.	c #6A5C51",
"o.	c #61564D",
"p.	c #635A53",
"q.	c #68605A",
"r.	c #605953",
"s.	c #37332F",
"t.	c #7B7169",
"u.	c #60564E",
"v.	c #6B6057",
"w.	c #262321",
"x.	c #3C3837",
"y.	c #4D4947",
"z.	c #34302D",
"A.	c #3A342F",
"B.	c #474240",
"C.	c #373230",
"D.	c #25221E",
"E.	c #544D47",
"F.	c #625F5B",
"G.	c #695F55",
"H.	c #716860",
"I.	c #302D29",
"J.	c #4E4743",
"K.	c #514842",
"L.	c #5D544C",
"M.	c #665B52",
"N.	c #6A5F55",
"O.	c #6B6158",
"P.	c #766E67",
"Q.	c #6F655C",
"R.	c #6F655D",
"S.	c #655A51",
"T.	c #685C53",
"U.	c #63574E",
"V.	c #5E5349",
"W.	c #60544A",
"X.	c #665A4F",
"Y.	c #77685B",
"Z.	c #766960",
"`.	c #746B63",
" +	c #746C66",
".+	c #716861",
"++	c #6F665E",
"@+	c #6B6159",
"#+	c #6B6056",
"$+	c #6C6057",
"%+	c #6D6158",
"&+	c #70655C",
"*+	c #6C6056",
"=+	c #6A5D52",
"-+	c #64594F",
";+	c #584E46",
">+	c #544C45",
",+	c #524B46",
"'+	c #322D29",
")+	c #776E67",
"!+	c #6C6158",
"~+	c #666360",
"{+	c #4E4843",
"]+	c #262220",
"^+	c #393431",
"/+	c #484340",
"(+	c #3A3531",
"_+	c #463F3B",
":+	c #463F3A",
"<+	c #61574F",
"[+	c #50463F",
"}+	c #453D37",
"|+	c #706760",
"1+	c #33302C",
"2+	c #4F4944",
"3+	c #534B44",
"4+	c #59524B",
"5+	c #615851",
"6+	c #696159",
"7+	c #625850",
"8+	c #68615B",
"9+	c #6C655E",
"0+	c #584C43",
"a+	c #5B5148",
"b+	c #655D55",
"c+	c #665F58",
"d+	c #625B54",
"e+	c #5C5148",
"f+	c #5A4F46",
"g+	c #5E5348",
"h+	c #63584F",
"i+	c #685F58",
"j+	c #706963",
"k+	c #6D6660",
"l+	c #6C655F",
"m+	c #675F59",
"n+	c #665D55",
"o+	c #665C54",
"p+	c #6A625B",
"q+	c #6C645D",
"r+	c #615750",
"s+	c #635A52",
"t+	c #5E554F",
"u+	c #564D46",
"v+	c #544B44",
"w+	c #322E2B",
"x+	c #635951",
"y+	c #463D36",
"z+	c #504740",
"A+	c #675E55",
"B+	c #2D2826",
"C+	c #413A36",
"D+	c #4A433E",
"E+	c #3E3833",
"F+	c #36302D",
"G+	c #413B38",
"H+	c #4B443F",
"I+	c #3D3835",
"J+	c #615952",
"K+	c #645950",
"L+	c #625950",
"M+	c #594F47",
"N+	c #645B53",
"O+	c #13110E",
"P+	c #191511",
"Q+	c #181410",
"R+	c #171411",
"S+	c #171512",
"T+	c #181513",
"U+	c #191613",
"V+	c #181613",
"W+	c #1A1613",
"X+	c #1A1612",
"Y+	c #191713",
"Z+	c #1A1714",
"`+	c #1B1814",
" @	c #1B1714",
".@	c #181512",
"+@	c #161310",
"@@	c #181511",
"#@	c #191512",
"$@	c #13110F",
"%@	c #655B54",
"&@	c #5C5149",
"*@	c #635950",
"=@	c #6D655D",
"-@	c #332F2C",
";@	c #453D3A",
">@	c #433D39",
",@	c #39332F",
"'@	c #393430",
")@	c #47413E",
"!@	c #3E3936",
"~@	c #37322F",
"{@	c #5F5751",
"]@	c #594F46",
"^@	c #534940",
"/@	c #5E534C",
"(@	c #2F2218",
"_@	c #473426",
":@	c #463121",
"<@	c #533823",
"[@	c #4D3422",
"}@	c #553B29",
"|@	c #5B402B",
"1@	c #5D422D",
"2@	c #593E2A",
"3@	c #59402C",
"4@	c #5A412C",
"5@	c #593E2B",
"6@	c #573D28",
"7@	c #5E412C",
"8@	c #5D412A",
"9@	c #513725",
"0@	c #553823",
"a@	c #60422B",
"b@	c #644730",
"c@	c #5F432D",
"d@	c #5B402C",
"e@	c #5A402D",
"f@	c #5F432C",
"g@	c #62452E",
"h@	c #5E432D",
"i@	c #5C412C",
"j@	c #5B412D",
"k@	c #5C402B",
"l@	c #5F422B",
"m@	c #593C25",
"n@	c #513723",
"o@	c #523824",
"p@	c #483222",
"q@	c #443225",
"r@	c #2D2119",
"s@	c #594E45",
"t@	c #5C534B",
"u@	c #665E56",
"v@	c #3D3836",
"w@	c #47423F",
"x@	c #3A3736",
"y@	c #3B3734",
"z@	c #4F4A45",
"A@	c #564F49",
"B@	c #554E48",
"C@	c #554E47",
"D@	c #57514A",
"E@	c #1E1610",
"F@	c #1E1913",
"G@	c #33261B",
"H@	c #392A1E",
"I@	c #3E2C1E",
"J@	c #422F20",
"K@	c #483422",
"L@	c #453222",
"M@	c #443121",
"N@	c #422F1F",
"O@	c #3D2C1F",
"P@	c #433122",
"Q@	c #473322",
"R@	c #463120",
"S@	c #3E2B1D",
"T@	c #432E1E",
"U@	c #3F2E21",
"V@	c #4A3625",
"W@	c #4B3523",
"X@	c #433021",
"Y@	c #463424",
"Z@	c #4A3523",
"`@	c #4B3725",
" #	c #493422",
".#	c #473221",
"+#	c #463221",
"@#	c #44301F",
"##	c #3F2D1F",
"$#	c #3B2A1D",
"%#	c #30231A",
"&#	c #211B17",
"*#	c #1C150F",
"=#	c #59514A",
"-#	c #554D46",
";#	c #534E49",
">#	c #3B3835",
",#	c #3E3A38",
"'#	c #393534",
")#	c #302C28",
"!#	c #2E2B29",
"~#	c #373433",
"{#	c #383535",
"]#	c #3D3A37",
"^#	c #5B4634",
"/#	c #7D7670",
"(#	c #837C76",
"_#	c #504842",
":#	c #492B16",
"<#	c #352E29",
"[#	c #24211D",
"}#	c #332C28",
"|#	c #4D2E17",
"1#	c #59514B",
"2#	c #827C76",
"3#	c #624C3A",
"4#	c #373533",
"5#	c #3B3837",
"6#	c #343130",
"7#	c #312C29",
"8#	c #322F2D",
"9#	c #393634",
"0#	c #4A301C",
"a#	c #6A615A",
"b#	c #716963",
"c#	c #726A63",
"d#	c #584D45",
"e#	c #634024",
"f#	c #423A34",
"g#	c #282421",
"h#	c #282422",
"i#	c #473E38",
"j#	c #5D3B21",
"k#	c #60574E",
"l#	c #6E6761",
"m#	c #6C645E",
"n#	c #513521",
"o#	c #3B3836",
"p#	c #353230",
"q#	c #37322E",
"r#	c #3A3631",
"s#	c #4B311D",
"t#	c #685E56",
"u#	c #756E67",
"v#	c #5A4F48",
"w#	c #614025",
"x#	c #4D443D",
"y#	c #2C2825",
"z#	c #2C2926",
"A#	c #4B423C",
"B#	c #603F23",
"C#	c #655C54",
"D#	c #543721",
"E#	c #3F3934",
"F#	c #35312C",
"G#	c #342F2C",
"H#	c #453F3A",
"I#	c #3D3936",
"J#	c #393531",
"K#	c #4A2F1C",
"L#	c #685F57",
"M#	c #756E68",
"N#	c #7D756F",
"O#	c #5D534B",
"P#	c #624024",
"Q#	c #2B2723",
"R#	c #2B2724",
"S#	c #514841",
"T#	c #5F3D22",
"U#	c #696058",
"V#	c #7A736E",
"W#	c #6B635D",
"X#	c #523621",
"Y#	c #363330",
"Z#	c #47403C",
"`#	c #36312E",
" $	c #312D2B",
".$	c #3D3938",
"+$	c #3B3736",
"@$	c #363331",
"#$	c #492E1B",
"$$	c #726B66",
"%$	c #5D534C",
"&$	c #634126",
"*$	c #574E47",
"=$	c #2A2623",
"-$	c #2B2725",
";$	c #574F48",
">$	c #613F24",
",$	c #696059",
"'$	c #7C7670",
")$	c #69625C",
"!$	c #503521",
"~$	c #33302E",
"{$	c #3A3635",
"]$	c #312C2A",
"^$	c #3E3B38",
"/$	c #383534",
"($	c #3A3734",
"_$	c #665E57",
":$	c #6B655F",
"<$	c #77726D",
"[$	c #654327",
"}$	c #595049",
"|$	c #2C2824",
"1$	c #584F48",
"2$	c #5F3D24",
"3$	c #79736D",
"4$	c #716964",
"5$	c #69625D",
"6$	c #33312F",
"7$	c #3B3735",
"8$	c #3A3735",
"9$	c #403D3C",
"0$	c #3F3C3B",
"a$	c #423F3D",
"b$	c #482F1C",
"c$	c #6C6660",
"d$	c #5B554F",
"e$	c #6D635C",
"f$	c #46403B",
"g$	c #2C2724",
"h$	c #423C37",
"i$	c #6C625A",
"j$	c #655F5A",
"k$	c #7A746F",
"l$	c #6B645E",
"m$	c #4F3521",
"n$	c #393635",
"o$	c #413E3D",
"p$	c #403C3C",
"q$	c #363231",
"r$	c #282524",
"s$	c #423F3F",
"t$	c #4C311C",
"u$	c #6C6661",
"v$	c #7A7570",
"w$	c #534D48",
"x$	c #5A524C",
"y$	c #292421",
"z$	c #2A2622",
"A$	c #2D2925",
"B$	c #28231F",
"C$	c #706A65",
"D$	c #4F341F",
"E$	c #444140",
"F$	c #292625",
"G$	c #242221",
"H$	c #3D3937",
"I$	c #4B301C",
"J$	c #66605B",
"K$	c #716A65",
"L$	c #534C48",
"M$	c #5E5752",
"N$	c #2A2521",
"O$	c #2B2622",
"P$	c #2E2926",
"Q$	c #282420",
"R$	c #5D5550",
"S$	c #5C5652",
"T$	c #706965",
"U$	c #533621",
"V$	c #383533",
"W$	c #3D3A39",
"X$	c #262423",
"Y$	c #282525",
"Z$	c #3E3B3A",
"`$	c #4D4A49",
" %	c #3F3B39",
".%	c #4C3320",
"+%	c #756E69",
"@%	c #544D49",
"#%	c #58504C",
"$%	c #2F2A27",
"%%	c #282320",
"&%	c #5B544F",
"*%	c #5C5651",
"=%	c #6B625C",
"-%	c #533722",
";%	c #4E4B4A",
">%	c #3F3B3B",
",%	c #2D2928",
"'%	c #43403F",
")%	c #3C3A38",
"!%	c #442F1F",
"~%	c #655E58",
"{%	c #736C67",
"]%	c #56504C",
"^%	c #504741",
"/%	c #26211E",
"(%	c #544B45",
"_%	c #5D5753",
":%	c #77716B",
"<%	c #77706A",
"[%	c #675F5A",
"}%	c #523823",
"|%	c #363432",
"1%	c #44403F",
"2%	c #2F2C2A",
"3%	c #312D2A",
"4%	c #413D3C",
"5%	c #3B3937",
"6%	c #482E1B",
"7%	c #655C56",
"8%	c #6D6661",
"9%	c #544E4A",
"0%	c #453A33",
"a%	c #26211D",
"b%	c #241F1B",
"c%	c #463D35",
"d%	c #5D5854",
"e%	c #78726D",
"f%	c #6E6660",
"g%	c #665D57",
"h%	c #4F321D",
"i%	c #393533",
"j%	c #2E2927",
"k%	c #34312F",
"l%	c #3F3B3A",
"m%	c #492E19",
"n%	c #625A54",
"o%	c #524C47",
"p%	c #372111",
"q%	c #3E3630",
"r%	c #2A2724",
"s%	c #3E3631",
"t%	c #392212",
"u%	c #5F5954",
"v%	c #77706B",
"w%	c #635952",
"x%	c #50311A",
"y%	c #302E2D",
"z%	c #2E2A27",
"A%	c #3F3C3C",
"B%	c #432814",
"C%	c #5C4F45",
"D%	c #736C66",
"E%	c #544C46",
"F%	c #59381E",
"G%	c #292623",
"H%	c #5F3C20",
"I%	c #746D67",
"J%	c #605349",
"K%	c #472B16",
"L%	c #33302F",
"M%	c #3C3938",
"N%	c #2F2B29",
"O%	c #302D2A",
"P%	c #5E5248",
"Q%	c #6C635B",
"R%	c #7B756F",
"S%	c #57504B",
"T%	c #5A381D",
"U%	c #2C2723",
"V%	c #292522",
"W%	c #5C544D",
"X%	c #58361C",
"Y%	c #645D58",
"Z%	c #79736E",
"`%	c #6F665F",
" &	c #64584F",
".&	c #4B2E18",
"+&	c #2B2927",
"@&	c #3A3430",
"#&	c #34302E",
"$&	c #452E1D",
"%&	c #655E57",
"&&	c #716A64",
"*&	c #554F4A",
"=&	c #55341A",
"-&	c #5D544D",
";&	c #5B534C",
">&	c #615954",
",&	c #726C66",
"'&	c #4C321E",
")&	c #2B2926",
"!&	c #2F2C2B",
"~&	c #363230",
"{&	c #3B3632",
"]&	c #3F3935",
"^&	c #4C453F",
"/&	c #48443F",
"(&	c #493220",
"_&	c #6B6661",
":&	c #534C47",
"<&	c #54341C",
"[&	c #5B524B",
"}&	c #2B2623",
"|&	c #282522",
"1&	c #54331A",
"2&	c #5E5751",
"3&	c #76706B",
"4&	c #6C6762",
"5&	c #6D6762",
"6&	c #513824",
"7&	c #413D39",
"8&	c #4D4843",
"9&	c #403A34",
"0&	c #312A26",
"a&	c #4B4138",
"b&	c #3F3833",
"c&	c #452D1A",
"d&	c #625B55",
"e&	c #6A6662",
"f&	c #716D69",
"g&	c #504A45",
"h&	c #53321A",
"i&	c #56351C",
"j&	c #605852",
"k&	c #756F6B",
"l&	c #6E6865",
"m&	c #50331D",
"n&	c #332F2D",
"o&	c #3E3734",
"p&	c #4C4139",
"q&	c #322B26",
"r&	c #3D352F",
"s&	c #433932",
"t&	c #3B3530",
"u&	c #3C3835",
"v&	c #452D1B",
"w&	c #605954",
"x&	c #686460",
"y&	c #706B67",
"z&	c #524A45",
"A&	c #5B381D",
"B&	c #5A514B",
"C&	c #57361D",
"D&	c #5F5852",
"E&	c #706A66",
"F&	c #6E6965",
"G&	c #4A301D",
"H&	c #383432",
"I&	c #3D3734",
"J&	c #453B34",
"K&	c #3E352E",
"L&	c #3E3935",
"M&	c #3B332D",
"N&	c #3F3A37",
"O&	c #43413E",
"P&	c #452C1A",
"Q&	c #68635F",
"R&	c #706B66",
"S&	c #554C47",
"T&	c #5B391E",
"U&	c #595149",
"V&	c #595048",
"W&	c #57351C",
"X&	c #716B67",
"Y&	c #6F6A66",
"Z&	c #393029",
"`&	c #3C3733",
" *	c #312E2C",
".*	c #393735",
"+*	c #492E1A",
"@*	c #625A53",
"#*	c #6B6660",
"$*	c #726C68",
"%*	c #534B46",
"&*	c #5A371C",
"**	c #2D2824",
"=*	c #766F6A",
"-*	c #615A54",
";*	c #4C311E",
">*	c #373534",
",*	c #312E2D",
"'*	c #353231",
")*	c #393737",
"!*	c #3C3B3B",
"~*	c #32302E",
"{*	c #462B18",
"]*	c #625447",
"^*	c #74665A",
"/*	c #59361B",
"(*	c #534A43",
"_*	c #5A5047",
":*	c #77685A",
"<*	c #736458",
"[*	c #625348",
"}*	c #4C301B",
"|*	c #2D2B2A",
"1*	c #42403F",
"2*	c #3E3C3B",
"3*	c #343131",
"4*	c #32302F",
"5*	c #312F2E",
"6*	c #4C301A",
"7*	c #625346",
"8*	c #6E6155",
"9*	c #766A61",
"0*	c #4F463F",
"a*	c #57351A",
"b*	c #554C44",
"c*	c #554B44",
"d*	c #57351B",
"e*	c #5C5248",
"f*	c #7A6D62",
"g*	c #766659",
"h*	c #67574A",
"i*	c #4F321C",
"j*	c #2F2D2C",
"k*	c #393736",
"l*	c #343231",
"m*	c #363332",
"n*	c #472C18",
"o*	c #736D68",
"p*	c #544C47",
"q*	c #554C46",
"r*	c #59371D",
"s*	c #5E5650",
"t*	c #736D67",
"u*	c #60574F",
"v*	c #635850",
"w*	c #52341E",
"x*	c #413D3A",
"y*	c #3E3937",
"z*	c #635B54",
"A*	c #645E59",
"B*	c #76716C",
"C*	c #564F4A",
"D*	c #5C391E",
"E*	c #2A2522",
"F*	c #292523",
"G*	c #605A55",
"H*	c #635B56",
"I*	c #523520",
"J*	c #373431",
"K*	c #3C3735",
"L*	c #423E3B",
"M*	c #433C37",
"N*	c #383431",
"O*	c #373332",
"P*	c #393633",
"Q*	c #492F1C",
"R*	c #686059",
"S*	c #67615C",
"T*	c #75706B",
"U*	c #58504B",
"V*	c #5C381E",
"W*	c #59504A",
"X*	c #5A371E",
"Y*	c #625C56",
"Z*	c #67605B",
"`*	c #373432",
" =	c #453E38",
".=	c #2F2A26",
"+=	c #302C2A",
"@=	c #4A2F1B",
"#=	c #675D55",
"$=	c #76706A",
"%=	c #57371F",
"&=	c #292521",
"*=	c #54361F",
"==	c #706761",
"-=	c #302D2B",
";=	c #2E2825",
">=	c #332E2A",
",=	c #462C19",
"'=	c #655B53",
")=	c #7B746E",
"!=	c #514944",
"~=	c #514840",
"{=	c #514942",
"]=	c #706861",
"^=	c #322F2E",
"/=	c #37312E",
"(=	c #353130",
"_=	c #452C19",
":=	c #665D56",
"<=	c #564C46",
"[=	c #5A3920",
"}=	c #5A3A21",
"|=	c #605851",
"1=	c #6B645F",
"2=	c #4F311B",
"3=	c #37312D",
"4=	c #3A332F",
"5=	c #4C4541",
"6=	c #47413C",
"7=	c #462B17",
"8=	c #6E6864",
"9=	c #7C7773",
"0=	c #534B45",
"a=	c #5E3D23",
"b=	c #645B55",
"c=	c #7B7673",
"d=	c #6C6560",
"e=	c #4E301A",
"f=	c #3D3935",
"g=	c #494440",
"h=	c #4C4642",
"i=	c #3B342F",
"j=	c #492F1B",
"k=	c #746F6A",
"l=	c #7C7672",
"m=	c #5D3B20",
"n=	c #2A2624",
"o=	c #564E47",
"p=	c #5E3C21",
"q=	c #7A7571",
"r=	c #6D655F",
"s=	c #51331C",
"t=	c #33302D",
"u=	c #322F2B",
"v=	c #472E1B",
"w=	c #746E69",
"x=	c #7D7772",
"y=	c #584F49",
"z=	c #613E22",
"A=	c #574E48",
"B=	c #7E7873",
"C=	c #76706D",
"D=	c #6A625C",
"E=	c #4F331E",
"F=	c #393532",
"G=	c #434140",
"H=	c #2D2A28",
"I=	c #716962",
"J=	c #5A514A",
"K=	c #534A44",
"L=	c #5F3C22",
"M=	c #655D56",
"N=	c #726A65",
"O=	c #685E58",
"P=	c #2A2725",
"Q=	c #464342",
"R=	c #474443",
"S=	c #70665F",
"T=	c #837B75",
"U=	c #5A534E",
"V=	c #6D625B",
"W=	c #4C4742",
"X=	c #4E4944",
"Y=	c #6C6159",
"Z=	c #655F59",
"`=	c #867E78",
" -	c #716760",
".-	c #645850",
"+-	c #523622",
"@-	c #49301D",
"#-	c #625A52",
"$-	c #807770",
"%-	c #544E49",
"&-	c #554D47",
"*-	c #292420",
"=-	c #5F5A54",
"--	c #817871",
";-	c #776D66",
">-	c #655C55",
",-	c #353331",
"'-	c #322E2D",
")-	c #373532",
"!-	c #4B311E",
"~-	c #7B726B",
"{-	c #58524E",
"]-	c #5C544F",
"^-	c #5B534D",
"/-	c #635D58",
"(-	c #7C746C",
"_-	c #736960",
":-	c #69615A",
"<-	c #472F1D",
"[-	c #675F57",
"}-	c #726B64",
"|-	c #5E5651",
"1-	c #2D2825",
"2-	c #59514C",
"3-	c #5D5752",
"4-	c #726A64",
"5-	c #695F58",
"6-	c #4F331F",
"7-	c #282523",
"8-	c #615850",
"9-	c #645D57",
"0-	c #6F6963",
"a-	c #524A44",
"b-	c #26221D",
"c-	c #59534E",
"d-	c #272422",
"e-	c #252220",
"f-	c #545150",
"g-	c #3B3938",
"h-	c #69635F",
"i-	c #514B47",
"j-	c #463C35",
"k-	c #27221E",
"l-	c #453B35",
"m-	c #5A5450",
"n-	c #4C301C",
"o-	c #353232",
"p-	c #524F4E",
"q-	c #2A2726",
"r-	c #5D544E",
"s-	c #645F5B",
"t-	c #4D4743",
"u-	c #3C352F",
"v-	c #3C3530",
"w-	c #382213",
"x-	c #5B5551",
"y-	c #716C67",
"z-	c #67625D",
"A-	c #615852",
"B-	c #52331B",
"C-	c #4F4C4B",
"D-	c #484443",
"E-	c #3C3937",
"F-	c #452A16",
"G-	c #5D554E",
"H-	c #66625E",
"I-	c #504943",
"J-	c #53341C",
"K-	c #524942",
"L-	c #5B391F",
"M-	c #5A534D",
"N-	c #67625E",
"O-	c #625A55",
"P-	c #482C17",
"Q-	c #312D2C",
"R-	c #43403E",
"S-	c #35312F",
"T-	c #484544",
"U-	c #3B3936",
"V-	c #432916",
"W-	c #5F554D",
"X-	c #635E5A",
"Y-	c #54351D",
"Z-	c #56371F",
"`-	c #6D6763",
" ;	c #5F5752",
".;	c #4A2C16",
"+;	c #454240",
"@;	c #302B29",
"#;	c #342F2D",
"$;	c #4E3019",
"%;	c #4E3018",
"&;	c #6E6862",
"*;	c #4A2D17",
"=;	c #302C29",
"-;	c #373331",
";;	c #452B18",
">;	c #5D544B",
",;	c #5C544E",
"';	c #4E4640",
");	c #4E2F17",
"!;	c #513119",
"~;	c #59524C",
"{;	c #5F564F",
"];	c #4D301A",
"^;	c #262320",
"/;	c #2E2A26",
"(;	c #452A17",
"_;	c #5B5047",
":;	c #5E5750",
"<;	c #4D453F",
"[;	c #56351B",
"};	c #564D47",
"|;	c #54331B",
"1;	c #57504A",
"2;	c #26221F",
"3;	c #352F2B",
"4;	c #332F2B",
"5;	c #412714",
"6;	c #574C44",
"7;	c #605750",
"8;	c #4F4640",
"9;	c #5D3A1F",
"0;	c #554D45",
"a;	c #625952",
"b;	c #482C16",
"c;	c #2D2A26",
"d;	c #36312C",
"e;	c #433D38",
"f;	c #4C4641",
"g;	c #4A443E",
"h;	c #3A3632",
"i;	c #452A15",
"j;	c #5A5048",
"k;	c #655C53",
"l;	c #4E443C",
"m;	c #5F3E23",
"n;	c #2A241F",
"o;	c #5E3C22",
"p;	c #524941",
"q;	c #5B5149",
"r;	c #504B45",
"s;	c #433E39",
"t;	c #322A24",
"u;	c #3F3831",
"v;	c #37322D",
"w;	c #2F2B28",
"x;	c #3F2512",
"y;	c #61584F",
"z;	c #4B413A",
"A;	c #5F3F24",
"B;	c #29231F",
"C;	c #613F23",
"D;	c #50463E",
"E;	c #442915",
"F;	c #2D2A27",
"G;	c #2F2924",
"H;	c #322924",
"I;	c #44382F",
"J;	c #5D5650",
"K;	c #5E3D22",
"L;	c #5C3A20",
"M;	c #736C65",
"N;	c #292624",
"O;	c #36312D",
"P;	c #3D342D",
"Q;	c #342C25",
"R;	c #39322C",
"S;	c #2D2926",
"T;	c #5F554E",
"U;	c #51473F",
"V;	c #58371E",
"W;	c #5A5049",
"X;	c #665B53",
"Y;	c #594F48",
"Z;	c #3B342E",
"`;	c #3B332C",
" >	c #413933",
".>	c #483F38",
"+>	c #494038",
"@>	c #302A25",
"#>	c #5F5650",
"$>	c #60564F",
"%>	c #514941",
"&>	c #655A50",
"*>	c #51311A",
"=>	c #585048",
"->	c #574F47",
";>	c #52321A",
">>	c #675D54",
",>	c #473D35",
"'>	c #4B4139",
")>	c #403831",
"!>	c #423933",
"~>	c #38322E",
"{>	c #5C524B",
"]>	c #504A44",
"^>	c #544F4A",
"/>	c #65584E",
"(>	c #51463F",
"_>	c #585049",
":>	c #544941",
"<>	c #65594F",
"[>	c #57524D",
"}>	c #4D463F",
"|>	c #39322D",
"1>	c #37302B",
"2>	c #403730",
"3>	c #3B3430",
"4>	c #25211E",
"5>	c #544A42",
"6>	c #453D36",
"7>	c #695C52",
"8>	c #544A43",
"9>	c #46403A",
"0>	c #0F0C0A",
"a>	c #0F0D0B",
"b>	c #49423C",
"c>	c #4F311A",
"d>	c #574D46",
"e>	c #675C53",
"f>	c #463E37",
"g>	c #524840",
"h>	c #221F1C",
"i>	c #36302C",
"j>	c #443B35",
"k>	c #3C342F",
"l>	c #584D43",
"m>	c #564B41",
"n>	c #48413B",
"o>	c #321D0E",
"p>	c #010101",
"q>	c #301C0D",
"r>	c #4B443E",
"s>	c #5C4F44",
"t>	c #564A41",
"u>	c #564D45",
"v>	c #201D1B",
"w>	c #39332E",
"                                                                                                                                ",
"          . + @ # $ % & * = - ; > , ' ) ! ~ { ] ^ / ( _ : < [ } | 1 2 3 4 5 6 7 8 9 0 a b c 0 d e f g h i j k l m n o           ",
"          p q r s t u v w x y z A B C D E F G H I J K L M N O P Q R S T U V W X Y Z `  ...+.@.#.$.%.&.*.=.-.;.>.,.'.).          ",
"          !.~.{.].^./.(._.:.<.[.}.|.1.2.D ` 3.4.5.6.7.8.9.0.a.b.c.d.e.T f.g.h.i.j.k.l.m.n.o.p.q.r.s.t.m.(.u.v.w.x.y.z.          ",
"          A.B.C.D.^.E.F.G.H.I.J.K.L.M.N.D O.H.P.Q.R.S.T.U.V.W.X.Y.Z.`. +.+++@+#+$+%+&+*+=+-+;+>+,+'+)+!+~+{+*+]+^+/+!.          ",
"          (+_+:+'+<+[+}+^.|+1+2+3+4+5+B 6+7+8+9+0+a+b+c+d+e+f+g+h+i+j+k+l+m+n+o+p+q+r+u.s+t+u+v+,+w+J x+y+z+A+B+C+D+E+          ",
"          F+G+H+I+J+K+L+M+N+O+P+Q+R+R+S+T+U+U+T+V+V+U+U+U+U+W+X+Y+Z+`+`+U+U+ @Y+Z+U+.@.@.@R++@@@#@$@%@&@*@/.=@-@;@>@,@          ",
"          '@)@!@~@{@r+]@^@/@(@_@:@<@[@}@|@1@2@3@4@}@5@6@7@8@9@0@a@b@c@d@e@f@g@h@i@j@k@l@m@n@o@p@q@r@r+s@t@^.u@C.v@w@~@          ",
"          ).x@x.y@z@A@B@C@D@E@F@G@H@I@J@K@L@M@N@O@O@P@Q@K@R@S@T@U@V@W@X@Y@Z@`@ #.#L@+#L@@###$#%#&#*#=#-#C@E.;#>#,#'#)#          ",
"          !#~#{#]#^#/#(#a _#:#<#[#                                                            ].}#|#1#1 (#2#3#4#5#6#-@          ",
"          7#8#9#y@0#a#b#c#d#e#f#g#                                                            h#i#j#k#c#l#m#n#>#o#p#p           ",
"          p ^+q#r#s#t#u#6.v#w#x#y#                                                            z#A#B#C#G  +}.D#s.^+E#F#          ",
"          G#H#I#J#K#L#M#N#O#P#v+Q#                                                            R#S#T#U#g.V#W#X#Y#I#Z#`#          ",
"           $.$+$@$#$B $$V#%$&$*$=$                                                            -$;$>$,$'$M#)$!$~${$+$]$          ",
"          ^$/$6#($s#_$:$<$%$[$}$|$                                                            R#1$2$B 3$4$5$!$6$6#p#7$          ",
"          8$9$0$a$b$m+c$; d$e$f$Q#                                                            g$h$i$j$k$+ l$m$n$o$p$q$          ",
"          r$5#s$x@t$W#u$v$w$x$y$z$                                                            A$B$x$[.k$C$l#D$/$E$9$F$          ",
"          G${#5#H$I$p+J$K$L$M$N$O$                                                            P$Q$R$S$T$5$b#U$V$W$W$X$          ",
"          Y$Z$`$ %.%_$q.+%@%#%N$O$                                                            $%%%&%*%@ =%9+-%{$;%>%F$          ",
"          ,%+$'%)%!%~%{%; ]%^%N$z$                                                            R#/%(%_%:%<%[%}%|%1%o#2%          ",
"          3%q$4%5%6%7%8%; 9%0%a%O$                                                            =$b%c%d%e%f%g%h%n$,.i%w+          ",
"          j%k%l%V$m%u.n%M#o%p%q%z$                                                            r%s%t%u%v%w%x+x%y%0$k%z%          ",
"          3%0$A%Y#B%C%5+D%E%F%v+O$                                                            G%>+H%$.I%M.J%K%L%M%0$N%          ",
"          p x@~#O%K%P%Q%R%S%T%}$U%                                                            V%W%X%Y%Z%`% &.&+&/$/$z.          ",
"          @&#&!#w+$&%&&&, *&=&-&g$                                                            g#;&=&>&'$,&5$'&)&!&~&{&          ",
"          ]&u+^&/&(&~%_&<$:&<&[&}&                                                            |&[&1&2&3&4&5&6&7&8&S#9&          ",
"          0&a&b&y c&d&e&f&g&h&;&g$                                                            h#[&i&j&k&l&J$m&n&o&p&q&          ",
"          r&s&t&u&v&w&x&y&z&A&B&Q#                                                            s =#C&D&E&F&u%G&H&I&J&K&          ",
"          L&M&N&O&P&w&Q&R&S&T&U&U%                                                            V%V&W&z X&Y&w&I$^$!@Z&`&          ",
"          8# *Z$.*+*@*#*$*%*&*u+**                                                            y#*$W&2&=*E&-*;*>*9$,*'*          ",
"          6#)*!*~*{*]*0.^*[+/*(*A$                                                            y#(*W&_*:*<*[*}*|*1*2*3*          ",
"          4*{#5*8#6*7*8*9*0*a*b*}&                                                            y#c*d*e*f*g*h*i*j*8#k*l*          ",
"          m*W$~#o#n*U.n%o*p*&*q*=$                                                            R#-#r*s*t*u*v*w*@$~#n$9#          ",
"          x*y*9#]#}*z*A*B*C*D*-#E*                                                            F*1$X%G*k&H*_$I*J*{$K*L*          ",
"          M*N*O*P*Q*R*S*T*U*V*;$V%                                                            =$W*X*Y*3&Z*B D$`*q$H& =          ",
"          .=+=L%N*@=#=|+$=,+%=v+&=                                                            }&q**=r.v%==#=h%-=8#2%;=          ",
"          >=8#5*J*,='=`%)=!=i*~=O$                                                            }&{=w*2&g.]=i+t$ *^=L%'+          ",
"          /='*(=@$_=:=Z*e%<=[={=}&                                                            =${=}=|=k$Z*1=2=k%~#m*3=          ",
"          4=5=6=]&7=R*8=9=V&j#v+Q#                                                            R#0=a=b=c=Y&d=e=f=g=h=i=          ",
"          z%<.z.I.j=a#k=l=M+m=-#Q#                                                            n=o=p=@*q=<$r=s=y#t=<.u=          ",
"          3%M%n$z%v=a#w=x=y=z=>+}&                                                            R#A=p=@*B=C=D=E=r%n$9$F=          ",
"          2%E$G=H=2=o+I=5.J=e#K=Q#                                                            r%o=L=M=8 N=O=h%P='%Q=t=          ",
"          8#R=,.~$6%M.S=T=U=V=W=E*                                                            y#X=Y=Z=`= -.-+-4*o$q #&          ",
"          -=x./$`*@-#-J $-%-&-*-z$                                                            y#B$U*=---;->-X#,-M%Z$'-          ",
"          {.k%6#)-!-b+E ~-{-]-z$Q#                                                            |$B$^-/-(-_-:-X#6$m*/$H$          ",
"          n&~#/$9#<-[-B }-9%|-N$}&                                                            1-B$2-3-4-5-5-6-5*~#/$z.          ",
"          7-l%'%`*G&8-9-0-o%a-*-&=                                                            Q#b-^%c-j+g%8-h%,*o$W$d-          ",
"          e-5#f-g-Q*b+h-o*i-j-k-z$                                                            G%b%l-m-=*d=:-n-o-p-5#e-          ",
"          q-E$f-~#.&r-s-E&t-p%u-O$                                                            G%v-w-x-y-z-A-B-^=C-D->.          ",
"          C.o$E-k%F-G-H-8=I-J-K-z$                                                            G%(*L-M-4&N-O-P-Q-+$R-Y#          ",
"          S-W$T-U-V-W-X-F&I-Y-}$&=                                                            V%o=Z-M-`-s- ;.;@$+;l%P*          ",
"          @;#;H$u&F-u*3-5&_#$;J=V%                                                            =$=#%;x$&;u%p.*;Y#o##&=;          ",
"          F*-;I#y ;;>;,;l$';);*$V%                                                            V%;$!;~;k+2&{;];z.{.#&^;          ",
"          ]+N*G#/;(;_;:;D=<;[;};&=                                                            h#>+|;1;m#j&O#7=V%z.y 2;          ",
"          3;%.7#4;5;6;7;R*8;9;-#%%                                                            V%K=D*0;i+a;;+b;c;-@!@d;          ",
"          e;f;g;h;i;j;k;n+l;m;*$n;                                                            }&b*o;p;z*#=q;K%N*g=r;s;          ",
"          t;u;v;w;x;M+u*y;z;A;1$B;                                                            Q#6;C;D;x+N+*$E;F;`#@&G;          ",
"          H;I;A.z#J;M#$=e 0*K;s@B;                                                            V%j;L;K-:%> M;|.N;O;P;Q;          ",
"          R;A.q%S;{@T;M+S.U;T&*$U%                                                            V%V&V;W;X;Y;%$@*7-,@Z;`;          ",
"           >.>+>@>#>$>%>&>U;*>=>U%                                                            n=->;>u+>>(*u*p.|$,>'>)>          ",
"          !>4=~>&={>]>^>/>(>|;;$&=                                                            y$_>*>:><>[>}>*@2;|>1>2>          ",
"          A.}+3>4>q;5>6>7>8>x%9>0>                                                            a>b>c>d>e>f>g>8-h>i>j>k>          ",
"          M&@&p h>S#l>m>W.n>o>p>                                                                p>q>r>W.s>t>u>v>).(+w>          ",
"                                                                                                                                "};
