/* XPM */
static char * door_close2_xpm[] = {
"64 64 1084 2",
"  	c #9A5B29",
". 	c #965927",
"+ 	c #8A5124",
"@ 	c #74441E",
"# 	c #7E4A21",
"$ 	c #9B5C28",
"% 	c #8E5425",
"& 	c #935726",
"* 	c #6C3F1C",
"= 	c #533015",
"- 	c #472810",
"; 	c #683D1B",
"> 	c #563116",
", 	c #5E3719",
"' 	c #784620",
") 	c #8C5324",
"! 	c #7C4820",
"~ 	c #79471F",
"{ 	c #4F2D13",
"] 	c #7A4820",
"^ 	c #78461E",
"/ 	c #8A5123",
"( 	c #7F4A21",
"_ 	c #70411D",
": 	c #5D3619",
"< 	c #663B1A",
"[ 	c #271608",
"} 	c #955A2A",
"| 	c #78461F",
"1 	c #72421E",
"2 	c #844D21",
"3 	c #824C21",
"4 	c #6B3E1C",
"5 	c #7B471F",
"6 	c #6D3F1C",
"7 	c #2D1909",
"8 	c #865025",
"9 	c #693D1B",
"0 	c #62391A",
"a 	c #663B1B",
"b 	c #77451E",
"c 	c #593317",
"d 	c #5E3717",
"e 	c #75451F",
"f 	c #7D4920",
"g 	c #854E22",
"h 	c #72421D",
"i 	c #683C1A",
"j 	c #553116",
"k 	c #5B3417",
"l 	c #311B0B",
"m 	c #7E4920",
"n 	c #834D22",
"o 	c #864E22",
"p 	c #643919",
"q 	c #75441F",
"r 	c #925625",
"s 	c #8C5223",
"t 	c #7F4A20",
"u 	c #814C21",
"v 	c #895123",
"w 	c #71421D",
"x 	c #915525",
"y 	c #844D22",
"z 	c #5B3518",
"A 	c #573317",
"B 	c #462710",
"C 	c #663C1A",
"D 	c #623919",
"E 	c #643A1A",
"F 	c #8F5424",
"G 	c #79471E",
"H 	c #74431D",
"I 	c #7C481F",
"J 	c #70411C",
"K 	c #6F411D",
"L 	c #291709",
"M 	c #965A2A",
"N 	c #864F22",
"O 	c #824C22",
"P 	c #864E21",
"Q 	c #7A471E",
"R 	c #5F3719",
"S 	c #6E3F1C",
"T 	c #2C1809",
"U 	c #8F5627",
"V 	c #653B1A",
"W 	c #6E411E",
"X 	c #5C3518",
"Y 	c #6D3F1D",
"Z 	c #75441E",
"` 	c #593417",
" .	c #7D4A21",
"..	c #6F401C",
"+.	c #76441D",
"@.	c #643A19",
"#.	c #2F1A0A",
"$.	c #673B1A",
"%.	c #693D1C",
"&.	c #76451F",
"*.	c #885022",
"=.	c #673C1A",
"-.	c #895124",
";.	c #6E401C",
">.	c #6B3E1B",
",.	c #8E5323",
"'.	c #884F22",
").	c #8B5224",
"!.	c #854E23",
"~.	c #5D3617",
"{.	c #3F240F",
"].	c #5E3718",
"^.	c #583317",
"/.	c #573217",
"(.	c #885023",
"_.	c #7C4921",
":.	c #7A481F",
"<.	c #553013",
"[.	c #7D481F",
"}.	c #824B21",
"|.	c #7A471F",
"1.	c #281608",
"2.	c #A0612D",
"3.	c #875023",
"4.	c #76441E",
"5.	c #905425",
"6.	c #2D190A",
"7.	c #935828",
"8.	c #6D401D",
"9.	c #5F371A",
"0.	c #6A3E1C",
"a.	c #633A1B",
"b.	c #77441D",
"c.	c #673C19",
"d.	c #804B21",
"e.	c #78451E",
"f.	c #2E190A",
"g.	c #77451F",
"h.	c #623819",
"i.	c #653A1A",
"j.	c #905424",
"k.	c #7D491F",
"l.	c #7D4820",
"m.	c #6A3E1B",
"n.	c #40240E",
"o.	c #5B3516",
"p.	c #663C1B",
"q.	c #804A20",
"r.	c #8B5123",
"s.	c #261508",
"t.	c #834D21",
"u.	c #7B4820",
"v.	c #8F5526",
"w.	c #2B1809",
"x.	c #9A5C2B",
"y.	c #844E23",
"z.	c #79461F",
"A.	c #73431E",
"B.	c #653B1B",
"C.	c #5A3417",
"D.	c #5D3516",
"E.	c #70401C",
"F.	c #603718",
"G.	c #663A19",
"H.	c #7A461E",
"I.	c #965826",
"J.	c #603719",
"K.	c #6E3E1B",
"L.	c #73431D",
"M.	c #613819",
"N.	c #74441D",
"O.	c #915524",
"P.	c #72431E",
"Q.	c #5D3616",
"R.	c #8F5425",
"S.	c #7C471F",
"T.	c #6C3F1D",
"U.	c #975927",
"V.	c #995C2B",
"W.	c #814A20",
"X.	c #874E21",
"Y.	c #2A1709",
"Z.	c #A0602C",
"`.	c #673C1B",
" +	c #824B20",
".+	c #7B481F",
"++	c #71411D",
"@+	c #5F3718",
"#+	c #643918",
"$+	c #975A27",
"%+	c #72411C",
"&+	c #895022",
"*+	c #6D3E1A",
"=+	c #6B3F1B",
"-+	c #814C22",
";+	c #5E3618",
">+	c #4C2A10",
",+	c #6A3D1B",
"'+	c #693C1B",
")+	c #8E5324",
"!+	c #71421E",
"~+	c #5F3717",
"{+	c #945726",
"]+	c #854D21",
"^+	c #7E4921",
"/+	c #9F602D",
"(+	c #814B20",
"_+	c #854E21",
":+	c #A1622D",
"<+	c #79461E",
"[+	c #593316",
"}+	c #8C5224",
"|+	c #834C21",
"1+	c #844C20",
"2+	c #76451E",
"3+	c #6A3D1A",
"4+	c #2F190A",
"5+	c #613818",
"6+	c #72411D",
"7+	c #7E4A20",
"8+	c #75441D",
"9+	c #502E15",
"0+	c #4F2D12",
"a+	c #8D5324",
"b+	c #683C1B",
"c+	c #5C3618",
"d+	c #945827",
"e+	c #895023",
"f+	c #261407",
"g+	c #A3632E",
"h+	c #9A5D2A",
"i+	c #5A3416",
"j+	c #6A3D19",
"k+	c #7B471E",
"l+	c #71421C",
"m+	c #301A0A",
"n+	c #874F22",
"o+	c #6E401D",
"p+	c #693D1A",
"q+	c #4F2D14",
"r+	c #543015",
"s+	c #8A5223",
"t+	c #945826",
"u+	c #6D3E1B",
"v+	c #9C5E2B",
"w+	c #71411C",
"x+	c #77451D",
"y+	c #814C20",
"z+	c #78451D",
"A+	c #693D19",
"B+	c #824D21",
"C+	c #6C3E1A",
"D+	c #72421C",
"E+	c #7C471E",
"F+	c #633918",
"G+	c #8B5223",
"H+	c #6F411C",
"I+	c #563217",
"J+	c #78451F",
"K+	c #874E22",
"L+	c #74421D",
"M+	c #7A4720",
"N+	c #78471F",
"O+	c #4C2B13",
"P+	c #4B2A11",
"Q+	c #6C3E1C",
"R+	c #502F15",
"S+	c #543014",
"T+	c #231307",
"U+	c #905728",
"V+	c #7A461F",
"W+	c #693C1A",
"X+	c #834E23",
"Y+	c #7D4A20",
"Z+	c #522F14",
"`+	c #6B3D1A",
" @	c #573216",
".@	c #673B19",
"+@	c #5D3618",
"@@	c #6C3E1B",
"#@	c #874D20",
"$@	c #8A5224",
"%@	c #52311A",
"&@	c #5B5351",
"*@	c #74655F",
"=@	c #645956",
"-@	c #6F5D55",
";@	c #6E5F58",
">@	c #76625A",
",@	c #78655D",
"'@	c #705E57",
")@	c #695851",
"!@	c #6A5F5B",
"~@	c #826E66",
"{@	c #7E6C65",
"]@	c #77665F",
"^@	c #6A5C57",
"/@	c #6A574F",
"(@	c #6C5B54",
"_@	c #6C5951",
":@	c #635D5B",
"<@	c #7F675B",
"[@	c #695A55",
"}@	c #645753",
"|@	c #70584D",
"1@	c #715B52",
"2@	c #715F58",
"3@	c #78635A",
"4@	c #786A64",
"5@	c #5C5755",
"6@	c #7A655C",
"7@	c #685851",
"8@	c #6C574E",
"9@	c #745D52",
"0@	c #6E5A51",
"a@	c #6D5D57",
"b@	c #6F615B",
"c@	c #695E5A",
"d@	c #665852",
"e@	c #6D5950",
"f@	c #5E514C",
"g@	c #716059",
"h@	c #614E47",
"i@	c #67534A",
"j@	c #5A4C46",
"k@	c #322D2B",
"l@	c #7F4B21",
"m@	c #75431E",
"n@	c #7E4A1F",
"o@	c #72431D",
"p@	c #57341A",
"q@	c #433F3E",
"r@	c #524D4C",
"s@	c #484342",
"t@	c #4C4746",
"u@	c #403D3D",
"v@	c #464241",
"w@	c #494544",
"x@	c #484443",
"y@	c #4B4644",
"z@	c #514C4B",
"A@	c #464242",
"B@	c #3F3C3C",
"C@	c #423F3E",
"D@	c #444140",
"E@	c #534D4B",
"F@	c #454241",
"G@	c #44403E",
"H@	c #3D3A39",
"I@	c #403D3C",
"J@	c #474342",
"K@	c #534D4C",
"L@	c #444040",
"M@	c #4A4544",
"N@	c #474341",
"O@	c #413E3D",
"P@	c #433F3D",
"Q@	c #44403F",
"R@	c #474443",
"S@	c #4E4948",
"T@	c #4C4846",
"U@	c #454141",
"V@	c #454140",
"W@	c #433F3F",
"X@	c #262423",
"Y@	c #633919",
"Z@	c #79461D",
"`@	c #533118",
" #	c #373534",
".#	c #464140",
"+#	c #3E3A39",
"@#	c #403C3B",
"##	c #7F7B7B",
"$#	c #3C3938",
"%#	c #3C3837",
"&#	c #3F3B3A",
"*#	c #403C3A",
"=#	c #433E3C",
"-#	c #3E3B3A",
";#	c #646060",
">#	c #605C5C",
",#	c #353231",
"'#	c #484341",
")#	c #3A3636",
"!#	c #3D3938",
"~#	c #7E7878",
"{#	c #3B3736",
"]#	c #45413F",
"^#	c #45403E",
"/#	c #3D3937",
"(#	c #3E3A38",
"_#	c #787474",
":#	c #464342",
"<#	c #3B3836",
"[#	c #423E3C",
"}#	c #3F3B39",
"|#	c #3B3735",
"1#	c #74706F",
"2#	c #302D2C",
"3#	c #393635",
"4#	c #21201F",
"5#	c #653A19",
"6#	c #864D21",
"7#	c #814B21",
"8#	c #75431D",
"9#	c #794720",
"0#	c #5B3517",
"a#	c #7C4920",
"b#	c #4F2F18",
"c#	c #33302F",
"d#	c #504C4C",
"e#	c #211F1E",
"f#	c #3A3737",
"g#	c #3A3736",
"h#	c #3F3A39",
"i#	c #3B3838",
"j#	c #2D2A29",
"k#	c #423F3D",
"l#	c #484442",
"m#	c #423E3D",
"n#	c #343030",
"o#	c #4B4747",
"p#	c #2B2928",
"q#	c #433E3D",
"r#	c #413D3B",
"s#	c #383432",
"t#	c #484444",
"u#	c #282525",
"v#	c #45413E",
"w#	c #1E1D1C",
"x#	c #211F1F",
"y#	c #8A5022",
"z#	c #613718",
"A#	c #593418",
"B#	c #32302F",
"C#	c #3E3B39",
"D#	c #222020",
"E#	c #2E2C2A",
"F#	c #47413F",
"G#	c #232120",
"H#	c #494442",
"I#	c #383534",
"J#	c #423D3C",
"K#	c #272524",
"L#	c #2A2827",
"M#	c #46413F",
"N#	c #3B3837",
"O#	c #262323",
"P#	c #2B2827",
"Q#	c #1F1D1C",
"R#	c #322E2D",
"S#	c #884F21",
"T#	c #8D5223",
"U#	c #6D3F1B",
"V#	c #5D3518",
"W#	c #573218",
"X#	c #211915",
"Y#	c #32241B",
"Z#	c #34251D",
"`#	c #39281F",
" $	c #2D2018",
".$	c #39261C",
"+$	c #3B281D",
"@$	c #39281E",
"#$	c #36261D",
"$$	c #2C201A",
"%$	c #452E20",
"&$	c #3C2A1F",
"*$	c #3B271C",
"=$	c #35241A",
"-$	c #38271D",
";$	c #402C20",
">$	c #3E2A1D",
",$	c #1C1816",
"'$	c #422A1D",
")$	c #3A291F",
"!$	c #3B281C",
"~$	c #3B2A20",
"{$	c #37271D",
"]$	c #38261C",
"^$	c #1E1A18",
"/$	c #422B1E",
"($	c #3C2A20",
"_$	c #3B261A",
":$	c #32231B",
"<$	c #3F2A1E",
"[$	c #37261C",
"}$	c #2E211A",
"|$	c #30221A",
"1$	c #3C281C",
"2$	c #36261C",
"3$	c #2E2017",
"4$	c #36251C",
"5$	c #302219",
"6$	c #191310",
"7$	c #905626",
"8$	c #874F23",
"9$	c #5E3619",
"0$	c #6F401D",
"a$	c #804B20",
"b$	c #583216",
"c$	c #361E0C",
"d$	c #603819",
"e$	c #533116",
"f$	c #502E13",
"g$	c #824D23",
"h$	c #74431E",
"i$	c #1F1106",
"j$	c #7F4B22",
"k$	c #512E14",
"l$	c #563214",
"m$	c #543115",
"n$	c #271609",
"o$	c #6D401B",
"p$	c #7E491F",
"q$	c #6B3F1C",
"r$	c #784720",
"s$	c #39210E",
"t$	c #5A3415",
"u$	c #945727",
"v$	c #9B5B28",
"w$	c #251407",
"x$	c #8C5427",
"y$	c #804A21",
"z$	c #945928",
"A$	c #603818",
"B$	c #643A18",
"C$	c #75451E",
"D$	c #995B28",
"E$	c #935725",
"F$	c #73441E",
"G$	c #5C3517",
"H$	c #3B210E",
"I$	c #965928",
"J$	c #76461F",
"K$	c #905526",
"L$	c #8D5323",
"M$	c #9C5D29",
"N$	c #915828",
"O$	c #935625",
"P$	c #7F4920",
"Q$	c #2A1708",
"R$	c #985B2A",
"S$	c #70411E",
"T$	c #683D1A",
"U$	c #77461F",
"V$	c #995B27",
"W$	c #40240F",
"X$	c #583315",
"Y$	c #8A5225",
"Z$	c #915625",
"`$	c #9B5C29",
" %	c #A2612D",
".%	c #945725",
"+%	c #A1622E",
"@%	c #7A4821",
"#%	c #895224",
"$%	c #5D3517",
"%%	c #6D401C",
"&%	c #925727",
"*%	c #8B5122",
"=%	c #5A3518",
"-%	c #5E3617",
";%	c #3F230E",
">%	c #74441F",
",%	c #4E2C12",
"'%	c #915626",
")%	c #945625",
"!%	c #271508",
"~%	c #A4632E",
"{%	c #894F22",
"]%	c #73421E",
"^%	c #9F602C",
"/%	c #73421D",
"(%	c #6B3E1A",
"_%	c #844E22",
":%	c #623818",
"<%	c #2D1809",
"[%	c #955826",
"}%	c #8F5525",
"|%	c #5A3418",
"1%	c #3E230E",
"2%	c #70421D",
"3%	c #7B4821",
"4%	c #955927",
"5%	c #683D1C",
"6%	c #5F3819",
"7%	c #583215",
"8%	c #8E5426",
"9%	c #864E23",
"0%	c #A2622E",
"a%	c #925525",
"b%	c #965827",
"c%	c #583316",
"d%	c #683C19",
"e%	c #6C3F1B",
"f%	c #8A5023",
"g%	c #5C3417",
"h%	c #7E481F",
"i%	c #925726",
"j%	c #915526",
"k%	c #925626",
"l%	c #482912",
"m%	c #5E3616",
"n%	c #915424",
"o%	c #975926",
"p%	c #905627",
"q%	c #8F5324",
"r%	c #673B18",
"s%	c #854D22",
"t%	c #8A5021",
"u%	c #7C461E",
"v%	c #553015",
"w%	c #3A210D",
"x%	c #A3622D",
"y%	c #8C5123",
"z%	c #76441F",
"A%	c #9B5D2A",
"B%	c #553014",
"C%	c #4F2E14",
"D%	c #995A27",
"E%	c #5A3316",
"F%	c #7C481E",
"G%	c #563015",
"H%	c #804C21",
"I%	c #221308",
"J%	c #9B5D2B",
"K%	c #9E5F2B",
"L%	c #834B20",
"M%	c #623918",
"N%	c #9A5B28",
"O%	c #935626",
"P%	c #8B5124",
"Q%	c #824D22",
"R%	c #3C220E",
"S%	c #7D4921",
"T%	c #7B4921",
"U%	c #221307",
"V%	c #9A5D2B",
"W%	c #633818",
"X%	c #71401C",
"Y%	c #9A5B27",
"Z%	c #995A26",
"`%	c #341D0C",
" &	c #573316",
".&	c #5D3717",
"+&	c #8C5222",
"@&	c #975B2A",
"#&	c #60391A",
"$&	c #5C3619",
"%&	c #563216",
"&&	c #6E3F1B",
"*&	c #995927",
"=&	c #8A5122",
"-&	c #301B0B",
";&	c #4F2E15",
">&	c #834C22",
",&	c #985A28",
"'&	c #6F411E",
")&	c #291609",
"!&	c #864F23",
"~&	c #814A1F",
"{&	c #7C491F",
"]&	c #884F23",
"^&	c #73421C",
"/&	c #975826",
"(&	c #4D2C13",
"_&	c #39200D",
":&	c #241407",
"<&	c #291608",
"[&	c #8C5325",
"}&	c #6B3D1B",
"|&	c #281609",
"1&	c #925524",
"2&	c #3B210D",
"3&	c #7F4B20",
"4&	c #553114",
"5&	c #8D5224",
"6&	c #995C2A",
"7&	c #915423",
"8&	c #8E5424",
"9&	c #905527",
"0&	c #5C3416",
"a&	c #844D23",
"b&	c #834C20",
"c&	c #3D220E",
"d&	c #5C3516",
"e&	c #241307",
"f&	c #905525",
"g&	c #7B481E",
"h&	c #8C5225",
"i&	c #502D13",
"j&	c #41240E",
"k&	c #60381A",
"l&	c #925725",
"m&	c #251408",
"n&	c #945828",
"o&	c #985A29",
"p&	c #884E21",
"q&	c #6D4223",
"r&	c #7A4922",
"s&	c #5F371C",
"t&	c #5A361C",
"u&	c #74421C",
"v&	c #955726",
"w&	c #251508",
"x&	c #9E5F2C",
"y&	c #895024",
"z&	c #633A1A",
"A&	c #7E4C25",
"B&	c #6C6767",
"C&	c #595454",
"D&	c #373432",
"E&	c #80491F",
"F&	c #482A13",
"G&	c #3A210E",
"H&	c #824C20",
"I&	c #995B29",
"J&	c #623A19",
"K&	c #A0602D",
"L&	c #885024",
"M&	c #5B3415",
"N&	c #724521",
"O&	c #383636",
"P&	c #716B6B",
"Q&	c #534F4F",
"R&	c #2A2828",
"S&	c #5A3317",
"T&	c #291708",
"U&	c #854C20",
"V&	c #693E1C",
"W&	c #472912",
"X&	c #A4622D",
"Y&	c #8C5122",
"Z&	c #905423",
"`&	c #9D5F2C",
" *	c #4E2D14",
".*	c #573215",
"+*	c #48362B",
"@*	c #3D3B3B",
"#*	c #544F4F",
"$*	c #2B2828",
"%*	c #332720",
"&*	c #824B1F",
"**	c #63391A",
"=*	c #7D4A22",
"-*	c #8D5122",
";*	c #33251C",
">*	c #615D5C",
",*	c #2F2D2C",
"'*	c #2E2B2B",
")*	c #242221",
"!*	c #534F4E",
"~*	c #2D1E15",
"{*	c #351E0C",
"]*	c #6C401D",
"^*	c #844C21",
"/*	c #824B22",
"(*	c #402B1E",
"_*	c #575252",
":*	c #322E2E",
"<*	c #20140C",
"[*	c #201914",
"}*	c #1D120B",
"|*	c #2A2625",
"1*	c #4F4B4B",
"2*	c #1A140F",
"3*	c #7D481E",
"4*	c #573114",
"5*	c #72441E",
"6*	c #A4642F",
"7*	c #8F5223",
"8*	c #332218",
"9*	c #1C1510",
"0*	c #502E14",
"a*	c #472911",
"b*	c #241913",
"c*	c #555151",
"d*	c #13100E",
"e*	c #7F4A1F",
"f*	c #7E481E",
"g*	c #6F3F1C",
"h*	c #985927",
"i*	c #9B5B27",
"j*	c #7F491F",
"k*	c #9D5E2B",
"l*	c #5B3416",
"m*	c #342319",
"n*	c #524D4D",
"o*	c #211711",
"p*	c #312117",
"q*	c #14100E",
"r*	c #73411B",
"s*	c #814A21",
"t*	c #77441E",
"u*	c #925728",
"v*	c #3C2415",
"w*	c #3A2415",
"x*	c #492E1D",
"y*	c #554F4D",
"z*	c #343130",
"A*	c #180F09",
"B*	c #6A3C1A",
"C*	c #8D5123",
"D*	c #9A5A27",
"E*	c #462812",
"F*	c #5F3618",
"G*	c #955827",
"H*	c #512F15",
"I*	c #27180F",
"J*	c #3D3A3A",
"K*	c #4D4A4A",
"L*	c #595555",
"M*	c #5E5B5A",
"N*	c #555150",
"O*	c #383535",
"P*	c #24160C",
"Q*	c #603717",
"R*	c #834B1F",
"S*	c #7B4720",
"T*	c #76431D",
"U*	c #553115",
"V*	c #4A2B11",
"W*	c #41291B",
"X*	c #2F2D2D",
"Y*	c #413E3E",
"Z*	c #43403F",
"`*	c #312F2E",
" =	c #2B1C13",
".=	c #462811",
"+=	c #563115",
"@=	c #351D0C",
"#=	c #8E5223",
"$=	c #A1612D",
"%=	c #402613",
"&=	c #382111",
"*=	c #432611",
"==	c #2A1608",
"-=	c #70401B",
";=	c #72411B",
">=	c #945624",
",=	c #8F5323",
"'=	c #543116",
")=	c #985A27",
"!=	c #573115",
"~=	c #77461E",
"{=	c #553113",
"]=	c #683B1A",
"^=	c #663A1A",
"/=	c #965825",
"(=	c #955724",
"_=	c #553216",
":=	c #8D5222",
"<=	c #4E2C13",
"[=	c #A0602B",
"}=	c #9B5C2A",
"|=	c #6A3E1A",
"1=	c #633819",
"2=	c #3C220D",
"3=	c #9E5E2B",
"4=	c #2A1809",
"5=	c #452711",
"6=	c #74431C",
"7=	c #663B19",
"8=	c #76451D",
"9=	c #935727",
"0=	c #8B5023",
"a=	c #9C5D2A",
"b=	c #673B1B",
"c=	c #844D20",
"d=	c #A3622E",
"e=	c #8C5022",
"f=	c #3F240E",
"g=	c #935524",
"h=	c #2B1709",
"i=	c #7E4820",
"j=	c #633816",
"k=	c #653919",
"l=	c #79451D",
"m=	c #361F0D",
"n=	c #4F2E13",
"o=	c #241408",
"p=	c #8B5225",
"q=	c #5A3315",
"r=	c #522F15",
"s=	c #231408",
"t=	c #693C19",
"u=	c #613919",
"v=	c #513019",
"w=	c #4A4443",
"x=	c #5E5451",
"y=	c #5E514D",
"z=	c #69564F",
"A=	c #715E56",
"B=	c #655752",
"C=	c #655753",
"D=	c #6A5A54",
"E=	c #5C4F4B",
"F=	c #554A47",
"G=	c #655148",
"H=	c #644E45",
"I=	c #5C4B43",
"J=	c #6B5A54",
"K=	c #64534D",
"L=	c #62524B",
"M=	c #4E4847",
"N=	c #6B5348",
"O=	c #6A5952",
"P=	c #625049",
"Q=	c #675047",
"R=	c #5A4942",
"S=	c #564944",
"T=	c #5C4D47",
"U=	c #6C5C57",
"V=	c #4D4847",
"W=	c #705C54",
"X=	c #5E4F4A",
"Y=	c #5A4A43",
"Z=	c #5B473F",
"`=	c #644D43",
" -	c #61544F",
".-	c #66554F",
"+-	c #5A4F4B",
"@-	c #5A4D49",
"#-	c #64514A",
"$-	c #5B4D47",
"%-	c #5B4941",
"&-	c #574B47",
"*-	c #5C4F4A",
"=-	c #4D4340",
"--	c #2B2725",
";-	c #7A461D",
">-	c #563319",
",-	c #353332",
"'-	c #423E3E",
")-	c #443F3E",
"!-	c #3D3939",
"~-	c #413D3C",
"{-	c #574F4C",
"]-	c #3E3A3A",
"^-	c #373433",
"/-	c #403B3A",
"(-	c #3F3B3B",
"_-	c #474240",
":-	c #413C3B",
"<-	c #5F381A",
"[-	c #573419",
"}-	c #6F6A6B",
"|-	c #3D3837",
"1-	c #595554",
"2-	c #565353",
"3-	c #504A48",
"4-	c #3A3735",
"5-	c #706A6A",
"6-	c #6C6766",
"7-	c #393534",
"8-	c #656160",
"9-	c #322F2E",
"0-	c #533018",
"a-	c #302E2D",
"b-	c #2F2C2B",
"c-	c #1E1C1B",
"d-	c #44403D",
"e-	c #423D3A",
"f-	c #343131",
"g-	c #2F2B2A",
"h-	c #3C3937",
"i-	c #22201F",
"j-	c #484240",
"k-	c #34312F",
"l-	c #3F3C3B",
"m-	c #363332",
"n-	c #3A3635",
"o-	c #2E2B2A",
"p-	c #653918",
"q-	c #623718",
"r-	c #502F18",
"s-	c #333030",
"t-	c #322F2D",
"u-	c #464240",
"v-	c #292625",
"w-	c #2B2927",
"x-	c #423D3B",
"y-	c #282524",
"z-	c #494341",
"A-	c #383433",
"B-	c #373331",
"C-	c #512F16",
"D-	c #22160D",
"E-	c #3A2313",
"F-	c #432714",
"G-	c #482B16",
"H-	c #3D2514",
"I-	c #432815",
"J-	c #462915",
"K-	c #402614",
"L-	c #3C2413",
"M-	c #2F1C0F",
"N-	c #533218",
"O-	c #412714",
"P-	c #462A16",
"Q-	c #3A2314",
"R-	c #130E0A",
"S-	c #5C381C",
"T-	c #452915",
"U-	c #422815",
"V-	c #452815",
"W-	c #4A2C17",
"X-	c #432816",
"Y-	c #422715",
"Z-	c #150E09",
"`-	c #55341A",
" ;	c #412715",
".;	c #472A16",
"+;	c #4C2D17",
"@;	c #3E2514",
"#;	c #2E1C10",
"$;	c #351F10",
"%;	c #4D2D17",
"&;	c #392213",
"*;	c #362113",
"=;	c #442915",
"-;	c #402514",
";;	c #301D11",
">;	c #19100A",
",;	c #38200E",
"';	c #7E4B22",
");	c #1F1207",
"!;	c #8D5527",
"~;	c #844F24",
"{;	c #4B2B13",
"];	c #563114",
"^;	c #41250F",
"/;	c #925828",
"(;	c #5E3515",
"_;	c #532F15",
":;	c #6F3F1B",
"<;	c #5F3617",
"[;	c #462810",
"};	c #925627",
"|;	c #79451E",
"1;	c #895122",
"2;	c #482911",
"3;	c #533016",
"4;	c #9D5F2B",
"5;	c #844E21",
"6;	c #4A2A13",
"7;	c #482810",
"8;	c #5A3516",
"9;	c #8A5125",
"0;	c #834E22",
"a;	c #593318",
"b;	c #593315",
"c;	c #70401D",
"d;	c #8D5427",
"e;	c #975A29",
"f;	c #593415",
"g;	c #955928",
"h;	c #9A5C2A",
"i;	c #5B3418",
"j;	c #371F0D",
"k;	c #261509",
"l;	c #603618",
"m;	c #4F2F16",
"n;	c #683B19",
"o;	c #553117",
"p;	c #452712",
"q;	c #351E0D",
"r;	c #4B2B12",
"s;	c #4C2C14",
"t;	c #885126",
"u;	c #5A3519",
"v;	c #502F16",
"w;	c #814C23",
"x;	c #583318",
"y;	c #523016",
"z;	c #543117",
"A;	c #442712",
"B;	c #4D2C12",
"C;	c #4C2C15",
"D;	c #492B14",
"E;	c #4D2D15",
"F;	c #523015",
"G;	c #4B2C14",
"  . + @ # $ % & * = - ; > , * ' ) ! ~ { ] ^ / ( _ : < [ } | 1 2 3 4 5 6 7 8 9 0 a 4 b _ c d e f g h i j k l 9 a m n o p q r s t ",
"u v 5 w g x y ( z A B C D E < ! F ! G { ~ H I J 6 K < L M N O P Q R f S T U V W X Y Z K ` ;  .I ~ ..9 +.@.#.$.%.J 3 N ] &.*.I =.",
" .-.;.>.,.'.).!.~.p {.].^./.>.g (._.:.<.N w 4 D [.}.|.1.2.3.g 5 4.< 5.6 6.7.8.9.0.a.4.b.^.c.d.4.J e.k +.< f.i @ 9 |.o F g.9 +.h.",
"@ g i.| j.k.2 l.m.>.n.E X ^.b j.y 1 ;.o.% H p.E >.q.r.s.} ^ n t.u.K v.;.w.x.y.z.A.B.4.[.C.D.t H h 2 j E.F.T G.:.Z H.2 I.H E +.J.",
"J *.K.] 5.+.z.@ L.>.- ..M.p N.O.'.P.>.Q.R.S.T.M.%.( U.s.V.4.g W.X.1 ).S Y.Z.x ( 6 `.z. +k o.t .+++P k E.@+T #+( f e.k.$+%+5 &+*+",
"Z F 4.N./ =+Q e.-+;+>+4.M.,+'+)+5 !+i.~+{+]+f E | ^+. s./+< (+_+'.u.D 6 1.:+/ |.E 6 I <+[+i }+|+++1+i 2+3+4+5+d.m w <+r 6+7+,.L.",
"3 o b ;.2+E f 8+).9+0+|.;+* V a+b+| c+~+d+e+y ;.(+g.(.f+g+M.E s e+f C.i [ h+|+.+,+2 q.3+i+j+(.k+++I l+Q 3+m+C.b t p.; n+++H ,.L.",
"F t o+z._ p+N b / q+0+8+r+6 `.s+h 2 9 d t+2 q.u+[.;.7+f+v+;+^.,.2 ( L.w+w.v.x+e.y+y z+p C.A+B+C+h z+D+E+F+7 5+..G+H+I+..J+< s H ",
"K+L+6 M+^ w+v N+N O+P+Q+R+S < t H 8+9 S+g I b F.8+i.4.T+U+, A X.5 b V+W+Y.X+..b u Y+i h.Z+~+~ ^...S `+H  @1..@m./ _ +@@@|+@+#@+.",
"5 z.u.6 t b $@t n+%@&@*@=@-@;@>@,@'@)@!@~@{@]@^@/@(@_@:@<@[@}@|@1@2@3@4@5@6@7@8@9@0@a@b@c@d@e@f@(@g@h@i@j@k@,+Z &.@@l@m@a+~.[.5 ",
"_ |+n@@+o@z.-.o (+p@q@r@s@t@u@v@w@x@y@x@z@t@A@B@C@v@D@E@F@F@G@H@I@J@w@K@L@M@q@N@O@P@Q@R@S@T@U@V@y@W@q@v@C@X@i }.++J a+[.j.Y@h Z@",
"w+P N.^.i.z.n+'.6 `@ #.#+#@###$#%#H@&#*#=#-#;#>#,#&#'#x@'#)#!#~#R@{#]#G@^#/#/#(#_#:#<#[#}#@#+#!#|#1#2#@#3#4#5#6#~ <+&+7#F 8.|.8#",
"9#o 9 0#P.a#f n+k b#c#Q@@#2#d#e#f#g#*#=#%#h#W@i#j#k#.#l#m#g#n#o#p#%#=#$#q#{#r#s#t#u#)#v#(#$#&#<#j#:#w#$#$#x#5#y#( q.|+7#G+e s w+",
"3 5 z#A#!+7#L.2 9 `@B#C#m#}#D#E#m#@#=#!#&#F#c#G#(#H#+#I#g#J#r#K#L#M#*#N#H@)#M#+#O#P#%#$#r#r#N#+#I#Q#R#*#3#x#i S#u T#*.O |.T./ h ",
"|+U#V#R p.t.J 3 ~ W#X#Y#Z#`# $.$+$@$#$$$%$&$*$=$-$;$>$,$'$Z#)$*$!$~${$]$^$/$($@$_$:$<$[$}$|$1$2$!$3$:$4$5$6$9 ]+N 7$3 8$, 9$| ~ ",
"|+0$J a#p.a$L.t -+b$c$0#d$V e$9 L+; M.f$g$6 * D E h$_.i$j$+@,+Z w 4 < G.T+-+,+i.++z H < k$l$b =.S m$C.<  @n$o$p$(+-.f ) M.z q$! ",
"}.3 g o K z.^ n+r$k s$< z.u.R .+r.|.N.t$u$7#M+@@++y#v$w$x$..O ) n y$8#H.Y.z$m | y %.2 ^ A$B$$@n+^ 5#o+~ < w.b h C$n ( }+5 ^.9 b ",
"|+D$G+o q b 3 E$F$G$H$i a#N+b+.+I$ .J$i+K$.+n+_ z.L$M$w$N$!+g.O$n+a#4.P$Q$R$# -.-.S$t I 5+T$K$v | H+U$! p+7 +.E.z.d.u r.o b+`.5+",
"z.V$/ 2 U$q.o U.P.+@W$U#a#@ =.2+. 9#N+X$Y$7+Z$h t 8$`$w$ %(+h .%*.+.b t Y.+%@%#%n 1 1 L.$%%%&%v 4 Z ~ ^ 5#T +.b |+g y 7+o L.0# @",
"7#U.8+Z 7+*%6#{+=%-%;%@@f w @@9#I$>%4 ,%l@O '%E.<+t.)%!%~%r.2+{+e+{%]%! T ^%o+y.z.3 y$/% @(%R._%+@(+7#H :%<%U#p$e+a+.+'+*%E+Q+,+",
"d.[%'+d$u.r.s }%|%q+1%Q+f 2%|.3%4%5%6%7%8%o & A.&.m.9%!%0%a%I b%e+>%$.S T R$] 8$4.{+! H c%d%g | Y@3 {%>.$%T e%)+f%/ |.g%O$X.h%[.",
"m i%;+6 =%r.j%k%|.l%W$S Y+2%:.U$}%B.9 m%I$|+)+Z h /%o 1.~%n%m o%/ | 3+< w.p%k%q%8#& ++Z :%r%s%..m..+&+> G$7 u+v$N |.`+> & t%u%p$",
"/%{%m.G$c%y#R.R.% v%w%9 &.q$! 5 y#h$:.-%I$p$S#b z.s%P s.x%y%b 1+f%+.P$z%s.A%u$n+8#j.i 2+Y@B%o+0#o +.S#C%F.m+x+D%H.i E%k {+]+H.F%",
"U$M+a+`.E (+v K$o G%1%,+h 2 7+7#W._.H%d d+5 P ~ l.f%I I%J%n d$N+)+q.]+m 1.K%-.L%V+s%, N.M%i+* Y@o @@2 9$;+6.e%N%I h $%p O%! M++.",
"P%| D%* < a%o n Q%> R%E ..o ! S%( T%Q%d . q.|+f o *%I U%V%`.X * O.'.e+d.L A%(.s%7#u.z H+A$d%K+2+Y+` |+@@z w.@@e+|+|+W%u+3 z.~ X%",
"5.t Y%5 5#Z%y#u a# @`% &;.n+| 8+|._.Q%.&U.P .+f r.+&[.T+@&#&4 $&)%{%e+n Y.v.+ a+|+}+d$V %&(%j.m Y@c 7#H G$L U#F%s%q%i e.i | ! &&",
"X.z.. g ,+*&=&)+Z  @-&;&%%g L.E Z >&H%~+,&=&'+<+r.j.5 T+7.`.'&$&)%|++ 8$)&e !&)+P a%%+a j e%R.a$%&M.a#z.X n$k+I d.r 3+~&F.{&d.>.",
"b /%).]&^&/&X.O.m (&_&;+w y+@@` Z F u o.[%r.C.z.).T#L.:&V.-+c+L.n+V+)+).<&3%[&F o r m < v%* -.e+V Y@}&^ @+|&N 4 L.a+i e+b$3 N `+",
"$.@@m |+k+1&L+s%n (&2&$.|.t i.E z.n+3&4&,.*%$%.+5&{%w+T+6&k%, 7&[.h%x 8&!%9&% q%o T#<+;.0&i a&|+_%i p+6 G$w.b&D S 2 < G+g%|+}+$.",
"S 6 |.I |+1&Q+n+o v%c&}&1 * b+5 |+[.o@d&/&*%..3 a+z.|.e&R$f&9#F ++ +F 4.[ ) a+q%d.| >.6 0#d%!.M+a+$.$.e%c%w.g&< ;+b Y@).z#s }+>.",
"h&m@[.~ n j.L.}+t i&j&u+4 k&w / n+[.o@d&[%X.s%n+l&V q.m&n&P '.t h$y%r.h 1.o&n p&z.9 e%>.c%d%!.q&r&s&t&* C.w.|.e.` t S 2 u+L$n+u&",
"v&2 a$n+K+n+}.Z Y@i&;%`+9 ]..+O$(+|.F$Q.x ~&F y#3.^.q.w&n&y y#J 4.{+]&<+1.x&y&p$.+z&P ..= #+A&I@B&C&D&i.k Y.h%2 z#o 4.I w+(+E&H ",
"b%&+J 3 P%8$t.6 : F&G&5#,+D H&O$H+K F$m%x |+O$'..+ @]&w$I&{%X.J&m )%}.[.1.K&L&4.t | )+K q+M&N&O&P&Q&R&S+S&T&H&H&;.x ( * ^ H U&L+",
"v&y#i h (.N |+]%V&W&`%C.i.e%&+(.B.`.@ d '%8$!.I A.J.U.e&X&Y&[.@@&+Z&b m 1.`&H%6 7#a+Z i. *.*+*@*#*I@$*%*/.Y.b&p${&[%d.X H&S &*C+",
"x &+4.8+t o |+|.~ O+`%= **|./ U$z&B.H+Q.'%L&=*E.J+* {+w$ %-*e.7#y%Y&/%y$<&v+] ,+y a+$.0  *;*>*,*N#'*)*!*~*1. +[.t.& |.'+a+u+z+@+",
"T#'. +~ z.4.&+5 v b${*D h S%).U$A 9 B.t$% !&]*6 .+7#/ s.x%T#L.y%^*[.4./*<&7$f | y % C.< (*_*:*<*[*[*}*|*1*2*3*3*r.u q$^&j.G$/%C.",
"5 W.(+N Q+,+j.2 (.b${*D+I |.).G+ @@ U#4*8&/ 5*@@I s 3 !%6*t.b.7*m +.l+s%<&A%e+3 t 5&C.9 8*#*9*W$0*S+a*b*c*d*3*e*x A.X x+F ~.L.0#",
"S f*I / ..9 v&o u.b${*g* +>&*%T#i.! Z M&h*.% .Y@w+f%i*m&~%=.j*7*I q.d.o 1.k*)+ +J G+l*,+m*n*o*k$6 h ;+p*n*q*r*k.[%Z 9 ,+a+i H.@+",
"V+,+D+e+4.4.D%b&P.O+`%.@5 s*++=&h f N+o.v&s b &&t*<+D%:&u*E f&H.h$t P &.|&I$y%F%Y@}+$.,+v*:*z@w*h$M.x*y*z*A*-%Q I.4.I 8#}+X%H.B*",
"C*H G.e.5 |+D*1+i E*`%F*e.W.U#y%]+# ^ -%G*|+M+k.g.h T#m&7.=.j.8+z&b S#4.1.| e+I @.T#j*< H*I*J*K*L*M*N*O*P*U%Q*}&I.L+s q.S#/%R*^&",
"5&k++.5 | }.D*X.m.k$`%5#H =...q%r.3 | d . [.m L%J+$.^*!%k*S*r.p$F.4.S#T*1.y&(.a$@.y%j*b+U*V*W*X*Y*Z*`* =.=1.*+W+I.u&a%J+h q.]+Z@",
"'.p&2 ~ @.I D$5 m +=@=#+/%i.A.}+#=n+^ d&{+H z.1+n+M.|+1.$=|+P '.F*h |+L+1.k*+ |+i.2 q.S  @d&e +@%=&=*= @ @==-=;=I.^&5.Q+-%2 I k+",
"&+>=,=|.'=Z G*h$)=!=_&}&H.@@| / (.&+~={=#=K `. +/ 0 _%1.Z.j.t.a+1 A#b /%1.^%).|+w h q.E. @c.).k.H ]=^=b+C.L J b&/=4.+ ,+c%Z q.b.",
"S.(=,=:._=h :=Q o%<=H$..I ..^ f P%g ..0+f 6 E 4.s >.{+1.[=#=M+R.q$+@_ @ <&}=/ y 5 ].q.%+ @|=R.a$< ~&/%**%&!%U#=&I.!  +X 1=X%:=^&",
"S y#*..+z H+H&a$1++=2=;.L.$.8#q.,.}+`+l*!&F+,+E K+d.E$s.3= +m x `..+h H 4=u*y$]+(+z 7#G.5=j+& '.X H.7#E .*!%6=p$F <+j*E d.m L$7=",
"* j*1+8=,+..(+,..+> 1%U#i 0#5 t '.}+$.Q.9=i.;+V 2 0=b e&a=2+| a%b&l.9 E.Y.6&d.'.K+b=y$Y@l%j+O$]&6 h &+b+ @!%`+^ 3 e.f H y#f%^ c ",
"+++.8#}&^ | 7#/&H v%c&`+C.` {%<+p$G+Y@Q.,&g.A#w t r.c=s.d=L.w O$K+|+5+..Y.k*t 2 y#_ [.U#Z+j+r P 4.i G+9 +=[ :%@+z.K+ +Z b&e=u+U*",
"2 <+....(+8&e.D%D v%f=3+C.>.T#w+z+3 F+d&G*d.@+h q.'.k.s.6&h !+g=q.]+F.<+h=k*z.|+P i=.@8+-%j=2 8#d.c &+< +=|&B%%&.+j.n+6 k= +u&5+",
"n+E+5#l=s [%p$)=i  *m=$%h.+.b&W+i <+5+n=-.|+S D+e.^ h o=8%h h y#/%i #+H s.p=9 /%p$b&F./%c q=<+#+b r=h%D <=s=7%t=b.,.v u=^=C |.`+",
"|.^ k= +r y#o e+8+v=w=x=y=z=A=B=C=D=E=F=G=H=I=)@J=K=L=M=N=O=P=Q=R=S=T=U=V=W=X=Y=Z=`= -.-+-@-#-$-%-&-z=*-=----%;-&&p$/ , }&I+(+^&",
"6 ;+D+)+'.z.n+b k.>-,-m#'-P@N#)-*#H#V@!-&#&#+#I#P@~-q@{-J@q@]-^-{#@#J#~-$#H#~-/-^-i#(-&#P@_-O@J#-#^-@#-#:-G##+[.H E.r.P.^.<-e+l=",
"h$C./%T#[.1 a#i m [-z*@#/-{#}-!#g#}#G@*#|-!#1-2-^-i#*#3-q@+#4-5-D@h#}#(#M#*#N#|-6-I@g#%#&#G@C#%#7-8-9-}#%#e##+p$P u+r.u +=Z F k+",
"/%k ;.o Q n %%i a#0-a-@#&#b-W@c-+#$#[#d-!#e-O@f-g-:-N#_-&#h-9-@#i-{#%#*#j-%#}#k-l-X@m-^#M#r#{#n-o-]-Q#&#%#e#p-H.'.q-p$2 k=j*j.x+",
"< M.h (+8+n+`.E a#r-s-%#&#/#G#2#J#+#!#N#&#G@t-K#/#u-&#!#N#)-{#v-w-%#[#M#n-I#x-(#y-b-!#z-P@g#{#%#A-e#B-@#I#e#G.^&g %&..|+u+b&m >.",
"0$..8#P$..*...D 2+C-D-E-F-G-H-I-J-K-L-M-N-O-I-P-I-H-Q-R-S-T-U-V-W-X-X-Y-Z-`-H- ;.;H-+;@;#;$;%;O-&;*;=;-;;;>;7=S 7#%&; 3 ++2 W+'+",
"I ^ q..+9 S#P L.< r+,;F.@@h @+h K `.M%0+';9 * h >.F.^.);!;h p.w+5 ;.; ,+T+~;6%0.H M.g.V {;];e.6 I+X w+u={;1.W+.@j*M.; _%-=.+p ^&",
"H.w+5&e.$.o / y z E%^;>./%H i 3&y$h =+4&[&H |.t z.,+^.s.6&f ;.5 r.^+Q+h 1./;; Z 7#6 e*;.%&(;|+G @+@@<+=._;T .@5+[.4.k+&+@@w+C.6=",
" +'+O$H.:;e**.j.` <;[;++* I+**a$'.L.D o.};k+! q.[.D+G$|&$=3 %.p$'.f Q+H 1.`&w 5 q.h o 7#5#r%'...6 @@|;$.c m+<;M.k+j*{%r.5#3+A#H ",
"P$E.x Q |.Y@1;r I+k$2;h$D 3;3;p$e+h D i+% Q 2+>.k+E+&&w&k*H Y@F%o b 4 t*Y.4;|+p$Q ..#=+.[+c.N @.6 ;+4.i k #.p < j*1&]+y$/.9 d$8+",
"b 6+s Z >.;+5;G+%%6;7;* M.E 3;2+2 b+D 8;% ^ J '++..+]+m&p%E 6  +y$@@H b Y.9;(+x+++..'...c%c.0;|%6 j b ,+X #.U#u&[.j.4...b$i.1+8#",
"i./%a+E.G$W+_%a#t.+=2;..C.a;'=&&b 9 @.b;% <+`.}&c;m@y o=d;d$E Q e.U#1+^ Y.e;u._ o+E.e+9 _;c.n |%6 j m@< X f.U#2 t / %+_ [+Y@~&H ",
"c H {%..i t u.0 e+k$H$5#a ^.z >.D z&< f;7$L.: c;S ++;.s=g;U$M.&&..0$P$@@Q$h;! J J J S J._;o.2+|%0.j b+^.i;m+p+2 k+6 E.../.I Q e.",
"F*8#E+b ,+P | C.y$l%j;Y@q$D E._ +@**< S+_%i.R Q+$.4 X k;7.o+0 $.E.Q+R l;Y.g;~ u+i.@+W%C.(&S+4 m;<-%&i /.3;6.n;_+t*b+8+w o;2 m E.",
"D 8#%+t.w 3 2+j h p;q;z **z 5++@'=z +@r;U$^.G$$.=%R+s;n$t;u;J.F.V#A#v; @L w;< x;y;v;Y@z;A;B;**C;D;E;;+F;G;4=7=t 8#,+t L.j I S%M."};
