/* XPM */
static char * door_close_xpm[] = {
"64 64 935 2",
"  	c #000000",
". 	c #010000",
"+ 	c #A06635",
"@ 	c #A16836",
"# 	c #503118",
"$ 	c #764A25",
"% 	c #8C582D",
"& 	c #89562B",
"* 	c #9D6434",
"= 	c #9A6233",
"- 	c #A66B38",
"; 	c #A46A37",
"> 	c #915C2F",
", 	c #A56A37",
"' 	c #935C2F",
") 	c #7E4F27",
"! 	c #8F5A2E",
"~ 	c #A76C39",
"{ 	c #A66C38",
"] 	c #A66C39",
"^ 	c #915B2E",
"/ 	c #925D30",
"( 	c #835229",
"_ 	c #825129",
": 	c #A86C38",
"< 	c #A86D3A",
"[ 	c #8E592E",
"} 	c #88552B",
"| 	c #A36936",
"1 	c #A56B38",
"2 	c #8E5A2D",
"3 	c #8D592D",
"4 	c #8E5A2E",
"5 	c #82522A",
"6 	c #734824",
"7 	c #422914",
"8 	c #9D6433",
"9 	c #9C6434",
"0 	c #7A4C25",
"a 	c #563519",
"b 	c #8B572C",
"c 	c #372311",
"d 	c #613B1C",
"e 	c #513218",
"f 	c #4F3117",
"g 	c #5B381B",
"h 	c #6A4120",
"i 	c #5A371B",
"j 	c #59371B",
"k 	c #59361A",
"l 	c #714521",
"m 	c #714622",
"n 	c #704522",
"o 	c #6B4120",
"p 	c #724622",
"q 	c #603B1C",
"r 	c #714522",
"s 	c #7C4D26",
"t 	c #5A371A",
"u 	c #4C2F16",
"v 	c #4D2F16",
"w 	c #543319",
"x 	c #734722",
"y 	c #784A24",
"z 	c #794B24",
"A 	c #653E1F",
"B 	c #7A4B25",
"C 	c #68401F",
"D 	c #57351A",
"E 	c #633D1D",
"F 	c #744722",
"G 	c #744723",
"H 	c #5A361A",
"I 	c #4F3018",
"J 	c #5F3A1C",
"K 	c #744823",
"L 	c #6F4522",
"M 	c #663F1F",
"N 	c #663F1E",
"O 	c #362110",
"P 	c #925C2E",
"Q 	c #58361A",
"R 	c #412914",
"S 	c #7D4C25",
"T 	c #734723",
"U 	c #472C15",
"V 	c #6C4221",
"W 	c #5B371A",
"X 	c #503218",
"Y 	c #673F1F",
"Z 	c #7F4E26",
"` 	c #7F4E27",
" .	c #643D1E",
"..	c #774A24",
"+.	c #7D4D26",
"@.	c #613B1D",
"#.	c #754823",
"$.	c #5D381C",
"%.	c #6D4220",
"&.	c #7F4F26",
"*.	c #633C1D",
"=.	c #623C1D",
"-.	c #5E391C",
";.	c #683F1F",
">.	c #794B25",
",.	c #633C1E",
"'.	c #69401F",
").	c #5D391C",
"!.	c #4E3017",
"~.	c #6F4421",
"{.	c #56341A",
"].	c #36210F",
"^.	c #7D4D25",
"/.	c #4F2F17",
"(.	c #5D391B",
"_.	c #6F4422",
":.	c #A16735",
"<.	c #331F0F",
"[.	c #653F20",
"}.	c #774924",
"|.	c #774A25",
"1.	c #6D4321",
"2.	c #714623",
"3.	c #774823",
"4.	c #6E4321",
"5.	c #623B1D",
"6.	c #6B4220",
"7.	c #805028",
"8.	c #815128",
"9.	c #6F4523",
"0.	c #5B371B",
"a.	c #734622",
"b.	c #7E4E26",
"c.	c #7F4F27",
"d.	c #744824",
"e.	c #784A25",
"f.	c #3C2411",
"g.	c #764923",
"h.	c #814F27",
"i.	c #513118",
"j.	c #7B4B24",
"k.	c #5F391C",
"l.	c #734724",
"m.	c #33200F",
"n.	c #28190C",
"o.	c #3F2713",
"p.	c #2F1D0E",
"q.	c #311E0F",
"r.	c #412713",
"s.	c #352010",
"t.	c #301E0E",
"u.	c #3A2311",
"v.	c #3A2411",
"w.	c #3A2412",
"x.	c #392311",
"y.	c #2D1C0E",
"z.	c #2C1B0D",
"A.	c #2B1B0D",
"B.	c #3E2612",
"C.	c #34200F",
"D.	c #311E0E",
"E.	c #2A1A0C",
"F.	c #2E1D0E",
"G.	c #2D1C0D",
"H.	c #3D2612",
"I.	c #382310",
"J.	c #321F0F",
"K.	c #27190B",
"L.	c #321F0E",
"M.	c #603A1D",
"N.	c #482C16",
"O.	c #543318",
"P.	c #694120",
"Q.	c #6A4121",
"R.	c #100A05",
"S.	c #0F0904",
"T.	c #0F0A04",
"U.	c #100A04",
"V.	c #0F0A05",
"W.	c #845229",
"X.	c #3B2512",
"Y.	c #452A15",
"Z.	c #764924",
"`.	c #845128",
" +	c #6C4220",
".+	c #22150A",
"++	c #442A15",
"@+	c #2C1C0D",
"#+	c #412814",
"$+	c #4B2F17",
"%+	c #21150A",
"&+	c #422A15",
"*+	c #452B15",
"=+	c #432A15",
"-+	c #4B2E17",
";+	c #23160A",
">+	c #472C16",
",+	c #442B15",
"'+	c #462C16",
")+	c #452B16",
"!+	c #3D2613",
"~+	c #3D2713",
"{+	c #492E17",
"]+	c #4D2F17",
"^+	c #3C2612",
"/+	c #26170B",
"(+	c #925C2F",
"_+	c #7C4C25",
":+	c #623C1E",
"<+	c #4C2F17",
"[+	c #523319",
"}+	c #855329",
"|+	c #7E4E27",
"1+	c #865329",
"2+	c #5B381C",
"3+	c #4E2F17",
"4+	c #603B1D",
"5+	c #2C1B0C",
"6+	c #4A2E17",
"7+	c #59361B",
"8+	c #543419",
"9+	c #54341A",
"0+	c #452C16",
"a+	c #321E0E",
"b+	c #56351A",
"c+	c #6B411F",
"d+	c #523218",
"e+	c #3C2512",
"f+	c #301D0E",
"g+	c #110A04",
"h+	c #945D30",
"i+	c #885329",
"j+	c #774925",
"k+	c #7D4D27",
"l+	c #573419",
"m+	c #965E30",
"n+	c #613C1D",
"o+	c #5C391C",
"p+	c #7A4A24",
"q+	c #37210F",
"r+	c #6C4120",
"s+	c #804E26",
"t+	c #764823",
"u+	c #663E1F",
"v+	c #704521",
"w+	c #432813",
"x+	c #7B4C25",
"y+	c #694020",
"z+	c #724623",
"A+	c #704421",
"B+	c #140C05",
"C+	c #975E2F",
"D+	c #5C381C",
"E+	c #5F3B1D",
"F+	c #372210",
"G+	c #563419",
"H+	c #613A1C",
"I+	c #815027",
"J+	c #3B2410",
"K+	c #855229",
"L+	c #8B562B",
"M+	c #3E2511",
"N+	c #86532A",
"O+	c #784923",
"P+	c #442914",
"Q+	c #7B4B25",
"R+	c #58371B",
"S+	c #6C4320",
"T+	c #825128",
"U+	c #663E1E",
"V+	c #3D2512",
"W+	c #804F28",
"X+	c #4C2E16",
"Y+	c #553418",
"Z+	c #955D2F",
"`+	c #85532A",
" @	c #513219",
".@	c #6E4421",
"+@	c #825028",
"@@	c #794A24",
"#@	c #3E2611",
"$@	c #88542A",
"%@	c #402612",
"&@	c #5E3A1C",
"*@	c #945C2F",
"=@	c #7A4B24",
"-@	c #704422",
";@	c #55341A",
">@	c #754722",
",@	c #88562C",
"'@	c #352110",
")@	c #3C2511",
"!@	c #24170B",
"~@	c #684020",
"{@	c #754824",
"]@	c #392310",
"^@	c #7B4C26",
"/@	c #6B4221",
"(@	c #5E3A1D",
"_@	c #372110",
":@	c #7D4E27",
"<@	c #5F3A1D",
"[@	c #35200F",
"}@	c #815028",
"|@	c #58361B",
"1@	c #55351A",
"2@	c #3B2511",
"3@	c #945D2F",
"4@	c #724724",
"5@	c #060605",
"6@	c #54504D",
"7@	c #413E3C",
"8@	c #524E4A",
"9@	c #524E4C",
"0@	c #625D59",
"a@	c #5B5653",
"b@	c #4C4844",
"c@	c #4E4A47",
"d@	c #605A56",
"e@	c #615B57",
"f@	c #5E5855",
"g@	c #4B4744",
"h@	c #534E4A",
"i@	c #4A4643",
"j@	c #494543",
"k@	c #5A5551",
"l@	c #494542",
"m@	c #55504D",
"n@	c #625C58",
"o@	c #615C57",
"p@	c #4D4946",
"q@	c #504B49",
"r@	c #4F4B47",
"s@	c #5B5652",
"t@	c #57524F",
"u@	c #5F5A56",
"v@	c #524D49",
"w@	c #484442",
"x@	c #5E5854",
"y@	c #484341",
"z@	c #55514D",
"A@	c #3E3B38",
"B@	c #0E0D0C",
"C@	c #392411",
"D@	c #643D1F",
"E@	c #050505",
"F@	c #322F2E",
"G@	c #252321",
"H@	c #32302E",
"I@	c #43403E",
"J@	c #2E2B29",
"K@	c #2F2C2B",
"L@	c #3C3734",
"M@	c #312F2C",
"N@	c #3D3936",
"O@	c #2F2C2A",
"P@	c #33302E",
"Q@	c #312F2D",
"R@	c #373331",
"S@	c #33312E",
"T@	c #2B2927",
"U@	c #2F2D2B",
"V@	c #43403D",
"W@	c #353330",
"X@	c #3F3B38",
"Y@	c #363331",
"Z@	c #373330",
"`@	c #35322F",
" #	c #464340",
".#	c #2E2C2A",
"+#	c #3E3A37",
"@#	c #32302D",
"##	c #34312E",
"$#	c #44413F",
"%#	c #2D2A28",
"&#	c #2E2C29",
"*#	c #23211F",
"=#	c #070706",
"-#	c #8E592D",
";#	c #6E4422",
">#	c #533419",
",#	c #050504",
"'#	c #302D2B",
")#	c #272422",
"!#	c #514D4B",
"~#	c #232220",
"{#	c #3F3A37",
"]#	c #322F2D",
"^#	c #2A2726",
"/#	c #4B4745",
"(#	c #292725",
"_#	c #3F3B37",
":#	c #413D3A",
"<#	c #292826",
"[#	c #4C4947",
"}#	c #282624",
"|#	c #403C39",
"1#	c #363330",
"2#	c #34312F",
"3#	c #272523",
"4#	c #565250",
"5#	c #22201D",
"6#	c #3F3A36",
"7#	c #2C2A28",
"8#	c #262522",
"9#	c #575250",
"0#	c #1D1B19",
"a#	c #322F2C",
"b#	c #242220",
"c#	c #533319",
"d#	c #6D4221",
"e#	c #6A401F",
"f#	c #825027",
"g#	c #704523",
"h#	c #643D1D",
"i#	c #302E2B",
"j#	c #141312",
"k#	c #22201E",
"l#	c #383432",
"m#	c #353230",
"n#	c #181715",
"o#	c #3C3834",
"p#	c #393532",
"q#	c #312E2B",
"r#	c #191816",
"s#	c #1F1E1B",
"t#	c #403C38",
"u#	c #343230",
"v#	c #33312F",
"w#	c #3D3935",
"x#	c #2A2825",
"y#	c #11110F",
"z#	c #383532",
"A#	c #34322F",
"B#	c #2A2826",
"C#	c #10100E",
"D#	c #312E2C",
"E#	c #262422",
"F#	c #070707",
"G#	c #693F1F",
"H#	c #835128",
"I#	c #492C16",
"J#	c #1A1714",
"K#	c #271D15",
"L#	c #241E1A",
"M#	c #221C17",
"N#	c #28201A",
"O#	c #281F19",
"P#	c #2C221A",
"Q#	c #1C1814",
"R#	c #2E2219",
"S#	c #2C231C",
"T#	c #292019",
"U#	c #2B221B",
"V#	c #2A211A",
"W#	c #2E221A",
"X#	c #191512",
"Y#	c #2E2119",
"Z#	c #29211B",
"`#	c #29201A",
" $	c #30251E",
".$	c #2A2018",
"+$	c #1B1714",
"@$	c #312319",
"#$	c #2E231B",
"$$	c #241C16",
"%$	c #2B211A",
"&$	c #241D18",
"*$	c #1B1814",
"=$	c #2B2018",
"-$	c #251D17",
";$	c #27201A",
">$	c #241E18",
",$	c #251D16",
"'$	c #15120E",
")$	c #845027",
"!$	c #492D16",
"~$	c #1E1309",
"{$	c #3A2512",
"]$	c #3E2713",
"^$	c #271709",
"/$	c #57361A",
"($	c #673F1E",
"_$	c #231509",
":$	c #633D1E",
"<$	c #2B1A0C",
"[$	c #4B2E16",
"}$	c #603A1C",
"|$	c #4C2E17",
"1$	c #110B04",
"2$	c #905B2F",
"3$	c #835027",
"4$	c #794B26",
"5$	c #0E0904",
"6$	c #53341A",
"7$	c #603B1E",
"8$	c #331F0E",
"9$	c #7C4C26",
"0$	c #8F592C",
"a$	c #3F2612",
"b$	c #6F4320",
"c$	c #633D1F",
"d$	c #764824",
"e$	c #915C30",
"f$	c #955C2F",
"g$	c #492D17",
"h$	c #36210E",
"i$	c #794A25",
"j$	c #8A562B",
"k$	c #35210F",
"l$	c #653E1E",
"m$	c #915D31",
"n$	c #855228",
"o$	c #482D16",
"p$	c #583519",
"q$	c #955D2E",
"r$	c #754723",
"s$	c #4F3118",
"t$	c #8E582C",
"u$	c #835129",
"v$	c #6A4221",
"w$	c #8C562A",
"x$	c #3A2210",
"y$	c #845228",
"z$	c #814F28",
"A$	c #402713",
"B$	c #905A2D",
"C$	c #5C391B",
"D$	c #130C05",
"E$	c #805129",
"F$	c #643E1F",
"G$	c #935B2E",
"H$	c #0E0903",
"I$	c #3D2511",
"J$	c #7E4D26",
"K$	c #835028",
"L$	c #6B4121",
"M$	c #3A2310",
"N$	c #8A552B",
"O$	c #724723",
"P$	c #623D1E",
"Q$	c #4A2E16",
"R$	c #3B2411",
"S$	c #915A2D",
"T$	c #5A381C",
"U$	c #8F592D",
"V$	c #6B4322",
"W$	c #6D4422",
"X$	c #8B562C",
"Y$	c #7A4C26",
"Z$	c #674020",
"`$	c #7C4D25",
" %	c #774824",
".%	c #865228",
"+%	c #875429",
"@%	c #88552A",
"#%	c #6C4321",
"$%	c #3D2611",
"%%	c #8D582C",
"&%	c #875229",
"*%	c #774923",
"=%	c #8A562C",
"-%	c #935C2E",
";%	c #613C1E",
">%	c #3B2412",
",%	c #503219",
"'%	c #4D3017",
")%	c #87542A",
"!%	c #7E4E25",
"~%	c #8B552A",
"{%	c #875329",
"]%	c #5D381B",
"^%	c #804F27",
"/%	c #472B14",
"(%	c #462B15",
"_%	c #694121",
":%	c #89552B",
"<%	c #57361B",
"[%	c #945E31",
"}%	c #513319",
"|%	c #623D1F",
"1%	c #925B2E",
"2%	c #8A552A",
"3%	c #845129",
"4%	c #492D15",
"5%	c #824F27",
"6%	c #4F3017",
"7%	c #744621",
"8%	c #130C04",
"9%	c #935D30",
"0%	c #653D1D",
"a%	c #382211",
"b%	c #5C381B",
"c%	c #7B4D27",
"d%	c #342110",
"e%	c #653F1F",
"f%	c #4D3018",
"g%	c #714523",
"h%	c #90592D",
"i%	c #4B2E15",
"j%	c #472B15",
"k%	c #7B4D26",
"l%	c #53331A",
"m%	c #3C2613",
"n%	c #724522",
"o%	c #492C15",
"p%	c #6E4220",
"q%	c #87552B",
"r%	c #533318",
"s%	c #482C15",
"t%	c #885429",
"u%	c #643E1E",
"v%	c #5A381B",
"w%	c #422813",
"x%	c #4C2F18",
"y%	c #794C25",
"z%	c #784924",
"A%	c #3E2512",
"B%	c #683F1E",
"C%	c #472F1A",
"D%	c #2C2927",
"E%	c #292724",
"F%	c #3A2B1D",
"G%	c #55351B",
"H%	c #402712",
"I%	c #150D05",
"J%	c #633B1C",
"K%	c #824F26",
"L%	c #3D2410",
"M%	c #8F572B",
"N%	c #6E4320",
"O%	c #242321",
"P%	c #807A75",
"Q%	c #67625E",
"R%	c #33322F",
"S%	c #855128",
"T%	c #6D4322",
"U%	c #996031",
"V%	c #2C1C0E",
"W%	c #4E3018",
"X%	c #86542A",
"Y%	c #38220F",
"Z%	c #7C4B25",
"`%	c #362210",
" &	c #121210",
".&	c #56514E",
"+&	c #383634",
"@&	c #1A1A18",
"#&	c #3A2413",
"$&	c #160D05",
"%&	c #482B15",
"&&	c #432913",
"*&	c #9B6131",
"=&	c #4A2D16",
"-&	c #3F2611",
";&	c #8C572C",
">&	c #845127",
",&	c #553419",
"'&	c #362212",
")&	c #4A3F38",
"!&	c #393634",
"~&	c #23221F",
"{&	c #34302D",
"]&	c #352111",
"^&	c #0D0904",
"/&	c #56351B",
"(&	c #39312C",
"_&	c #454240",
":&	c #110F0C",
"<&	c #0F0D0A",
"[&	c #272320",
"}&	c #110B06",
"|&	c #442913",
"1&	c #91592C",
"2&	c #814F26",
"3&	c #91592D",
"4&	c #413D3B",
"5&	c #32302F",
"6&	c #23160B",
"7&	c #0E0A06",
"8&	c #6F4321",
"9&	c #59351A",
"0&	c #794923",
"a&	c #744622",
"b&	c #8D572B",
"c&	c #51311A",
"d&	c #403C3A",
"e&	c #2E2C2B",
"f&	c #302C28",
"g&	c #373533",
"h&	c #0D0A06",
"i&	c #985F30",
"j&	c #6E4322",
"k&	c #322E2B",
"l&	c #3E3B39",
"m&	c #2E2117",
"n&	c #673E1E",
"o&	c #402917",
"p&	c #292726",
"q&	c #503117",
"r&	c #995F30",
"s&	c #2E1C0D",
"t&	c #5B371C",
"u&	c #6A4020",
"v&	c #764723",
"w&	c #2F1E10",
"x&	c #3F3C39",
"y&	c #291E15",
"z&	c #2A1F16",
"A&	c #44403D",
"B&	c #383533",
"C&	c #16100A",
"D&	c #88552C",
"E&	c #5C371A",
"F&	c #985E2F",
"G&	c #885328",
"H&	c #6A411F",
"I&	c #734623",
"J&	c #3C2510",
"K&	c #704420",
"L&	c #3A220F",
"M&	c #422916",
"N&	c #4D4947",
"O&	c #4A4744",
"P&	c #19130E",
"Q&	c #28190B",
"R&	c #905A2E",
"S&	c #442A14",
"T&	c #9A6030",
"U&	c #794A23",
"V&	c #804E25",
"W&	c #5D391D",
"X&	c #372312",
"Y&	c #21160E",
"Z&	c #1B130D",
"`&	c #23160C",
" *	c #120B04",
".*	c #9A5F2F",
"+*	c #58351A",
"@*	c #342010",
"#*	c #37220F",
"$*	c #87532A",
"%*	c #613B1E",
"&*	c #3F2712",
"**	c #130B04",
"=*	c #915B2F",
"-*	c #432914",
";*	c #462B14",
">*	c #8C5629",
",*	c #643C1D",
"'*	c #523318",
")*	c #643C1E",
"!*	c #7F4D25",
"~*	c #392210",
"{*	c #130B05",
"]*	c #8E5B2F",
"^*	c #825026",
"/*	c #774822",
"(*	c #7D4C24",
"_*	c #6B401F",
":*	c #39220F",
"<*	c #804F26",
"[*	c #412813",
"}*	c #382210",
"|*	c #402711",
"1*	c #3B2311",
"2*	c #8C572B",
"3*	c #693F1E",
"4*	c #7B4A24",
"5*	c #663E1D",
"6*	c #653D1E",
"7*	c #734521",
"8*	c #7B4A23",
"9*	c #6D4320",
"0*	c #8B562A",
"a*	c #7A4A23",
"b*	c #6C421F",
"c*	c #724521",
"d*	c #110B05",
"e*	c #24180E",
"f*	c #59371C",
"g*	c #50331B",
"h*	c #633E1F",
"i*	c #362211",
"j*	c #603C1F",
"k*	c #674021",
"l*	c #372211",
"m*	c #52331A",
"n*	c #684121",
"o*	c #53341B",
"p*	c #714723",
"q*	c #4E3119",
"r*	c #462C17",
"s*	c #120B05",
"t*	c #5E381B",
"u*	c #060606",
"v*	c #3A3735",
"w*	c #474341",
"x*	c #544F4C",
"y*	c #544E4A",
"z*	c #423E3B",
"A*	c #423E3C",
"B*	c #504B48",
"C*	c #514B47",
"D*	c #4B4743",
"E*	c #474340",
"F*	c #413E3B",
"G*	c #3D3A37",
"H*	c #4E4946",
"I*	c #4E4A46",
"J*	c #46413F",
"K*	c #4D4845",
"L*	c #4C4743",
"M*	c #0B0B0A",
"N*	c #282523",
"O*	c #3A3733",
"P*	c #373431",
"Q*	c #3A3734",
"R*	c #464341",
"S*	c #3A3633",
"T*	c #3B3733",
"U*	c #393431",
"V*	c #484542",
"W*	c #2B2826",
"X*	c #201F1D",
"Y*	c #965D2E",
"Z*	c #211F1D",
"`*	c #3D3835",
" =	c #2A2725",
".=	c #423F3D",
"+=	c #302E2C",
"@=	c #393533",
"#=	c #34302E",
"$=	c #474441",
"%=	c #1F1D1B",
"&=	c #201E1C",
"*=	c #21201E",
"==	c #422913",
"-=	c #945B2D",
";=	c #151514",
">=	c #33302D",
",=	c #1B1A18",
"'=	c #191817",
")=	c #1C1B19",
"!=	c #3B3734",
"~=	c #363230",
"{=	c #2B2926",
"]=	c #131311",
"^=	c #272624",
"/=	c #121110",
"(=	c #22211F",
"_=	c #6C411F",
":=	c #080705",
"<=	c #16120F",
"[=	c #241A12",
"}=	c #231B15",
"|=	c #221A14",
"1=	c #221913",
"2=	c #251A12",
"3=	c #120E0A",
"4=	c #281C13",
"5=	c #211A14",
"6=	c #241B14",
"7=	c #211811",
"8=	c #120F0B",
"9=	c #291C13",
"0=	c #201913",
"a=	c #251B14",
"b=	c #251C14",
"c=	c #231A12",
"d=	c #14100C",
"e=	c #2E1F14",
"f=	c #201812",
"g=	c #261C15",
"h=	c #201811",
"i=	c #130F0B",
"j=	c #261A12",
"k=	c #1F1711",
"l=	c #1D1813",
"m=	c #251B13",
"n=	c #1C1610",
"o=	c #130E09",
"p=	c #8D582D",
"q=	c #24160A",
"r=	c #402814",
"s=	c #533218",
"t=	c #221508",
"u=	c #5C381A",
"v=	c #27170A",
"w=	c #221409",
"x=	c #4A2D15",
"y=	c #5A3619",
"z=	c #301D0C",
"A=	c #623C1C",
"B=	c #301D0D",
"C=	c #673E1F",
"D=	c #663D1D",
"E=	c #8E592C",
"F=	c #5C371B",
"G=	c #623B1C",
"H=	c #321E0D",
"I=	c #452A14",
"J=	c #553319",
"K=	c #0E0804",
"L=	c #341F0E",
"M=	c #6F431F",
"N=	c #3A230F",
"O=	c #5A361B",
"P=	c #845329",
"Q=	c #764721",
"R=	c #2F1D0D",
"S=	c #5F391B",
"T=	c #0D0803",
"U=	c #513117",
"V=	c #422814",
"W=	c #6B421F",
"X=	c #503018",
"Y=	c #402714",
"Z=	c #2B1A0D",
"`=	c #503017",
" -	c #332010",
".-	c #29190B",
"+-	c #311F0F",
"@-	c #29190C",
"#-	c #27180B",
"$-	c #482D15",
"%-	c #523118",
"&-	c #150D06",
"*-	c #140D06",
"=-	c #120C05",
"--	c #160E06",
";-	c #160D06",
">-	c #190F06",
",-	c #523117",
"'-	c #010100",
"                  . . .       . .   . .                   . . .         .   .       .                                           ",
"                + @ # $ % & * = - - ; > , , , - ; ' ) ! ~ { { ] ^ / / ( _ ! : ~ { < [ } , | 1 2 3 2 4 5 6 7 8 9                 ",
"              . 0 a b c d e f g h i j k l m n o h p q r s t u v w x y z A B z C j D E F G H I J K L M N O P Q R                 ",
"                S t T N U B V W X Q Y Z `  .t ..+.@.#.$.%.&.` n *.i e =.s V -.=.;.T >.,.# D '.'.).!.~.{.].^.o /..               ",
"                S (._.:.<.).[.M K >.}.|.n 1.y 2.Y 3.).4.5.d 6.+.Z 7.8.9.n 0.h a.b.c.2.d.d.k D }.e.T *.f.=.g.h.i.                ",
"                j.~.k.l.m.n.O o.p.q.r.s.t.u.v.w.x.y.y.m.7 z.A.B.C.D.E.t.p.F.G.G.x.s.O H.y.G.B.I.J.n.K.L.1.M.h.N.                ",
"                g Z O.P.Q.R.S.T.T.S.U.T.T.T.T.T.S.T.T.T.T.V.S.U.U.T.R.R.T.S.T.S.T.S.T.U.U.S.T.V.V.V.T.W.r =.>.X.                ",
"                Y.Z.V `. +T..+t.++@+#+7 $+%+7 &+*+=+++-+;+*+>+F.=+,+'+E.)+!+7 =+~+{+E.7 ]+J.7 ^+m./+U.(+_+:+s <+                ",
"                [+}+|+1+_.T.t.U 2+&+!.w J E.Q 3+w w I 4+5+J X 6+7+8+Q D.).U # 9+0+).a+b+c+<+[+d+e+f+g+h+i+j+k+]+                ",
"                l+m+n  .n S.O n+o+# p+a.6.q+G r+4.}.M s+].t+F u+l v+}.w+x+o o y+).z+B.A+%.~.i p 8+e+B+_ T J k+<+                ",
"                l+C+D+n E+T.F+'.G+H+I+a.}.J+K+l F Y #.L+M+N+G  +O+h }.P+P Q+~.R+S+z+B.T+V }.U+t+b+V+B+W+'.<++.X+                ",
"                Y+Z+W `+ @U.F+.@d+*.+@=.@@#@$@@@@@4+}.b.%@b ).4.B h &@M+*@=@-@Y }.'.f.W.A }.;@>@b+V+B+,@Q+<+b.'@                ",
"                )@Z+-.W.=.U.!@4.8+M  +n+y ].g.~@}.[+M {@]@^@2+=./@/@(@_@_ 4+L :@h <@[@}@(@).|@4+1@t.B+! =@j c.w.                ",
"                2@3@n 4@h 5@6@7@8@9@0@a@b@c@d@e@f@g@h@i@j@j@k@l@m@n@o@p@q@r@s@t@p@u@v@w@l@t@x@y@z@A@B@! s+=._.C@                ",
"                -+^@`.D@M.E@F@G@H@I@J@K@L@M@N@O@7@P@Q@R@S@T@U@V@U@W@X@Y@Z@`@`@ #.#P@+#@#@###$#%#&#*#=#-#s+_.;#x.                ",
"                i x+T+D >#,#'#P@)#!#~#.#P@{#]#^#/#(#Q@_#:#O@<#[#}#|#1#2#M@P@3#4#5#6#7#`@P@8#9#0#a#b#=#% c#_+d#]@.               ",
"                e#f#g#h#D+,#'#&#i#j#k#H@l#m#2#'#n#k#o#H@K@p#q#r#s#t#u#v#Q@w#x#y#3#1#z#A#P@B#C#3#D#E#F#% G#_+H#I#                ",
"                k.V g#|.).5@J#K#L#M#N#O#P#Q#R#S#T#U#V#W#X#Y#Z#`#T# $.$+$@$Z##$$$%$&$*$=$-$;$M#>$,$'$5@[ @@6.)$!$                ",
"                G+4.{@7.-.V.~$;@{$]$9+b+2+^$:+/$b+9+D ($_$:$f 1@;@@.D <$~@[$}$!$/$6+/+4+]+b+!$|$6+A.1$2$3$H#d#X+                ",
"                W f#z+4$-.5$y. +6$7$G z+{@8$T 9$T /@e.0$8$e.6.}.~.t+r a$I+b$I+ .A+c$C.Q+d$V g u+4+B.B+e$r z+P.X.                ",
"                l+f$4.g$(@5$v.V 7+4+G {@e.h$B n 9$/@>.0$q+i$1.}++.~@z+r.j$o K+M A :$k$1+G n ~@C l$a$B+m$($n$(@o$                ",
"                p$q$r$e s$5$v.V j M.G {@}.M+t$K u$v$@@w$x$$@;#y$Z z$_.A$B$C$W.V l. .k$s+p :+C 4.h#a$D$E$F$,.d#!$                ",
"                Q G$G d.s$H$x.6.j #.G {@h I$0$J$K$v$L$T M$N$k+H#b.Q.D+f.B$;.I++.O$:+].b.N P$~@#.-.a$B+n Y 1@0 Q$                ",
"                R$S$#.$@-.5$w.V j #.~.V T$I$U$+.K$V$W$e.M+X$Y$( b.Z$|@M$t$f#|.`$M ~@R$P.:$n+;. %u B.B+$@ +.%F ++                ",
"                R$x++%@%-.5$R$V |@#%1.Q.1.$%%%3.&%L ` *%a$=%d.P$Q+M y+B.-%s+z+^@;%~@>%@.,%i$e#r$'%a$B+)%!%n$r$*+                ",
"                )@~%i${%]%5$e+4+r /@p  .J$I$t$a.G G ^%}.f.}@2.4+x+Z$^@/%S$p z+/@2+~@R$c.P.@@b+F b+V+B+h+3$}.{@(%                ",
"                u j$B B W 5$>%b+n _%a. .b.I$U$}.M K :%Z.J+4$c#|@|.#%s /%+.f#G i$;@M M$^%Z.}$<%a.J I$B+[%`.}.T '+                ",
"                H g U$s ++5$A.}%.@|% .c$^%#@1%}.b+T 2%1.R$B ,.4+/@v$3%4%%.5%T b.i 4+F++@T 6%).7%Y V+8%9%0%p+z+a%                ",
"                4%b%0$c%<+S.d%,%;#e%f%g%^%I$h%t+p$g.K+ +M$}@Y 4+o _.W.i%#%h.p J$%.9+<.T+m 2+j j u+A$8%9%c#j.z+]@                ",
"                j%{%*%k%l%S.m%M.4.(@<@4.I+)@`.@@C @@#.1.M$W.p T n%s )%o%t$5%y +.p%@.].f# +x j i D+w+B+q%r%%.n%s%                ",
"                G+t%t+d.c#5$!+n+o+(@#.~._.#@+%y =@+.~@1.J+w$a.G p _+1.f.@@Z O+4.|@A F+}@u%G v%j |@w%B+`+<%@.b.(%                ",
"                G+T Z.w x%T.e+P$6+U+S -@_.#@y$p 3$y%[.S+M$h.p+z%a.+.;#A%t%B%}.E G+ .x.7.C%D%E%F%G%H%I%W.r 9+n$j%                ",
"                J%2%#.H Y.5$f.=.<+o S U+-@)@}@O+K%}.=.+.L%M%@@n n S V f.C+n%p j N%u+u.0 O%P%Q%R%9+H%I%}+S%T%.%j%                ",
"                H U%#./@*+5$V%q '%T J$W%-@)@X%}.Q+~..@s+Y%Z%p+P.Z j.d#A%Z+4+n%o S 4+`%[. &.&+&@&#&a$$&b r$Z ~@%&                ",
"                &&*&Q.e.p$5$q.=&g G *.I _.-&;&..T ;.r$>&M$`.t+G K$1.o M+-%,&a.=@c+g '&)&2#!&T@~&{&]&$&j$F y+1.U                 ",
"                &&b n ^@k ^&J.i 2+T {.W%C #@0$j.z+P$z%A+I$*@G r$H#,.h #@U$b+#.x+d+/&(&_&:&n#n#<&!&[&}&=%T w o C.                ",
"                |&U++@d.k 5$D.h o+F z+6%y+#@1&2&}.(@A+{%#@3&p #.r <@T &&2&J {@9$d+ @4&5&;+;+6&6&P@u#7&@%r$[+T C.                ",
"                O.3.s+8&9&5$t.:$V G G -.}.)@i+0&a&;%M .%M+;&c+0&r o Z.&&b&}.~@}.c#c&d&e&'@t i !$f&g&h&^%}.g G s%                ",
"                H+i&2& +v.5$p.4+h :$F J y I$i+t+N%j&M 0&q+d$C z%C n V A%S$@@j #.k 7+k&l&m&n&j o&N@p&7&=.Q.~@p s%                ",
"                q&r&3.o v.H$s&t&u&:+v&h }.I$i+>@v&g%D@%.Y%#.U+G 7$r 6.I$1.@@<%Z.C R+w&Y@x&y&z&A&B&C&U.D&1.f#r s%                ",
"                E&F&G&H&=&5$z.'.d+=.s+I&l.J&t%K&h z+n c+L&H#V =@4+.@h B.z+=@j G ;.|@C.M&D%N&O&U@P&Q&g+R&T%@@p !$.               ",
"                S&T&U&G 9&5$s&J W :$V&a.K M$3$v+h#p n a.x$N+d$z%o ).P.A%Z+p+A ;#y+W&[@2.X&Y&Z&`&x.]. *R&r p n Q$                ",
"                |&.*e#0$+*5$@*J d u+Z A+%.#*>@v+7+V z+S M$$*p {@y+,%l$I$P A+1.<%h %*F+^%J 4%&*4%]+].**=*t+7+r -*.               ",
"                ;*>*,*t$9&5$F+J '*Y p K+4.J+j.(.)*4+t+!*~*3% +K @.C ~@B.}+G#z+[+y+M.F+^%;.'.+*H+]+].{*]*G 0.2&-*                ",
"                ;*^*/*B Q 5$F+4+(%;.6.n$u+-&.%k i ).(*_*:*+@}$>@r d#:+M$L+;.@@b+'.-+J.<*'.h#O.c+-+F+D$/@Z.6.^%[*                ",
"                [$3$O+Y$Q S.}*g (%F (.h.7$|*2%_*[+=.S =@M$$@J t+r 4.g 1*2*3*4*J 5*0.m.Z '.6*,&p <+F+B+J d.+.r <.                ",
"                l 5%@@t+D U.F+D+d+7*k A+,.-&t%%.D ,.8*r :*9$q t+A+9*0.f.0*B%a* +a  .I.Z t b*o%c*s%].B+_.r$^.M.<.                ",
"                D ~.=@Y k d*e*f*2+~@g*|%h*i*Y$1.7$j*_%k*J.6 7$/@7$f%f*l*Y$m*n*;#o*c$@*p*q*@.g$;%r*A.s*d.G S t*<..               ",
"                D 6.>.X+b+u*/#v*w*8@x*y*r@z*A*z*:#B*v@C*V@l@g@D*V@E*v@w*v@b@F*G*H*I*J*l@K*L*:#B*V@F@M*G l p+-.m.                ",
"                +*C y ]+f%E@U@N*.#_&U@^#O*P@D#'#I@U@P@P*Q*O@'#R*J@S*`@P@p#M@D#R*B#'#T*m#U*J@V*T@W*X*u*l u+>@)*x.                ",
"                &&Y*p H f%E@'#O@E#V@Z*T@z#`*D# =.=G@##+=S*'#(#4&*#@=q#L@#='#E#$=%=i#p#S*'#G@w@&=P@*=u*l @.F z%(%                ",
"                ==-=4.#.6+E@U@O@O@;=*#D#+=>=i#a#,=*=1#]#P@P@J@'=)=.#!=i#U@~={=]= =p#'#U@O@^=/=}#@#(=F#k+,*%.@@(%                ",
"                P+3$_=d$g$:=<=[=}=|=}=1=2=3=4=5=6=6=6=7=8=9=6=0=a=b=c=d=e=f=|=5=g=h=i=j=k=5=l=m=n=o=:=p=A+ .r$(%                ",
"                6%3.k {@o$S.q=<+3+r=i.j%]+_$s=-*=&X+U [*t=u=s%A$v !.=&v=}$B.X+[*q&&&w=i.-*&*u.x=}*/+U.-#l Z%t*w%                ",
"                y=o s%A+o$S.q.6*4+6$N%d d z=~.A=h#B%b%X+B=@@C=d+'.C |@D.J$[$D=0.B%W 8$B%J s$9+h#S&D. *E=n&4*F=J.                ",
"                p$ +x= +I 5$F+h#!$b+9*G=g H=d$h#}$b%6*g C.Q+($I y+;.|@a+X%G+U+b%o U+C.A+}$6%{.h#(%v.**p=v 8*0.C.                ",
"                I=}$s=o J=K=w.j U X+1.H -.L=t+0%4+g g  +8$>.c#c#n&k Q a+K+'.Y j 1.i D.z%k i -+=.>+u.{*u$5.p+]%-*                ",
"                M=G+x+V ,&^&x.Y.9&7 4.b+7+N=t+6*d 0.g  +H=4.[$h# .O=n&]@A+;.7+|@Y b+D.}.U Q -**.'+x.{*P=*.J=o P+.               ",
"                Q=G+8&I&s=5$a%c#S&7 b%k 7+J+#.h#J i 0.@.s&m [$<+0.i C M$h.+*|@<%l$# R=>@(%Q -*,**+u.**( 6*#+o 7                 ",
"                S=v e#p A$T=y.i |&S&w I=i M$>@,&i.i i w s&z+}$=&b%2+b+L.Z Q j j # o$z.U+(%D P+U=Y.~***x k.[*%.m.                ",
"                o.!.o ,&(%^&p.;@U b+,&V=b%8$W=U X=$+8+-*R=T e 4%b%i./%5+J$k !.Y=(%#+Z=q V=G+-*`=-*D. *n 0.N.]%C.                ",
"                Y.I c+<+@*5$p.I=@* -@*@*&&5+q&}*Y.(%'@C..-O.[@a$s.O O /+F=t.+-+-S&@*@-o%p.p.p.V+k$#- *6*+*$-4%m.                ",
"                %->%=&'@@*S.B+B+B+B+B+B+B+s*B+B+&-*-B+B+=---I%;-B+B+B+s*>-B+B+B+;-B+s*D$s*s*s*s*D$d*U.,-V+s%<.D.                ",
"                '-.                                                                                     .                       "};
