/* XPM */
static char * open_portal_xpm[] = {
"64 64 3802 2",
"  	c #1E123D",
". 	c #1E113B",
"+ 	c #1C1038",
"@ 	c #1D123B",
"# 	c #140D2D",
"$ 	c #120E2E",
"% 	c #130F32",
"& 	c #0B0924",
"* 	c #090923",
"= 	c #07061F",
"- 	c #0D0927",
"; 	c #0E0A2D",
"> 	c #0E0A2B",
", 	c #0F0C29",
"' 	c #120D2C",
") 	c #130E2F",
"! 	c #0D0C26",
"~ 	c #0E0C27",
"{ 	c #0B0925",
"] 	c #080620",
"^ 	c #1D1135",
"/ 	c #160D29",
"( 	c #130A2A",
"_ 	c #1D0A4B",
": 	c #1F0957",
"< 	c #391166",
"[ 	c #9630A2",
"} 	c #51115D",
"| 	c #681A6D",
"1 	c #B03E98",
"2 	c #B44199",
"3 	c #581561",
"4 	c #470E56",
"5 	c #8E2F98",
"6 	c #391162",
"7 	c #200855",
"8 	c #240D57",
"9 	c #180B32",
"0 	c #170D28",
"a 	c #1E1136",
"b 	c #0E0A29",
"c 	c #0C0929",
"d 	c #0B0829",
"e 	c #0C0A26",
"f 	c #130F31",
"g 	c #161135",
"h 	c #181239",
"i 	c #130F2F",
"j 	c #120D2B",
"k 	c #100D28",
"l 	c #0F0D27",
"m 	c #0C0B26",
"n 	c #0C0B29",
"o 	c #0B0A27",
"p 	c #0B0A23",
"q 	c #0E0C26",
"r 	c #0D0B23",
"s 	c #120D27",
"t 	c #1B1232",
"u 	c #181032",
"v 	c #1B1135",
"w 	c #1D1338",
"x 	c #1F123E",
"y 	c #1E113E",
"z 	c #1D113B",
"A 	c #0C0B23",
"B 	c #0D0C25",
"C 	c #151133",
"D 	c #221744",
"E 	c #190E36",
"F 	c #231436",
"G 	c #2C1940",
"H 	c #2E1A42",
"I 	c #301C47",
"J 	c #2B1A44",
"K 	c #2B1A46",
"L 	c #251739",
"M 	c #2C193D",
"N 	c #31174D",
"O 	c #32145C",
"P 	c #2A1250",
"Q 	c #211439",
"R 	c #24153A",
"S 	c #221339",
"T 	c #160D28",
"U 	c #150A30",
"V 	c #200B53",
"W 	c #1E0A52",
"X 	c #561A7A",
"Y 	c #330F46",
"Z 	c #120525",
"` 	c #903681",
" .	c #8C347E",
"..	c #100425",
"+.	c #2B0B3D",
"@.	c #501877",
"#.	c #22095F",
"$.	c #210957",
"%.	c #190936",
"&.	c #1A0E2B",
"*.	c #241438",
"=.	c #28173D",
"-.	c #24163A",
";.	c #2E1B46",
">.	c #331C48",
",.	c #341B47",
"'.	c #301941",
").	c #26173A",
"!.	c #25173B",
"~.	c #321D4C",
"{.	c #371C56",
"].	c #3A1B5D",
"^.	c #381B5B",
"/.	c #361955",
"(.	c #2A1545",
"_.	c #190F33",
":.	c #23183D",
"<.	c #14102D",
"[.	c #0D0B22",
"}.	c #0C0A21",
"|.	c #150F2A",
"1.	c #191131",
"2.	c #180F31",
"3.	c #20143C",
"4.	c #22143F",
"5.	c #1C1236",
"6.	c #120E28",
"7.	c #0E0B25",
"8.	c #090920",
"9.	c #15102E",
"0.	c #1E1246",
"a.	c #301162",
"b.	c #200E4B",
"c.	c #261345",
"d.	c #351B51",
"e.	c #391E53",
"f.	c #40215D",
"g.	c #3F1F63",
"h.	c #441E6E",
"i.	c #471F70",
"j.	c #411B69",
"k.	c #4C1694",
"l.	c #5412B2",
"m.	c #47119A",
"n.	c #32136E",
"o.	c #2D145B",
"p.	c #201141",
"q.	c #201437",
"r.	c #160D2A",
"s.	c #150738",
"t.	c #210A5E",
"u.	c #3E1464",
"v.	c #330F4C",
"w.	c #06021E",
"x.	c #843D7E",
"y.	c #8C3F82",
"z.	c #0A0222",
"A.	c #310D4C",
"B.	c #3E1367",
"C.	c #1E0A58",
"D.	c #16073A",
"E.	c #160B28",
"F.	c #251538",
"G.	c #27144C",
"H.	c #351968",
"I.	c #3A1A6F",
"J.	c #4B1F87",
"K.	c #552186",
"L.	c #542181",
"M.	c #4E1A84",
"N.	c #531E8A",
"O.	c #491F74",
"P.	c #441C6F",
"Q.	c #4B1B80",
"R.	c #4C198B",
"S.	c #3D157A",
"T.	c #2C0B6B",
"U.	c #1E0A54",
"V.	c #2C1749",
"W.	c #22163C",
"X.	c #16112E",
"Y.	c #08081E",
"Z.	c #0C0A1F",
"`.	c #0E0C24",
" +	c #17102D",
".+	c #1C1333",
"++	c #1D1337",
"@+	c #1A1230",
"#+	c #1E1334",
"$+	c #0F0D23",
"%+	c #0A0922",
"&+	c #140F2A",
"*+	c #1E133F",
"=+	c #190B4B",
"-+	c #491A85",
";+	c #2E0C77",
">+	c #27115E",
",+	c #28164B",
"'+	c #261748",
")+	c #2D1B57",
"!+	c #371E6B",
"~+	c #341B6D",
"{+	c #30127B",
"]+	c #2C0A93",
"^+	c #410AB7",
"/+	c #37099E",
"(+	c #27087A",
"_+	c #1E0767",
":+	c #230A71",
"<+	c #350B99",
"[+	c #401A73",
"}+	c #26173D",
"|+	c #14083B",
"1+	c #1D0A5C",
"2+	c #41166F",
"3+	c #391154",
"4+	c #130630",
"5+	c #894888",
"6+	c #8F4789",
"7+	c #11052C",
"8+	c #300F4A",
"9+	c #3E1668",
"0+	c #1A094D",
"a+	c #16083A",
"b+	c #28163C",
"c+	c #441B75",
"d+	c #3F0BAC",
"e+	c #2C0C80",
"f+	c #280D6C",
"g+	c #30107A",
"h+	c #35167C",
"i+	c #3E1590",
"j+	c #3A0D9C",
"k+	c #370E94",
"l+	c #36118B",
"m+	c #39108B",
"n+	c #371085",
"o+	c #380E8D",
"p+	c #421194",
"q+	c #521FA0",
"r+	c #420F99",
"s+	c #4B2466",
"t+	c #191139",
"u+	c #1F153C",
"v+	c #150F2B",
"w+	c #0A091F",
"x+	c #0B091F",
"y+	c #0E0C23",
"z+	c #1A122F",
"A+	c #18112E",
"B+	c #140F29",
"C+	c #160F2A",
"D+	c #0F0C23",
"E+	c #0A0921",
"F+	c #19102F",
"G+	c #0F0A37",
"H+	c #270E5F",
"I+	c #6621A7",
"J+	c #5B18A0",
"K+	c #460597",
"L+	c #42127B",
"M+	c #501B87",
"N+	c #451582",
"O+	c #2E1268",
"P+	c #351174",
"Q+	c #4E08AD",
"R+	c #4C02BA",
"S+	c #830EF3",
"T+	c #520AC6",
"U+	c #460DB0",
"V+	c #5011BB",
"W+	c #5108C9",
"X+	c #5E01CF",
"Y+	c #530FA0",
"Z+	c #442462",
"`+	c #1C094D",
" @	c #200A63",
".@	c #381664",
"+@	c #331350",
"@@	c #0C0328",
"#@	c #5D3472",
"$@	c #5F3579",
"%@	c #06011F",
"&@	c #2E104C",
"*@	c #361463",
"=@	c #26086D",
"-@	c #200A55",
";@	c #472561",
">@	c #500FB5",
",@	c #5701EB",
"'@	c #560EC8",
")@	c #612A97",
"!@	c #5F249C",
"~@	c #7412C7",
"{@	c #6205D2",
"]@	c #3D02A1",
"^@	c #1A0358",
"/@	c #170346",
"(@	c #1D0353",
"_@	c #2E0479",
":@	c #2D018E",
"<@	c #9925E4",
"[@	c #D650FF",
"}@	c #922DCF",
"|@	c #5E2C73",
"1@	c #291848",
"2@	c #0F0B2D",
"3@	c #18102C",
"4@	c #100C24",
"5@	c #0A0920",
"6@	c #140E28",
"7@	c #130E27",
"8@	c #120E26",
"9@	c #100D25",
"0@	c #0E0A1E",
"a@	c #0E0A2C",
"b@	c #150B3F",
"c@	c #2C0F61",
"d@	c #6E23AD",
"e@	c #9230D0",
"f@	c #5001AD",
"g@	c #4500AE",
"h@	c #6A00E3",
"i@	c #4800B5",
"j@	c #4101A7",
"k@	c #4100A8",
"l@	c #4A00B1",
"m@	c #5B04C5",
"n@	c #630AD2",
"o@	c #7E10F8",
"p@	c #6804F1",
"q@	c #5B05D7",
"r@	c #4501A4",
"s@	c #450297",
"t@	c #2C0176",
"u@	c #431C6B",
"v@	c #331173",
"w@	c #270878",
"x@	c #2B164D",
"y@	c #2B1347",
"z@	c #080127",
"A@	c #41226B",
"B@	c #432270",
"C@	c #0A0128",
"D@	c #270F48",
"E@	c #2E135A",
"F@	c #2B0876",
"G@	c #331070",
"H@	c #541D91",
"I@	c #3F00B1",
"J@	c #4C01C8",
"K@	c #6402EB",
"L@	c #5C0BCF",
"M@	c #6904D2",
"N@	c #7200DB",
"O@	c #5A01CA",
"P@	c #320191",
"Q@	c #1C015C",
"R@	c #1C0155",
"S@	c #2A0270",
"T@	c #35018D",
"U@	c #250084",
"V@	c #500ABB",
"W@	c #800EF2",
"X@	c #8F32CB",
"Y@	c #6A3180",
"Z@	c #2D184E",
"`@	c #171036",
" #	c #0E0A25",
".#	c #0F0A1E",
"+#	c #0C091F",
"@#	c #0F0B24",
"##	c #120D26",
"$#	c #150F29",
"%#	c #120E27",
"&#	c #140F2B",
"*#	c #09081F",
"=#	c #0C0924",
"-#	c #110B2F",
";#	c #201049",
">#	c #311166",
",#	c #7024B0",
"'#	c #AD36F2",
")#	c #4E01B2",
"!#	c #5901CE",
"~#	c #9312F2",
"{#	c #6C06DC",
"]#	c #7502EB",
"^#	c #5802C3",
"/#	c #2E027F",
"(#	c #1D0162",
"_#	c #1E006E",
":#	c #4802BE",
"<#	c #3E01B2",
"[#	c #230078",
"}#	c #1F0250",
"|#	c #4A029C",
"1#	c #4F00C1",
"2#	c #3909A2",
"3#	c #431390",
"4#	c #27086D",
"5#	c #2B1750",
"6#	c #25123F",
"7#	c #0A012E",
"8#	c #411F7B",
"9#	c #44217F",
"0#	c #0C0130",
"a#	c #251241",
"b#	c #2C1653",
"c#	c #280681",
"d#	c #46129C",
"e#	c #860AEB",
"f#	c #5700D0",
"g#	c #4101B2",
"h#	c #7906EF",
"i#	c #8306F6",
"j#	c #8D03F2",
"k#	c #6602C9",
"l#	c #6401D3",
"m#	c #5603D3",
"n#	c #2D018D",
"o#	c #290270",
"p#	c #5103B2",
"q#	c #3F0198",
"r#	c #2C028F",
"s#	c #2F00B2",
"t#	c #8D17F1",
"u#	c #9A3BBC",
"v#	c #602D7F",
"w#	c #331859",
"x#	c #130E2E",
"y#	c #0E0B24",
"z#	c #070619",
"A#	c #100C26",
"B#	c #110D26",
"C#	c #160F29",
"D#	c #140F28",
"E#	c #130E2A",
"F#	c #120E2A",
"G#	c #0B0A24",
"H#	c #130E2D",
"I#	c #160E35",
"J#	c #291154",
"K#	c #3A0F7B",
"L#	c #6417AA",
"M#	c #9D2CE5",
"N#	c #5000C1",
"O#	c #5D03DA",
"P#	c #830EF4",
"Q#	c #5905D0",
"R#	c #5500CB",
"S#	c #310189",
"T#	c #1B025B",
"U#	c #110241",
"V#	c #19034F",
"W#	c #26036F",
"X#	c #230263",
"Y#	c #220264",
"Z#	c #390381",
"`#	c #49029A",
" $	c #4E01B5",
".$	c #3C01C2",
"+$	c #3904A4",
"@$	c #290A65",
"#$	c #2C1A4D",
"$$	c #2C1846",
"%$	c #1B0C38",
"&$	c #3C1684",
"*$	c #3C1688",
"=$	c #1F0D42",
"-$	c #301A4C",
";$	c #281848",
">$	c #550ABC",
",$	c #8005F6",
"'$	c #970FF7",
")$	c #7808EA",
"!$	c #5001C7",
"~$	c #5701CB",
"{$	c #9114EF",
"]$	c #B71AF9",
"^$	c #8505E0",
"/$	c #6601CE",
"($	c #6900EE",
"_$	c #5701D8",
":$	c #4301AB",
"<$	c #5B01B8",
"[$	c #5102AF",
"}$	c #4E00C1",
"|$	c #6009DA",
"1$	c #CD45FE",
"2$	c #9E38CE",
"3$	c #582086",
"4$	c #3E1C66",
"5$	c #160F34",
"6$	c #130F2D",
"7$	c #0B0922",
"8$	c #0F0B25",
"9$	c #110D27",
"0$	c #130E26",
"a$	c #140F2C",
"b$	c #0F0C27",
"c$	c #1A1134",
"d$	c #2F185C",
"e$	c #301264",
"f$	c #3F0C8D",
"g$	c #6213B2",
"h$	c #7815C9",
"i$	c #4A00B7",
"j$	c #4101C2",
"k$	c #4700D0",
"l$	c #2D008F",
"m$	c #2B017C",
"n$	c #3A019D",
"o$	c #2C017F",
"p$	c #130241",
"q$	c #12023E",
"r$	c #1E025A",
"s$	c #1F0258",
"t$	c #1E0252",
"u$	c #340282",
"v$	c #4202A2",
"w$	c #5202C8",
"x$	c #4302BC",
"y$	c #3001A2",
"z$	c #310597",
"A$	c #371867",
"B$	c #351D53",
"C$	c #1F0F39",
"D$	c #3B0F8F",
"E$	c #400E9F",
"F$	c #220F42",
"G$	c #321E4E",
"H$	c #401972",
"I$	c #7207E5",
"J$	c #7402ED",
"K$	c #9216F5",
"L$	c #8A10F6",
"M$	c #6801E5",
"N$	c #5401BF",
"O$	c #7502DB",
"P$	c #C82EFC",
"Q$	c #A217F6",
"R$	c #7000E5",
"S$	c #A422F8",
"T$	c #8114F3",
"U$	c #4B00CF",
"V$	c #6902D0",
"W$	c #410194",
"X$	c #3D0198",
"Y$	c #760CE4",
"Z$	c #9F22FA",
"`$	c #9E27E5",
" %	c #5A1C94",
".%	c #41177B",
"+%	c #351A66",
"@%	c #331C5F",
"#%	c #1B1137",
"$%	c #130E2B",
"%%	c #120E29",
"&%	c #16112F",
"*%	c #0D0A22",
"=%	c #150E28",
"-%	c #281843",
";%	c #3D1E70",
">%	c #3D1683",
",%	c #360D8A",
"'%	c #6810BD",
")%	c #8E06E3",
"!%	c #4701AF",
"~%	c #5504DC",
"{%	c #6608EC",
"]%	c #240178",
"^%	c #21025B",
"/%	c #4801A3",
"(%	c #300178",
"_%	c #13023C",
":%	c #170245",
"<%	c #1F025B",
"[%	c #210263",
"}%	c #200369",
"|%	c #240381",
"1%	c #4703CB",
"2%	c #4D03D6",
"3%	c #3F03BD",
"4%	c #4303CF",
"5%	c #4307BE",
"6%	c #3F1D69",
"7%	c #2B1745",
"8%	c #3D08AC",
"9%	c #2B1747",
"0%	c #431D6C",
"a%	c #3E05A9",
"b%	c #2A009E",
"c%	c #4302CB",
"d%	c #7401F0",
"e%	c #6101DC",
"f%	c #4801C4",
"g%	c #2E0188",
"h%	c #5E01B8",
"i%	c #A723EF",
"j%	c #A829F9",
"k%	c #8E15F9",
"l%	c #B94DF8",
"m%	c #A42FF6",
"n%	c #5E02DF",
"o%	c #6303DA",
"p%	c #3B0295",
"q%	c #2D0289",
"r%	c #4301D2",
"s%	c #5000E3",
"t%	c #8B12F8",
"u%	c #6D1EAC",
"v%	c #3C138B",
"w%	c #411C82",
"x%	c #3F216E",
"y%	c #2B194B",
"z%	c #1A102E",
"A%	c #0C0920",
"B%	c #110D25",
"C%	c #16102C",
"D%	c #0B081E",
"E%	c #180F2B",
"F%	c #2A1849",
"G%	c #462081",
"H%	c #42139D",
"I%	c #5E17C9",
"J%	c #B21CEF",
"K%	c #8804D7",
"L%	c #5501B4",
"M%	c #5305C8",
"N%	c #5306D4",
"O%	c #2C0188",
"P%	c #26025F",
"Q%	c #3B027D",
"R%	c #380281",
"S%	c #1E024E",
"T%	c #120236",
"U%	c #190246",
"V%	c #190241",
"W%	c #32038A",
"X%	c #3B03AF",
"Y%	c #4D06C5",
"Z%	c #5807CF",
"`%	c #4904B5",
" &	c #4505B1",
".&	c #4702C2",
"+&	c #3A059B",
"@&	c #3D1575",
"#&	c #3603A0",
"$&	c #35048F",
"%&	c #421671",
"&&	c #310678",
"*&	c #27017A",
"=&	c #2A0197",
"-&	c #2C02A7",
";&	c #4101AC",
">&	c #36029C",
",&	c #3E01BC",
"'&	c #4402BB",
")&	c #4001A7",
"!&	c #4A03A8",
"~&	c #881EEA",
"{&	c #A840F6",
"]&	c #8818F3",
"^&	c #9F29FA",
"/&	c #7009ED",
"(&	c #5902DB",
"_&	c #5903D0",
":&	c #34019F",
"<&	c #4701D0",
"[&	c #6A04EF",
"}&	c #8207F4",
"|&	c #9A15E8",
"1&	c #5A17BA",
"2&	c #491999",
"3&	c #411F79",
"4&	c #28174B",
"5&	c #1B1130",
"6&	c #171132",
"7&	c #171031",
"8&	c #0A081F",
"9&	c #050413",
"0&	c #0D0826",
"a&	c #2D1463",
"b&	c #4415A2",
"c&	c #9C22F1",
"d&	c #AE14EA",
"e&	c #6001B7",
"f&	c #420289",
"g&	c #27017F",
"h&	c #33009D",
"i&	c #2F027A",
"j&	c #2D0265",
"k&	c #44018C",
"l&	c #300179",
"m&	c #210257",
"n&	c #0B0227",
"o&	c #0E022F",
"p&	c #100231",
"q&	c #1C034C",
"r&	c #29026E",
"s&	c #270365",
"t&	c #2D046F",
"u&	c #430497",
"v&	c #4C04A4",
"w&	c #45049F",
"x&	c #4E03C1",
"y&	c #6302E7",
"z&	c #24026A",
"A&	c #1B044B",
"B&	c #2C026C",
"C&	c #2B026D",
"D&	c #2D027E",
"E&	c #290189",
"F&	c #1D0276",
"G&	c #240280",
"H&	c #2B0182",
"I&	c #3E02B9",
"J&	c #4C03E1",
"K&	c #2F0298",
"L&	c #34018A",
"M&	c #3E00AD",
"N&	c #680CDC",
"O&	c #5E00E2",
"P&	c #8D17F7",
"Q&	c #7F12F3",
"R&	c #5A00DF",
"S&	c #5601CE",
"T&	c #7507E5",
"U&	c #9B15FB",
"V&	c #9E10F8",
"W&	c #A516F7",
"X&	c #A80DFE",
"Y&	c #901FDE",
"Z&	c #451D93",
"`&	c #35196C",
" *	c #0D092D",
".*	c #050312",
"+*	c #08071C",
"@*	c #160F31",
"#*	c #140E30",
"$*	c #150F32",
"%*	c #181034",
"&*	c #08071E",
"**	c #06061C",
"=*	c #130D2B",
"-*	c #281350",
";*	c #491C97",
">*	c #851DDC",
",*	c #8305D4",
"'*	c #4D019D",
")*	c #2C036A",
"!*	c #2E0275",
"~*	c #36027F",
"{*	c #3D0282",
"]*	c #3D027C",
"^*	c #2E0172",
"/*	c #200264",
"(*	c #160244",
"_*	c #0C022D",
":*	c #0D022E",
"<*	c #0F0332",
"[*	c #19034E",
"}*	c #160246",
"|*	c #160342",
"1*	c #250362",
"2*	c #3F0294",
"3*	c #400196",
"4*	c #4502A3",
"5*	c #4C02C3",
"6*	c #4901C0",
"7*	c #4D01C3",
"8*	c #3B029D",
"9*	c #220361",
"0*	c #1E0355",
"a*	c #28025E",
"b*	c #220353",
"c*	c #200158",
"d*	c #1D0360",
"e*	c #230284",
"f*	c #24027A",
"g*	c #1E0260",
"h*	c #2C01A5",
"i*	c #3102B2",
"j*	c #31019D",
"k*	c #4403B1",
"l*	c #6307E0",
"m*	c #3C01B5",
"n*	c #4A03BF",
"o*	c #5605CE",
"p*	c #6409DE",
"q*	c #7F0BF2",
"r*	c #8C0BEF",
"s*	c #8808EF",
"t*	c #9B11EF",
"u*	c #A217F3",
"v*	c #AB12F9",
"w*	c #A830DB",
"x*	c #471F88",
"y*	c #321765",
"z*	c #18103D",
"A*	c #05051A",
"B*	c #181035",
"C*	c #140F31",
"D*	c #160F32",
"E*	c #07061C",
"F*	c #0B0921",
"G*	c #1E1339",
"H*	c #2D1653",
"I*	c #481891",
"J*	c #7916E3",
"K*	c #9908F1",
"L*	c #7202D3",
"M*	c #460292",
"N*	c #3E027F",
"O*	c #320366",
"P*	c #330367",
"Q*	c #350276",
"R*	c #200268",
"S*	c #1F0268",
"T*	c #16024B",
"U*	c #120242",
"V*	c #150349",
"W*	c #1C045A",
"X*	c #26036E",
"Y*	c #230261",
"Z*	c #1F0454",
"`*	c #260361",
" =	c #2D0369",
".=	c #30036F",
"+=	c #350280",
"@=	c #370292",
"#=	c #3A0298",
"$=	c #4403A2",
"%=	c #5002B4",
"&=	c #3C0399",
"*=	c #2A0476",
"==	c #250363",
"-=	c #1F034D",
";=	c #180241",
">=	c #1E0362",
",=	c #220282",
"'=	c #170252",
")=	c #30029A",
"!=	c #2D02A8",
"~=	c #2D02A0",
"{=	c #38019F",
"]=	c #4801C9",
"^=	c #2D0199",
"/=	c #310294",
"(=	c #4701B5",
"_=	c #4C07AF",
":=	c #5205C2",
"<=	c #4802B1",
"[=	c #6B01D6",
"}=	c #8106E0",
"|=	c #8204E9",
"1=	c #B722F9",
"2=	c #A326E0",
"3=	c #431F7A",
"4=	c #341567",
"5=	c #201344",
"6=	c #0C0A27",
"7=	c #040418",
"8=	c #170F33",
"9=	c #151033",
"0=	c #100B29",
"a=	c #040518",
"b=	c #0C0922",
"c=	c #251740",
"d=	c #35195D",
"e=	c #411287",
"f=	c #9A1AFB",
"g=	c #7E05F0",
"h=	c #6400D7",
"i=	c #7102D8",
"j=	c #5803A8",
"k=	c #2E0365",
"l=	c #260357",
"m=	c #230266",
"n=	c #1F0273",
"o=	c #260286",
"p=	c #25037D",
"q=	c #1C045C",
"r=	c #1E0356",
"s=	c #2C0372",
"t=	c #360283",
"u=	c #2C0469",
"v=	c #25045C",
"w=	c #330476",
"x=	c #3E0389",
"y=	c #340382",
"z=	c #36038B",
"A=	c #4302AB",
"B=	c #4902AC",
"C=	c #440391",
"D=	c #350372",
"E=	c #39037A",
"F=	c #41048E",
"G=	c #380591",
"H=	c #1D025A",
"I=	c #180245",
"J=	c #1B0246",
"K=	c #170341",
"L=	c #1C036A",
"M=	c #180257",
"N=	c #300297",
"O=	c #3803C0",
"P=	c #2B029E",
"Q=	c #2F018E",
"R=	c #2C0189",
"S=	c #27018C",
"T=	c #33019D",
"U=	c #2D0287",
"V=	c #330294",
"W=	c #4901C1",
"X=	c #4501B6",
"Y=	c #4B02C0",
"Z=	c #7805E0",
"`=	c #7F01E5",
" -	c #B524FA",
".-	c #B027F0",
"+-	c #3E197A",
"@-	c #3B1770",
"#-	c #28164C",
"$-	c #0F0C2A",
"%-	c #110B29",
"&-	c #140E2F",
"*-	c #0A071D",
"=-	c #050518",
"--	c #0F0B28",
";-	c #281844",
">-	c #3A1A65",
",-	c #4D1298",
"'-	c #AC29FC",
")-	c #8511E7",
"!-	c #4600BB",
"~-	c #6E04E7",
"{-	c #6103C8",
"]-	c #280269",
"^-	c #160242",
"/-	c #120246",
"(-	c #220280",
"_-	c #2B0293",
":-	c #21036C",
"<-	c #1E044F",
"[-	c #2C055D",
"}-	c #3A0477",
"|-	c #360284",
"1-	c #300388",
"2-	c #3D049E",
"3-	c #3D039F",
"4-	c #36029A",
"5-	c #3601A1",
"6-	c #4703B9",
"7-	c #5803CD",
"8-	c #5801CD",
"9-	c #5303BD",
"0-	c #41038B",
"a-	c #310166",
"b-	c #360467",
"c-	c #3E0488",
"d-	c #300296",
"e-	c #15024C",
"f-	c #180341",
"g-	c #190347",
"h-	c #180256",
"i-	c #170256",
"j-	c #1B045A",
"k-	c #3404B4",
"l-	c #3303BB",
"m-	c #280388",
"n-	c #1E0265",
"o-	c #2D019A",
"p-	c #270184",
"q-	c #1F036E",
"r-	c #300498",
"s-	c #3803A7",
"t-	c #3902A6",
"u-	c #3901B2",
"v-	c #5200CE",
"w-	c #820AE4",
"x-	c #C128FA",
"y-	c #A312FA",
"z-	c #54149A",
"A-	c #3C1873",
"B-	c #311859",
"C-	c #140E31",
"D-	c #07071C",
"E-	c #0B081F",
"F-	c #110C29",
"G-	c #060516",
"H-	c #09071E",
"I-	c #150E30",
"J-	c #341D55",
"K-	c #441C73",
"L-	c #4E0E9D",
"M-	c #7F10E8",
"N-	c #9D24EA",
"O-	c #4000BC",
"P-	c #5602E2",
"Q-	c #3C019B",
"R-	c #1A0251",
"S-	c #12033F",
"T-	c #12034D",
"U-	c #1B0266",
"V-	c #1E0361",
"W-	c #1F0352",
"X-	c #260456",
"Y-	c #2F0464",
"Z-	c #360483",
"`-	c #4201B9",
" ;	c #5705DD",
".;	c #5304DA",
"+;	c #3900B7",
"@;	c #3D00C2",
"#;	c #5A06E0",
"$;	c #710BEB",
"%;	c #6205DC",
"&;	c #6505D5",
"*;	c #5700D7",
"=;	c #5700CE",
"-;	c #5C02AE",
";;	c #5A0492",
">;	c #4F0386",
",;	c #4F03AD",
"';	c #3103A1",
");	c #1F0369",
"!;	c #1C034E",
"~;	c #1B0257",
"{;	c #1C0269",
"];	c #1A035A",
"^;	c #330494",
"/;	c #3702CC",
"(;	c #250395",
"_;	c #140352",
":;	c #1D0372",
"<;	c #240284",
"[;	c #280292",
"};	c #29029E",
"|;	c #26038A",
"1;	c #290282",
"2;	c #3801B0",
"3;	c #4E00D6",
"4;	c #800FEB",
"5;	c #B026F9",
"6;	c #6100DA",
"7;	c #5212A5",
"8;	c #4A1D83",
"9;	c #3A1C63",
"0;	c #160F33",
"a;	c #08071D",
"b;	c #140F2D",
"c;	c #0D0A21",
"d;	c #030310",
"e;	c #191135",
"f;	c #3D2262",
"g;	c #421A73",
"h;	c #490F91",
"i;	c #7207DC",
"j;	c #6B0BD5",
"k;	c #5505E0",
"l;	c #4202D1",
"m;	c #14024B",
"n;	c #190263",
"o;	c #1A0369",
"p;	c #180352",
"q;	c #210356",
"r;	c #260359",
"s;	c #21034F",
"t;	c #270377",
"u;	c #270290",
"v;	c #4202DA",
"w;	c #8010F9",
"x;	c #7D1AE3",
"y;	c #9625E5",
"z;	c #7B15DA",
"A;	c #7E18D8",
"B;	c #8818D8",
"C;	c #9218E0",
"D;	c #9D1EEA",
"E;	c #9D22E9",
"F;	c #7C0FE7",
"G;	c #7505EB",
"H;	c #8604DA",
"I;	c #7003AB",
"J;	c #500388",
"K;	c #42029B",
"L;	c #290395",
"M;	c #21026C",
"N;	c #1D0253",
"O;	c #1E0268",
"P;	c #200273",
"Q;	c #2D047A",
"R;	c #3804BF",
"S;	c #2A02AF",
"T;	c #150356",
"U;	c #17035C",
"V;	c #1C036E",
"W;	c #29029B",
"X;	c #3603CB",
"Y;	c #2B02A3",
"Z;	c #170155",
"`;	c #32019B",
" >	c #4000C3",
".>	c #5E03DB",
"+>	c #7706EB",
"@>	c #5800CD",
"#>	c #4C129B",
"$>	c #481B7E",
"%>	c #452073",
"&>	c #1C123B",
"*>	c #060519",
"=>	c #0F0C26",
"->	c #100B22",
";>	c #040312",
">>	c #110D2A",
",>	c #241842",
"'>	c #422467",
")>	c #3E1A6E",
"!>	c #6312B5",
"~>	c #7C0DE4",
"{>	c #5A06E2",
"]>	c #3001AC",
"^>	c #3701B5",
"/>	c #29018B",
"(>	c #140254",
"_>	c #160265",
":>	c #12024C",
"<>	c #18034A",
"[>	c #2B0463",
"}>	c #250354",
"|>	c #22036F",
"1>	c #3002AC",
"2>	c #2702A3",
"3>	c #5105DA",
"4>	c #610BC8",
"5>	c #6D14BC",
"6>	c #701CAF",
"7>	c #6717AB",
"8>	c #4A0D95",
"9>	c #3F0890",
"0>	c #7F19C2",
"a>	c #8D22C7",
"b>	c #B23CCF",
"c>	c #C03BDD",
"d>	c #A123E9",
"e>	c #9810F6",
"f>	c #8105DB",
"g>	c #550294",
"h>	c #4B0280",
"i>	c #33037D",
"j>	c #1C036D",
"k>	c #1C0259",
"l>	c #1F0270",
"m>	c #1F0263",
"n>	c #3704A0",
"o>	c #3B07D3",
"p>	c #170365",
"q>	c #150351",
"r>	c #1A0467",
"s>	c #1F0385",
"t>	c #24019E",
"u>	c #1F0287",
"v>	c #15034C",
"w>	c #210268",
"x>	c #32019F",
"y>	c #5903D5",
"z>	c #6003DF",
"A>	c #6D02DC",
"B>	c #5A11AC",
"C>	c #421975",
"D>	c #482178",
"E>	c #28184C",
"F>	c #161032",
"G>	c #08061A",
"H>	c #0E0A23",
"I>	c #0F0A22",
"J>	c #050415",
"K>	c #381F5B",
"L>	c #451B7E",
"M>	c #6C16C4",
"N>	c #710AD9",
"O>	c #750DF7",
"P>	c #3701B3",
"Q>	c #2F019E",
"R>	c #3002A1",
"S>	c #1D0376",
"T>	c #12024D",
"U>	c #0E022E",
"V>	c #1B0349",
"W>	c #260360",
"X>	c #1D0358",
"Y>	c #28028E",
"Z>	c #3702B3",
"`>	c #4503BE",
" ,	c #5004BA",
".,	c #3D0398",
"+,	c #3A0389",
"@,	c #28016A",
"#,	c #24016C",
"$,	c #210272",
"%,	c #2C0192",
"&,	c #4400C0",
"*,	c #4900BF",
"=,	c #6F0EBA",
"-,	c #941EC7",
";,	c #7A10BE",
">,	c #800FDC",
",,	c #7107E7",
"',	c #5D01C6",
"),	c #5F039E",
"!,	c #4A0388",
"~,	c #25037C",
"{,	c #19025E",
"],	c #1F026A",
"^,	c #1B0261",
"/,	c #310381",
"(,	c #530EE6",
"_,	c #2E099F",
":,	c #15034F",
"<,	c #17045C",
"[,	c #19036B",
"},	c #1D0280",
"|,	c #1C027D",
"1,	c #16024F",
"2,	c #2A027F",
"3,	c #5202C7",
"4,	c #5402CE",
"5,	c #7B06E4",
"6,	c #6913C2",
"7,	c #451B7C",
"8,	c #3B1C69",
"9,	c #1D1240",
"0,	c #0D0B27",
"a,	c #08061D",
"b,	c #0E0922",
"c,	c #0A071F",
"d,	c #060517",
"e,	c #110B22",
"f,	c #1E1336",
"g,	c #3F285E",
"h,	c #58239E",
"i,	c #8219D9",
"j,	c #9525F0",
"k,	c #9120F8",
"l,	c #5300DE",
"m,	c #3D02AF",
"n,	c #31029C",
"o,	c #1B026E",
"p,	c #140244",
"q,	c #1F034E",
"r,	c #2A0367",
"s,	c #1E035C",
"t,	c #250373",
"u,	c #2E047E",
"v,	c #5504BF",
"w,	c #35048C",
"x,	c #2D038C",
"y,	c #370391",
"z,	c #2F0381",
"A,	c #210270",
"B,	c #2E029B",
"C,	c #3D03C4",
"D,	c #4A04D6",
"E,	c #5204DC",
"F,	c #6E13D8",
"G,	c #871ED3",
"H,	c #8D1ACA",
"I,	c #6604B6",
"J,	c #7505D7",
"K,	c #5902DA",
"L,	c #6203C9",
"M,	c #5D0496",
"N,	c #18025D",
"O,	c #160254",
"P,	c #1D0262",
"Q,	c #33037F",
"R,	c #5509D9",
"S,	c #2F06A8",
"T,	c #170456",
"U,	c #18045D",
"V,	c #1A0370",
"W,	c #1B0377",
"X,	c #120344",
"Y,	c #1D0255",
"Z,	c #260363",
"`,	c #3F01A0",
" '	c #4B01BC",
".'	c #7B01E8",
"+'	c #7613D6",
"@'	c #5B269C",
"#'	c #432A6B",
"$'	c #201440",
"%'	c #0A081E",
"&'	c #0C0921",
"*'	c #08061B",
"='	c #100C23",
"-'	c #201634",
";'	c #190F2C",
">'	c #482F5F",
",'	c #7435BE",
"''	c #7923D2",
")'	c #B44CFB",
"!'	c #6A08D8",
"~'	c #5B01D1",
"{'	c #5203C9",
"]'	c #3C03B7",
"^'	c #1D0267",
"/'	c #19034D",
"('	c #230454",
"_'	c #2D0466",
":'	c #280362",
"<'	c #22045E",
"['	c #25045F",
"}'	c #28036D",
"|'	c #200367",
"1'	c #15035D",
"2'	c #23027C",
"3'	c #34019E",
"4'	c #2B0292",
"5'	c #2F02A8",
"6'	c #3B02CA",
"7'	c #3C03C6",
"8'	c #4002BF",
"9'	c #4304B8",
"0'	c #2D01A6",
"a'	c #3E08B8",
"b'	c #7A1CDF",
"c'	c #650AC2",
"d'	c #50029B",
"e'	c #6203C6",
"f'	c #6003D9",
"g'	c #6903B9",
"h'	c #530491",
"i'	c #19025D",
"j'	c #1D025E",
"k'	c #33027E",
"l'	c #5206D0",
"m'	c #2C049C",
"n'	c #200474",
"o'	c #1C046B",
"p'	c #1A036F",
"q'	c #180464",
"r'	c #170359",
"s'	c #110337",
"t'	c #230355",
"u'	c #2E0279",
"v'	c #5503BA",
"w'	c #7A02E6",
"x'	c #6809CD",
"y'	c #7A3CBB",
"z'	c #4F336B",
"A'	c #1B0F35",
"B'	c #120C25",
"C'	c #070518",
"D'	c #040414",
"E'	c #0D0920",
"F'	c #25183A",
"G'	c #67359C",
"H'	c #8E28EF",
"I'	c #B750F8",
"J'	c #7812D4",
"K'	c #5300BC",
"L'	c #5B03D2",
"M'	c #4002B7",
"N'	c #1F0366",
"O'	c #21035B",
"P'	c #290460",
"Q'	c #27045E",
"R'	c #250461",
"S'	c #210556",
"T'	c #19034A",
"U'	c #1E036A",
"V'	c #1A0270",
"W'	c #1F027C",
"X'	c #290290",
"Y'	c #2C028C",
"Z'	c #280282",
"`'	c #4302C6",
" )	c #5003DB",
".)	c #4001BC",
"+)	c #5A04D6",
"@)	c #5102C9",
"#)	c #4602BC",
"$)	c #4302C7",
"%)	c #4E07DD",
"&)	c #7518EA",
"*)	c #5C07C7",
"=)	c #46019B",
"-)	c #6E07D1",
";)	c #6C06D0",
">)	c #6402A9",
",)	c #32037E",
"')	c #210370",
"))	c #2E037F",
"!)	c #21035A",
"~)	c #33027B",
"{)	c #5904D5",
"])	c #3C04BF",
"^)	c #1F0476",
"/)	c #1D0471",
"()	c #190361",
"_)	c #180346",
":)	c #230453",
"<)	c #250453",
"[)	c #26045F",
"})	c #4D03A8",
"|)	c #6601DA",
"1)	c #6D0ED7",
"2)	c #7840AA",
"3)	c #2A1946",
"4)	c #0F0B2A",
"5)	c #0A0823",
"6)	c #07061B",
"7)	c #27193E",
"8)	c #372255",
"9)	c #582795",
"0)	c #B85AFE",
"a)	c #A63DF3",
"b)	c #A82BF4",
"c)	c #6C06CE",
"d)	c #4B02B9",
"e)	c #3B02A5",
"f)	c #230369",
"g)	c #1A0351",
"h)	c #1F0359",
"i)	c #210368",
"j)	c #210360",
"k)	c #190449",
"l)	c #1A0356",
"m)	c #1C046C",
"n)	c #1E0279",
"o)	c #230382",
"p)	c #2F0390",
"q)	c #4B03B2",
"r)	c #340293",
"s)	c #4801BE",
"t)	c #5600D7",
"u)	c #5B05DE",
"v)	c #6106DE",
"w)	c #5C03D1",
"x)	c #32027D",
"y)	c #240362",
"z)	c #330196",
"A)	c #3B05B5",
"B)	c #640CF0",
"C)	c #5803C6",
"D)	c #6004B7",
"E)	c #880AE5",
"F)	c #6E03BA",
"G)	c #58049F",
"H)	c #2F0389",
"I)	c #34037E",
"J)	c #290463",
"K)	c #33037C",
"L)	c #5B04CF",
"M)	c #4506CC",
"N)	c #2B029D",
"O)	c #230488",
"P)	c #1D0472",
"Q)	c #120348",
"R)	c #170354",
"S)	c #180343",
"T)	c #1A0342",
"U)	c #230450",
"V)	c #2D0366",
"W)	c #4702A8",
"X)	c #5400CB",
"Y)	c #841EEA",
"Z)	c #5F2D9D",
"`)	c #392061",
" !	c #311D57",
".!	c #120D33",
"+!	c #0A0720",
"@!	c #0A0820",
"#!	c #2E1C45",
"$!	c #4C2F6A",
"%!	c #5F22AF",
"&!	c #C163FF",
"*!	c #AE3BF3",
"=!	c #A21FF5",
"-!	c #8710E5",
";!	c #5304C3",
">!	c #4202AD",
",!	c #23026A",
"'!	c #120444",
")!	c #1B0362",
"!!	c #160346",
"~!	c #140246",
"{!	c #170356",
"]!	c #22037F",
"^!	c #2F029E",
"/!	c #2A038B",
"(!	c #4B03B8",
"_!	c #7804E5",
":!	c #5C01D9",
"<!	c #8811F1",
"[!	c #9219F7",
"}!	c #770BED",
"|!	c #6202DA",
"1!	c #4303A5",
"2!	c #2C0376",
"3!	c #200357",
"4!	c #1B024A",
"5!	c #2D0282",
"6!	c #4705C3",
"7!	c #4E03D4",
"8!	c #6C02CD",
"9!	c #9912E2",
"0!	c #9709D7",
"a!	c #6903AA",
"b!	c #36048D",
"c!	c #260367",
"d!	c #2A0370",
"e!	c #5B05C5",
"f!	c #4F06D6",
"g!	c #3303AA",
"h!	c #290490",
"i!	c #1A0468",
"j!	c #14044E",
"k!	c #18034B",
"l!	c #1A0441",
"m!	c #18033C",
"n!	c #29035C",
"o!	c #2E0369",
"p!	c #36028D",
"q!	c #3B01A1",
"r!	c #5406C5",
"s!	c #6B1FBC",
"t!	c #522D84",
"u!	c #3A2262",
"v!	c #110C30",
"w!	c #130D2D",
"x!	c #0B0923",
"y!	c #110C26",
"z!	c #3A2250",
"A!	c #553677",
"B!	c #7C2FCB",
"C!	c #9C2AF4",
"D!	c #AF36F3",
"E!	c #8814E6",
"F!	c #7D07E8",
"G!	c #6C07D5",
"H!	c #320192",
"I!	c #1D0266",
"J!	c #170455",
"K!	c #1E036B",
"L!	c #13033E",
"M!	c #11023D",
"N!	c #310397",
"O!	c #4702C9",
"P!	c #4D01CB",
"Q!	c #8006EB",
"R!	c #8203EE",
"S!	c #8F11F7",
"T!	c #9E1EFA",
"U!	c #9C1BF9",
"V!	c #7805EE",
"W!	c #830AF0",
"X!	c #4903B6",
"Y!	c #4301B8",
"Z!	c #370297",
"`!	c #190349",
" ~	c #4304B5",
".~	c #4900C1",
"+~	c #7A1ABD",
"@~	c #AA1AE1",
"#~	c #5C01A0",
"$~	c #350385",
"%~	c #270375",
"&~	c #280369",
"*~	c #240169",
"=~	c #700BC7",
"-~	c #710AED",
";~	c #3C04B7",
">~	c #260481",
",~	c #1A0461",
"'~	c #190560",
")~	c #1A0354",
"!~	c #1D0348",
"~~	c #1B0442",
"{~	c #240552",
"]~	c #2C0370",
"^~	c #34028D",
"/~	c #29037E",
"(~	c #4100A9",
"_~	c #7D1BDB",
":~	c #542E88",
"<~	c #3E2364",
"[~	c #130D31",
"}~	c #110C2A",
"|~	c #08061C",
"1~	c #110D28",
"2~	c #140E2A",
"3~	c #412656",
"4~	c #54347A",
"5~	c #7128C7",
"6~	c #6603CC",
"7~	c #A42FF9",
"8~	c #8F1FEF",
"9~	c #5F01D2",
"0~	c #4002A4",
"a~	c #230175",
"b~	c #1C0268",
"c~	c #1E046E",
"d~	c #240374",
"e~	c #100235",
"f~	c #13023D",
"g~	c #3901A0",
"h~	c #7608F0",
"i~	c #8B08F9",
"j~	c #B110FA",
"k~	c #AF14F2",
"l~	c #7D11E3",
"m~	c #820DF2",
"n~	c #740BD4",
"o~	c #5201C6",
"p~	c #4604A6",
"q~	c #2F0285",
"r~	c #3C01AC",
"s~	c #3702A6",
"t~	c #35049B",
"u~	c #2A0377",
"v~	c #190147",
"w~	c #370386",
"x~	c #3B02A8",
"y~	c #370980",
"z~	c #9B1BDB",
"A~	c #6303A9",
"B~	c #300188",
"C~	c #2F027F",
"D~	c #2F0374",
"E~	c #260269",
"F~	c #6A07C1",
"G~	c #6707DF",
"H~	c #4C07C7",
"I~	c #230378",
"J~	c #1D046E",
"K~	c #1C056A",
"L~	c #1B0452",
"M~	c #1C0448",
"N~	c #240452",
"O~	c #34018F",
"P~	c #28018B",
"Q~	c #5304BA",
"R~	c #962AEA",
"S~	c #502D87",
"T~	c #412665",
"U~	c #19103A",
"V~	c #120D2D",
"W~	c #09081E",
"X~	c #0E0C25",
"Y~	c #24173B",
"Z~	c #412558",
"`~	c #512F7F",
" {	c #7620D8",
".{	c #6B09D9",
"+{	c #7E0CF6",
"@{	c #6F0CE5",
"#{	c #3400A0",
"${	c #2B0284",
"%{	c #25017E",
"&{	c #1F0274",
"*{	c #2F0393",
"={	c #2F0385",
"-{	c #180349",
";{	c #110237",
">{	c #25036D",
",{	c #4A00CC",
"'{	c #9210F7",
"){	c #B013F7",
"!{	c #9D08F0",
"~{	c #7F09D8",
"{{	c #5701D3",
"]{	c #9112EF",
"^{	c #4303B0",
"/{	c #4602B7",
"({	c #32029C",
"_{	c #3602A7",
":{	c #1F0167",
"<{	c #18024B",
"[{	c #200360",
"}{	c #260280",
"|{	c #18024F",
"1{	c #22025E",
"2{	c #3A0390",
"3{	c #32028A",
"4{	c #7810D0",
"5{	c #6B09B7",
"6{	c #280089",
"7{	c #2F0280",
"8{	c #37037D",
"9{	c #28026B",
"0{	c #6503C5",
"a{	c #5B05D5",
"b{	c #4D06C6",
"c{	c #280382",
"d{	c #1D0469",
"e{	c #1B0346",
"f{	c #250457",
"g{	c #2F0270",
"h{	c #30037A",
"i{	c #36038D",
"j{	c #4D01BE",
"k{	c #7310D9",
"l{	c #AC3FF1",
"m{	c #512C90",
"n{	c #3F265E",
"o{	c #25184A",
"p{	c #0F0C2E",
"q{	c #0A0923",
"r{	c #110C27",
"s{	c #2A1A3F",
"t{	c #3A2158",
"u{	c #532D88",
"v{	c #A74BF2",
"w{	c #750BF2",
"x{	c #9F31F8",
"y{	c #822ADB",
"z{	c #220081",
"A{	c #240470",
"B{	c #27037C",
"C{	c #3A02A2",
"D{	c #320288",
"E{	c #16023C",
"F{	c #160245",
"G{	c #3B01A7",
"H{	c #6501E8",
"I{	c #A00EF8",
"J{	c #7F07DE",
"K{	c #6601CF",
"L{	c #6A00E0",
"M{	c #9114F9",
"N{	c #8814E0",
"O{	c #3A00B5",
"P{	c #4A04C0",
"Q{	c #3802A3",
"R{	c #290283",
"S{	c #14024E",
"T{	c #100243",
"U{	c #180253",
"V{	c #1C0263",
"W{	c #1A0162",
"X{	c #13014D",
"Y{	c #2F046B",
"Z{	c #47049D",
"`{	c #5A0AC7",
" ]	c #730FCC",
".]	c #23007D",
"+]	c #370392",
"@]	c #3C0383",
"#]	c #2B0273",
"$]	c #7806DC",
"%]	c #6D09E8",
"&]	c #4805C5",
"*]	c #2E0295",
"=]	c #1E0473",
"-]	c #1C0565",
";]	c #1A0248",
">]	c #1C0345",
",]	c #270366",
"']	c #340482",
")]	c #7E05EA",
"!]	c #9918F6",
"~]	c #9628ED",
"{]	c #57318B",
"]]	c #3D2360",
"^]	c #311E50",
"/]	c #1E143C",
"(]	c #130E2C",
"_]	c #1D1432",
":]	c #221738",
"<]	c #241738",
"[]	c #2E1A54",
"}]	c #572F8C",
"|]	c #AA57E2",
"1]	c #9221FA",
"2]	c #C767FA",
"3]	c #8A2BDF",
"4]	c #4101AB",
"5]	c #300484",
"6]	c #2C037E",
"7]	c #30038C",
"8]	c #37029A",
"9]	c #290273",
"0]	c #20034C",
"a]	c #1E034A",
"b]	c #4F01CB",
"c]	c #7502EC",
"d]	c #9207EA",
"e]	c #5701BD",
"f]	c #7104D4",
"g]	c #8909F5",
"h]	c #AA2AF5",
"i]	c #540AC4",
"j]	c #3601AB",
"k]	c #370385",
"l]	c #250356",
"m]	c #210171",
"n]	c #2C029C",
"o]	c #3103A9",
"p]	c #27028D",
"q]	c #1C0361",
"r]	c #1B0263",
"s]	c #140256",
"t]	c #220458",
"u]	c #4C059E",
"v]	c #5306CD",
"w]	c #6808D9",
"x]	c #260082",
"y]	c #44029A",
"z]	c #410383",
"A]	c #3C0291",
"B]	c #6E06DB",
"C]	c #740DED",
"D]	c #4504C6",
"E]	c #3503AA",
"F]	c #210482",
"G]	c #19045E",
"H]	c #150346",
"I]	c #290466",
"J]	c #28036C",
"K]	c #5C03C1",
"L]	c #920FF6",
"M]	c #BB3BFB",
"N]	c #972AE2",
"O]	c #5A3189",
"P]	c #301B58",
"Q]	c #291A3E",
"R]	c #23173B",
"S]	c #201536",
"T]	c #1A1331",
"U]	c #1E1533",
"V]	c #22153A",
"W]	c #2A1757",
"X]	c #341D56",
"Y]	c #A158C6",
"Z]	c #A037FD",
"`]	c #881AED",
" ^	c #6F0DD2",
".^	c #6A02D3",
"+^	c #5303B1",
"@^	c #330291",
"#^	c #340399",
"$^	c #35028A",
"%^	c #280365",
"&^	c #2D0462",
"*^	c #2A0362",
"=^	c #5702BF",
"-^	c #6602DA",
";^	c #7203DD",
">^	c #8C07E0",
",^	c #5701BF",
"'^	c #870BE2",
")^	c #AC23FD",
"!^	c #720DE4",
"~^	c #3800AF",
"{^	c #470497",
"]^	c #2F0361",
"^^	c #230171",
"/^	c #3C05BD",
"(^	c #3804A5",
"_^	c #1C0260",
":^	c #1E0357",
"<^	c #350389",
"[^	c #5405D4",
"}^	c #4C03B7",
"|^	c #24007C",
"1^	c #53029D",
"2^	c #410286",
"3^	c #4D02AD",
"4^	c #7B07E9",
"5^	c #7910EE",
"6^	c #3B01C3",
"7^	c #3C04C4",
"8^	c #270398",
"9^	c #150352",
"0^	c #20044B",
"a^	c #2B0373",
"b^	c #320381",
"c^	c #5303B9",
"d^	c #4C00C2",
"e^	c #9A1CFE",
"f^	c #A648CE",
"g^	c #3D2362",
"h^	c #281555",
"i^	c #1A132F",
"j^	c #0C091B",
"k^	c #0A0717",
"l^	c #180F39",
"m^	c #221443",
"n^	c #29194A",
"o^	c #913ED1",
"p^	c #841BF3",
"q^	c #5300D4",
"r^	c #6306CA",
"s^	c #6203C5",
"t^	c #44029C",
"u^	c #290287",
"v^	c #4201AD",
"w^	c #3A0289",
"x^	c #26045A",
"y^	c #2D0364",
"z^	c #2A0269",
"A^	c #5202B9",
"B^	c #6001CE",
"C^	c #7D04E6",
"D^	c #8505E1",
"E^	c #5500C7",
"F^	c #9817F4",
"G^	c #8C12F9",
"H^	c #4E00CD",
"I^	c #3F02A0",
"J^	c #3C0375",
"K^	c #1B0253",
"L^	c #2701AC",
"M^	c #3503AD",
"N^	c #1A0348",
"O^	c #100139",
"P^	c #0D0130",
"Q^	c #0F0135",
"R^	c #130240",
"S^	c #110140",
"T^	c #210258",
"U^	c #2A0085",
"V^	c #540ACC",
"W^	c #30047F",
"X^	c #29017C",
"Y^	c #4B038E",
"Z^	c #470197",
"`^	c #5403B8",
" /	c #900CF6",
"./	c #6609EB",
"+/	c #3F03D1",
"@/	c #3804C6",
"#/	c #260391",
"$/	c #160350",
"%/	c #180348",
"&/	c #1B0344",
"*/	c #240457",
"=/	c #300285",
"-/	c #340288",
";/	c #2A0271",
">/	c #8911F7",
",/	c #982DE0",
"'/	c #301A50",
")/	c #1E1243",
"!/	c #190F38",
"~/	c #0D091B",
"{/	c #0A081C",
"]/	c #080718",
"^/	c #170E3B",
"//	c #211543",
"(/	c #5D249D",
"_/	c #901BFE",
":/	c #710BE3",
"</	c #5E04D0",
"[/	c #5E02CA",
"}/	c #6404C1",
"|/	c #4102A3",
"1/	c #41029F",
"2/	c #2B0462",
"3/	c #230351",
"4/	c #200253",
"5/	c #37028B",
"6/	c #3C009D",
"7/	c #7806DE",
"8/	c #9D0BF9",
"9/	c #6C02D8",
"0/	c #6602DD",
"a/	c #8C0FFB",
"b/	c #6803EE",
"c/	c #4402AD",
"d/	c #3A0285",
"e/	c #22024C",
"f/	c #14015D",
"g/	c #3103BD",
"h/	c #2D0380",
"i/	c #140239",
"j/	c #0C012A",
"k/	c #070120",
"l/	c #0F0134",
"m/	c #11023C",
"n/	c #1A024B",
"o/	c #33019B",
"p/	c #6608DC",
"q/	c #270370",
"r/	c #380283",
"s/	c #570392",
"t/	c #5100A9",
"u/	c #6E08D1",
"v/	c #A91CFB",
"w/	c #6A0EF1",
"x/	c #4804E2",
"y/	c #3703C0",
"z/	c #230381",
"A/	c #1A0453",
"B/	c #1F034F",
"C/	c #1F0348",
"D/	c #230365",
"E/	c #280372",
"F/	c #21035D",
"G/	c #20045A",
"H/	c #29008C",
"I/	c #6506DE",
"J/	c #AC1EFF",
"K/	c #6922A0",
"L/	c #1F1544",
"M/	c #1D1242",
"N/	c #0E0B22",
"O/	c #150E2B",
"P/	c #150E3B",
"Q/	c #2E1B5D",
"R/	c #8D2AE1",
"S/	c #8110EC",
"T/	c #4801B5",
"U/	c #5903C4",
"V/	c #5C03C3",
"W/	c #4A04A6",
"X/	c #4202AE",
"Y/	c #4D01B3",
"Z/	c #3C0280",
"`/	c #220450",
" (	c #1B0243",
".(	c #21015F",
"+(	c #4701B1",
"@(	c #8E0DF4",
"#(	c #7608DC",
"$(	c #5900D2",
"%(	c #830AF2",
"&(	c #8E14F0",
"*(	c #4C01CE",
"=(	c #3F02A2",
"-(	c #3E0384",
";(	c #22025D",
">(	c #170179",
",(	c #3303A6",
"'(	c #26035F",
")(	c #0E0131",
"!(	c #070122",
"~(	c #030114",
"{(	c #040115",
"](	c #0B0129",
"^(	c #11013A",
"/(	c #170145",
"((	c #3701A7",
"_(	c #5605C4",
":(	c #220269",
"<(	c #3E0284",
"[(	c #500392",
"}(	c #5100B6",
"|(	c #9915E5",
"1(	c #9C1DF2",
"2(	c #5108E6",
"3(	c #4E07E6",
"4(	c #2E03A7",
"5(	c #29035E",
"6(	c #270471",
"7(	c #28036E",
"8(	c #28036F",
"9(	c #2B047A",
"0(	c #4901C2",
"a(	c #B539FA",
"b(	c #A92CFD",
"c(	c #6F19D4",
"d(	c #39245E",
"e(	c #170E3C",
"f(	c #16102E",
"g(	c #120F28",
"h(	c #0F0C22",
"i(	c #18113F",
"j(	c #5C2B9B",
"k(	c #7E1CF1",
"l(	c #7506E9",
"m(	c #4C03B4",
"n(	c #4F02BB",
"o(	c #4B02B1",
"p(	c #3D02A2",
"q(	c #480296",
"r(	c #29045B",
"s(	c #27035B",
"t(	c #1E0262",
"u(	c #3B029C",
"v(	c #5703D6",
"w(	c #7D0AF4",
"x(	c #6002DA",
"y(	c #6C01ED",
"z(	c #A91AFA",
"A(	c #8B16E5",
"B(	c #3000A1",
"C(	c #4302A6",
"D(	c #42028C",
"E(	c #210173",
"F(	c #2101A6",
"G(	c #2F0291",
"H(	c #1A0245",
"I(	c #080122",
"J(	c #01010F",
"K(	c #030113",
"L(	c #0B0229",
"M(	c #110238",
"N(	c #18014D",
"O(	c #3602A2",
"P(	c #39029C",
"Q(	c #2D0276",
"R(	c #320277",
"S(	c #5103AD",
"T(	c #6501CB",
"U(	c #BC1DF4",
"V(	c #640CE3",
"W(	c #4906E8",
"X(	c #4503D4",
"Y(	c #220281",
"Z(	c #190258",
"`(	c #220356",
" _	c #330372",
"._	c #2F037F",
"+_	c #270461",
"@_	c #290468",
"#_	c #32047F",
"$_	c #3A01A7",
"%_	c #750CE6",
"&_	c #D34DFC",
"*_	c #931EF9",
"=_	c #651ED8",
"-_	c #5C3687",
";_	c #1C1044",
">_	c #1A1234",
",_	c #0C0A20",
"'_	c #160F2F",
")_	c #26164E",
"!_	c #7B3ABC",
"~_	c #781BEC",
"{_	c #900FF7",
"]_	c #8615E4",
"^_	c #3E02A8",
"/_	c #4102A8",
"(_	c #3C018F",
"__	c #30036C",
":_	c #230456",
"<_	c #2C0366",
"[_	c #2C0384",
"}_	c #3D02A7",
"|_	c #4902CC",
"1_	c #7507F2",
"2_	c #5601D5",
"3_	c #6802EC",
"4_	c #930DFB",
"5_	c #7907E2",
"6_	c #2A008B",
"7_	c #4C02AD",
"8_	c #3A0186",
"9_	c #14016E",
"0_	c #3503C3",
"a_	c #190247",
"b_	c #13023B",
"c_	c #06011B",
"d_	c #07011F",
"e_	c #0D0230",
"f_	c #140242",
"g_	c #21016A",
"h_	c #3E02B4",
"i_	c #2F026E",
"j_	c #4302A2",
"k_	c #6401D8",
"l_	c #8002DD",
"m_	c #BC1DF7",
"n_	c #5D09EA",
"o_	c #5007F0",
"p_	c #4403C6",
"q_	c #1E0270",
"r_	c #1E0358",
"s_	c #380378",
"t_	c #340474",
"u_	c #290354",
"v_	c #4403A0",
"w_	c #5E01D5",
"x_	c #900DF7",
"y_	c #A118FA",
"z_	c #8D11FA",
"A_	c #6621D8",
"B_	c #6D3E9F",
"C_	c #24154C",
"D_	c #171030",
"E_	c #0E0A22",
"F_	c #100C29",
"G_	c #160F2E",
"H_	c #2B1852",
"I_	c #7736B6",
"J_	c #811AF5",
"K_	c #8D15F3",
"L_	c #7310DC",
"M_	c #5800D5",
"N_	c #3F02A7",
"O_	c #350289",
"P_	c #35027D",
"Q_	c #26035C",
"R_	c #26035D",
"S_	c #310272",
"T_	c #2A0375",
"U_	c #330290",
"V_	c #4702C7",
"W_	c #4E01CD",
"X_	c #4601C3",
"Y_	c #4700D2",
"Z_	c #7D0BF1",
"`_	c #820DEA",
" :	c #25007F",
".:	c #4402A0",
"+:	c #10016D",
"@:	c #300298",
"#:	c #3D0280",
"$:	c #1D024F",
"%:	c #1B024C",
"&:	c #0D012E",
"*:	c #0E0132",
"=:	c #11023A",
"-:	c #3601A6",
";:	c #5103C2",
">:	c #3B0382",
",:	c #2A0272",
"':	c #5A02D1",
"):	c #5E00D9",
"!:	c #9109E6",
"~:	c #AE26F7",
"{:	c #4803E4",
"]:	c #4502DB",
"^:	c #3902AB",
"/:	c #1F0266",
"(:	c #30026E",
"_:	c #4101A2",
"::	c #32037A",
"<:	c #2E0456",
"[:	c #26044E",
"}:	c #28035F",
"|:	c #5600BD",
"1:	c #9A0DF6",
"2:	c #8607F1",
"3:	c #9618F6",
"4:	c #991CFD",
"5:	c #661CDD",
"6:	c #633B88",
"7:	c #2C1953",
"8:	c #1A1133",
"9:	c #100C27",
"0:	c #0F0C28",
"a:	c #1A1136",
"b:	c #311D55",
"c:	c #6D35A6",
"d:	c #9F2CF9",
"e:	c #B538F6",
"f:	c #5A08D1",
"g:	c #4400BC",
"h:	c #4001A4",
"i:	c #2F0278",
"j:	c #36037B",
"k:	c #270262",
"l:	c #330285",
"m:	c #34028F",
"n:	c #2B0375",
"o:	c #3F02B6",
"p:	c #4C02D2",
"q:	c #3C01AE",
"r:	c #3E01B9",
"s:	c #3400AE",
"t:	c #6E06E9",
"u:	c #5C06CC",
"v:	c #20016F",
"w:	c #39028F",
"x:	c #21016B",
"y:	c #0F015A",
"z:	c #300384",
"A:	c #26025D",
"B:	c #260266",
"C:	c #1C024F",
"D:	c #100236",
"E:	c #1F0259",
"F:	c #26027B",
"G:	c #4802BA",
"H:	c #470398",
"I:	c #2C0272",
"J:	c #340197",
"K:	c #4802C0",
"L:	c #5400CC",
"M:	c #A818F3",
"N:	c #7313EB",
"O:	c #3A00D4",
"P:	c #4003C0",
"Q:	c #2A028B",
"R:	c #210362",
"S:	c #31027C",
"T:	c #300191",
"U:	c #26034D",
"V:	c #210447",
"W:	c #22044A",
"X:	c #1F0351",
"Y:	c #4E02A6",
"Z:	c #7306D2",
"`:	c #4901B8",
" <	c #700AE5",
".<	c #9A1BFF",
"+<	c #6D1ADF",
"@<	c #643B86",
"#<	c #321D5A",
"$<	c #1B1338",
"%<	c #271849",
"&<	c #66339B",
"*<	c #B646F8",
"=<	c #D057FC",
"-<	c #5300D5",
";<	c #38039F",
"><	c #4302A7",
",<	c #32027C",
"'<	c #29026B",
")<	c #36019B",
"!<	c #35028C",
"~<	c #220367",
"{<	c #3E01C1",
"]<	c #5204DD",
"^<	c #4502C0",
"/<	c #4501C3",
"(<	c #5902DD",
"_<	c #38019A",
":<	c #1E0166",
"<<	c #3B0294",
"[<	c #25027E",
"}<	c #130164",
"|<	c #280285",
"1<	c #3F0386",
"2<	c #29025F",
"3<	c #27016C",
"4<	c #3B0387",
"5<	c #23035B",
"6<	c #25026A",
"7<	c #4B049D",
"8<	c #23016F",
"9<	c #3901A3",
"0<	c #3A00AF",
"a<	c #7F09E0",
"b<	c #940FF9",
"c<	c #4601D9",
"d<	c #4603CC",
"e<	c #3301A8",
"f<	c #2A027C",
"g<	c #2C036C",
"h<	c #330393",
"i<	c #290370",
"j<	c #180339",
"k<	c #1D0346",
"l<	c #1C0343",
"m<	c #210353",
"n<	c #3F038C",
"o<	c #4B00C2",
"p<	c #6C08E6",
"q<	c #840FFF",
"r<	c #7F21E7",
"s<	c #683E88",
"t<	c #27174C",
"u<	c #1A1236",
"v<	c #100D29",
"w<	c #0E0B27",
"x<	c #171134",
"y<	c #2D1A4D",
"z<	c #582F84",
"A<	c #A039EA",
"B<	c #D25FFD",
"C<	c #8212EE",
"D<	c #4701BA",
"E<	c #3B0296",
"F<	c #48029D",
"G<	c #38037A",
"H<	c #1F0356",
"I<	c #270275",
"J<	c #350198",
"K<	c #2C026F",
"L<	c #1B0164",
"M<	c #3501BA",
"N<	c #4901D5",
"O<	c #3C01B7",
"P<	c #3F01C2",
"Q<	c #3D01C0",
"R<	c #5A02D9",
"S<	c #210166",
"T<	c #310288",
"U<	c #2D038D",
"V<	c #1A017A",
"W<	c #2C02A9",
"X<	c #390289",
"Y<	c #36026C",
"Z<	c #110141",
"`<	c #370383",
" [	c #5002A0",
".[	c #42038D",
"+[	c #3E0382",
"@[	c #2E026A",
"#[	c #180255",
"$[	c #28027C",
"%[	c #34019B",
"&[	c #5C03C6",
"*[	c #A30FFA",
"=[	c #6B02EF",
"-[	c #4E05DB",
";[	c #3F02AB",
">[	c #390281",
",[	c #37027E",
"'[	c #31037C",
")[	c #240459",
"![	c #14023B",
"~[	c #140237",
"{[	c #1D024C",
"][	c #340379",
"^[	c #340290",
"/[	c #5F03DD",
"([	c #5C05D8",
"_[	c #5901EB",
":[	c #7121CF",
"<[	c #5B3479",
"[[	c #2E1953",
"}[	c #0E0C28",
"|[	c #362154",
"1[	c #603287",
"2[	c #8621E8",
"3[	c #9C1FFA",
"4[	c #8C15EE",
"5[	c #6A01DC",
"6[	c #7508CE",
"7[	c #5003A6",
"8[	c #19024B",
"9[	c #28017C",
"0[	c #330181",
"a[	c #1E0255",
"b[	c #20017D",
"c[	c #3101B3",
"d[	c #3A01BE",
"e[	c #2D01A1",
"f[	c #3801B7",
"g[	c #3E01C6",
"h[	c #5A02D4",
"i[	c #2D017B",
"j[	c #1F0163",
"k[	c #24016F",
"l[	c #23018B",
"m[	c #200183",
"n[	c #3804CF",
"o[	c #3901A1",
"p[	c #4E0293",
"q[	c #140241",
"r[	c #210256",
"s[	c #5502A2",
"t[	c #3D0288",
"u[	c #320373",
"v[	c #280265",
"w[	c #260278",
"x[	c #260374",
"y[	c #330097",
"z[	c #820AE2",
"A[	c #A919F9",
"B[	c #6E0CF2",
"C[	c #680DF1",
"D[	c #4C02CE",
"E[	c #5302AC",
"F[	c #520295",
"G[	c #2F036C",
"H[	c #24035A",
"I[	c #13023A",
"J[	c #14033A",
"K[	c #220358",
"L[	c #400297",
"M[	c #370298",
"N[	c #6B06E3",
"O[	c #5D05D3",
"P[	c #28009A",
"Q[	c #5C1DB0",
"R[	c #633384",
"S[	c #3A1F60",
"T[	c #0C0A24",
"U[	c #161031",
"V[	c #362051",
"W[	c #693692",
"X[	c #9826F3",
"Y[	c #7405F2",
"Z[	c #8D1EEE",
"`[	c #B128F7",
" }	c #850AE3",
".}	c #350186",
"+}	c #15033C",
"@}	c #19024C",
"#}	c #2B0283",
"$}	c #330376",
"%}	c #240265",
"&}	c #28019B",
"*}	c #4002CA",
"=}	c #4402C9",
"-}	c #2D01A9",
";}	c #2E01A4",
">}	c #3B02B4",
",}	c #5602CC",
"'}	c #2E027D",
")}	c #1C025A",
"!}	c #270278",
"~}	c #260196",
"{}	c #260093",
"]}	c #3F04D6",
"^}	c #5506DD",
"/}	c #5601AE",
"(}	c #2E0272",
"_}	c #140247",
":}	c #330269",
"<}	c #38026E",
"[}	c #1B015A",
"}}	c #260279",
"|}	c #300182",
"1}	c #6501D1",
"2}	c #8F0DEA",
"3}	c #8C14F8",
"4}	c #7615F6",
"5}	c #5808DA",
"6}	c #3C0193",
"7}	c #40027E",
"8}	c #440285",
"9}	c #0F0233",
"0}	c #300371",
"a}	c #3D0294",
"b}	c #3B01A6",
"c}	c #790CF2",
"d}	c #6910C7",
"e}	c #3800A6",
"f}	c #7926C6",
"g}	c #72379A",
"h}	c #351C5A",
"i}	c #181137",
"j}	c #0C0A25",
"k}	c #0B0B22",
"l}	c #171032",
"m}	c #372154",
"n}	c #6F349C",
"o}	c #C151F4",
"p}	c #8C12F4",
"q}	c #9F27F6",
"r}	c #9528E4",
"s}	c #5200C6",
"t}	c #380388",
"u}	c #110239",
"v}	c #1A0254",
"w}	c #270373",
"x}	c #320274",
"y}	c #2A0275",
"z}	c #2A029C",
"A}	c #4D03DB",
"B}	c #4403C2",
"C}	c #3503BE",
"D}	c #2D02A7",
"E}	c #4202BC",
"F}	c #5103C7",
"G}	c #30027F",
"H}	c #1D0259",
"I}	c #260273",
"J}	c #1E017D",
"K}	c #2E009D",
"L}	c #3A01D3",
"M}	c #5204EB",
"N}	c #6703CC",
"O}	c #490199",
"P}	c #1D026B",
"Q}	c #2D0264",
"R}	c #4A0283",
"S}	c #3E0378",
"T}	c #56029F",
"U}	c #4C0395",
"V}	c #3E038C",
"W}	c #6201C7",
"X}	c #7B04D9",
"Y}	c #810AF1",
"Z}	c #7B12F9",
"`}	c #770EF1",
" |	c #4B01AE",
".|	c #31046E",
"+|	c #2E0463",
"@|	c #32046D",
"#|	c #140338",
"$|	c #110233",
"%|	c #1B0449",
"&|	c #390482",
"*|	c #4301A5",
"=|	c #5304C5",
"-|	c #6D08E9",
";|	c #3E03A0",
">|	c #6303CB",
",|	c #9B27ED",
"'|	c #6F369C",
")|	c #351D59",
"!|	c #1A113A",
"~|	c #0C0B24",
"{|	c #382155",
"]|	c #7130A2",
"^|	c #B647F5",
"/|	c #9321F2",
"(|	c #9A1EF8",
"_|	c #6B09D7",
":|	c #380099",
"<|	c #27036C",
"[|	c #12023B",
"}|	c #270271",
"||	c #2F036F",
"1|	c #270274",
"2|	c #3501A9",
"3|	c #3302A5",
"4|	c #4106DF",
"5|	c #3002B0",
"6|	c #290197",
"7|	c #4302B8",
"8|	c #3D0293",
"9|	c #20025C",
"0|	c #220265",
"a|	c #1C0169",
"b|	c #3E01D5",
"c|	c #5E09ED",
"d|	c #7509E6",
"e|	c #5C01AA",
"f|	c #45019D",
"g|	c #210277",
"h|	c #210170",
"i|	c #3C0293",
"j|	c #5603A5",
"k|	c #6102B3",
"l|	c #6000BB",
"m|	c #7302CF",
"n|	c #7505E1",
"o|	c #6809EF",
"p|	c #941EF9",
"q|	c #6607CD",
"r|	c #3E038D",
"s|	c #2D036B",
"t|	c #280459",
"u|	c #2A0459",
"v|	c #170338",
"w|	c #120234",
"x|	c #120339",
"y|	c #0F0231",
"z|	c #1A0443",
"A|	c #400684",
"B|	c #6707D1",
"C|	c #7207E4",
"D|	c #5C03D5",
"E|	c #4401AC",
"F|	c #6304C1",
"G|	c #9C20F8",
"H|	c #7334AB",
"I|	c #381C5F",
"J|	c #1C123E",
"K|	c #1B1336",
"L|	c #392156",
"M|	c #67259E",
"N|	c #7D1DDC",
"O|	c #8B20ED",
"P|	c #9219F8",
"Q|	c #620CC5",
"R|	c #2F0083",
"S|	c #220262",
"T|	c #210365",
"U|	c #29026D",
"V|	c #250276",
"W|	c #22017F",
"X|	c #3B01AF",
"Y|	c #3202A1",
"Z|	c #4205E5",
"`|	c #4106D3",
" 1	c #1F017A",
".1	c #4C02B0",
"+1	c #270367",
"@1	c #20016D",
"#1	c #1F0172",
"$1	c #3F01C5",
"%1	c #5105E7",
"&1	c #720AF6",
"*1	c #7D08DF",
"=1	c #7B06CC",
"-1	c #6C05CF",
";1	c #33029E",
">1	c #3D00AD",
",1	c #5200B9",
"'1	c #8504D3",
")1	c #B314E8",
"!1	c #930DEE",
"~1	c #710AF3",
"{1	c #7F12F2",
"]1	c #6707D2",
"^1	c #43029C",
"/1	c #33047F",
"(1	c #2C046B",
"_1	c #2A035A",
":1	c #1D0344",
"<1	c #130335",
"[1	c #170243",
"}1	c #14023D",
"|1	c #120235",
"11	c #16033A",
"21	c #1F0449",
"31	c #440786",
"41	c #6F0CDA",
"51	c #6706E0",
"61	c #6403DD",
"71	c #6C02DA",
"81	c #7B0BDB",
"91	c #C449FB",
"01	c #8437C4",
"a1	c #3E1A69",
"b1	c #1F1343",
"c1	c #43235E",
"d1	c #6222A1",
"e1	c #551EAD",
"f1	c #5508D1",
"g1	c #6B08E5",
"h1	c #4D02BB",
"i1	c #37018D",
"j1	c #21035E",
"k1	c #1D0352",
"l1	c #26036C",
"m1	c #2A0368",
"n1	c #280363",
"o1	c #21017D",
"p1	c #3D02BB",
"q1	c #3803C8",
"r1	c #4204DE",
"s1	c #1F0279",
"t1	c #4202B9",
"u1	c #4D02B6",
"v1	c #3E037F",
"w1	c #290362",
"x1	c #210269",
"y1	c #1B0162",
"z1	c #5704E9",
"A1	c #6306F0",
"B1	c #6408E8",
"C1	c #9611F4",
"D1	c #AC12F5",
"E1	c #7607DD",
"F1	c #6404D6",
"G1	c #8310E1",
"H1	c #AA1AF0",
"I1	c #AE22F2",
"J1	c #7E0FF2",
"K1	c #8713F6",
"L1	c #7109D0",
"M1	c #4801A5",
"N1	c #400397",
"O1	c #41038E",
"P1	c #3B0473",
"Q1	c #1A0243",
"R1	c #170247",
"S1	c #170344",
"T1	c #110230",
"U1	c #150336",
"V1	c #240451",
"W1	c #35056D",
"X1	c #410489",
"Y1	c #5E06D0",
"Z1	c #6405E5",
"`1	c #6D02E2",
" 2	c #9D08F6",
".2	c #7501DC",
"+2	c #A73DEE",
"@2	c #8F3AD4",
"#2	c #421676",
"$2	c #201446",
"%2	c #1B1236",
"&2	c #472363",
"*2	c #5B209E",
"=2	c #3C1491",
"-2	c #4802C6",
";2	c #4D01BC",
">2	c #260366",
",2	c #280264",
"'2	c #220357",
")2	c #28028C",
"!2	c #4104C5",
"~2	c #3C03B8",
"{2	c #280198",
"]2	c #3902C8",
"^2	c #21027F",
"/2	c #3802AC",
"(2	c #3D029D",
"_2	c #490288",
":2	c #380371",
"<2	c #1F0267",
"[2	c #3D03A6",
"}2	c #7409F0",
"|2	c #4000CE",
"12	c #4F02CD",
"22	c #7E08F2",
"32	c #7705EB",
"42	c #7C09EE",
"52	c #9C21F6",
"62	c #8919F3",
"72	c #740AF1",
"82	c #7E11EE",
"92	c #7C11E3",
"02	c #5F02D6",
"a2	c #370299",
"b2	c #33047B",
"c2	c #4E0486",
"d2	c #290358",
"e2	c #10023D",
"f2	c #12023A",
"g2	c #0E022A",
"h2	c #0F0329",
"i2	c #2B035E",
"j2	c #360477",
"k2	c #3D038A",
"l2	c #5704D1",
"m2	c #6404EE",
"n2	c #6402CF",
"o2	c #8105D4",
"p2	c #8100DD",
"q2	c #9724EA",
"r2	c #8A32D6",
"s2	c #501792",
"t2	c #23134B",
"u2	c #120D2E",
"v2	c #241441",
"w2	c #542577",
"x2	c #571C9B",
"y2	c #310C86",
"z2	c #4101BF",
"A2	c #4701B9",
"B2	c #5302BF",
"C2	c #1C024A",
"D2	c #2A0364",
"E2	c #1D035F",
"F2	c #29038D",
"G2	c #4304D1",
"H2	c #3B03B0",
"I2	c #22017A",
"J2	c #3602C0",
"K2	c #2E03A4",
"L2	c #300295",
"M2	c #4603AB",
"N2	c #550297",
"O2	c #4C028D",
"P2	c #27035F",
"Q2	c #240269",
"R2	c #18034D",
"S2	c #4603B7",
"T2	c #4D02D1",
"U2	c #5401D6",
"V2	c #6502EB",
"W2	c #5101D6",
"X2	c #5500E7",
"Y2	c #6D05F8",
"Z2	c #5A05E5",
"`2	c #3F01CB",
" 3	c #3700BB",
".3	c #3001A9",
"+3	c #280185",
"@3	c #37028A",
"#3	c #2C0475",
"$3	c #1A025B",
"%3	c #110244",
"&3	c #150240",
"*3	c #17023F",
"=3	c #1D034B",
"-3	c #1B0343",
";3	c #25035F",
">3	c #310379",
",3	c #4A03A7",
"'3	c #4D02C1",
")3	c #3B02B1",
"!3	c #6202C5",
"~3	c #7F04CE",
"{3	c #9400EB",
"]3	c #AF29F6",
"^3	c #923DD7",
"/3	c #601AAE",
"(3	c #2F165F",
"_3	c #0E0B28",
":3	c #0A0824",
"<3	c #261544",
"[3	c #4F2172",
"}3	c #6A24B2",
"|3	c #370D89",
"13	c #1F007B",
"23	c #3901AD",
"33	c #3F01B2",
"43	c #4D03B5",
"53	c #250359",
"63	c #180242",
"73	c #1A0345",
"83	c #240258",
"93	c #200358",
"03	c #1D0359",
"a3	c #240382",
"b3	c #4705D9",
"c3	c #3803A2",
"d3	c #210265",
"e3	c #3102AA",
"f3	c #3403B6",
"g3	c #280385",
"h3	c #3E02A7",
"i3	c #3B0286",
"j3	c #4F0197",
"k3	c #390374",
"l3	c #23025F",
"m3	c #16024D",
"n3	c #180152",
"o3	c #2F0287",
"p3	c #4E02CA",
"q3	c #4101BD",
"r3	c #4A01C5",
"s3	c #4402C7",
"t3	c #3D02CE",
"u3	c #4802E1",
"v3	c #4C01DD",
"w3	c #4701C5",
"x3	c #35029B",
"y3	c #250272",
"z3	c #200165",
"A3	c #190161",
"B3	c #14025F",
"C3	c #1D036B",
"D3	c #1A0350",
"E3	c #210453",
"F3	c #2B0464",
"G3	c #1F044B",
"H3	c #230363",
"I3	c #210361",
"J3	c #1C035B",
"K3	c #290272",
"L3	c #4701AE",
"M3	c #5101C6",
"N3	c #4601B2",
"O3	c #6802C3",
"P3	c #8E04DF",
"Q3	c #AC0FF3",
"R3	c #D84BFC",
"S3	c #A63DEC",
"T3	c #5B17AD",
"U3	c #2B135A",
"V3	c #0C0B27",
"W3	c #120E2F",
"X3	c #2D1E4F",
"Y3	c #522A75",
"Z3	c #671BB3",
"`3	c #380C85",
" 4	c #23017E",
".4	c #2B018F",
"+4	c #4702C0",
"@4	c #5002B8",
"#4	c #1D014E",
"$4	c #1B0247",
"%4	c #210357",
"&4	c #1C045B",
"*4	c #210377",
"=4	c #4304CF",
"-4	c #3F03AC",
";4	c #20035D",
">4	c #3103AC",
",4	c #2D0190",
"'4	c #2D0195",
")4	c #310289",
"!4	c #6702BC",
"~4	c #3F037B",
"{4	c #260358",
"]4	c #1A0258",
"^4	c #170250",
"/4	c #230262",
"(4	c #3F039F",
"_4	c #4102C0",
":4	c #4103D4",
"<4	c #3E03C0",
"[4	c #3302AD",
"}4	c #3601C0",
"|4	c #5303DE",
"14	c #4D01D0",
"24	c #310194",
"34	c #270273",
"44	c #1F0265",
"54	c #190356",
"64	c #260368",
"74	c #2F0370",
"84	c #3B0488",
"94	c #360482",
"04	c #380390",
"a4	c #320394",
"b4	c #2D0294",
"c4	c #230373",
"d4	c #270386",
"e4	c #28027A",
"f4	c #4401AF",
"g4	c #5801CE",
"h4	c #7C03E7",
"i4	c #9B04F1",
"j4	c #9808EA",
"k4	c #8C06E5",
"l4	c #C628FB",
"m4	c #9F2BE4",
"n4	c #56219E",
"o4	c #2F1E56",
"p4	c #150F3F",
"q4	c #593A84",
"r4	c #7F3DAE",
"s4	c #37087E",
"t4	c #2C027E",
"u4	c #2D0293",
"v4	c #5403D3",
"w4	c #4801B7",
"x4	c #1D0254",
"y4	c #0E012C",
"z4	c #1D024D",
"A4	c #1A0349",
"B4	c #1F035D",
"C4	c #190454",
"D4	c #2A0592",
"E4	c #4505D1",
"F4	c #5203C6",
"G4	c #250364",
"H4	c #1F0272",
"I4	c #230285",
"J4	c #30028B",
"K4	c #23026D",
"L4	c #3D0194",
"M4	c #46028A",
"N4	c #32035A",
"O4	c #1A024F",
"P4	c #22026C",
"Q4	c #180248",
"R4	c #1A024A",
"S4	c #3B0396",
"T4	c #3E03BD",
"U4	c #3903CB",
"V4	c #3103AE",
"W4	c #3B03BC",
"X4	c #6608EA",
"Y4	c #5F05DC",
"Z4	c #2D0379",
"`4	c #3C039A",
" 5	c #31038B",
".5	c #30038D",
"+5	c #2E0382",
"@5	c #33048F",
"#5	c #3603A7",
"$5	c #3702AD",
"%5	c #32029F",
"&5	c #230277",
"*5	c #230374",
"=5	c #5001B9",
"-5	c #7202E4",
";5	c #A80AF7",
">5	c #B510FA",
",5	c #9C09F4",
"'5	c #7500DA",
")5	c #A20AF0",
"!5	c #A943E3",
"~5	c #4C2E89",
"{5	c #17103F",
"]5	c #110D29",
"^5	c #1E1449",
"/5	c #231767",
"(5	c #8752BC",
"_5	c #7937AA",
":5	c #320085",
"<5	c #4102B3",
"[5	c #4601C0",
"}5	c #3D00A7",
"|5	c #1D034D",
"15	c #200252",
"25	c #1D035C",
"35	c #210472",
"45	c #3404B6",
"55	c #3B04C9",
"65	c #4202B4",
"75	c #290375",
"85	c #220470",
"95	c #1F0375",
"05	c #1E0269",
"a5	c #2F0286",
"b5	c #280376",
"c5	c #31027D",
"d5	c #4F029B",
"e5	c #380460",
"f5	c #19023C",
"g5	c #20016B",
"h5	c #20025B",
"i5	c #0F022C",
"j5	c #180247",
"k5	c #2C037D",
"l5	c #3203A3",
"m5	c #2A03A6",
"n5	c #200382",
"o5	c #4C03CB",
"p5	c #4A02CC",
"q5	c #3E02BC",
"r5	c #3B02B3",
"s5	c #3602AF",
"t5	c #2F02AC",
"u5	c #210383",
"v5	c #22037E",
"w5	c #250385",
"x5	c #240385",
"y5	c #27037E",
"z5	c #260276",
"A5	c #200365",
"B5	c #200370",
"C5	c #2D0197",
"D5	c #32028E",
"E5	c #5602BF",
"F5	c #8F00F2",
"G5	c #B918F9",
"H5	c #C22AFA",
"I5	c #9C0CF6",
"J5	c #7200D3",
"K5	c #9C2EE8",
"L5	c #8049D5",
"M5	c #27166F",
"N5	c #1E134D",
"O5	c #211652",
"P5	c #281873",
"Q5	c #562BAE",
"R5	c #7533BD",
"S5	c #360781",
"T5	c #5100C4",
"U5	c #4801B8",
"V5	c #5301BF",
"W5	c #5101B7",
"X5	c #390386",
"Y5	c #26035E",
"Z5	c #1A034E",
"`5	c #1D0363",
" 6	c #20037B",
".6	c #3405BB",
"+6	c #4607E4",
"@6	c #3603A5",
"#6	c #270478",
"$6	c #210476",
"%6	c #13024A",
"&6	c #220270",
"*6	c #2B0288",
"=6	c #310291",
"-6	c #5902B1",
";6	c #4A037B",
">6	c #3A0363",
",6	c #1E025B",
"'6	c #1A0161",
")6	c #170239",
"!6	c #130237",
"~6	c #0F023B",
"{6	c #250476",
"]6	c #3B04B2",
"^6	c #3505B1",
"/6	c #260486",
"(6	c #260383",
"_6	c #3102A0",
":6	c #3403AA",
"<6	c #2A0399",
"[6	c #1E037F",
"}6	c #23038B",
"|6	c #1C0372",
"16	c #28038E",
"26	c #2A0493",
"36	c #260580",
"46	c #29037D",
"56	c #1B0358",
"66	c #250278",
"76	c #36028F",
"86	c #5F00C1",
"96	c #CD1FF9",
"06	c #C328FB",
"a6	c #9213F9",
"b6	c #810BEE",
"c6	c #5905B8",
"d6	c #752ACB",
"e6	c #5428B1",
"f6	c #2E187C",
"g6	c #211658",
"h6	c #141031",
"i6	c #21155C",
"j6	c #2C1979",
"k6	c #542C93",
"l6	c #6626B4",
"m6	c #4E09A4",
"n6	c #5900C2",
"o6	c #6602D2",
"p6	c #5F03BE",
"q6	c #380289",
"r6	c #1E025C",
"s6	c #1F027B",
"t6	c #3507C5",
"u6	c #4A09F1",
"v6	c #4204C3",
"w6	c #360395",
"x6	c #25056C",
"y6	c #1F0371",
"z6	c #160355",
"A6	c #1D036E",
"B6	c #2D0290",
"C6	c #5602C8",
"D6	c #540297",
"E6	c #4A0477",
"F6	c #310368",
"G6	c #21027A",
"H6	c #140145",
"I6	c #090121",
"J6	c #1F0360",
"K6	c #320691",
"L6	c #3D08AF",
"M6	c #280588",
"N6	c #1D036D",
"O6	c #160360",
"P6	c #1D0371",
"Q6	c #1A0364",
"R6	c #190362",
"S6	c #22037C",
"T6	c #210374",
"U6	c #240479",
"V6	c #260476",
"W6	c #19034B",
"X6	c #1C0357",
"Y6	c #2C018E",
"Z6	c #310298",
"`6	c #36028A",
" 7	c #5A00B9",
".7	c #B015F4",
"+7	c #8B0FF3",
"@7	c #5700E3",
"#7	c #4300B7",
"$7	c #4B05A7",
"%7	c #601CB6",
"&7	c #53279B",
"*7	c #2F1A7D",
"=7	c #21165B",
"-7	c #151035",
";7	c #161035",
">7	c #20135B",
",7	c #301B7D",
"'7	c #552A87",
")7	c #6927AB",
"!7	c #6608C3",
"~7	c #5B01C5",
"{7	c #6502C9",
"]7	c #5D02C1",
"^7	c #21026F",
"/7	c #210267",
"(7	c #210279",
"_7	c #220289",
":7	c #3405CB",
"<7	c #4B08F4",
"[7	c #4B05D8",
"}7	c #39039C",
"|7	c #2D0672",
"17	c #1C0367",
"27	c #180461",
"37	c #1B036D",
"47	c #1F025D",
"57	c #2C0291",
"67	c #4D01AE",
"77	c #6902AD",
"87	c #420279",
"97	c #2C028A",
"07	c #21027C",
"a7	c #110332",
"b7	c #190352",
"c7	c #1D025C",
"d7	c #1E055E",
"e7	c #340792",
"f7	c #2F0597",
"g7	c #260487",
"h7	c #1C0365",
"i7	c #18035A",
"j7	c #160255",
"k7	c #1C0456",
"l7	c #1E0456",
"m7	c #180347",
"n7	c #100232",
"o7	c #100233",
"p7	c #280189",
"q7	c #24017C",
"r7	c #2B0177",
"s7	c #4001A0",
"t7	c #6300D4",
"u7	c #920BF3",
"v7	c #6F07E8",
"w7	c #320096",
"x7	c #2E047B",
"y7	c #6A23B1",
"z7	c #542692",
"A7	c #351D8A",
"B7	c #201458",
"C7	c #18113B",
"D7	c #18103C",
"E7	c #1E1257",
"F7	c #321D79",
"G7	c #58298B",
"H7	c #712EAA",
"I7	c #660ABE",
"J7	c #5300C6",
"K7	c #5801CB",
"L7	c #5802C6",
"M7	c #260281",
"N7	c #4601A2",
"O7	c #350188",
"P7	c #1E0274",
"Q7	c #210187",
"R7	c #3605CA",
"S7	c #500BF8",
"T7	c #4403D5",
"U7	c #3E03AA",
"V7	c #390484",
"W7	c #1A045A",
"X7	c #22048A",
"Y7	c #1B0264",
"Z7	c #1F025C",
"`7	c #3A028D",
" 8	c #6903B8",
".8	c #4F0390",
"+8	c #2D0371",
"@8	c #210367",
"#8	c #21035F",
"$8	c #1B0248",
"%8	c #14024D",
"&8	c #110348",
"*8	c #1A045F",
"=8	c #1B035C",
"-8	c #17034F",
";8	c #14034C",
">8	c #100341",
",8	c #0D0332",
"'8	c #0C0128",
")8	c #25017F",
"!8	c #1D016B",
"~8	c #340191",
"{8	c #6E02D6",
"]8	c #BB18FC",
"^8	c #7A09E5",
"/8	c #4601B1",
"(8	c #260569",
"_8	c #7026B0",
":8	c #53258C",
"<8	c #311A80",
"[8	c #1D115A",
"}8	c #1A1243",
"|8	c #191044",
"18	c #1D1158",
"28	c #301B74",
"38	c #702EA9",
"48	c #7D13D3",
"58	c #6E02EA",
"68	c #6A01EA",
"78	c #4C02C6",
"88	c #4502B4",
"98	c #6701D1",
"08	c #3F01A6",
"a8	c #220277",
"b8	c #20027D",
"c8	c #290299",
"d8	c #3403C0",
"e8	c #4D0BF6",
"f8	c #4505DD",
"g8	c #4803BE",
"h8	c #380588",
"i8	c #1C0457",
"j8	c #3507B3",
"k8	c #1E0373",
"l8	c #120241",
"m8	c #1A0250",
"n8	c #54029F",
"o8	c #41047B",
"p8	c #35046F",
"q8	c #1E044D",
"r8	c #190344",
"s8	c #17033F",
"t8	c #14033E",
"u8	c #170357",
"v8	c #15024E",
"w8	c #130349",
"x8	c #18044F",
"y8	c #180453",
"z8	c #0A022D",
"A8	c #0B0228",
"B8	c #15033A",
"C8	c #16033D",
"D8	c #100332",
"E8	c #160340",
"F8	c #280364",
"G8	c #23035E",
"H8	c #1F0269",
"I8	c #1C025B",
"J8	c #25036A",
"K8	c #3901A2",
"L8	c #8405E5",
"M8	c #BB18FA",
"N8	c #7005D3",
"O8	c #3A01A1",
"P8	c #2D0675",
"Q8	c #6B24AD",
"R8	c #55258C",
"S8	c #2C186F",
"T8	c #1B1057",
"U8	c #1D134C",
"V8	c #1A104D",
"W8	c #1B0F5B",
"X8	c #371C84",
"Y8	c #592992",
"Z8	c #6629A2",
"`8	c #8516E4",
" 9	c #A418FC",
".9	c #9D0FF9",
"+9	c #5C01E0",
"@9	c #5E03CC",
"#9	c #3F02A3",
"$9	c #2A017F",
"%9	c #1E0272",
"&9	c #3E05CC",
"*9	c #540DFC",
"=9	c #6110F2",
"-9	c #8111F2",
";9	c #5007AE",
">9	c #190355",
",9	c #160356",
"'9	c #3107AB",
")9	c #2B079D",
"!9	c #1C0351",
"~9	c #190353",
"{9	c #5C02A9",
"]9	c #4B029B",
"^9	c #400480",
"/9	c #2F0369",
"(9	c #23044F",
"_9	c #240350",
":9	c #21034C",
"<9	c #1C044F",
"[9	c #1C0359",
"}9	c #150245",
"|9	c #150345",
"19	c #0D0239",
"29	c #0A022C",
"39	c #110338",
"49	c #1B034A",
"59	c #15033D",
"69	c #240359",
"79	c #260469",
"89	c #280469",
"99	c #380389",
"09	c #4802AA",
"a9	c #5600B4",
"b9	c #980CEA",
"c9	c #A218EC",
"d9	c #4D00B5",
"e9	c #4906A5",
"f9	c #6424A4",
"g9	c #522485",
"h9	c #311976",
"i9	c #1D105C",
"j9	c #1C124E",
"k9	c #1A0E53",
"l9	c #170D54",
"m9	c #351B79",
"n9	c #5F2F9C",
"o9	c #5A298F",
"p9	c #5A13BB",
"q9	c #9919F8",
"r9	c #B324F8",
"s9	c #9F0DF9",
"t9	c #8807E9",
"u9	c #3301A0",
"v9	c #2B0180",
"w9	c #2C017B",
"x9	c #2B027F",
"y9	c #2F018F",
"z9	c #3B04BF",
"A9	c #3901DE",
"B9	c #7018F2",
"C9	c #8C18FE",
"D9	c #6604DE",
"E9	c #1F036B",
"F9	c #1C0468",
"G9	c #270592",
"H9	c #3607BD",
"I9	c #2B0692",
"J9	c #290472",
"K9	c #1C0354",
"L9	c #32027E",
"M9	c #35028B",
"N9	c #38037F",
"O9	c #37047A",
"P9	c #340476",
"Q9	c #2F0463",
"R9	c #25044D",
"S9	c #180344",
"T9	c #1A034B",
"U9	c #150341",
"V9	c #100234",
"W9	c #12033E",
"X9	c #15033F",
"Y9	c #190346",
"Z9	c #1D044A",
"`9	c #1C0446",
" 0	c #190343",
".0	c #230356",
"+0	c #2B0468",
"@0	c #3D0393",
"#0	c #4D01B8",
"$0	c #3D0295",
"%0	c #3A0185",
"&0	c #890ADF",
"*0	c #A714F4",
"=0	c #7201DC",
"-0	c #8807E8",
";0	c #61229C",
">0	c #5B2C8F",
",0	c #361A81",
"'0	c #1A0E56",
")0	c #1B1050",
"!0	c #170E41",
"~0	c #1A1142",
"{0	c #1C1347",
"]0	c #4D307A",
"^0	c #824BB0",
"/0	c #7C34BB",
"(0	c #850CF3",
"_0	c #9112F8",
":0	c #CC2AFB",
"<0	c #9513E3",
"[0	c #5200CB",
"}0	c #450397",
"|0	c #330280",
"10	c #350185",
"20	c #2F0283",
"30	c #2D029A",
"40	c #3401C7",
"50	c #660DF4",
"60	c #690BF6",
"70	c #6003E5",
"80	c #2C0386",
"90	c #22037D",
"00	c #280393",
"a0	c #3204AB",
"b0	c #3706B2",
"c0	c #3A0598",
"d0	c #30037E",
"e0	c #17034B",
"f0	c #1B025C",
"g0	c #300287",
"h0	c #320388",
"i0	c #370485",
"j0	c #3D0290",
"k0	c #3A0385",
"l0	c #380373",
"m0	c #4E0285",
"n0	c #21044B",
"o0	c #1D0349",
"p0	c #240456",
"q0	c #220454",
"r0	c #12023F",
"s0	c #11023F",
"t0	c #160345",
"u0	c #1D034C",
"v0	c #18043F",
"w0	c #27045B",
"x0	c #2B036B",
"y0	c #4201A6",
"z0	c #4401B5",
"A0	c #3301A1",
"B0	c #6502C6",
"C0	c #A618F2",
"D0	c #860AE3",
"E0	c #870DE3",
"F0	c #7935B9",
"G0	c #4E3080",
"H0	c #1B1246",
"I0	c #1B1045",
"J0	c #180F43",
"K0	c #130F2A",
"L0	c #1C1341",
"M0	c #3B2566",
"N0	c #573582",
"O0	c #7C33B4",
"P0	c #A727FC",
"Q0	c #8D15F5",
"R0	c #DC45F7",
"S0	c #BD20F7",
"T0	c #6100C5",
"U0	c #350482",
"V0	c #400290",
"W0	c #35017F",
"X0	c #2A0276",
"Y0	c #5304CB",
"Z0	c #4D02E7",
"`0	c #5F08F4",
" a	c #6108F4",
".a	c #5302E1",
"+a	c #3102A6",
"@a	c #2F03A3",
"#a	c #3203A7",
"$a	c #4306AC",
"%a	c #4D05AD",
"&a	c #2F037D",
"*a	c #170257",
"=a	c #20026C",
"-a	c #2C0282",
";a	c #32027F",
">a	c #5702B1",
",a	c #5A02B1",
"'a	c #4C0191",
")a	c #3E0479",
"!a	c #2E0366",
"~a	c #34046A",
"{a	c #38056E",
"]a	c #1C0451",
"^a	c #20045C",
"/a	c #1E0253",
"(a	c #220261",
"_a	c #1C034D",
":a	c #260459",
"<a	c #2B045E",
"[a	c #29045F",
"}a	c #370287",
"|a	c #4302B0",
"1a	c #3B01AB",
"2a	c #28018A",
"3a	c #3D029F",
"4a	c #4900B2",
"5a	c #9A15EE",
"6a	c #850CDC",
"7a	c #5E1BAF",
"8a	c #613099",
"9a	c #322063",
"0a	c #1B1240",
"aa	c #15102F",
"ba	c #161130",
"ca	c #191239",
"da	c #412A68",
"ea	c #3B2461",
"fa	c #8946AC",
"ga	c #D553FF",
"ha	c #D147F7",
"ia	c #E657F9",
"ja	c #9E19F0",
"ka	c #4500B2",
"la	c #290378",
"ma	c #330284",
"na	c #350293",
"oa	c #5E03E4",
"pa	c #770FFB",
"qa	c #7811F7",
"ra	c #5D05F6",
"sa	c #4701D5",
"ta	c #3D02AE",
"ua	c #300393",
"va	c #3502A8",
"wa	c #3E03CA",
"xa	c #2D029D",
"ya	c #6406CE",
"za	c #7C0ACE",
"Aa	c #3B048F",
"Ba	c #26027E",
"Ca	c #21036E",
"Da	c #25026C",
"Ea	c #490298",
"Fa	c #5202BB",
"Ga	c #4C02B3",
"Ha	c #6403C2",
"Ia	c #4C029B",
"Ja	c #32046A",
"Ka	c #31037E",
"La	c #1B034F",
"Ma	c #230458",
"Na	c #3A057E",
"Oa	c #470493",
"Pa	c #470394",
"Qa	c #4903A9",
"Ra	c #1F035C",
"Sa	c #49059B",
"Ta	c #6705D8",
"Ua	c #7507DF",
"Va	c #6402D0",
"Wa	c #5C16AB",
"Xa	c #472875",
"Ya	c #3A2568",
"Za	c #1A123F",
"`a	c #151130",
" b	c #151131",
".b	c #130F2C",
"+b	c #171232",
"@b	c #3A2760",
"#b	c #3A275C",
"$b	c #8340A7",
"%b	c #CD39FF",
"&b	c #D43CF8",
"*b	c #C12FFB",
"=b	c #830FE1",
"-b	c #3F00A6",
";b	c #34038D",
">b	c #280277",
",b	c #4202A7",
"'b	c #5403C9",
")b	c #5E01E5",
"!b	c #8013F6",
"~b	c #8C1BF8",
"{b	c #5E05F9",
"]b	c #4D03E1",
"^b	c #4602C4",
"/b	c #3D02AB",
"(b	c #35039E",
"_b	c #3E02BF",
":b	c #3102AB",
"<b	c #2A01A2",
"[b	c #4E03C8",
"}b	c #A614EF",
"|b	c #870DD0",
"1b	c #360193",
"2b	c #26037A",
"3b	c #1F0368",
"4b	c #27036E",
"5b	c #310278",
"6b	c #350190",
"7b	c #36019A",
"8b	c #4501A9",
"9b	c #4202A4",
"0b	c #330292",
"ab	c #2F0282",
"bb	c #2C036E",
"cb	c #350383",
"db	c #390295",
"eb	c #290372",
"fb	c #240368",
"gb	c #29036C",
"hb	c #410399",
"ib	c #39028C",
"jb	c #6506C6",
"kb	c #7006DC",
"lb	c #2C0286",
"mb	c #34037F",
"nb	c #5805AF",
"ob	c #5B04C6",
"pb	c #5602C9",
"qb	c #6F01E3",
"rb	c #6016AC",
"sb	c #3F2766",
"tb	c #382667",
"ub	c #1B143A",
"vb	c #161230",
"wb	c #14102F",
"xb	c #110E29",
"yb	c #140F2E",
"zb	c #3A275A",
"Ab	c #332550",
"Bb	c #7B32A0",
"Cb	c #C11FFF",
"Db	c #A115F3",
"Eb	c #9F15F8",
"Fb	c #9012E7",
"Gb	c #3E019A",
"Hb	c #2B0274",
"Ib	c #2B027C",
"Jb	c #5B03D3",
"Kb	c #6905E6",
"Lb	c #6A07F1",
"Mb	c #6F0DF6",
"Nb	c #6309F7",
"Ob	c #4D01EA",
"Pb	c #5002D5",
"Qb	c #4301BA",
"Rb	c #340392",
"Sb	c #3A049F",
"Tb	c #4403C8",
"Ub	c #3F03CA",
"Vb	c #4C02D5",
"Wb	c #9016EA",
"Xb	c #9D16E1",
"Yb	c #6406B9",
"Zb	c #37038A",
"`b	c #25046F",
" c	c #22036A",
".c	c #360286",
"+c	c #2A0379",
"@c	c #38039D",
"#c	c #3F02B7",
"$c	c #320299",
"%c	c #360295",
"&c	c #3D0392",
"*c	c #42039A",
"=c	c #2C0476",
"-c	c #310382",
";c	c #360384",
">c	c #38038A",
",c	c #5206AD",
"'c	c #5808B4",
")c	c #4403A6",
"!c	c #6A04D8",
"~c	c #5E02D1",
"{c	c #5002C4",
"]c	c #4B03B5",
"^c	c #5902BC",
"/c	c #3E029A",
"(c	c #3D02A6",
"_c	c #7F02F0",
":c	c #6B18AE",
"<c	c #302154",
"[c	c #392463",
"}c	c #191336",
"|c	c #120F29",
"1c	c #14102C",
"  . + @ # $ % & * = = - ; > , ' ) $ ! ~ { ] ^ / ( _ : < [ } | 1 2 3 4 5 6 7 8 9 0 a b c d e f g h i j k l m n o p q r s t u v w ",
"x y z u A B C D E F G H I J J K L M N O P Q R S T U V W X Y Z `  ...+.@.#.$.%.&.*.=.-.;.>.,.'.).!.~.{.].^./.(._.:.<.[.}.|.1.2.v ",
"3.4.5.6.7.8.9.0.a.b.c.d.e.f.g.h.i.j.k.l.m.n.o.p.q.r.s.t.u.v.w.x.y.z.A.B.C.D.E.F.G.H.I.J.K.L.M.N.O.P.Q.R.S.T.U.V.W.X.Y.Z.`. +.+++",
"@+#+$+A %+&+*+=+-+;+>+,+'+)+!+~+{+]+^+/+(+_+:+<+[+}+|+1+2+3+4+5+6+7+8+9+0+a+b+c+d+e+f+g+h+i+j+k+l+m+n+o+p+q+r+s+t+u+v+w+x+y+z+A+",
"B+C+D+E+[.F+G+H+I+J+K+L+M+N+O+P+Q+R+S+T+U+V+W+X+Y+Z+`+ @.@+@@@#@$@%@&@*@=@-@;@>@,@'@)@!@~@{@]@^@/@(@_@:@<@[@}@|@1@2@3@4@5@[.6@7@",
"|.8@9@A 0@a@b@c@d@e@f@g@h@i@j@k@l@m@n@o@p@q@r@s@t@u@v@w@x@y@z@A@B@C@D@E@F@G@H@I@J@K@L@M@N@O@P@Q@R@S@T@U@V@W@X@Y@Z@`@ #.#+#@###$#",
"|.%#&#*#=#-#;#>#,#'#)#!#~#{#]#^#/#(#_#:#<#[#}#|#1#2#3#4#5#6#7#8#9#0#a#b#c#d#e#f#g#h#i#j#k#l#m#n#o#p#q#r#s#t#u#v#w#  x#y#z#A#B#C#",
"D#E#F#G#H#I#J#K#L#M#N#O#P#Q#R#S#T#U#V#W#X#Y#Z#`# $.$+$@$#$$$%$&$*$=$-$;$>$,$'$)$!$~${$]$^$/$($_$:$<$[$}$|$1$2$3$4$5#5$6$7$8$9$0$",
"B#a$b$A#c$d$e$f$g$h$i$j$k$l$m$n$o$p$q$r$s$t$u$v$w$x$y$z$A$B$C$D$E$F$G$H$I$J$K$L$M$N$O$P$Q$R$S$T$U$V$W$X$Y$Z$`$ %.%+%@%#%A#y#$%4@",
"%%&%*%=%-%;%>%,%'%)%!%~%{%]%^%/%(%_%:%<%R@[%}%|%1%2%3%4%5%6%7%8%2#9%0%a%b%c%d%e%f%g%h%i%j%k%l%m%n%o%p%q%r%s%t%u%v%w%x%y%z%A%X.B%",
"v+C%D%E%F%G%H%I%J%K%L%M%N%O%P%Q%R%S%T%U%V%^%W%X%Y%Z%`% &.&+&@&#&$&%&&&*&=&-&;&>&,&'&)&!&~&{&]&^&/&(&_&:&<&[&}&|&1&2&3&4&5&+#6&F#",
"6&7&8&9&0&a&b&c&d&e&f&g&h&i&j&k&l&m&n&o&p&q&r&s&t&u&v&w&x&y&g#z&A&B&C&D&E&F&G&H&I&J&K&L&M&N&O&P&Q&R&S&T&U&V&W&X&Y&Z&`& *.*+*@*#*",
"$*%*&***=*-*;*>*,*'*)*!*~*{*]*^*/*(*_*:*<*[*}*|*1*2*3*4*5*6*7*8*9*0*a*b*c*d*e*f*g*h*i*j*k*l*m*n*o*p*q*r*s*t*u*v*w*x*y*z***A*B*C*",
"x#D*E*F*G*H*I*J*K*L*M*N*O*P*Q*R*S*T*U*V*W*X*Y*Z*`* =.=+=@=#=$=%=&=*===b*-=;=>=,='=)=!=~={=]=^=/=(=_=:=<=[=}=|=1=2=3=4=5=6=7=8=9=",
"x#0=a=b=c=d=e=f=g=h=i=j=k=l=m=n=o=p=q=r=s=t=u=v=w=x=y=z=A=B=C=D=E=F=G=H=I=J=K=L=M=N=O=P=Q=R=S=T=U=V=W=X=Y=Z=`= -.-+-@-#-$-7=%-C*",
"&-*-=---;->-,-'-)-!-~-{-]-^-/-(-_-:-<-[-}-|-1-2-3-4-5-6-7-8-9-0-a-b-c-d-e-f-g-h-i-j-k-l-m-n-o-p-q-r-s-t-u-v-w-x-y-z-A-B-C-D-E-i ",
"F-G-H-I-J-K-L-M-N-O-P-Q-R-S-T-U-V-W-X-Y-Z-`- ;.;+;@;#;$;%;&;*;=;-;;;>;,;';);!;~;{;];^;/;(;_;:;<;[;};|;1;2;3;4;5;6;7;8;9;0;%+a;b;",
"c;d;F*e;f;g;h;i;j;k;l;]%m;n;o;p;q;r;s;t;u;v;w;x;y;z;A;B;C;D;E;F;G;H;I;J;K;L;M;N;O;P;Q;R;S;T;U;V;W;X;Y;Z;`; >.>+>@>#>$>%>&>--*>=>",
"->;>>>,>'>)>!>~>{>]>^>/>(>_>:><>[>}>|>1>2>3>4>5>6>7>8>9>0>a>b>c>d>e>f>g>h>i>j>V#k>l>m>n>o>p>q>r>s>t>u>v>w>x>y>z>A>B>C>D>E>F>G>H>",
"I>J>+*u K>L>M>N>O>P>Q>R>S>T>U>V>W>X>Y>Z>`> ,.,+,@,#,$,%,&,*,=,-,;,>,,,',),!,~,{,T*],^,/,(,_,:,<,[,},|,1,k>2,3,4,5,6,7,8,9,0,a,b,",
"c,d,e,f,g,h,i,j,k,l,m,n,o,p,f-q,r,s,t,u,v,w,x,y,z,A,B,C,D,E,F,G,H,I,J,K,L,M,)*N,O,M;P,Q,R,S,T,U,V,W,V,X,Y,Z,`, '.'+'@'#'$'=*%'&'",
"*'='-';'>',''')'!'~'{']'^'/'('_':'<'['}'|'1'2'3'4'5'6'7'8'9'0'a'b'c'd'e'f'g'h'U-i':-j'k'l'm'n'o'p'q'r's't'[>u'v'w'x'y'z'A'f,B'H-",
"C'G>D'E'F'G'H'I'J'K'L'M'N'O'P'Q'R'S'T'U'V'W'X'Y'Z'`' ).)+)@)#)$)%)&)*)=)-);)>),)')))!)~){)])[;^)/)q>()_):)<)[)})|)1)2)3)4)5)H-6)",
"E*%%y#7)8)9)0)a)b)c)d)e)f)g)h)i)j)k)l)m)n)o)p)q)r)s)t)u)v)w)x)y)z)A)B)C)D)E)F)G)H)I)J)K)L)M)N)O)P)Q)R)S)T)U)V)W)X)Y)Z)`) !.!$ +!",
"@!##E'#!$!%!&!*!=!-!;!>!,!'!)!U'!!~!{!]!^!/!(!_!:!<![!}!|!1!2!3!4!5!6!7!8!9!0!a!b!:-c!d!e!f!g!h!i!j!k!l!m!n!o!p!q!r!s!t!u!v!w!x!",
"%'y!x+z!A!B!C!D!E!F!G!H!I!J!K!W*L!M!];N!O!P!Q!R!S!T!U!V!W!X!Y!Z!`!S)<' ~.~+~@~#~$~%~&~*~=~-~;~>~,~'~)~!~~~{~]~^~/~(~_~:~<~[~}~%+",
"|~1~2~3~4~5~6~7~8~9~0~a~b~c~d~X>e~f~k>g~h~i~j~k~l~m~n~o~p~q~r~s~t~u~v~w~x~y~z~A~B~C~D~E~F~G~H~I~J~K~L~M~N~Q'd!O~P~Q~R~S~T~U~V~E+",
"W~X~Y~Z~`~ {.{+{@{#{${%{&{*{={-{;{;{>{,{'{){!{~{{{]{^{/{({_{:{<{[{}{|{1{2{3{4{5{6{7{8{9{0{a{b{c{j>d{[*e{f{g{h{i{j{k{l{m{n{o{p{q{",
"r{.+s{t{u{v{w{x{y{z{A{t,B{C{D{K=E{F{G{H{I{J{K{L{M{N{O{P{Q{R{S{T{U{V{W{X{Y{Z{`{ ].]+]@]#]$]%]&]*]=]-]l);]>][>,]'])]!]~]{]]]^]/](]",
"_]:]<][]}]|]1]2]3]4]5]6]7]8]9]0]a]6]b]c]d]e]f]g]h]i]j]k]l]m]n]o]p]q]r]s]t]u]v]w]x]y]z]A]B]C]D]E]F]G]H]g->]I]J]K]L]M]N]O]P]Q]R]S]",
"T]U]V]W]X]Y]Z]`] ^.^+^@^#^$^%^&^*^=^-^;^>^,^'^)^!^~^{^]^^^/^(^_^U{p;v>q>:^<^[^}^|^1^2^3^4^5^6^7^8^9^!!_)0^a^b^c^d^e^f^g^h^!.S]i^",
"j^k^l^m^n^o^p^q^r^s^t^u^v^w^x^y^z^A^B^C^D^E^F^G^H^I^J^K^L^M^N^O^P^Q^R^S^T^U^V^W^X^Y^Z^`^ /./+/@/#/$/%/&/*/=/-/;/>!>/,/'/)/!/0@~/",
"{/]/^///(/_/:/</[/}/|/:&1/2/3/4/5/6/7/8/9/0/a/b/c/d/e/f/g/h/i/j/k/k/l/m/n/o/p/q/r/s/t/u/v/w/x/y/z/A/B/C/D/E/F/G/H/I/J/K/L/M/N/x+",
"B%O/P/Q/R/S/T/U/V/W/X/Y/Z/`/ (.(v$+(@(#($(%(&(*(=(-(;(>(,('()(!(~({(](^(/(((_(:(<([(}(|(1(2(3(4(],:^5('(6(7(8(9(0(a(b(c(d(e(f(g(",
"h(7&i(j(k(l(m(n(o(p(`,q(r(s(J=t(u(v(w(x(y(z(A(B(C(D(E(F(G(H(l/I(J(K(L(M(N(O(P(Q(R(S(T(U(V(W(X(Y(Z(`( _._+_@_#_$_%_&_*_=_-_;_>_h(",
",_'_)_!_~_{_]_o~^_/_(___:_<_O'[_}_|_1_2_3_4_5_6_7_8_9_0_i>a_b_j/c_d_e_f_g_h_2{i_j_k_l_m_n_o_p_q_r_s_@=t_u_ =v_w_x_y_z_A_B_C_D_E_",
"F_G_H_I_J_K_L_M_N_O_P_Q_R_S_T_U_5-V_W_X_Y_Z_`_ :.:t@+:@:#:$:%:b_&:*:=:r$-:;:>:,:':):!:~:{:]:^:/:(:_:::<:[:}:|:1:2:3:4:5:6:7:8:9:",
"0:a:b:c:d:e:f:g:h:i:j:B/k:l:m:n:o:p:q:r:s:t:u:v:w:x:y:z:2^A:B:C:D:f~E:F:G:H:I:J:K:L:M:N:O:P:Q:R:S:T:U:V:W:X:Y:Z:`: <.<+<@<#<$<k ",
"0:e;%<&<*<=<-<;<><,< _X:'<)<!<~<{<]<^</<s:(<_<:<<<[<}<|<1<2<3<4<5<(@6<z=7<;(8<9<0<a<b<c<d<e<f<g<h<i<j<k<l<m<n<5/o<p<q<r<s<t<u<v<",
"w<x<y<z<A<B<C<D<E<F<G<H<I<J<K<L<M<N<O<P<Q<R<o$S<T<U<V<W<X<Y<Z<`< [.[>:+[@[#[$[%[&[*[=[-[p_;[>[,['[)[![U%~[{[][^[/[([_[:[<[[[B*}[",
"G#C*|[1[2[3[4[5[6[7[D=8[9[0[a[b[c[d[e[f[g[h[i[j[k[l[m[n[o[p[q[r[s[t[u[v[g*w[x[y[z[A[B[C[D[E[F[G[H[U%:%I[J[K[L[M[N[O[P[Q[R[S[`@0,",
"T[U[V[W[X[Y[Z[`[ }.}+}@}#}$}%}&}*}=}-};}>},}'})}!}~}{}]}^}/}(}_}:}<}}#[}}}|}4*1}2}3}4}5}6}7}8}G[:%e~M(9}q&0}a}b}c}d}e}f}g}h}i}j}",
"k}l}m}n}o}p}q}r}s}t}u}v}w}x}y}z}A}B}C}D}E}F}G}H}I}J}K}L}M}N}O}P}Q}R}S}T}U}V}W}X}Y}Z}`} |.|+|@|R_#|:*o&$|%|&|*|=|-|;|>|,|'|)|!|~|",
"A >_{|]|^|/|(|_|:|<|[|T#}|||1|[;2|3|4|5|6|7|8|9|0|a|P~b|c|d|e|f|g|h|i|j|k|l|m|n|o|p|q|r|s|t|u|v|w|x|y|w|z|A|B|C|D|E|F|G|H|I|J|q ",
"v<K|L|M|N|O|P|Q|R|S|`!T|U|)*V|W|X|Y|Z|`| 1'&.1r,+1@1#1$1%1&1*1=1-1;1>1,1'1)1!1~1{1]1^1/1(1_1:1<1[1}1|111213141516171819101a1b1v<",
"v<K|c1d1e1f1g1h1i1j1k1l1m1n1I!o1p1E]q1r1s1t1u1v1w1x1y1`;z1A1B1C1D1E1F1G1H1I1J1K1L1M1N1O1P1Q1;{R1S1T1U1V1W1X1Y1Z1`1 2.2+2@2#2$2' ",
"F_%2&2*2=2D]-2;2X$Q(q&>2,2'2q])2!2~2{2]2^2/2(2_2:2X><2(#[2}2|212223242526272829202a2b2c2d2e2(*f2T%g2h2i2j2k2l2m2n2o2p2q2r2s2t2u2",
"--v2w2x2y2;}z2A2B28{C2`(D2q;E2F2G2H2I2J2K2L2M2N2O2P2Q2R2y1S2T2P>U2V2W2X2Y2Z2`2 3.3+3@3#3$3%3&3*3=3-3q,;3>3,3'3)3!3~3{3]3^3/3(3_3",
":3<3[3}3|313233343536373839303a3b3c3d3e3f3g3h3i3j3k3l3m3n3o3p3d[q3r3s3t3u3v3w3x3y3z3A3B3C3D3E3F3G3H3I3J3K3L3M3N3O3P3Q3R3S3T3U3V3",
"W3X3Y3Z3`3 4.4+4@4#4j/$4%4F/&4*4=4-4;4|;>4,4'4)4!4~4{4]4^4/4(4_4:4<4[4}4|41424344454s,6474849404a4b4c4d4e4f4g4h4i4j4k4l4m4n4o4f ",
"B#p4q4r4s4t4u4v4w4x4y4z4A4B4C4D4E4F4G4H4I4@:J4K4L4M4N4O4P4Q4R4S4T4U4V4W4X4Y4t-e4Z4`4 5.5+5@5#5$5%5&5*5*]U==5-5;5>5,5'5)5!5~5{51~",
"]5^5/5(5_5:5<5[5}50[|515M(253545556575859505a5b5c5d5e5f5g5h5i5j5k5l5m5n5^!o5p5q5r5s5t5u5v5w5x5y5z5A5B5C5D5E5F5G5H5I5J5K5L5M5N56$",
"H#O5P5Q5R5S5T5U5V5W5X5Y5Z5`5 6.6+6@6q~#6$6%6&6*6=6-6;6>6,6'6)6!6~6{6]6^6/6(6_6:6<6[6}6|616263646B45666P~76869606a6b6c6d6e6f6g6h6",
"$*i6j6k6l6m6n6o6p6)4q6m&r6P;s6t6u6v6w6x6y6z6A6M;B6C6D6E6F6G6H6I6_*J6u~K6L6M6N6O6P6Q6R6S6T6U6V6;4W6X6Y6Z6`6 7.7+7@7#7$7%7&7*7=7-7",
";7>7,7'7)7!7~7{7]7^7/7h)m3(7_7:7<7[7}7|7172737P,47576777879707(*a7b7c7d7e7f7g7*4h7i7j7)!k7l7m7n7o7f)p7q7r7s7t7u7v7w7x7y7z7A7B7C7",
"D7E7F7G7H7I7J7K7L7M7N7O7r]P7Q7R7S7T7U7V7W7/)X7Y7R^Z7`7 8.8+8@8#8$8p$e-%8&8*8h7=8-8;8>8,8[1g-#|'8I=T_)8!8x:~8{8]8^8/8(8_8:8<8[8}8",
"|81828G73848586878889808a8b8c8d8e8f8g8h8i8N6j8k8l8m8h5+[n8o8p8q8r8s8t8$/u8v8w8x8y8~6z8A8B8C8D8E8F8G8H8I8J8K8L8M8N8O8P8Q8R8S8T8U8",
"V8W8X8Y8Z8`8 9.9+9@9#9K8$9%94'&9*9=9-9;9>9,9'9)9y8!9~9.={9]9^9/9(9_9:9<9[9}9S-|9R)192939g-4959E369!;79899909a9b9c9d9e9f9g9h9i9j9",
"k9l9m9n9o9p9q9r9s9t9u9v9w9x9y9z9A9B9C9D9E9F9G9H9I9J9r_K9L9M9N9O9P9Q9R9_973S9T9U9V9e_z8W9X9Y9Z9`9 0.0+0@0#0$0%0&0*0=0-0;0>0,0'0)0",
"!0~0{0]0^0/0(0_0:0<0[0}0|010203040506070809000a0b0c0d0e0f0g0h0i0j0k0l0m0n0o0p0q0K=[|r0s0t0F/u0v0=3w0x0y0z0A0(2B0C0D0E0F0G0H0I0J0",
"K0&%L0M0N0O0P0Q0R0S0T0U0V0W0X0Y0Z0`0 a.a#&<;+a@a#a$a%a&a*a=a-a._;a>a,a'a)a!a~a{aP']a^a`!/a(a_a:a<a[a}a|a1a2a3a4a5a6a7a8a9a0aK0K0",
"aabacadaeafagahaiajakalama}anaoapaqarasatauavawa5'xayazaAaBaCaDaG4EaFaGaHaIaY{JaG[KaT_La0*!)MaNaOaPaQa65Y'RaSaTaUaVaWaXaYaZa`aK0",
" b.b+b@b#b$b%b&b*b=b-b;b>b,b'b)b!b~b{b]b^b/b(b_b:b<b[b}b|b1b2b3b4b5b6b7b8b9b0babbbcbdbebfbgb94hbibjbkbz0lbmbnbobpbqbrbsbtbubvbK0",
"wbxbybzbAbBbCbDbEbFbGbHbIbv^JbKbLbMbNbObPbQbRbSbTbUbVbWbXbYbZb`b cn:.cz,+c@c#c$c%c&c*c=c-c;c>c,c'c)c!c~c{c]c^c/c(c_c:c<c[c}c|c1c"};
