/* XPM */
static char * portal_rot14_xpm[] = {
"64 64 1287 2",
"  	c #000000",
". 	c #00001B",
"+ 	c #1A0044",
"@ 	c #100042",
"# 	c #000030",
"$ 	c #000007",
"% 	c #00001A",
"& 	c #000023",
"* 	c #000009",
"= 	c #03001C",
"- 	c #160039",
"; 	c #28004E",
"> 	c #35005E",
", 	c #34005E",
"' 	c #2D005F",
") 	c #150042",
"! 	c #000022",
"~ 	c #2A0052",
"{ 	c #34005B",
"] 	c #000033",
"^ 	c #000010",
"/ 	c #000027",
"( 	c #00002B",
"_ 	c #020031",
": 	c #040036",
"< 	c #0A0041",
"[ 	c #240059",
"} 	c #2C0063",
"| 	c #2B005B",
"1 	c #20003C",
"2 	c #0D0023",
"3 	c #000002",
"4 	c #00001F",
"5 	c #00001D",
"6 	c #000018",
"7 	c #000013",
"8 	c #000032",
"9 	c #300057",
"0 	c #3A005B",
"a 	c #09002C",
"b 	c #0E0035",
"c 	c #070033",
"d 	c #0B003A",
"e 	c #10003E",
"f 	c #150047",
"g 	c #250053",
"h 	c #320068",
"i 	c #36006B",
"j 	c #3F006E",
"k 	c #43006F",
"l 	c #3E006A",
"m 	c #320062",
"n 	c #1E004D",
"o 	c #07002A",
"p 	c #05001E",
"q 	c #020021",
"r 	c #0B0030",
"s 	c #0F003D",
"t 	c #000034",
"u 	c #00002A",
"v 	c #000017",
"w 	c #00000B",
"x 	c #000025",
"y 	c #10003F",
"z 	c #25004B",
"A 	c #180034",
"B 	c #000004",
"C 	c #000015",
"D 	c #040023",
"E 	c #0E0027",
"F 	c #0E002E",
"G 	c #100032",
"H 	c #1D003D",
"I 	c #270051",
"J 	c #2C0059",
"K 	c #250057",
"L 	c #230059",
"M 	c #25005C",
"N 	c #260060",
"O 	c #3B006F",
"P 	c #440079",
"Q 	c #3F007A",
"R 	c #3A0071",
"S 	c #370067",
"T 	c #3B0065",
"U 	c #3B0069",
"V 	c #300065",
"W 	c #23005F",
"X 	c #0B0051",
"Y 	c #000035",
"Z 	c #090029",
"` 	c #010031",
" .	c #09001D",
"..	c #02003B",
"+.	c #000028",
"@.	c #000021",
"#.	c #110035",
"$.	c #1D0040",
"%.	c #1E0044",
"&.	c #25004D",
"*.	c #2E0057",
"=.	c #3A005F",
"-.	c #3D0064",
";.	c #3E006C",
">.	c #3E006F",
",.	c #31006E",
"'.	c #2B006D",
").	c #2C006D",
"!.	c #3A0073",
"~.	c #370072",
"{.	c #300071",
"].	c #2E0069",
"^.	c #1D0052",
"/.	c #1A004C",
"(.	c #1F0057",
"_.	c #1A005E",
":.	c #110064",
"<.	c #130065",
"[.	c #250063",
"}.	c #1A0043",
"|.	c #020022",
"1.	c #000039",
"2.	c #00003B",
"3.	c #02002C",
"4.	c #090035",
"5.	c #070034",
"6.	c #020030",
"7.	c #090028",
"8.	c #270044",
"9.	c #340059",
"0.	c #340063",
"a.	c #2E0064",
"b.	c #36006A",
"c.	c #450073",
"d.	c #4F0978",
"e.	c #50077A",
"f.	c #4E007A",
"g.	c #490079",
"h.	c #41007B",
"i.	c #310076",
"j.	c #22006D",
"k.	c #1F006B",
"l.	c #25006B",
"m.	c #1E0066",
"n.	c #250069",
"o.	c #1F005D",
"p.	c #090043",
"q.	c #02004E",
"r.	c #150064",
"s.	c #1B006E",
"t.	c #1A0069",
"u.	c #2B006F",
"v.	c #2E0068",
"w.	c #21004D",
"x.	c #11003C",
"y.	c #110037",
"z.	c #000026",
"A.	c #000011",
"B.	c #000031",
"C.	c #020048",
"D.	c #00001E",
"E.	c #0E0031",
"F.	c #1E0045",
"G.	c #2A0057",
"H.	c #2A005F",
"I.	c #2B0060",
"J.	c #2D005E",
"K.	c #2B0058",
"L.	c #360059",
"M.	c #410266",
"N.	c #450272",
"O.	c #3F0077",
"P.	c #330072",
"Q.	c #3D0074",
"R.	c #4B0079",
"S.	c #51007D",
"T.	c #50007C",
"U.	c #470076",
"V.	c #390071",
"W.	c #21006C",
"X.	c #0B0061",
"Y.	c #040061",
"Z.	c #0E0064",
"`.	c #180067",
" +	c #220066",
".+	c #180053",
"++	c #000037",
"@+	c #000048",
"#+	c #07005A",
"$+	c #070059",
"%+	c #040054",
"&+	c #1A0060",
"*+	c #230069",
"=+	c #1D005F",
"-+	c #0E0049",
";+	c #040041",
">+	c #07003B",
",+	c #09003E",
"'+	c #00003D",
")+	c #130035",
"!+	c #220042",
"~+	c #37005A",
"{+	c #3C006C",
"]+	c #3A0072",
"^+	c #350076",
"/+	c #350074",
"(+	c #360074",
"_+	c #370075",
":+	c #3C0072",
"<+	c #430078",
"[+	c #4A007C",
"}+	c #45007C",
"|+	c #3C0079",
"1+	c #47007A",
"2+	c #430076",
"3+	c #35006C",
"4+	c #230066",
"5+	c #180065",
"6+	c #09005C",
"7+	c #000052",
"8+	c #000051",
"9+	c #00004F",
"0+	c #00004E",
"a+	c #09004B",
"b+	c #00003A",
"c+	c #15005C",
"d+	c #17005C",
"e+	c #100050",
"f+	c #1A0047",
"g+	c #0E0039",
"h+	c #00003C",
"i+	c #020044",
"j+	c #090047",
"k+	c #07002D",
"l+	c #1D0039",
"m+	c #2B0048",
"n+	c #2E0053",
"o+	c #33005E",
"p+	c #43006A",
"q+	c #510277",
"r+	c #50007D",
"s+	c #42007A",
"t+	c #3A0078",
"u+	c #310070",
"v+	c #250067",
"w+	c #2C006F",
"x+	c #430077",
"y+	c #4A0076",
"z+	c #350071",
"A+	c #2E006D",
"B+	c #330070",
"C+	c #370073",
"D+	c #32006D",
"E+	c #220063",
"F+	c #170061",
"G+	c #0E0060",
"H+	c #000047",
"I+	c #00002E",
"J+	c #000041",
"K+	c #000045",
"L+	c #0B0052",
"M+	c #170055",
"N+	c #0B0047",
"O+	c #30005F",
"P+	c #5A007A",
"Q+	c #4F006D",
"R+	c #280049",
"S+	c #13003C",
"T+	c #3E0060",
"U+	c #48006C",
"V+	c #410072",
"W+	c #590B7D",
"X+	c #480077",
"Y+	c #390072",
"Z+	c #300070",
"`+	c #260067",
" @	c #18005E",
".@	c #1D0062",
"+@	c #220067",
"@@	c #28006A",
"#@	c #30006B",
"$@	c #2E0065",
"%@	c #1A0055",
"&@	c #02004F",
"*@	c #17005A",
"=@	c #230063",
"-@	c #1F005F",
";@	c #0B0057",
">@	c #040056",
",@	c #00003E",
"'@	c #00002D",
")@	c #04004B",
"!@	c #1F0063",
"~@	c #1B005F",
"{@	c #0B004F",
"]@	c #070054",
"^@	c #360075",
"/@	c #44006E",
"(@	c #310049",
"_@	c #04001F",
":@	c #1B0051",
"<@	c #330064",
"[@	c #440073",
"}@	c #4A007B",
"|@	c #44007C",
"1@	c #43007D",
"2@	c #45007A",
"3@	c #3C0073",
"4@	c #270067",
"5@	c #1D0063",
"6@	c #1B0063",
"7@	c #11005B",
"8@	c #1A005D",
"9@	c #1F0060",
"0@	c #210061",
"a@	c #21005F",
"b@	c #150055",
"c@	c #000049",
"d@	c #000042",
"e@	c #02004C",
"f@	c #27006C",
"g@	c #220068",
"h@	c #070051",
"i@	c #00004B",
"j@	c #3B0077",
"k@	c #450064",
"l@	c #2B0040",
"m@	c #100059",
"n@	c #2B006C",
"o@	c #40007A",
"p@	c #44007D",
"q@	c #43007A",
"r@	c #1E0061",
"s@	c #090055",
"t@	c #020054",
"u@	c #040052",
"v@	c #020051",
"w@	c #040051",
"x@	c #0B0053",
"y@	c #130056",
"z@	c #130055",
"A@	c #100051",
"B@	c #00000E",
"C@	c #22006E",
"D@	c #1E0067",
"E@	c #00004C",
"F@	c #2E004D",
"G@	c #480061",
"H@	c #1E003A",
"I@	c #000040",
"J@	c #000053",
"K@	c #0E0061",
"L@	c #27006D",
"M@	c #390073",
"N@	c #3E0073",
"O@	c #400075",
"P@	c #35006D",
"Q@	c #1E005A",
"R@	c #02004A",
"S@	c #070052",
"T@	c #00004D",
"U@	c #000044",
"V@	c #11005E",
"W@	c #180064",
"X@	c #000036",
"Y@	c #1B0034",
"Z@	c #000057",
"`@	c #1E005E",
" #	c #23005D",
".#	c #2C0062",
"+#	c #26005B",
"@#	c #170050",
"##	c #020049",
"$#	c #000043",
"%#	c #00003F",
"&#	c #0E0057",
"*#	c #0B0056",
"=#	c #000055",
"-#	c #040059",
";#	c #090058",
">#	c #04004A",
",#	c #100056",
"'#	c #07004C",
")#	c #09005B",
"!#	c #090056",
"~#	c #04004D",
"{#	c #00002C",
"]#	c #070049",
"^#	c #0B004B",
"/#	c #090040",
"(#	c #0E004D",
"_#	c #110059",
":#	c #070055",
"<#	c #000054",
"[#	c #0B0058",
"}#	c #040043",
"|#	c #170056",
"1#	c #150057",
"2#	c #02004B",
"3#	c #0E005D",
"4#	c #170065",
"5#	c #1B0069",
"6#	c #10005E",
"7#	c #020056",
"8#	c #0B0062",
"9#	c #02005A",
"0#	c #070027",
"a#	c #250036",
"b#	c #0E0026",
"c#	c #02004D",
"d#	c #110055",
"e#	c #150056",
"f#	c #18005D",
"g#	c #1B0062",
"h#	c #13005B",
"i#	c #070057",
"j#	c #000050",
"k#	c #0B0054",
"l#	c #210064",
"m#	c #2B0070",
"n#	c #210069",
"o#	c #090054",
"p#	c #100061",
"q#	c #04005E",
"r#	c #130028",
"s#	c #220032",
"t#	c #1A0035",
"u#	c #03002A",
"v#	c #00005B",
"w#	c #100062",
"x#	c #1F006A",
"y#	c #30006D",
"z#	c #31006F",
"A#	c #2E006F",
"B#	c #330074",
"C#	c #360076",
"D#	c #2E0073",
"E#	c #020047",
"F#	c #210056",
"G#	c #320069",
"H#	c #270068",
"I#	c #070056",
"J#	c #0E0052",
"K#	c #0B005A",
"L#	c #00005A",
"M#	c #00004A",
"N#	c #170025",
"O#	c #1A0039",
"P#	c #10003C",
"Q#	c #050042",
"R#	c #00005D",
"S#	c #000059",
"T#	c #00005C",
"U#	c #070065",
"V#	c #0E0067",
"W#	c #1B006A",
"X#	c #280074",
"Y#	c #320076",
"Z#	c #3A0077",
"`#	c #3A0075",
" $	c #360072",
".$	c #350070",
"+$	c #3E0076",
"@$	c #47007C",
"#$	c #48007D",
"$$	c #210062",
"%$	c #100055",
"&$	c #150045",
"*$	c #30005E",
"=$	c #2C0067",
"-$	c #11005F",
";$	c #09004F",
">$	c #090057",
",$	c #18001A",
"'$	c #30002B",
")$	c #39003C",
"!$	c #210041",
"~$	c #0A004D",
"{$	c #000062",
"]$	c #00005E",
"^$	c #020060",
"/$	c #04005F",
"($	c #150067",
"_$	c #220071",
":$	c #2B0074",
"<$	c #2C0070",
"[$	c #2D006D",
"}$	c #30006A",
"|$	c #33006D",
"1$	c #360073",
"2$	c #230065",
"3$	c #1F0051",
"4$	c #2E0067",
"5$	c #22006A",
"6$	c #0B005C",
"7$	c #100060",
"8$	c #040053",
"9$	c #0B001B",
"0$	c #250028",
"a$	c #330030",
"b$	c #3E0036",
"c$	c #420037",
"d$	c #2A0032",
"e$	c #02003F",
"f$	c #070041",
"g$	c #000058",
"h$	c #130067",
"i$	c #270073",
"j$	c #350079",
"k$	c #390078",
"l$	c #340076",
"m$	c #340075",
"n$	c #340071",
"o$	c #320070",
"p$	c #410078",
"q$	c #17005E",
"r$	c #0E0047",
"s$	c #27005D",
"t$	c #1F0069",
"u$	c #110060",
"v$	c #17002B",
"w$	c #310033",
"x$	c #320030",
"y$	c #32002C",
"z$	c #30002A",
"A$	c #170023",
"B$	c #090051",
"C$	c #00005F",
"D$	c #000056",
"E$	c #000066",
"F$	c #000064",
"G$	c #100063",
"H$	c #320077",
"I$	c #3D0079",
"J$	c #3F0078",
"K$	c #37007A",
"L$	c #41007A",
"M$	c #3B0076",
"N$	c #3F007B",
"O$	c #130068",
"P$	c #040064",
"Q$	c #0B0050",
"R$	c #2D005D",
"S$	c #37006D",
"T$	c #1A0062",
"U$	c #0B0055",
"V$	c #09005A",
"W$	c #0E005B",
"X$	c #1A0023",
"Y$	c #110017",
"Z$	c #13002B",
"`$	c #00006C",
" %	c #02006D",
".%	c #07005D",
"+%	c #00006A",
"@%	c #04005D",
"#%	c #100065",
"$%	c #130063",
"%%	c #2C0068",
"&%	c #260064",
"*%	c #23006B",
"=%	c #2A006C",
"-%	c #34006F",
";%	c #370071",
">%	c #32006F",
",%	c #3E007B",
"'%	c #340077",
")%	c #1F006D",
"!%	c #0E0066",
"~%	c #040063",
"{%	c #020061",
"]%	c #17005F",
"^%	c #3F006D",
"/%	c #32006E",
"(%	c #0E0053",
"_%	c #07004D",
":%	c #0B0025",
"<%	c #220035",
"[%	c #13003E",
"}%	c #02006A",
"|%	c #070072",
"1%	c #090077",
"2%	c #090072",
"3%	c #040069",
"4%	c #07005B",
"5%	c #0B0059",
"6%	c #110051",
"7%	c #090052",
"8%	c #0E0055",
"9%	c #130057",
"0%	c #13005C",
"a%	c #1B0060",
"b%	c #2A0069",
"c%	c #330075",
"d%	c #2E0074",
"e%	c #23006F",
"f%	c #180069",
"g%	c #0B0063",
"h%	c #0E0065",
"i%	c #1F0064",
"j%	c #3B0064",
"k%	c #49006D",
"l%	c #39006F",
"m%	c #1F0061",
"n%	c #02002A",
"o%	c #07003E",
"p%	c #03005C",
"q%	c #0B006D",
"r%	c #170078",
"s%	c #150078",
"t%	c #0B006F",
"u%	c #020064",
"v%	c #020057",
"w%	c #11005A",
"x%	c #250068",
"y%	c #1D0066",
"z%	c #170062",
"A%	c #09005D",
"B%	c #270065",
"C%	c #410064",
"D%	c #4D006D",
"E%	c #3C0071",
"F%	c #220060",
"G%	c #15003C",
"H%	c #140069",
"I%	c #220078",
"J%	c #2A007B",
"K%	c #250073",
"L%	c #100057",
"M%	c #020058",
"N%	c #330067",
"O%	c #420065",
"P%	c #4D006E",
"Q%	c #3D0075",
"R%	c #270060",
"S%	c #0B003D",
"T%	c #13004F",
"U%	c #10004D",
"V%	c #1E0076",
"W%	c #2A007C",
"X%	c #32007B",
"Y%	c #2B006B",
"Z%	c #070047",
"`%	c #020055",
" &	c #1D0064",
".&	c #310066",
"+&	c #390064",
"@&	c #3D0072",
"#&	c #2E005E",
"$&	c #130041",
"%&	c #1F0066",
"&&	c #2C006E",
"*&	c #250061",
"=&	c #17004D",
"-&	c #1D0077",
";&	c #1F0074",
">&	c #040045",
",&	c #0E0042",
"'&	c #020039",
")&	c #2C0066",
"!&	c #34006E",
"~&	c #35006B",
"{&	c #2B0057",
"]&	c #280071",
"^&	c #3A0079",
"/&	c #280063",
"(&	c #110050",
"_&	c #0B004A",
":&	c #0B0066",
"<&	c #07005C",
"[&	c #070045",
"}&	c #0B0044",
"|&	c #0B003E",
"1&	c #210067",
"2&	c #280068",
"3&	c #26005D",
"4&	c #1D004D",
"5&	c #090048",
"6&	c #0E005A",
"7&	c #2C0071",
"8&	c #3A007B",
"9&	c #25006A",
"0&	c #130062",
"a&	c #07006B",
"b&	c #02005B",
"c&	c #1D005D",
"d&	c #220062",
"e&	c #1B004F",
"f&	c #0B0042",
"g&	c #020052",
"h&	c #27006E",
"i&	c #1E0069",
"j&	c #1E006A",
"k&	c #1A0068",
"l&	c #09004A",
"m&	c #070040",
"n&	c #070062",
"o&	c #150071",
"p&	c #1B0073",
"q&	c #0E0054",
"r&	c #1B0067",
"s&	c #1D005E",
"t&	c #1F005A",
"u&	c #150044",
"v&	c #180061",
"w&	c #210066",
"x&	c #2A006D",
"y&	c #2D0074",
"z&	c #270069",
"A&	c #1A0051",
"B&	c #04003B",
"C&	c #0E004E",
"D&	c #100048",
"E&	c #1E0072",
"F&	c #260076",
"G&	c #1B005B",
"H&	c #020041",
"I&	c #250065",
"J&	c #2A0064",
"K&	c #25005F",
"L&	c #1B004B",
"M&	c #300068",
"N&	c #3F0075",
"O&	c #25005B",
"P&	c #130047",
"Q&	c #090039",
"R&	c #020045",
"S&	c #13004A",
"T&	c #260077",
"U&	c #2C0073",
"V&	c #210057",
"W&	c #350066",
"X&	c #3A006A",
"Y&	c #2D0063",
"Z&	c #1F0052",
"`&	c #07003C",
" *	c #480073",
".*	c #450079",
"+*	c #2A0065",
"@*	c #1E0058",
"#*	c #1B004E",
"$*	c #170047",
"%*	c #0B005E",
"&*	c #17006A",
"**	c #2A0072",
"=*	c #020042",
"-*	c #34005D",
";*	c #400067",
">*	c #3A0063",
",*	c #280056",
"'*	c #090041",
")*	c #350067",
"!*	c #4D007A",
"~*	c #4C007B",
"{*	c #3B0071",
"]*	c #170059",
"^*	c #07004B",
"/*	c #0B0041",
"(*	c #170048",
"_*	c #09003C",
":*	c #040060",
"<*	c #2E0072",
"[*	c #410075",
"}*	c #28005E",
"|*	c #0E0051",
"1*	c #1D005A",
"2*	c #2B005D",
"3*	c #35005F",
"4*	c #36005D",
"5*	c #2B0054",
"6*	c #170049",
"7*	c #1A005B",
"8*	c #390070",
"9*	c #48007C",
"0*	c #310071",
"a*	c #100058",
"b*	c #1D0065",
"c*	c #2A0061",
"d*	c #110049",
"e*	c #02003E",
"f*	c #100045",
"g*	c #02003C",
"h*	c #170067",
"i*	c #300073",
"j*	c #3C0074",
"k*	c #22005F",
"l*	c #070053",
"m*	c #27005C",
"n*	c #210051",
"o*	c #150048",
"p*	c #45007D",
"q*	c #220052",
"r*	c #2B0063",
"s*	c #3C006D",
"t*	c #310060",
"u*	c #04003E",
"v*	c #000060",
"w*	c #070063",
"x*	c #1A006B",
"y*	c #2C0075",
"z*	c #310072",
"A*	c #210063",
"B*	c #090050",
"C*	c #090044",
"D*	c #0E0056",
"E*	c #15005D",
"F*	c #110054",
"G*	c #0E005F",
"H*	c #1A0067",
"I*	c #360077",
"J*	c #47007D",
"K*	c #410068",
"L*	c #260056",
"M*	c #390065",
"N*	c #250054",
"O*	c #130069",
"P*	c #270072",
"Q*	c #31006C",
"R*	c #26005E",
"S*	c #1D0053",
"T*	c #0E0045",
"U*	c #070060",
"V*	c #150061",
"W*	c #40007C",
"X*	c #370077",
"Y*	c #17005D",
"Z*	c #40006C",
"`*	c #1D0051",
" =	c #070067",
".=	c #260074",
"+=	c #3B007A",
"@=	c #410076",
"#=	c #40006D",
"$=	c #330061",
"%=	c #020043",
"&=	c #040040",
"*=	c #090042",
"==	c #040042",
"-=	c #0B005D",
";=	c #13005F",
">=	c #2D0073",
",=	c #310077",
"'=	c #230070",
")=	c #1F0068",
"!=	c #1A005A",
"~=	c #110052",
"{=	c #020046",
"]=	c #350061",
"^=	c #09006B",
"/=	c #1D0075",
"(=	c #33007C",
"_=	c #44007B",
":=	c #4B0077",
"<=	c #2B0061",
"[=	c #1D0059",
"}=	c #040055",
"|=	c #10005A",
"1=	c #130054",
"2=	c #13004D",
"3=	c #15004C",
"4=	c #0E0048",
"5=	c #090045",
"6=	c #10004A",
"7=	c #180052",
"8=	c #21005E",
"9=	c #1B0064",
"0=	c #15005E",
"a=	c #25006E",
"b=	c #1B0068",
"c=	c #160057",
"d=	c #18003E",
"e=	c #04005B",
"f=	c #18006C",
"g=	c #10006C",
"h=	c #130070",
"i=	c #210074",
"j=	c #3E0077",
"k=	c #2B0064",
"l=	c #280065",
"m=	c #1F0065",
"n=	c #2C006C",
"o=	c #310062",
"p=	c #21005C",
"q=	c #220061",
"r=	c #22006B",
"s=	c #180060",
"t=	c #28006E",
"u=	c #27006F",
"v=	c #180062",
"w=	c #130061",
"x=	c #110065",
"y=	c #0E004C",
"z=	c #090061",
"A=	c #090063",
"B=	c #2A0071",
"C=	c #370079",
"D=	c #360078",
"E=	c #3B0079",
"F=	c #400078",
"G=	c #3C0077",
"H=	c #340073",
"I=	c #450077",
"J=	c #470075",
"K=	c #480074",
"L=	c #3E0071",
"M=	c #370074",
"N=	c #2D0072",
"O=	c #280070",
"P=	c #1A0066",
"Q=	c #170060",
"R=	c #27006B",
"S=	c #110063",
"T=	c #3E0074",
"U=	c #32005C",
"V=	c #2A0078",
"W=	c #270078",
"X=	c #10005F",
"Y=	c #04005A",
"Z=	c #37007C",
"`=	c #3A007E",
" -	c #3A007D",
".-	c #39007D",
"+-	c #35007B",
"@-	c #3B0078",
"#-	c #400079",
"$-	c #3C0078",
"%-	c #3C007B",
"&-	c #32007A",
"*-	c #21006E",
"=-	c #180068",
"--	c #3C007A",
";-	c #2B0075",
">-	c #440077",
",-	c #280043",
"'-	c #34007D",
")-	c #36007F",
"!-	c #210070",
"~-	c #100052",
"{-	c #230062",
"]-	c #270076",
"^-	c #1F0073",
"/-	c #15006D",
"(-	c #13006C",
"_-	c #1B0070",
":-	c #1E0075",
"<-	c #1A0074",
"[-	c #150072",
"}-	c #10006B",
"|-	c #040062",
"1-	c #1E0064",
"2-	c #48007E",
"3-	c #3D007C",
"4-	c #3B006A",
"5-	c #120026",
"6-	c #30007C",
"7-	c #32007F",
"8-	c #1A0076",
"9-	c #10004E",
"0-	c #130059",
"a-	c #020065",
"b-	c #040066",
"c-	c #020066",
"d-	c #02005C",
"e-	c #180066",
"f-	c #3B0074",
"g-	c #4E007E",
"h-	c #4B007C",
"i-	c #39006D",
"j-	c #24004B",
"k-	c #22007C",
"l-	c #130074",
"m-	c #04004C",
"n-	c #040058",
"o-	c #420077",
"p-	c #4A007A",
"q-	c #4F007B",
"r-	c #0C0031",
"s-	c #1D004E",
"t-	c #11006D",
"u-	c #310073",
"v-	c #4F007C",
"w-	c #51007A",
"x-	c #4E0073",
"y-	c #450069",
"z-	c #330057",
"A-	c #0B0032",
"B-	c #100036",
"C-	c #220049",
"D-	c #27005A",
"E-	c #1E0063",
"F-	c #180063",
"G-	c #23006D",
"H-	c #270071",
"I-	c #360071",
"J-	c #400071",
"K-	c #3F0067",
"L-	c #340058",
"M-	c #220044",
"N-	c #12003A",
"O-	c #28004D",
"P-	c #28005A",
"Q-	c #1D0061",
"R-	c #150060",
"S-	c #1F005B",
"T-	c #230057",
"U-	c #1D0049",
"V-	c #0E003A",
"W-	c #0D0036",
"X-	c #2A004E",
"Y-	c #340067",
"Z-	c #2B0073",
"`-	c #250072",
" ;	c #30006C",
".;	c #280061",
"+;	c #100043",
"@;	c #0E003E",
"#;	c #250049",
"$;	c #26004D",
"%;	c #49007F",
"&;	c #40007D",
"*;	c #18006A",
"=;	c #11005D",
"-;	c #2D006B",
";;	c #2D0066",
">;	c #28005D",
",;	c #1D004C",
"';	c #070037",
");	c #110033",
"!;	c #2D0049",
"~;	c #1D004F",
"{;	c #04001C",
"];	c #22004B",
"^;	c #4B007F",
"/;	c #50007F",
"(;	c #260063",
"_;	c #1F005E",
":;	c #280060",
"<;	c #2A005B",
"[;	c #260051",
"};	c #0B0036",
"|;	c #32004C",
"1;	c #42006C",
"2;	c #110047",
"3;	c #090027",
"4;	c #350256",
"5;	c #37006A",
"6;	c #42007F",
"7;	c #52007F",
"8;	c #52007D",
"9;	c #34006D",
"0;	c #170051",
"a;	c #260062",
"b;	c #3B0072",
"c;	c #330069",
"d;	c #28005F",
"e;	c #21004F",
"f;	c #17003D",
"g;	c #040026",
"h;	c #410067",
"i;	c #540079",
"j;	c #390060",
"k;	c #0D002D",
"l;	c #2C004B",
"m;	c #440071",
"n;	c #47007F",
"o;	c #5A007F",
"p;	c #5E007D",
"q;	c #3A006E",
"r;	c #110058",
"s;	c #1D0056",
"t;	c #340070",
"u;	c #2D0062",
"v;	c #25005D",
"w;	c #4B0078",
"x;	c #4A0077",
"y;	c #400070",
"z;	c #30005B",
"A;	c #21004C",
"B;	c #110039",
"C;	c #220058",
"D;	c #430072",
"E;	c #4A0073",
"F;	c #2B0051",
"G;	c #110032",
"H;	c #34004A",
"I;	c #5F1178",
"J;	c #62027F",
"K;	c #6C0B7F",
"L;	c #60007E",
"M;	c #3B006B",
"N;	c #11004D",
"O;	c #0B004E",
"P;	c #04004F",
"Q;	c #3F0079",
"R;	c #47007B",
"S;	c #410077",
"T;	c #410070",
"U;	c #400064",
"V;	c #37005C",
"W;	c #2C0054",
"X;	c #26004B",
"Y;	c #04002B",
"Z;	c #22005E",
"`;	c #310065",
" >	c #150039",
".>	c #36004D",
"+>	c #64007F",
"@>	c #6A007F",
"#>	c #6A0480",
"$>	c #4D0079",
"%>	c #180070",
"&>	c #1F0062",
"*>	c #1A0061",
"=>	c #1B0061",
"->	c #1E0068",
";>	c #2E0070",
">>	c #41007D",
",>	c #4C007E",
"'>	c #40006F",
")>	c #2E0052",
"!>	c #1D003B",
"~>	c #130034",
"{>	c #07002E",
"]>	c #150054",
"^>	c #150050",
"/>	c #010003",
"(>	c #17003C",
"_>	c #380050",
":>	c #600083",
"<>	c #56007E",
"[>	c #55007F",
"}>	c #3D0073",
"|>	c #1F0072",
"1>	c #170054",
"2>	c #18005A",
"3>	c #18005B",
"4>	c #10005C",
"5>	c #1D006A",
"6>	c #250070",
"7>	c #26006F",
"8>	c #23006C",
"9>	c #26006B",
"0>	c #21006D",
"a>	c #3A007C",
"b>	c #3F007D",
"c>	c #310067",
"d>	c #230051",
"e>	c #040031",
"f>	c #130044",
"g>	c #220054",
"h>	c #0A001D",
"i>	c #1D0041",
"j>	c #1E002E",
"k>	c #290047",
"l>	c #350060",
"m>	c #3A0567",
"n>	c #020034",
"o>	c #250075",
"p>	c #36007E",
"q>	c #3D007F",
"r>	c #1E007B",
"s>	c #02005F",
"t>	c #09004E",
"u>	c #340062",
"v>	c #28006B",
"w>	c #2C0072",
"x>	c #1D0067",
"y>	c #2D0065",
"z>	c #25005A",
"A>	c #1A0048",
"B>	c #2B0045",
"C>	c #390066",
"D>	c #130042",
"E>	c #23004E",
"F>	c #0B0040",
"G>	c #1C0036",
"H>	c #350058",
"I>	c #500081",
"J>	c #3A0076",
"K>	c #5B0574",
"L>	c #460076",
"M>	c #260071",
"N>	c #2C007E",
"O>	c #21007D",
"P>	c #100071",
"Q>	c #020059",
"R>	c #2C0065",
"S>	c #440074",
"T>	c #54007C",
"U>	c #53007E",
"V>	c #4D007C",
"W>	c #390074",
"X>	c #280067",
"Y>	c #270064",
"Z>	c #1F0058",
"`>	c #1F0059",
" ,	c #230050",
".,	c #1B0042",
"+,	c #44006A",
"@,	c #430074",
"#,	c #210049",
"$,	c #02003A",
"%,	c #170034",
"&,	c #020027",
"*,	c #3E0753",
"=,	c #6B1783",
"-,	c #69097F",
";,	c #751A7F",
">,	c #4B007B",
",,	c #0A0051",
"',	c #08005A",
"),	c #190065",
"!,	c #290064",
"~,	c #4B007D",
"{,	c #53007F",
"],	c #4E007C",
"^,	c #430075",
"/,	c #3D006F",
"(,	c #400074",
"_,	c #450074",
":,	c #2D0055",
"<,	c #230049",
"[,	c #1E003E",
"},	c #150031",
"|,	c #02002B",
"1,	c #210030",
"2,	c #1E003B",
"3,	c #1E0043",
"4,	c #4C0079",
"5,	c #21004E",
"6,	c #1D0042",
"7,	c #06002A",
"8,	c #3A0050",
"9,	c #670083",
"0,	c #6B007F",
"a,	c #600081",
"b,	c #020050",
"c,	c #170064",
"d,	c #37007E",
"e,	c #3F007F",
"f,	c #26007E",
"g,	c #230074",
"h,	c #2B0066",
"i,	c #3D006C",
"j,	c #470079",
"k,	c #470077",
"l,	c #4E0079",
"m,	c #4D0078",
"n,	c #440075",
"o,	c #480075",
"p,	c #4D0073",
"q,	c #3F0065",
"r,	c #300055",
"s,	c #220040",
"t,	c #390053",
"u,	c #4D0066",
"v,	c #3F0066",
"w,	c #280054",
"x,	c #040037",
"y,	c #50007E",
"z,	c #36006F",
"A,	c #23004D",
"B,	c #1A003F",
"C,	c #000024",
"D,	c #34004C",
"E,	c #4D007D",
"F,	c #4C007F",
"G,	c #420076",
"H,	c #280075",
"I,	c #28007B",
"J,	c #2D007E",
"K,	c #25007F",
"L,	c #110078",
"M,	c #13006B",
"N,	c #110056",
"O,	c #43007B",
"P,	c #4E007B",
"Q,	c #41006D",
"R,	c #250048",
"S,	c #100033",
"T,	c #230054",
"U,	c #4C0074",
"V,	c #4E0072",
"W,	c #3A0064",
"X,	c #4C007A",
"Y,	c #2B0052",
"Z,	c #05001D",
"                        . + @ #               $ % & & *               = - ; > , ' )                                             ",
"                        ! ~ { ]                                   ^ % ! / ( _ : < [ } | 1 2 3     ^ % 4 5 6 $                   ",
"                      7 8 9 0                             * 3 7 a b c d e f g ' h i j k l m n o p q r s t u v w                 ",
"                    * x y z A                   B C 5 D E F G H I J K L M N O P Q R S T U V W X Y B     C Z `  .                ",
"                  v x Y ..+.                3 ^ @.#.$.%.&.*.=.-.;.>.R ,.'.).!.~.{.].^./.(._.:.<.[.}.|.$                         ",
"                  u 1.2.@.      B v 3.4.5.6.@.7.8.9.0.a.b.c.d.e.f.g.h.i.j.k.l.m.n.o.p.2.q.r.s.t.u.v.w.x.y.z.! z.z.. A.          ",
"                  B.C.# B 3 ^ D.E.F.G.H.I.J.K.L.M.N.O.P.Q.R.S.T.U.V.{.W.X.Y.Z.`. +.+2.++@+#+$+%+&+*+=+-+;+2.++>+,+8 x ^         ",
"                  & '+^ . 7.)+!+~+{+]+^+/+(+_+:+<+[+}+|+h.P 1+2+3+4+5+6+7+8+9+0+a+'+# t b+b+b+'+q.c+d+e+f+g+t h+i+j+p.8 7       ",
"                  @.k+l+m+n+o+p+q+r+s+t+u+v+n.w+(+x+y+z+A+B+C+D+E+F+G+8+H+2.( & ! 4 z.# 8 I+Y h+J+J+K+L+M+N+b+'+O+P+Q+R+5       ",
"                @.S+; T+U+V+x+S.W+X+Y+Z+`+ @.@+@@@#@$@%@&@*@=@-@;@>@0+,@t +.D.6 ^ 6 x I+8 t ++1.] / '@)@!@~@{@J+]@^@/@(@_@      ",
"              ^ 1.:@<@[@}@|@1@2@3@4@5@6@ @7@8@9@0@a@b@,@1.J+c@c@d@++# x 5 6 % @.D.z.# I++.'@'@z.. * % e@f@g@h@N+i@j@k@l@D.      ",
"              '@c@m@n@o@p@|@q@C+r@s@t@u@v@w@x@y@z@A@c@b+] t 8 '@/ D.D.% ^ $ B@6 @.'@Y # @.C 7 w * 7 u 9+C@D@E@h+u F@G@H@@.3     ",
"            D.I@J@K@L@/+M@N@O@P@Q@R@d@J+d@c@q.S@T@c@U@,@h+b+8 z.D.5 4 D.% v v . D.z.I+( 6       B@% u U@V@W@h@X@D.6 Y@r +.C     ",
"          5 '+i@Z@G+F+`@Q@ #.#+#@#d@t 8 ] 1.J+##H+H+U@$#U@%#t +.x x & @.@.@.@.4 . 5 @.4 C       ^ . 4 # H+&#*#d@x 3   6 / x 6   ",
"        ! @+7+=#-#;#T@$#h+'+'+++X@B./ x & x u 8 t b+1.Y ++8 / D.% 5 . 5 4 & u # '@z.& & 4 7 3 $ . ! ( 8 b+>#,#'#'@3     ^ x @.  ",
"      z.E@)#)#!#S@~#,@'@& 4 % 7 . z.z.+./ x @.D.. @.z.& ! v ^ B 3 B A.v 5 z.X@i@U@2.X@t B./ % 6 {#Y h+K+]#)@^#/#x     *     3   ",
"    v (#_#:#T@I@X@I+z.4 D.. 5 ! {#8 Y 1.X@B.z.D.D.& z.z.! % A.* w A.5 4 ! {#d@<#=#=#7+c@b+( 5 . t H+8+[#[#u@2.'@B@  B@% 4 B     ",
"    }#|#1#2#B.% w ^ . ! x z.u I+] ] ++'+h+2.1.Y b+2.'+U@C.d@2.] # ] Y B.{#8 U@%+3#4#5#6#$#+.5 4 1.7#8#X.9#8+b+x C C 5 0#a#b#    ",
"  v c#%#d@h+5 3 3 A.5 & z.+.'@I+# I+B.++h+$#c@0+]@d#e#f#.@g#&+d+h#i#j#I@Y B.X@K+k#l#m#n#v@+++.( '+o#p#q#7+U@Y {#x ! & r#s#t#3.B@",
"  u#@+] I+u 6 w C % 5 4 & u # X@,@$#J+c@J@v#v#w#x#'.y#z#A#{.B#C#t+D#g#T@J+h+h+%#E#F#G#H#I#d@t Y $#J#K#L#M#] x 4 D.D.6 C N#O#P#3.",
"  Q#### 4 5 v C % 5 D.& {#] 2.U@<#R#S#T#U#V#8#W#X#Y#Z#`# $.$Y++$@$#$~.$$%$K+d@d@b+&$*$=$-$E@h+1.H+;$>$9#K+z.A.* * w ^ ,$'$)$!$++",
"  ~$,@{#& x & z.& ! ( 2.U@@+E@8+v#{$]$R#^$/$q#($_$:$<$A#[$#@}$|$O@}@1+1$2$0+K+$#b+1.3$4$5$6$@+,@i@;@7$8$1.6 *   $ 9$0$a$b$c$d$Y ",
"e$f$Y ] 8 ++2.I@h+%#i@Z@L#Z@Z@Z@]$]$g$Z@v#R#R#h$i$j$k$l$m$C+Y+n$o$Q.p$|+Z+q$g$g$E@J+r$s$z#t$m@T@j#u$u$R@{#D.! ! +.v$w$x$y$z$A$B.",
"B$1.,@d@@+J@S#v#S#C$R#v#Z@D$]$E$F$L#<#S#]$^$G$C@H$I$J$t+K$|+L$L$j@(+M$N$|+u.O$P$R#J@Q$R$S$).T$U$&@V$W$U@'+2.2.X@'@|.X$Y$*   Z$1.",
"@+@+<#T#E$`$ %E$C$.%7+U@U@J@C$+%S#=#g$@%#%:.$%*+[$%%&% +*%=%-%;%Y+.$>%M$,%'%)%!%~%{%]%<@^%/%5@(%_%h@c@,@d@$#b+{#6 $ w w C :%<%[%",
"&#T#}%|%1%2%3%T#E@J+1.h+c@D$D$j#T@J@4%5%I#E@@+;$6%~#E@S@h@7%8%9%0%a%a%b%c%d%e%f%g%h%i%j%k%l%m%a+$#K+Y '@X@] ! ^ w B@v D.@.x n%o%",
"p%q%r%s%t%u%Z@H+1.8 ++K+j#j#E@0+<#j#i@I@] B.X@h+'+U@@+d@b+Y b+I@H+J@v%w%x%L@y%z%A%p#B%C%D%E%F%f$b+b+{#/ '@( / D.D.& z.! % C 6 G%",
"H%I%J%K%7$j#J+Y B.8 2.@+i@i@0+j#&@$#] u u # 1.b+++++++++t {## B.8 J+i@E@S@L%@+q.M%-$N%O%P%Q%R%S%X@1.z.x # b+I@T%U%%#Y z.A.    7.",
"V%W%X%Y%{@2.# {#u {#b+d@K+M#)@Z%'+B.+.{#X@2.2.X@I+B.I@c@$#%#$#U@d@h+h+%#i@9+'+2.`% &.&+&>.@&#&$&b+8 ! @.8 I@=#%&&&*&=&t & A.    ",
"-&;&*%Q$# ( +.z.4 +.X@h+$#>&,&'&I++.u Y ,@J+d@'+Y 1.U@U@%#I@U@M#0+K+t '@,@J+B.X@>$g@)&.&!&~&{&f ,@'@6 5 B.$#S#]&^&1$/&(&_&'+4   ",
":&<&c@] ( Y Y ( u ] ++++[&}&|&'@z.+.Y $#8+L#<#@+h+++] ( & & 4 / ] ,@X@x ] X@u ,@3#1&*&B%2&3&4&5&h+! ^ . I+d@6&7&8&l$9&0&:.i#] C ",
"<#@+h+1.I@U@h+{#'@1.'+'+}&/#8 / / Y E@]$}%a&b&K+] {#4 7         B@( ] x {#'@/ @+r.g#c&l#d&e&f&I@# C ^ & B.,@g&y%m#h&i&j&k&U$++! ",
"0+c@@+i@E@J+I+x Y H+l&m&Y {#& @.'@M#n&o&p&f%q&1.z.z.D.$           C x & / 5 # J@r&s&F%2$t&u&b+X@x C 6 u # J+8+A%v&w&x&y&z&A&B&# ",
"J@J@9+7+@+8 . ! J+C&D&Y & . v @.h+3#E&F&h&G&H&u / '@!             $ % 4 4 ( J+m@I&4$J&K&L&1.B.u 5 . 5 u I+H+C$S#9%M&N&|+[$O&P&Q&",
"g$D$7+9+I@z.% I+R&S&d z.. . 6 # w@W#T&U&*&-+# +.X@Y 4             3 7 D.z.X@@+V&W&X&Y&Z&`&( x D.@.@.& ] d@0+S#u@s$ *T..*,.+*@*f&",
"S#J@j#0+1.@.@.++#*$*B.& ! D.u K+%*&***B+O&,@( # m&1.@.B@          ^ 5 ( X@=*#*-*;*>*,*'*'@@.5 4 / u X@@+j#j#T@A@)*!*~*{*2&l#]*##",
"/$$+,#^*8 ! 8 /*(*_*8 & . v ] =#:*h%<*[*}*'+I+# ++2.I++.& 5 A.^ D.'@++U@|*1*2*3*4*5*6*1.( ! ! z.# h+i@7+j#0+9+7*8*9*s+0*n#a*@+C.",
"b*2&c*d*{#{#e*f*g*X@B.D.* 5 I@L#{%h*i*j*k*I@++B.( 8 X@%#I@I@Y h+K+u@l*K#6@d&m*n*o*f$'+X@'@/ +.'@h+j#<#9+M#j#6#n.M$#$p*k$g@E@B.q*",
"r*s*t*f&I+Y %#u*8 {#x w   u 0+v*w*x*y*z*A*B*C*b+u +.] ,@c@g&E@0+v@D*o#>$E*F*l&I@b+] B.{#( I+++H+J@D$i@'+%#0+G*H*I*J*#$^+v&H+( K*",
"L*M*N*2.8 b+2.t / D.A.  A.Y j#]${%O*P*B#Q*R*S*T*X@{#( B.'+K+$#,@,@J+%#%#$#J+I@2.t '@u # h+i@7+U*{$H+t ( h+K+T@V*'%W*X*h&Y*C&h+Z*",
"}#`*$#] t b+++{#% ^ * w & J+8+g$R# =.=+=@=#=$=`*%=1.8 Y h+J+%#h+h+h+e*&=*==='+++Y Y ,@_%[#-=9#Z@H+'@x # '+$#T@;=>=,='=)=!=~={=]=",
"'+d@Y '@B.b+b+u C $ * 6 ] c@T@=#~%^=/=(=_=:=#=<=[=|*M#M#9+}=|=h#1=2=3=S&4=5=}#j+6=7=8=9=K@S#i@++/ & ( ++'+,@E@0=a='=b=L%;$q&c=d=",
"d@U@t '@Y J+'+( C $ B@D.X@T@i@e=f=g=h=i=j$q@j=>%A+].k=J&l=m=l.n==$o=I.R*p=a@q=[.E+x%r=$%g$i@b+u ! ( b+K+U@U@9+s=t=u=v=8+U$q=}   ",
"w=x=i@Y J+y=C*( C ^ 7 & 2.H+M#e=($z=A=O$B=C=D=,='%E=F=j=G=H=Q%I=J=K=L=N&M=c%N=O=x#P=7$J@@+'+B.( {#t d@9+i@T@D$Q=&&H=R=S=*%T=U=  ",
"V=W=X=$###(&T*B.5 C v x b+I@K+Z@Y=E@i@D$T$=%&&d%Z=`= -.-+-i.@-#-#-$-X*%-&-X#*-=--=8+U@1.Y # / / '@t ,@K+d@@+<#;=[$I$--;-,=>-,-  ",
"'-)-!-9+E@~-*=u 7 ^ 7 @.t 1.J+J@8+%#Y ,@0+,#!={-n=N=:$]-^-/-(-_-;&:-<-:-[-}-|-g$c@b+I+u x D.% 4 x +.{#{#1.M#9#1-B+s+2-3-k$4-5-  ",
"6-7-8-j#M#~-p.& ^ w w 6 +.{#X@M#9+J+{#( b+J+K+l&9-~=0-V*:.:*R#v*a-b-c-a-F$R#<#c@1.'@+.& . 7 7 C A.v D.'@H+d-e-[$f-1+g-h-i-j-B@  ",
"a=k-l-b&E@m-b+z.6 w * 7 5 z.{#'+i@H+t & '@X@b+b+] ] 1.E#X q.K+K+M#c@H+$#$#d@h+8 / @.5 6 7 w * B@7 . ( J+n-x#H=o-p-q-f.J=J r-@.  ",
"s-%&t-z=8+U@Y / . $ $ B@A.6 & B.J+H+2.+.+.{#u +.x ! z.X@/#e*Y t ] 8 u z.x x D.6 C 7 ^ ^ B@$ * A.. u %#:#r&u-P v-w-x-y-z-A-B-5   ",
"C-D-E-6$9+d@] / . 3       w D.{#1.%#b+8 ( 4 C B@B@v 5 u # B.Y Y ++1.# u 4 % B@w * w ^ % v C % 5 +.h+7%F-G-H-I-J-K-L-M-/   N-%   ",
"O-P-Q-R-8$d@Y ( 5 B         % ( Y b+2.b+# . $       * 7 6 D./ I+] ++1.t {#4 v v 7 v 5 z.z.z.( t d@1=E+R='. +S-T-U-V-B.7   W-    ",
"X-Y-Z-`--$T@J+t ! w         A.z.X@'+I@d@b+x B@            $ ^ v 5 & ( # {#/ z.+.u +./ # ] Y 2.M#c+4+[$ ;.;:@+;@;8 #;&$A.  ( A.  ",
"$;j*%;&;*;=;s@Y 5 ^ B   3   * . # 1.'+H+$#B.6 3               B $ ^ % 4 x +.{#B.++'+d@U@U@$#U@x@4+-;;;>;,;';5.);!;K-~;. {;Y .   ",
"];+*^;/;I*H#0+e@: v 7 * $     $ 4 '@t J+U@1.4 $                 $ A.@.{#8 ] '@I+,@%$(;+*_;z@J#!=:;<;[;F.};u z.|;Q+1;2;A.3;Y 5   ",
"4;5;6;7;8;9;c@1.++I+D.^ $ B     w 5 z.B.2.b++.7 $ * *   $ B@7 A.% / ,@0;(%~#J+h+@+a;O@<+b;c;r*d;e;f;E.g;v B@Y h;i;j;';* k;,@.   ",
"l;m;n;o;p;q;r;%#b+1.u 7 B@7 7 A.v 5 ! ( t X@{#! ! x ! @.( # 8 8 ] '+s;D+t;b%u;v;=@j@w;x;y;l z;A;B;! $     . C;D;E;F;@.  G;++5 3 ",
"H;I;J;K;L;M;a+%#h+++J+++A.C 5 z.'@8 Y ++2.2.Y B.t 1.'+5=N;O;c@H+M#P;c&y#Q;R;w;I=S;T;U;V;W;X;B-Y;4 *       s$Z;{+`;2.6    >'@% ^ ",
".>+>@>#>$>c&h+2.2.2.w=%>j#/ ! ( ] h+I@I@U@K+U@@+m-B$0-&>x%w&*>=>T$W@->;>>>%;,>}@'>)>!>~>{>/ 5 B@      B h+K#]>}*^>t . />(>B.D.A.",
"_>:><>[>}>9+I@t M#:#|>7-7-$%++u I+t J+a+1>2>3>=;4>w=5>6>]&7>8>9>5$0>y*a>b>I$C+c>d>e>C 7 7 ^ 3       * f>g@K+5=g>+;8 6 h>i>1.% 7 ",
"3 j>k>l>m>S&n>2.I#5#o>p>q>r>s>h+t 2.t>u>^%E%.$v>=>F+G-w>m# &&+r@Y*x>y*D=>%y>z>A>u w                 B>C>`+U@D>E>F>] 7 G>y.$ $ 3 ",
"    3 z.O#H>I>J>K>L>M>]-N>O>P>Q>E@e#R>S>T>U>V>x+G#J&#@ $W>X>Y>R>Z>`>c*R$ ,.,y.& $       6 ^       ! +,@,]*'+U-#,$,u A.%,x       ",
"      &,! *,=,-,;,>,i#] Q#,,',f=),!,N&o@~,{,[>],^,>./,@&(,_,'>X&:,<,[,},|,4 A.      1,2,3,_ v     1.>.4,K&_%5,6,] @.7 7,/       ",
"      @.D.8,9,0,a,]+j#I@8 b,c,i=d,e,f,g,h,i,L>j,k,l,m,n,o,p,q,r,s,},@.A.B $ C @.y.t,u,v,w,x,B   X@U@S$y,A#z,A,B,t 4 7 C,/       ",
"      5 7 D,:>E,F,G,c@B.Y t@5>H,I,J,K,L,M,b&N,[*o@O,P,w;Q,{ R,S,@.A.*   6 ++f T,)*U,V,W,(*z.* / d@P;R>X,j*{*Y,G%I+6 Z,v x       "};
