/* XPM */
static char * portal_rot3_xpm[] = {
"64 64 3534 2",
"  	c #190F35",
". 	c #190E33",
"+ 	c #180D31",
"@ 	c #180F33",
"# 	c #100A27",
"$ 	c #0F0B28",
"% 	c #0F0C2B",
"& 	c #0D0A20",
"* 	c #0F0B23",
"= 	c #0F0B24",
"- 	c #0B0920",
"; 	c #0A0820",
"> 	c #0C0825",
", 	c #140A34",
"' 	c #200C4A",
") 	c #461578",
"! 	c #6F23A7",
"~ 	c #6C1FA9",
"{ 	c #40048E",
"] 	c #410D85",
"^ 	c #45157C",
"/ 	c #361269",
"( 	c #2C145E",
"_ 	c #2E1465",
": 	c #290E70",
"< 	c #2C0C7D",
"[ 	c #3E0E94",
"} 	c #440D99",
"| 	c #3E0E88",
"1 	c #290F5A",
"2 	c #231043",
"3 	c #1D0F34",
"4 	c #140B25",
"5 	c #130830",
"6 	c #190847",
"7 	c #2A0B54",
"8 	c #6F227F",
"9 	c #521562",
"0 	c #3B0E52",
"a 	c #37113D",
"b 	c #130A22",
"c 	c #190E2F",
"d 	c #0B0823",
"e 	c #090723",
"f 	c #080623",
"g 	c #090820",
"h 	c #0F0C2A",
"i 	c #120E2E",
"j 	c #140F31",
"k 	c #0F0C29",
"l 	c #0F0A25",
"m 	c #0D0A22",
"n 	c #0C0A21",
"o 	c #090823",
"p 	c #080821",
"q 	c #08081E",
"r 	c #0A081E",
"s 	c #0F0A21",
"t 	c #170F2B",
"u 	c #140D2B",
"v 	c #170E2E",
"w 	c #180F31",
"x 	c #1A0F36",
"y 	c #190E36",
"z 	c #180E33",
"A 	c #09081E",
"B 	c #0A0920",
"C 	c #110E2C",
"D 	c #100C26",
"E 	c #0C0920",
"F 	c #100B28",
"G 	c #140C30",
"H 	c #1F0D42",
"I 	c #2B0D5D",
"J 	c #53188A",
"K 	c #8829C3",
"L 	c #6D1BB4",
"M 	c #4601A4",
"N 	c #5902BB",
"O 	c #5100B7",
"P 	c #3A0590",
"Q 	c #32087D",
"R 	c #390885",
"S 	c #43059D",
"T 	c #4D05AD",
"U 	c #5308B5",
"V 	c #32078E",
"W 	c #21066A",
"X 	c #20095D",
"Y 	c #230D5B",
"Z 	c #200E4B",
"` 	c #190F2E",
" .	c #120928",
"..	c #180741",
"+.	c #19084A",
"@.	c #53186F",
"#.	c #3D0F4C",
"$.	c #4A1050",
"%.	c #92317F",
"&.	c #93347E",
"*.	c #521B53",
"=.	c #2E113D",
"-.	c #301843",
";.	c #2C183F",
">.	c #2D173E",
",.	c #291539",
"'.	c #201332",
").	c #201333",
"!.	c #2B1842",
"~.	c #30184B",
"{.	c #321752",
"].	c #311750",
"^.	c #2F154A",
"/.	c #24113C",
"(.	c #150C2C",
"_.	c #1E1435",
":.	c #100D27",
"<.	c #0A081D",
"[.	c #09081C",
"}.	c #110C24",
"|.	c #150E2A",
"1.	c #140C2A",
"2.	c #1B1034",
"3.	c #1D1037",
"4.	c #180F2F",
"5.	c #0F0B22",
"6.	c #0B0820",
"7.	c #07071B",
"8.	c #110D27",
"9.	c #100C25",
"0.	c #0B081F",
"a.	c #110B24",
"b.	c #1C1035",
"c.	c #291452",
"d.	c #290F55",
"e.	c #340B74",
"f.	c #551196",
"g.	c #8624C6",
"h.	c #550AAE",
"i.	c #4E02B8",
"j.	c #760BD1",
"k.	c #6807C8",
"l.	c #5B02C0",
"m.	c #4801A7",
"n.	c #3D0096",
"o.	c #4A02A7",
"p.	c #5906BA",
"q.	c #620AC8",
"r.	c #4A08AF",
"s.	c #3F0B9D",
"t.	c #3B0996",
"u.	c #390692",
"v.	c #370E83",
"w.	c #2F1454",
"x.	c #180E31",
"y.	c #14063D",
"z.	c #240A54",
"A.	c #381057",
"B.	c #280A3B",
"C.	c #321034",
"D.	c #7E2F72",
"E.	c #7F2E71",
"F.	c #350A3F",
"G.	c #390B46",
"H.	c #7B2885",
"I.	c #3E1361",
"J.	c #381461",
"K.	c #3D136C",
"L.	c #49197A",
"M.	c #401A66",
"N.	c #3B1862",
"O.	c #421771",
"P.	c #42157B",
"Q.	c #35116C",
"R.	c #26085E",
"S.	c #261340",
"T.	c #1D1234",
"U.	c #120E28",
"V.	c #060619",
"W.	c #09081A",
"X.	c #0B091F",
"Y.	c #130D27",
"Z.	c #180F2C",
"`.	c #180F30",
" +	c #160F29",
".+	c #190F2D",
"++	c #0C0A1E",
"@+	c #08071D",
"#+	c #100C24",
"$+	c #160E31",
"%+	c #120D27",
"&+	c #0E081F",
"*+	c #190F2F",
"=+	c #2A164D",
"-+	c #351868",
";+	c #320F71",
">+	c #3E0B85",
",+	c #5C0FA5",
"'+	c #650FB0",
")+	c #4200A7",
"!+	c #4A02B9",
"~+	c #6A08D1",
"{+	c #4F04B9",
"]+	c #5401BE",
"^+	c #42029C",
"/+	c #290272",
"(+	c #220164",
"_+	c #380287",
":+	c #5B08C2",
"<+	c #5C05D1",
"[+	c #5205C1",
"}+	c #4405A6",
"|+	c #4902A7",
"1+	c #4A089B",
"2+	c #3E186C",
"3+	c #241143",
"4+	c #170749",
"5+	c #2B0E5A",
"6+	c #350F56",
"7+	c #24093A",
"8+	c #4D224E",
"9+	c #773671",
"0+	c #662A60",
"a+	c #170529",
"b+	c #300C48",
"c+	c #401164",
"d+	c #220853",
"e+	c #1B074A",
"f+	c #1C0944",
"g+	c #160831",
"h+	c #1E0B4B",
"i+	c #280D62",
"j+	c #2C0C6B",
"k+	c #310B7D",
"l+	c #3A0E83",
"m+	c #481A8E",
"n+	c #3A0C87",
"o+	c #421F5A",
"p+	c #150E31",
"q+	c #1A1134",
"r+	c #110C25",
"s+	c #08071A",
"t+	c #0B091E",
"u+	c #140E28",
"v+	c #100C23",
"w+	c #120C24",
"x+	c #0C091E",
"y+	c #08071C",
"z+	c #150D29",
"A+	c #110C2C",
"B+	c #130D2B",
"C+	c #0C0820",
"D+	c #080518",
"E+	c #160C2B",
"F+	c #30165B",
"G+	c #3B1680",
"H+	c #421096",
"I+	c #6510AB",
"J+	c #740BBC",
"K+	c #6903B8",
"L+	c #4202AA",
"M+	c #4502BB",
"N+	c #3C01AC",
"O+	c #2B0181",
"P+	c #34018A",
"Q+	c #2B017B",
"R+	c #180251",
"S+	c #10023F",
"T+	c #1A0258",
"U+	c #360293",
"V+	c #330196",
"W+	c #2A017D",
"X+	c #2C026F",
"Y+	c #3D0286",
"Z+	c #2B0171",
"`+	c #3A1760",
" @	c #290F59",
".@	c #1E085B",
"+@	c #2C1057",
"@@	c #2F104C",
"#@	c #1B0733",
"$@	c #5D3062",
"%@	c #7D3E79",
"&@	c #532653",
"*@	c #200836",
"=@	c #310E50",
"-@	c #2B0C55",
";@	c #180747",
">@	c #17073A",
",@	c #16092A",
"'@	c #180D29",
")@	c #1D0F2F",
"!@	c #1B0F30",
"~@	c #0F0927",
"{@	c #0F0636",
"]@	c #551383",
"^@	c #9A38B9",
"/@	c #7A25AF",
"(@	c #532665",
"_@	c #23143F",
":@	c #0C0827",
"<@	c #140D26",
"[@	c #0D091F",
"}@	c #08071B",
"|@	c #100B22",
"1@	c #0F0B21",
"2@	c #0F0B20",
"3@	c #0B0819",
"4@	c #0B0826",
"5@	c #100C29",
"6@	c #130D2C",
"7@	c #07061B",
"8@	c #050516",
"9@	c #0C0821",
"0@	c #230F4E",
"a@	c #381186",
"b@	c #7118C0",
"c@	c #9216CE",
"d@	c #810AC2",
"e@	c #5C02AB",
"f@	c #4902AF",
"g@	c #5005C4",
"h@	c #3F03A0",
"i@	c #1F0161",
"j@	c #2F0178",
"k@	c #31017F",
"l@	c #1F015C",
"m@	c #0F0239",
"n@	c #160248",
"o@	c #1E025A",
"p@	c #1D0256",
"q@	c #220260",
"r@	c #2F026C",
"s@	c #420290",
"t@	c #4201A7",
"u@	c #340C85",
"v@	c #320E73",
"w@	c #210766",
"x@	c #251243",
"y@	c #270F41",
"z@	c #0B0224",
"A@	c #4A2960",
"B@	c #552F6B",
"C@	c #271034",
"D@	c #250B3D",
"E@	c #321056",
"F@	c #210A4A",
"G@	c #140639",
"H@	c #180B2D",
"I@	c #200F36",
"J@	c #20103A",
"K@	c #261349",
"L@	c #271448",
"M@	c #271541",
"N@	c #27163B",
"O@	c #221235",
"P@	c #1B0F2E",
"Q@	c #130E2D",
"R@	c #2C1641",
"S@	c #1D1139",
"T@	c #120C2D",
"U@	c #0C0819",
"V@	c #09071A",
"W@	c #0C081F",
"X@	c #0F0A20",
"Y@	c #110C23",
"Z@	c #07061A",
"`@	c #09071F",
" #	c #0E0929",
".#	c #0F0926",
"+#	c #060518",
"@#	c #170D30",
"##	c #27104F",
"$#	c #45188C",
"%#	c #7D19C9",
"&#	c #8D0CC9",
"*#	c #5602A1",
"=#	c #3F0282",
"-#	c #36028D",
";#	c #4003AA",
">#	c #2E0285",
",#	c #21025B",
"'#	c #330275",
")#	c #310174",
"!#	c #1B024A",
"~#	c #110239",
"{#	c #170248",
"]#	c #19024D",
"^#	c #19024A",
"/#	c #260263",
"(#	c #36027F",
"_#	c #420297",
":#	c #3E01A6",
"<#	c #33049D",
"[#	c #31097B",
"}#	c #230B58",
"|#	c #231242",
"1#	c #1D0C35",
"2#	c #1A083A",
"3#	c #391D62",
"4#	c #381C5D",
"5#	c #0C0225",
"6#	c #260D42",
"7#	c #2D0F56",
"8#	c #20065D",
"9#	c #180743",
"0#	c #2E1842",
"a#	c #3B166C",
"b#	c #350C8B",
"c#	c #2A0F6C",
"d#	c #2D1262",
"e#	c #3D1872",
"f#	c #441B6F",
"g#	c #3F1A61",
"h#	c #351751",
"i#	c #27143A",
"j#	c #1E1232",
"k#	c #1F1236",
"l#	c #1A0F31",
"m#	c #0F0A24",
"n#	c #0D0A21",
"o#	c #0E0A20",
"p#	c #120C23",
"q#	c #100C22",
"r#	c #08081F",
"s#	c #0F0B27",
"t#	c #110B2B",
"u#	c #0E0923",
"v#	c #08061C",
"w#	c #140C29",
"x#	c #22123F",
"y#	c #311361",
"z#	c #51149D",
"A#	c #7411C9",
"B#	c #7304BD",
"C#	c #420288",
"D#	c #290264",
"E#	c #27026D",
"F#	c #2D0180",
"G#	c #29026B",
"H#	c #27025A",
"I#	c #380175",
"J#	c #2F0270",
"K#	c #1B0248",
"L#	c #100233",
"M#	c #170245",
"N#	c #180147",
"O#	c #1B0255",
"P#	c #200260",
"Q#	c #2C027D",
"R#	c #4202A7",
"S#	c #3F02AA",
"T#	c #310299",
"U#	c #29057D",
"V#	c #271055",
"W#	c #261540",
"X#	c #1C0D35",
"Y#	c #270F54",
"Z#	c #391A6F",
"`#	c #2E145B",
" $	c #140530",
".$	c #230F42",
"+$	c #270D57",
"@$	c #260865",
"#$	c #301060",
"$$	c #421A74",
"%$	c #4609A8",
"&$	c #4903C4",
"*$	c #3F0D96",
"=$	c #38156D",
"-$	c #2D0F6D",
";$	c #35156F",
">$	c #401779",
",$	c #41147B",
"'$	c #48187A",
")$	c #3A185F",
"!$	c #331853",
"~$	c #331854",
"{$	c #2A1447",
"]$	c #200F3A",
"^$	c #130B2A",
"/$	c #080822",
"($	c #0C0921",
"_$	c #0D0920",
":$	c #160E2D",
"<$	c #160C30",
"[$	c #08061A",
"}$	c #1C1033",
"|$	c #2B154C",
"1$	c #36116C",
"2$	c #6C13BB",
"3$	c #7C0DD6",
"4$	c #7103C9",
"5$	c #5502A5",
"6$	c #370275",
"7$	c #2F0269",
"8$	c #30026B",
"9$	c #350270",
"0$	c #31026A",
"a$	c #2F016C",
"b$	c #230160",
"c$	c #190246",
"d$	c #0B0227",
"e$	c #100234",
"f$	c #140239",
"g$	c #1D0253",
"h$	c #280274",
"i$	c #290286",
"j$	c #3E03B1",
"k$	c #4202BC",
"l$	c #3402A2",
"m$	c #31039D",
"n$	c #311072",
"o$	c #2E184B",
"p$	c #1E0F37",
"q$	c #2E0F6B",
"r$	c #341179",
"s$	c #250D53",
"t$	c #200F3B",
"u$	c #241242",
"v$	c #270C66",
"w$	c #310A7B",
"x$	c #520F9A",
"y$	c #4F0DA2",
"z$	c #3C00A7",
"A$	c #4B02C0",
"B$	c #530FB8",
"C$	c #541D96",
"D$	c #5A1B96",
"E$	c #590EA6",
"F$	c #440A9C",
"G$	c #310888",
"H$	c #310C81",
"I$	c #341275",
"J$	c #38136E",
"K$	c #3F1573",
"L$	c #421579",
"M$	c #341364",
"N$	c #2B1054",
"O$	c #231040",
"P$	c #160C2D",
"Q$	c #180F2E",
"R$	c #120E29",
"S$	c #110B22",
"T$	c #201338",
"U$	c #0B081E",
"V$	c #040311",
"W$	c #07051A",
"X$	c #100A29",
"Y$	c #281643",
"Z$	c #34175B",
"`$	c #420F82",
" %	c #8C1FD4",
".%	c #790FD3",
"+%	c #5A02BF",
"@%	c #6002C0",
"#%	c #4F029A",
"$%	c #33026A",
"%%	c #290258",
"&%	c #2D0263",
"*%	c #270263",
"=%	c #1F025C",
"-%	c #17024C",
";%	c #0F0233",
">%	c #090227",
",%	c #0B0229",
"'%	c #110235",
")%	c #1C0250",
"!%	c #310389",
"~%	c #4205A8",
"{%	c #4A05B4",
"]%	c #3C03A4",
"^%	c #3B03AE",
"/%	c #3A07A4",
"(%	c #351859",
"_%	c #21103C",
":%	c #330A87",
"<%	c #370B8D",
"[%	c #200C44",
"}%	c #291742",
"|%	c #2A154B",
"1%	c #470A9C",
"2%	c #6206C4",
"3%	c #770AD0",
"4%	c #6204C5",
"5%	c #4001A7",
"6%	c #5A03C4",
"7%	c #6405CD",
"8%	c #6105C1",
"9%	c #6102BE",
"0%	c #5B03B9",
"a%	c #4502A3",
"b%	c #290275",
"c%	c #17034B",
"d%	c #200659",
"e%	c #2A086C",
"f%	c #2F0B76",
"g%	c #340D7D",
"h%	c #3A107D",
"i%	c #330F71",
"j%	c #210B53",
"k%	c #23123C",
"l%	c #1C1233",
"m%	c #120D26",
"n%	c #080619",
"o%	c #140C25",
"p%	c #1D1036",
"q%	c #080618",
"r%	c #050414",
"s%	c #0D0922",
"t%	c #1F113A",
"u%	c #331A56",
"v%	c #3C166C",
"w%	c #4B0B96",
"x%	c #7C15D1",
"y%	c #7E17CC",
"z%	c #3D00A7",
"A%	c #6103CD",
"B%	c #5302AC",
"C%	c #2A0262",
"D%	c #1F024A",
"E%	c #1F0259",
"F%	c #1C0262",
"G%	c #1D0267",
"H%	c #170253",
"I%	c #0F023B",
"J%	c #0F0238",
"K%	c #10023A",
"L%	c #140242",
"M%	c #150242",
"N%	c #200257",
"O%	c #310374",
"P%	c #400390",
"Q%	c #3F0396",
"R%	c #3E039F",
"S%	c #3C02A3",
"T%	c #330C79",
"U%	c #300F6C",
"V%	c #320593",
"W%	c #2F0A83",
"X%	c #281343",
"Y%	c #34185C",
"Z%	c #3C107F",
"`%	c #6405CB",
" &	c #6A03D5",
".&	c #830FDA",
"+&	c #6E08D2",
"@&	c #4901B2",
"#&	c #5402BC",
"$&	c #7609D5",
"%&	c #8307D9",
"&&	c #6202BA",
"*&	c #5701B8",
"=&	c #4202A4",
"-&	c #23016C",
";&	c #18014B",
">&	c #260267",
",&	c #270276",
"'&	c #6414A7",
")&	c #8A2DBE",
"!&	c #7227A7",
"~&	c #44187B",
"{&	c #32184A",
"]&	c #130E2B",
"^&	c #130D2A",
"/&	c #04030F",
"(&	c #0B071E",
"_&	c #070516",
":&	c #2D194A",
"<&	c #381A5D",
"[&	c #3F1276",
"}&	c #51099F",
"|&	c #690BC5",
"1&	c #6A11C2",
"2&	c #4001B6",
"3&	c #4702BB",
"4&	c #3A028A",
"5&	c #1B024F",
"6&	c #11023A",
"7&	c #120248",
"8&	c #1D026F",
"9&	c #22027B",
"0&	c #1F026C",
"a&	c #17034F",
"b&	c #1D0356",
"c&	c #210262",
"d&	c #1D0254",
"e&	c #180245",
"f&	c #1E0252",
"g&	c #310277",
"h&	c #3A0285",
"i&	c #3C028E",
"j&	c #4202A2",
"k&	c #5002C0",
"l&	c #4404A9",
"m&	c #2F057F",
"n&	c #2A027A",
"o&	c #330B72",
"p&	c #320F61",
"q&	c #310B72",
"r&	c #2D028C",
"s&	c #2F019C",
"t&	c #5703C5",
"u&	c #730AD6",
"v&	c #6D08D2",
"w&	c #5701C4",
"x&	c #5202B1",
"y&	c #7E0FCF",
"z&	c #A118DC",
"A&	c #7203C4",
"B&	c #5901B8",
"C&	c #5302C5",
"D&	c #30018B",
"E&	c #220262",
"F&	c #3A0286",
"G&	c #230077",
"H&	c #4D0BA3",
"I&	c #8E29D3",
"J&	c #8E2EC2",
"K&	c #642786",
"L&	c #361A4C",
"M&	c #180F32",
"N&	c #110C2B",
"O&	c #140D2D",
"P&	c #060519",
"Q&	c #050518",
"R&	c #09061C",
"S&	c #110B28",
"T&	c #381864",
"U&	c #501193",
"V&	c #660CBD",
"W&	c #5D07C7",
"X&	c #4A05BA",
"Y&	c #3E02B9",
"Z&	c #300298",
"`&	c #130245",
" *	c #0F0242",
".*	c #12024E",
"+*	c #1B0264",
"@*	c #20026C",
"#*	c #1B0257",
"$*	c #1C034A",
"%*	c #240355",
"&*	c #2B0269",
"**	c #2E0271",
"=*	c #24035A",
"-*	c #1E034F",
";*	c #25025C",
">*	c #28025E",
",*	c #2D026A",
"'*	c #350280",
")*	c #3D02A0",
"!*	c #4001AA",
"~*	c #4201AB",
"{*	c #2F0282",
"]*	c #1C0251",
"^*	c #230259",
"/*	c #290462",
"(*	c #25026B",
"_*	c #23017C",
":*	c #26028F",
"<*	c #4F01B6",
"[*	c #4801B4",
"}*	c #39019C",
"|*	c #48019C",
"1*	c #8114C6",
"2*	c #A421DD",
"3*	c #800DD3",
"4*	c #6A08CA",
"5*	c #6D0CD3",
"6*	c #4D02BA",
"7*	c #3C0194",
"8*	c #4A029F",
"9*	c #3B018E",
"0*	c #290285",
"a*	c #3702A3",
"b*	c #7810D6",
"c*	c #812DB1",
"d*	c #5F2A75",
"e*	c #2D1748",
"f*	c #130C2F",
"g*	c #120C2B",
"h*	c #070518",
"i*	c #0B081A",
"j*	c #120B22",
"k*	c #1B1031",
"l*	c #352053",
"m*	c #441A7D",
"n*	c #6213AF",
"o*	c #6409C0",
"p*	c #6108D3",
"q*	c #3702A5",
"r*	c #2E019D",
"s*	c #270185",
"t*	c #160256",
"u*	c #130253",
"v*	c #150259",
"w*	c #150251",
"x*	c #180250",
"y*	c #1C024D",
"z*	c #1E024A",
"A*	c #240351",
"B*	c #2C0363",
"C*	c #310278",
"D*	c #2E027A",
"E*	c #2C0379",
"F*	c #2E0378",
"G*	c #310276",
"H*	c #330278",
"I*	c #2D0271",
"J*	c #30027B",
"K*	c #330287",
"L*	c #340288",
"M*	c #3E0298",
"N*	c #3C0293",
"O*	c #230262",
"P*	c #1A024B",
"Q*	c #230257",
"R*	c #230261",
"S*	c #220172",
"T*	c #1B026F",
"U*	c #28027F",
"V*	c #2C0284",
"W*	c #34019F",
"X*	c #3902A3",
"Y*	c #3F0199",
"Z*	c #6F11B5",
"`*	c #9020D7",
" =	c #8518DB",
".=	c #8C29D9",
"+=	c #8B25DA",
"@=	c #610BC9",
"#=	c #4D01B3",
"$=	c #4E02A3",
"%=	c #420199",
"&=	c #4A02B2",
"*=	c #741DC7",
"==	c #982FD1",
"-=	c #7E309F",
";=	c #4E246A",
">=	c #291348",
",=	c #150D31",
"'=	c #0D0823",
")=	c #030414",
"!=	c #070619",
"~=	c #070517",
"{=	c #0E091E",
"]=	c #170F28",
"^=	c #271839",
"/=	c #48286F",
"(=	c #5F23A2",
"_=	c #761BC4",
":=	c #801DD5",
"<=	c #7314D8",
"[=	c #3A01AC",
"}=	c #2A018E",
"|=	c #29028B",
"1=	c #16025D",
"2=	c #110253",
"3=	c #200351",
"4=	c #20024D",
"5=	c #1D0249",
"6=	c #21025F",
"7=	c #36029F",
"8=	c #4703BA",
"9=	c #4503B6",
"0=	c #39029F",
"a=	c #320292",
"b=	c #2F028B",
"c=	c #340291",
"d=	c #3D029B",
"e=	c #41029F",
"f=	c #3E028F",
"g=	c #3A0282",
"h=	c #31027D",
"i=	c #220363",
"j=	c #200253",
"k=	c #1A024C",
"l=	c #19025B",
"m=	c #1F0273",
"n=	c #230172",
"o=	c #34029F",
"p=	c #4202C2",
"q=	c #31028F",
"r=	c #3A028D",
"s=	c #7017C7",
"t=	c #8E30D9",
"u=	c #8E2FDA",
"v=	c #922CDB",
"w=	c #6812CC",
"x=	c #5502C0",
"y=	c #440299",
"z=	c #340183",
"A=	c #5806B3",
"B=	c #851ED5",
"C=	c #972DD0",
"D=	c #72259F",
"E=	c #43196A",
"F=	c #2D154E",
"G=	c #1A0F37",
"H=	c #100B29",
"I=	c #040414",
"J=	c #0C081C",
"K=	c #1C112D",
"L=	c #4C2777",
"M=	c #6B28B2",
"N=	c #8733CE",
"O=	c #8731D3",
"P=	c #620BC6",
"Q=	c #4601B8",
"R=	c #330298",
"S=	c #260280",
"T=	c #16025C",
"U=	c #0F023D",
"V=	c #0F022E",
"W=	c #180243",
"X=	c #220254",
"Y=	c #1E024E",
"Z=	c #1E0266",
"`=	c #28028E",
" -	c #210288",
".-	c #3C02BF",
"+-	c #6D0CDA",
"@-	c #6611C9",
"#-	c #6312B9",
"$-	c #4705AF",
"%-	c #4904BF",
"&-	c #5505C1",
"*-	c #5104BB",
"=-	c #4F02B8",
"--	c #4A02AA",
";-	c #3B0285",
">-	c #310269",
",-	c #340273",
"'-	c #33037C",
")-	c #240263",
"!-	c #1A0247",
"~-	c #18023F",
"{-	c #17024A",
"]-	c #1C0268",
"^-	c #1C0266",
"/-	c #1D0269",
"(-	c #2C029D",
"_-	c #2A0291",
":-	c #2E0185",
"<-	c #3D029F",
"[-	c #6B19C9",
"}-	c #690DD1",
"|-	c #8820DD",
"1-	c #6307D2",
"2-	c #5102C2",
"3-	c #4302A3",
"4-	c #2A0280",
"5-	c #3A02B4",
"6-	c #5E0ACD",
"7-	c #8119D3",
"8-	c #63199D",
"9-	c #401572",
"0-	c #30155B",
"a-	c #231245",
"b-	c #050412",
"c-	c #070519",
"d-	c #0E0A21",
"e-	c #201434",
"f-	c #2C1A45",
"g-	c #4C247C",
"h-	c #8134C9",
"i-	c #993EDA",
"j-	c #7D29C8",
"k-	c #5504B4",
"l-	c #4B02B4",
"m-	c #3E02A9",
"n-	c #26027F",
"o-	c #160250",
"p-	c #15023E",
"q-	c #1E024D",
"r-	c #1F0254",
"s-	c #1C025F",
"t-	c #270289",
"u-	c #31029F",
"v-	c #4905B8",
"w-	c #590AB2",
"x-	c #6613B1",
"y-	c #751BB8",
"z-	c #6A11BA",
"A-	c #6D13C0",
"B-	c #7210C6",
"C-	c #6A0CC5",
"D-	c #6208C0",
"E-	c #4D01BC",
"F-	c #4601A6",
"G-	c #3C017C",
"H-	c #320260",
"I-	c #340374",
"J-	c #290274",
"K-	c #18024C",
"L-	c #16023D",
"M-	c #18025C",
"N-	c #18025B",
"O-	c #200270",
"P-	c #290291",
"Q-	c #290294",
"R-	c #310291",
"S-	c #4804AF",
"T-	c #5005BD",
"U-	c #5205BB",
"V-	c #700FD1",
"W-	c #680BD3",
"X-	c #4E01C2",
"Y-	c #4D02B6",
"Z-	c #4102A1",
"`-	c #4201BC",
" ;	c #5A02D1",
".;	c #770CD9",
"+;	c #6718A1",
"@;	c #36107A",
"#;	c #35176B",
"$;	c #31195A",
"%;	c #0A081C",
"&;	c #02020D",
"*;	c #09071B",
"=;	c #120B23",
"-;	c #2D1A42",
";;	c #422662",
">;	c #582396",
",;	c #A652E2",
"';	c #9436D8",
");	c #8E23D3",
"!;	c #5B06B2",
"~;	c #4C02B3",
"{;	c #3C02A6",
"];	c #21026C",
"^;	c #18024E",
"/;	c #1D034B",
"(;	c #230256",
"_;	c #1E025B",
":;	c #25036D",
"<;	c #3B0397",
"[;	c #40039F",
"};	c #3B0393",
"|;	c #390385",
"1;	c #440883",
"2;	c #4E0F85",
"3;	c #4E0F8C",
"4;	c #470B8C",
"5;	c #610FA3",
"6;	c #7D16C0",
"7;	c #8A1BCD",
"8;	c #8018CC",
"9;	c #6107C3",
"0;	c #5A02AD",
"a;	c #520386",
"b;	c #420277",
"c;	c #3A0290",
"d;	c #1C0264",
"e;	c #14023B",
"f;	c #15023C",
"g;	c #160252",
"h;	c #14024F",
"i;	c #26027C",
"j;	c #2D029E",
"k;	c #280292",
"l;	c #2C018B",
"m;	c #3B01A7",
"n;	c #3802A0",
"o;	c #340298",
"p;	c #4403AC",
"q;	c #5305C0",
"r;	c #5D05C9",
"s;	c #6605C9",
"t;	c #770AD3",
"u;	c #850FDB",
"v;	c #810BD9",
"w;	c #840CD9",
"x;	c #7E11C7",
"y;	c #49139A",
"z;	c #3C177B",
"A;	c #351A5F",
"B;	c #0D081D",
"C;	c #03020F",
"D;	c #0A071E",
"E;	c #0E0921",
"F;	c #221433",
"G;	c #3D2555",
"H;	c #552B85",
"I;	c #772FBB",
"J;	c #A046DE",
"K;	c #972FD8",
"L;	c #8B1AD6",
"M;	c #6708BE",
"N;	c #31028E",
"O;	c #1D025B",
"P;	c #19024C",
"Q;	c #210353",
"R;	c #200355",
"S;	c #1D0350",
"T;	c #1E0351",
"U;	c #22025F",
"V;	c #2F0278",
"W;	c #2C0377",
"X;	c #270279",
"Y;	c #2E027E",
"Z;	c #2A0272",
"`;	c #200263",
" >	c #1E0265",
".>	c #270277",
"+>	c #460798",
"@>	c #6813AD",
"#>	c #8A28B3",
"$>	c #9D30C0",
"%>	c #8C21CB",
"&>	c #770CCE",
"*>	c #7103B7",
"=>	c #57028D",
"->	c #42028A",
";>	c #2B0286",
">>	c #190259",
",>	c #170244",
"'>	c #16024D",
")>	c #140250",
"!>	c #190357",
"~>	c #2E03A3",
"{>	c #290298",
"]>	c #28017D",
"^>	c #29017E",
"/>	c #250182",
"(>	c #2A0285",
"_>	c #390196",
":>	c #4405A0",
"<>	c #5505B8",
"[>	c #6806C3",
"}>	c #7506D1",
"|>	c #850CD5",
"1>	c #8E10D9",
"2>	c #940FDD",
"3>	c #8B15D2",
"4>	c #6018A5",
"5>	c #391876",
"6>	c #2D1557",
"7>	c #0C081D",
"8>	c #0A081F",
"9>	c #160E29",
"0>	c #301B42",
"a>	c #442962",
"b>	c #5B289A",
"c>	c #6F1FBF",
"d>	c #8E27D5",
"e>	c #8B23D2",
"f>	c #790FCF",
"g>	c #6707C3",
"h>	c #4603A6",
"i>	c #310287",
"j>	c #1A0254",
"k>	c #150247",
"l>	c #1A0253",
"m>	c #1C025A",
"n>	c #1C0352",
"o>	c #180347",
"p>	c #160246",
"q>	c #1A025E",
"r>	c #180260",
"s>	c #15025D",
"t>	c #1F026F",
"u>	c #2D0189",
"v>	c #27027D",
"w>	c #210276",
"x>	c #270288",
"y>	c #3102A1",
"z>	c #3B02B0",
"A>	c #4101B1",
"B>	c #5A08A7",
"C>	c #851FB1",
"D>	c #871EBB",
"E>	c #8413CF",
"F>	c #7B08CD",
"G>	c #5C029D",
"H>	c #43027D",
"I>	c #320282",
"J>	c #200274",
"K>	c #190253",
"L>	c #180252",
"M>	c #18025A",
"N>	c #1F0264",
"O>	c #2D0397",
"P>	c #2B02A3",
"Q>	c #1D0265",
"R>	c #250183",
"S>	c #280181",
"T>	c #260275",
"U>	c #310288",
"V>	c #4302AB",
"W>	c #3E029F",
"X>	c #5B01BA",
"Y>	c #7406C9",
"Z>	c #7F0BD1",
"`>	c #9713DB",
" ,	c #9625C9",
".,	c #5B1E90",
"+,	c #311666",
"@,	c #1B0D40",
"#,	c #08051A",
"$,	c #060514",
"%,	c #0F0922",
"&,	c #150F29",
"*,	c #211435",
"=,	c #361E4B",
"-,	c #45286C",
";,	c #6420B3",
">,	c #5D0CBA",
",,	c #8320D5",
"',	c #831ED6",
"),	c #670AC6",
"!,	c #5704B4",
"~,	c #3F0294",
"{,	c #16024F",
"],	c #150250",
"^,	c #170251",
"/,	c #150243",
"(,	c #140244",
"_,	c #170254",
":,	c #180263",
"<,	c #19026B",
"[,	c #1F0274",
"},	c #25027F",
"|,	c #270282",
"1,	c #3402B3",
"2,	c #3502AF",
"3,	c #3C02B3",
"4,	c #4503BB",
"5,	c #600FC0",
"6,	c #7918B8",
"7,	c #7512AF",
"8,	c #6C0BBA",
"9,	c #6606CB",
"0,	c #5502AD",
"a,	c #4B0285",
"b,	c #370272",
"c,	c #1F0265",
"d,	c #1A0261",
"e,	c #22026A",
"f,	c #2D0396",
"g,	c #2902A0",
"h,	c #1A026F",
"i,	c #16025A",
"j,	c #200272",
"k,	c #200271",
"l,	c #38029D",
"m,	c #3A019F",
"n,	c #4A02AF",
"o,	c #6C04C8",
"p,	c #7807CF",
"q,	c #A01EDC",
"r,	c #8E20C3",
"s,	c #3B1A6E",
"t,	c #2C125B",
"u,	c #180E39",
"v,	c #060517",
"w,	c #19112D",
"x,	c #1D1231",
"y,	c #25163A",
"z,	c #361E57",
"A,	c #592C8C",
"B,	c #8536D1",
"C,	c #640ACC",
"D,	c #7413D9",
"E,	c #640BCB",
"F,	c #3E019F",
"G,	c #320289",
"H,	c #20016C",
"I,	c #18025D",
"J,	c #18035A",
"K,	c #1A025F",
"L,	c #180353",
"M,	c #12023F",
"N,	c #130247",
"O,	c #1B0266",
"P,	c #22027D",
"Q,	c #2A0282",
"R,	c #390291",
"S,	c #35028D",
"T,	c #320293",
"U,	c #4102B6",
"V,	c #4202B8",
"W,	c #3E02AF",
"X,	c #4302B1",
"Y,	c #3A02A3",
"Z,	c #2E0298",
"`,	c #580FAF",
" '	c #7115B8",
".'	c #5B04A6",
"+'	c #6404C0",
"@'	c #5002BA",
"#'	c #54029D",
"$'	c #44027B",
"%'	c #160251",
"&'	c #16024A",
"*'	c #19025F",
"='	c #1C025B",
"-'	c #2D038F",
";'	c #2B03A6",
">'	c #18026C",
",'	c #130252",
"''	c #190264",
")'	c #20027D",
"!'	c #230289",
"~'	c #240285",
"{'	c #300294",
"]'	c #3C01A9",
"^'	c #6103C1",
"/'	c #8813D2",
"('	c #9F1FDB",
"_'	c #861EBC",
":'	c #361669",
"<'	c #2C1258",
"['	c #190F39",
"}'	c #18102B",
"|'	c #1C1230",
"1'	c #22133F",
"2'	c #391E60",
"3'	c #723AA1",
"4'	c #8C3BD3",
"5'	c #832ADB",
"6'	c #8A31D5",
"7'	c #631CB2",
"8'	c #230179",
"9'	c #22026D",
"0'	c #1F016D",
"a'	c #1C0269",
"b'	c #230275",
"c'	c #21026A",
"d'	c #18024B",
"e'	c #0E0230",
"f'	c #0F0235",
"g'	c #290282",
"h'	c #3802A6",
"i'	c #37029D",
"j'	c #4C03AA",
"k'	c #6203C3",
"l'	c #5102B8",
"m'	c #5805B8",
"n'	c #5805C0",
"o'	c #4E02C2",
"p'	c #5004C0",
"q'	c #4E03BB",
"r'	c #4202A8",
"s'	c #3B02AA",
"t'	c #4708B8",
"u'	c #5E10C1",
"v'	c #5407A7",
"w'	c #4E029D",
"x'	c #5302B8",
"y'	c #5502AE",
"z'	c #4B0381",
"A'	c #22025D",
"B'	c #140249",
"C'	c #1A025C",
"D'	c #2E0383",
"E'	c #3A07C0",
"F'	c #160260",
"G'	c #11024A",
"H'	c #17025C",
"I'	c #200280",
"J'	c #2D02AE",
"K'	c #260292",
"L'	c #1E026B",
"M'	c #2C018E",
"N'	c #3F00B5",
"O'	c #6508C9",
"P'	c #951BD8",
"Q'	c #9517DA",
"R'	c #6F10B3",
"S'	c #3C1373",
"T'	c #2D1357",
"U'	c #1B0F39",
"V'	c #0A0819",
"W'	c #0A0717",
"X'	c #160D2E",
"Y'	c #201142",
"Z'	c #29174A",
"`'	c #7A429B",
" )	c #8D3AD2",
".)	c #963EDC",
"+)	c #913FD0",
"@)	c #5C18AD",
"#)	c #2B027D",
"$)	c #220369",
"%)	c #28027B",
"&)	c #2D0283",
"*)	c #240268",
"=)	c #12023B",
"-)	c #12023D",
";)	c #210265",
">)	c #3E029C",
",)	c #6205CE",
"')	c #6704CB",
"))	c #7D06D4",
"!)	c #7302D3",
"~)	c #740AD4",
"{)	c #8013D9",
"])	c #8215DB",
"^)	c #6B0AD2",
"/)	c #5803C4",
"()	c #4B02AF",
"_)	c #340281",
":)	c #260269",
"<)	c #330297",
"[)	c #500CBA",
"})	c #580BBD",
"|)	c #47029B",
"1)	c #5403AF",
"2)	c #5B03B4",
"3)	c #530395",
"4)	c #34026C",
"5)	c #150253",
"6)	c #1B025B",
"7)	c #370592",
"8)	c #4209BB",
"9)	c #230680",
"0)	c #120249",
"a)	c #15035A",
"b)	c #190274",
"c)	c #1F018B",
"d)	c #1D027C",
"e)	c #130249",
"f)	c #290181",
"g)	c #3800AD",
"h)	c #5B05C6",
"i)	c #8517D7",
"j)	c #6005C3",
"k)	c #4C0D9C",
"l)	c #3F1676",
"m)	c #311659",
"n)	c #1A0E38",
"o)	c #08061B",
"p)	c #080718",
"q)	c #080517",
"r)	c #140C33",
"s)	c #1D103A",
"t)	c #2B164D",
"u)	c #7E38B2",
"v)	c #8028D8",
"w)	c #6F15CE",
"x)	c #640CBE",
"y)	c #5B05B7",
"z)	c #420296",
"A)	c #2C0279",
"B)	c #290279",
"C)	c #2B027B",
"D)	c #1F0258",
"E)	c #130236",
"F)	c #110237",
"G)	c #200261",
"H)	c #380297",
"I)	c #6205C6",
"J)	c #850CDA",
"K)	c #8E0ADB",
"L)	c #970DD9",
"M)	c #8E0FD3",
"N)	c #750FD1",
"O)	c #8114D9",
"P)	c #8012D7",
"Q)	c #6B05D3",
"R)	c #3B0296",
"S)	c #290271",
"T)	c #1C024E",
"U)	c #200262",
"V)	c #2F0391",
"W)	c #5308CE",
"X)	c #4C03AF",
"Y)	c #5704AB",
"Z)	c #6505BC",
"`)	c #5B029F",
" !	c #380277",
".!	c #1C025E",
"+!	c #1D0260",
"@!	c #260265",
"#!	c #3E04A1",
"$!	c #3A05A9",
"%!	c #200477",
"&!	c #13034D",
"*!	c #140358",
"=!	c #170266",
"-!	c #180271",
";!	c #170265",
">!	c #15024A",
",!	c #200268",
"'!	c #36019C",
")!	c #5302C0",
"!!	c #6003C9",
"~!	c #4F02B3",
"{!	c #420F88",
"]!	c #3F1870",
"^!	c #36185B",
"/!	c #140D2E",
"(!	c #0A081B",
"_!	c #180F3A",
":!	c #3A1867",
"<!	c #611EA7",
"[!	c #7C1CD9",
"}!	c #680ECD",
"|!	c #5705B3",
"1!	c #5702AF",
"2!	c #420293",
"3!	c #2A027E",
"4!	c #2D0287",
"5!	c #240264",
"6!	c #1F024C",
"7!	c #190241",
"8!	c #20025D",
"9!	c #360195",
"0!	c #5301C1",
"a!	c #7E08D7",
"b!	c #840AD2",
"c!	c #8107CD",
"d!	c #7805C8",
"e!	c #6405BF",
"f!	c #6C09CB",
"g!	c #6B09C5",
"h!	c #5705B4",
"i!	c #4B02AC",
"j!	c #4C04A3",
"k!	c #390297",
"l!	c #37019A",
"m!	c #280272",
"n!	c #180247",
"o!	c #270272",
"p!	c #3E04AC",
"q!	c #4A02B8",
"r!	c #5F03B0",
"s!	c #7C09C9",
"t!	c #6202A5",
"u!	c #470386",
"v!	c #24026F",
"w!	c #29026F",
"x!	c #1E0253",
"y!	c #2A026A",
"z!	c #4704B0",
"A!	c #32039B",
"B!	c #1E0370",
"C!	c #18035B",
"D!	c #16025F",
"E!	c #160265",
"F!	c #150248",
"G!	c #1F025F",
"H!	c #3A0296",
"I!	c #4C02B8",
"J!	c #5A02C3",
"K!	c #5B07B6",
"L!	c #471088",
"M!	c #3C186A",
"N!	c #36185C",
"O!	c #100B26",
"P!	c #130D31",
"Q!	c #33185F",
"R!	c #601FA5",
"S!	c #771BCD",
"T!	c #640AC3",
"U!	c #5204B4",
"V!	c #5202B4",
"W!	c #5402B0",
"X!	c #5002A4",
"Y!	c #36028A",
"Z!	c #2B0284",
"`!	c #380193",
" ~	c #2F0274",
".~	c #220255",
"+~	c #270357",
"@~	c #43029B",
"#~	c #4F01BA",
"$~	c #6602CF",
"%~	c #8105D1",
"&~	c #6003B7",
"*~	c #5E02B9",
"=~	c #6001C7",
"-~	c #760CD5",
";~	c #790FCD",
">~	c #5205AD",
",~	c #3C02A1",
"'~	c #350295",
")~	c #2F028A",
"!~	c #2C0185",
"~~	c #310292",
"{~	c #210264",
"]~	c #2C037B",
"^~	c #6208B3",
"/~	c #840FC1",
"(~	c #7B05B4",
"_~	c #50028E",
":~	c #2A0277",
"<~	c #290269",
"[~	c #24035B",
"}~	c #310279",
"|~	c #4D03B9",
"1~	c #3503A9",
"2~	c #21027E",
"3~	c #190365",
"4~	c #170263",
"5~	c #140357",
"6~	c #140252",
"7~	c #200254",
"8~	c #350288",
"9~	c #4301A9",
"0~	c #6202C3",
"a~	c #630CB8",
"b~	c #4A1488",
"c~	c #3A1866",
"d~	c #2F1754",
"e~	c #1B1038",
"f~	c #110B27",
"g~	c #1D103F",
"h~	c #58298E",
"i~	c #6A1CC8",
"j~	c #6A0BD1",
"k~	c #5003AF",
"l~	c #4702A7",
"m~	c #4D02AA",
"n~	c #48039F",
"o~	c #400298",
"p~	c #390195",
"q~	c #35028C",
"r~	c #250259",
"s~	c #20024E",
"t~	c #26025B",
"u~	c #33027A",
"v~	c #4D02AC",
"w~	c #5C02C0",
"x~	c #6B03C6",
"y~	c #7405C2",
"z~	c #5302AD",
"A~	c #6E07C4",
"B~	c #7E0EDA",
"C~	c #9020D8",
"D~	c #600CB8",
"E~	c #32019E",
"F~	c #3F03A7",
"G~	c #1C0160",
"H~	c #23026E",
"I~	c #19024F",
"J~	c #4C0B97",
"K~	c #8215B7",
"L~	c #760CAB",
"M~	c #440285",
"N~	c #28026F",
"O~	c #1F025E",
"P~	c #22025E",
"Q~	c #3A0389",
"R~	c #4A04B6",
"S~	c #3804AB",
"T~	c #230285",
"U~	c #1C036F",
"V~	c #17035E",
"W~	c #110249",
"X~	c #13023A",
"Y~	c #250357",
"Z~	c #2B0273",
"`~	c #4602A5",
" {	c #6A01CB",
".{	c #680EC0",
"+{	c #501D8E",
"@{	c #3A1E64",
"#{	c #201242",
"${	c #0F0A28",
"%{	c #0E0A24",
"&{	c #311856",
"*{	c #6B30A7",
"={	c #6C16D3",
"-{	c #7E0CDB",
";{	c #6C0EC0",
">{	c #4902AB",
",{	c #40029D",
"'{	c #380292",
"){	c #380291",
"!{	c #400195",
"~{	c #36027A",
"{{	c #260257",
"]{	c #1C0243",
"^{	c #2A026D",
"/{	c #340185",
"({	c #5402AF",
"_{	c #7304CA",
":{	c #6502BD",
"<{	c #6507BE",
"[{	c #8512D5",
"}{	c #8718D9",
"|{	c #630EC0",
"1{	c #3C039F",
"2{	c #32028B",
"3{	c #2D026D",
"4{	c #230263",
"5{	c #0E023B",
"6{	c #17024D",
"7{	c #310283",
"8{	c #2F0478",
"9{	c #7B13B7",
"0{	c #64079F",
"a{	c #38027E",
"b{	c #27026E",
"c{	c #20025C",
"d{	c #4C0598",
"e{	c #5405BD",
"f{	c #3B04AB",
"g{	c #140354",
"h{	c #100243",
"i{	c #140246",
"j{	c #16023E",
"k{	c #1D0346",
"l{	c #20034C",
"m{	c #2E026E",
"n{	c #4E02A7",
"o{	c #6502C6",
"p{	c #5E14B3",
"q{	c #623099",
"r{	c #3D275B",
"s{	c #1A0F35",
"t{	c #20123B",
"u{	c #44216D",
"v{	c #6E29B3",
"w{	c #7C1AD9",
"x{	c #7710D3",
"y{	c #650CC3",
"z{	c #4701AF",
"A{	c #360294",
"B{	c #350182",
"C{	c #370276",
"D{	c #22034F",
"E{	c #21024F",
"F{	c #18023D",
"G{	c #1B0153",
"H{	c #360289",
"I{	c #3C0198",
"J{	c #6D06C8",
"K{	c #7D08D3",
"L{	c #6C03C7",
"M{	c #740BD2",
"N{	c #7A0EDA",
"O{	c #5E06C6",
"P{	c #4102A5",
"Q{	c #370285",
"R{	c #31026B",
"S{	c #24025C",
"T{	c #2A028B",
"U{	c #28028C",
"V{	c #27028C",
"W{	c #180256",
"X{	c #150153",
"Y{	c #2F0370",
"Z{	c #3C0389",
"`{	c #660CB6",
" ]	c #5B069F",
".]	c #250078",
"+]	c #290270",
"@]	c #290267",
"#]	c #5B06A7",
"$]	c #6107CA",
"%]	c #4004AD",
"&]	c #26037F",
"*]	c #190361",
"=]	c #13034E",
"-]	c #130242",
";]	c #15033D",
">]	c #150238",
",]	c #1B0242",
"']	c #230252",
")]	c #35027D",
"!]	c #4A02A8",
"~]	c #5D08C0",
"{]	c #6425AF",
"]]	c #5A2F84",
"^]	c #301D46",
"/]	c #160C2C",
"(]	c #170E2A",
"_]	c #120C2A",
":]	c #1E123A",
"<]	c #4C2677",
"[]	c #8230C1",
"}]	c #9C31DC",
"|]	c #7D20CA",
"1]	c #4E05B7",
"2]	c #4101A7",
"3]	c #330289",
"4]	c #2D026C",
"5]	c #240257",
"6]	c #1B0251",
"7]	c #23026B",
"8]	c #380293",
"9]	c #4F02BC",
"0]	c #7408D7",
"a]	c #6305C2",
"b]	c #4F00BB",
"c]	c #6D06D2",
"d]	c #7C0ED9",
"e]	c #5B03CE",
"f]	c #4102A3",
"g]	c #350284",
"h]	c #1E0251",
"i]	c #1F0187",
"j]	c #2C0298",
"k]	c #2B0387",
"l]	c #200269",
"m]	c #170255",
"n]	c #130250",
"o]	c #18024D",
"p]	c #310370",
"q]	c #45059C",
"r]	c #5708B3",
"s]	c #5508A0",
"t]	c #240175",
"u]	c #2D0275",
"v]	c #320273",
"w]	c #5A04B0",
"x]	c #4105AC",
"y]	c #160457",
"z]	c #18023E",
"A]	c #160238",
"B]	c #20024B",
"C]	c #27025B",
"D]	c #3F019F",
"E]	c #6411C2",
"F]	c #6024A6",
"G]	c #42216C",
"H]	c #221440",
"I]	c #0E0927",
"J]	c #09061D",
"K]	c #120D2C",
"L]	c #251542",
"M]	c #4E2877",
"N]	c #9237CD",
"O]	c #B44ADF",
"P]	c #6E21C5",
"Q]	c #3B02A2",
"R]	c #2F0279",
"S]	c #25025A",
"T]	c #200251",
"U]	c #26025D",
"V]	c #25026C",
"W]	c #2D0284",
"X]	c #3A02A2",
"Y]	c #5303C3",
"Z]	c #6305D0",
"`]	c #5602C6",
" ^	c #7108D5",
".^	c #8A12D9",
"+^	c #730FC9",
"@^	c #3D01AA",
"#^	c #37028D",
"$^	c #330272",
"%^	c #1C024B",
"&^	c #12015A",
"*^	c #2902A6",
"=^	c #0E0131",
"-^	c #0C0130",
";^	c #110244",
">^	c #4504A8",
",^	c #5305BB",
"'^	c #420398",
")^	c #2E017D",
"!^	c #34027C",
"~^	c #2E026D",
"{^	c #4A0296",
"]^	c #5E05BF",
"^^	c #4E05BB",
"/^	c #3A049E",
"(^	c #18035F",
"_^	c #180459",
":^	c #170346",
"<^	c #180340",
"[^	c #1B0342",
"}^	c #20044D",
"|^	c #270264",
"1^	c #2D027D",
"2^	c #4704AA",
"3^	c #5C1BA5",
"4^	c #442271",
"5^	c #301B53",
"6^	c #160E33",
"7^	c #0E0A27",
"8^	c #191032",
"9^	c #361F53",
"0^	c #5A2986",
"a^	c #8A2FD1",
"b^	c #B34DE0",
"c^	c #6C0CCF",
"d^	c #39029B",
"e^	c #38028F",
"f^	c #2E0273",
"g^	c #2C0267",
"h^	c #1E024C",
"i^	c #200255",
"j^	c #2A0270",
"k^	c #2B0278",
"l^	c #2F028C",
"m^	c #3A02A6",
"n^	c #4A02BA",
"o^	c #4E02BD",
"p^	c #5101C4",
"q^	c #7206D9",
"r^	c #7D0CD4",
"s^	c #5B08AF",
"t^	c #31018F",
"u^	c #310271",
"v^	c #1B0167",
"w^	c #290289",
"x^	c #200258",
"y^	c #0E022D",
"z^	c #080122",
"A^	c #06011E",
"B^	c #080125",
"C^	c #0F0234",
"D^	c #0E0138",
"E^	c #1B024C",
"F^	c #280175",
"G^	c #4805B5",
"H^	c #29017B",
"I^	c #3E0285",
"J^	c #3A0279",
"K^	c #5804B1",
"L^	c #6407CC",
"M^	c #4D05BB",
"N^	c #320296",
"O^	c #18035E",
"P^	c #170352",
"Q^	c #160242",
"R^	c #1B0343",
"S^	c #210351",
"T^	c #23025B",
"U^	c #28026C",
"V^	c #2A017C",
"W^	c #2C0280",
"X^	c #4B08A3",
"Y^	c #661BB4",
"Z^	c #462673",
"`^	c #311B53",
" /	c #0F0A27",
"./	c #22153A",
"+/	c #462564",
"@/	c #6B29A7",
"#/	c #7D1BD5",
"$/	c #8417DA",
"%/	c #720DCD",
"&/	c #460294",
"*/	c #3D0285",
"=/	c #2D0266",
"-/	c #1B024D",
";/	c #2F0188",
">/	c #2D027C",
",/	c #3602A1",
"'/	c #3A01A6",
")/	c #3A01A9",
"!/	c #3B00B3",
"~/	c #6807D1",
"{/	c #7208D1",
"]/	c #430296",
"^/	c #3A018E",
"//	c #390184",
"(/	c #25016C",
"_/	c #200188",
":/	c #25028A",
"</	c #210268",
"[/	c #15023B",
"}/	c #090126",
"|/	c #040118",
"1/	c #030113",
"2/	c #06011D",
"3/	c #0C012D",
"4/	c #100238",
"5/	c #1D0259",
"6/	c #34028F",
"7/	c #4A06AF",
"8/	c #290370",
"9/	c #27016F",
"0/	c #450284",
"a/	c #3A027C",
"b/	c #430298",
"c/	c #6805C9",
"d/	c #680BD2",
"e/	c #4104B3",
"f/	c #300299",
"g/	c #1F0375",
"h/	c #190242",
"i/	c #290266",
"j/	c #2C0275",
"k/	c #34028E",
"l/	c #46049F",
"m/	c #6D19BD",
"n/	c #6C24AE",
"o/	c #42246C",
"p/	c #2C184B",
"q/	c #0F0A29",
"r/	c #0C0822",
"s/	c #291842",
"t/	c #552979",
"u/	c #8B36C0",
"v/	c #7D1DD8",
"w/	c #7413D5",
"x/	c #881BD5",
"y/	c #7910C9",
"z/	c #5A05A7",
"A/	c #3C0281",
"B/	c #1C0256",
"C/	c #260272",
"D/	c #2C017D",
"E/	c #250266",
"F/	c #220273",
"G/	c #3902AF",
"H/	c #4503BF",
"I/	c #3801A7",
"J/	c #32009F",
"K/	c #6205CF",
"L/	c #5F07BF",
"M/	c #23016F",
"N/	c #39028A",
"O/	c #2A016E",
"P/	c #140163",
"Q/	c #290299",
"R/	c #090125",
"S/	c #02010F",
"T/	c #0C012C",
"U/	c #100138",
"V/	c #240171",
"W/	c #4203A4",
"X/	c #28026A",
"Y/	c #3A0277",
"Z/	c #440293",
"`/	c #5B04B3",
" (	c #7408D6",
".(	c #5D08CD",
"+(	c #3402AF",
"@(	c #3103A7",
"#(	c #1F027D",
"$(	c #11023D",
"%(	c #18023C",
"&(	c #230356",
"*(	c #22025A",
"=(	c #2C0371",
"-(	c #5902B5",
";(	c #6C0DC5",
">(	c #8D2FD1",
",(	c #652A9E",
"'(	c #3D2264",
")(	c #271744",
"!(	c #110B2C",
"~(	c #311C4A",
"{(	c #61298C",
"](	c #A141D3",
"^(	c #841ED9",
"/(	c #8A1FDA",
"((	c #8A21D1",
"_(	c #6F0FC3",
":(	c #460290",
"<(	c #1F0263",
"[(	c #29016F",
"}(	c #230260",
"|(	c #1C015F",
"1(	c #240187",
"2(	c #3601AF",
"3(	c #3C01B3",
"4(	c #3801A8",
"5(	c #3701A8",
"6(	c #3B01AA",
"7(	c #39028E",
"8(	c #210168",
"9(	c #2E0279",
"0(	c #1C015E",
"a(	c #12015C",
"b(	c #2B0280",
"c(	c #34026F",
"d(	c #14023C",
"e(	c #0B0129",
"f(	c #050118",
"g(	c #080224",
"h(	c #0E0231",
"i(	c #130140",
"j(	c #2A0283",
"k(	c #3C029B",
"l(	c #30027C",
"m(	c #42027D",
"n(	c #480190",
"o(	c #5B05AD",
"p(	c #7D0FCD",
"q(	c #790FD9",
"r(	c #4E06CA",
"s(	c #3502B7",
"t(	c #2B039F",
"u(	c #1D0273",
"v(	c #120244",
"w(	c #13023D",
"x(	c #1C0348",
"y(	c #24035F",
"z(	c #2C026E",
"A(	c #5303A8",
"B(	c #9020DB",
"C(	c #8522D2",
"D(	c #4E2980",
"E(	c #382057",
"F(	c #251744",
"G(	c #0F0B2C",
"H(	c #080820",
"I(	c #3E1D60",
"J(	c #64239C",
"K(	c #892DD0",
"L(	c #811BD7",
"M(	c #8518D9",
"N(	c #6911C0",
"O(	c #3E009E",
"P(	c #2E0274",
"Q(	c #100236",
"R(	c #150246",
"S(	c #22026B",
"T(	c #200179",
"U(	c #2C019E",
"V(	c #3101A7",
"W(	c #2D019A",
"X(	c #3101A1",
"Y(	c #3501AB",
"Z(	c #4602B8",
"`(	c #3D019D",
" _	c #190164",
"._	c #190263",
"+_	c #2E0275",
"@_	c #32026C",
"#_	c #1F0251",
"$_	c #1A024A",
"%_	c #100235",
"&_	c #0A0128",
"*_	c #0A0129",
"=_	c #0D0231",
"-_	c #140243",
";_	c #1D0160",
">_	c #34029A",
",_	c #310286",
"'_	c #280269",
")_	c #2C026A",
"!_	c #44028E",
"~_	c #4D01A5",
"{_	c #820FC6",
"]_	c #8A17D5",
"^_	c #650ED2",
"/_	c #4805CC",
"(_	c #3502B4",
"__	c #26028C",
":_	c #1A0343",
"<_	c #22025C",
"[_	c #29026E",
"}_	c #390288",
"|_	c #4F02AD",
"1_	c #7A17CE",
"2_	c #992ED8",
"3_	c #7A26B8",
"4_	c #482772",
"5_	c #2F1A4E",
"6_	c #271841",
"7_	c #0E0A23",
"8_	c #4A1E75",
"9_	c #571C9A",
"0_	c #6417BC",
"a_	c #7617D2",
"b_	c #7411CE",
"c_	c #4D05A4",
"d_	c #2A0176",
"e_	c #1D0255",
"f_	c #180253",
"g_	c #230264",
"h_	c #2A0266",
"i_	c #230269",
"j_	c #26028D",
"k_	c #3C02B8",
"l_	c #3B02B1",
"m_	c #280196",
"n_	c #2B0198",
"o_	c #3401A9",
"p_	c #4B02BA",
"q_	c #310181",
"r_	c #1E015D",
"s_	c #1B026D",
"t_	c #1F027B",
"u_	c #30027A",
"v_	c #2D0264",
"w_	c #210259",
"x_	c #24025E",
"y_	c #190247",
"z_	c #240270",
"A_	c #360298",
"B_	c #3E029D",
"C_	c #310275",
"D_	c #2D026E",
"E_	c #3F0295",
"F_	c #5502B4",
"G_	c #6C04BD",
"H_	c #A318D8",
"I_	c #620DCC",
"J_	c #4305CD",
"K_	c #4205C8",
"L_	c #290297",
"M_	c #18024F",
"N_	c #1C024A",
"O_	c #1A0241",
"P_	c #1D0251",
"Q_	c #240267",
"R_	c #390292",
"S_	c #6C0DC9",
"T_	c #8C2ECC",
"U_	c #6F3190",
"V_	c #331C58",
"W_	c #241542",
"X_	c #1C1231",
"Y_	c #4C1C81",
"Z_	c #43168A",
"`_	c #440CAB",
" :	c #5405C2",
".:	c #5205B7",
"+:	c #3B028F",
"@:	c #240166",
"#:	c #19024B",
"$:	c #240262",
"%:	c #260264",
"&:	c #220271",
"*:	c #2B0292",
"=:	c #3C02B1",
"-:	c #3802AA",
";:	c #2B02A1",
">:	c #2A0296",
",:	c #3902A4",
"':	c #27026C",
"):	c #190254",
"!:	c #200164",
"~:	c #1E017A",
"{:	c #1A0172",
"]:	c #2902A2",
"^:	c #310282",
"/:	c #2F0264",
"(:	c #1B014C",
"_:	c #2B0265",
"::	c #190249",
"<:	c #1B0252",
"[:	c #360290",
"}:	c #3E0296",
"|:	c #370281",
"1:	c #2B0270",
"2:	c #3B0294",
"3:	c #4F01B9",
"4:	c #6502C3",
"5:	c #880FCF",
"6:	c #9115D8",
"7:	c #4F07D0",
"8:	c #4205CB",
"9:	c #3702AC",
"0:	c #1B026C",
"a:	c #1D024E",
"b:	c #250258",
"c:	c #200361",
"d:	c #220263",
"e:	c #1E0256",
"f:	c #1C0351",
"g:	c #2A0181",
"h:	c #6608C9",
"i:	c #8621CE",
"j:	c #4C1C74",
"k:	c #221243",
"l:	c #1D1039",
"m:	c #1B102F",
"n:	c #4C1889",
"o:	c #2F0D7A",
"p:	c #3503A3",
"q:	c #4301A8",
"r:	c #360189",
"s:	c #1E0259",
"t:	c #2A018C",
"u:	c #2E0294",
"v:	c #3303AF",
"w:	c #3103AF",
"x:	c #2B0297",
"y:	c #3B02A5",
"z:	c #240266",
"A:	c #200184",
"B:	c #24018D",
"C:	c #3503B8",
"D:	c #390296",
"E:	c #40027B",
"F:	c #11023B",
"G:	c #2A0267",
"H:	c #47028E",
"I:	c #370278",
"J:	c #3D0385",
"K:	c #2B0268",
"L:	c #2C0181",
"M:	c #3A02A0",
"N:	c #4901B4",
"O:	c #7B0ACA",
"P:	c #8B18D5",
"Q:	c #7013D1",
"R:	c #4103C9",
"S:	c #2D028D",
"T:	c #19025A",
"U:	c #220257",
"V:	c #2A0265",
"W:	c #2C026C",
"X:	c #260268",
"Y:	c #21035B",
"Z:	c #240261",
"`:	c #250268",
" <	c #2A0278",
".<	c #4B0AA7",
"+<	c #7F1FD1",
"@<	c #951BDE",
"#<	c #571C85",
"$<	c #1A103B",
"%<	c #170D34",
"&<	c #0D081A",
"*<	c #0C0922",
"=<	c #521993",
"-<	c #2B0879",
";<	c #29018D",
"><	c #3901A7",
",<	c #4001A4",
"'<	c #3F0297",
")<	c #290268",
"!<	c #20025B",
"~<	c #23025A",
"{<	c #210254",
"]<	c #1C016C",
"^<	c #310199",
"/<	c #2E0293",
"(<	c #3703BF",
"_<	c #3604B9",
":<	c #330299",
"<<	c #37028F",
"[<	c #1D0168",
"}<	c #21017D",
"|<	c #2D01A2",
"1<	c #3F03C2",
"2<	c #4B03B8",
"3<	c #410187",
"4<	c #29025B",
"5<	c #440286",
"6<	c #340275",
"7<	c #2E026A",
"8<	c #25025B",
"9<	c #17024F",
"0<	c #21026B",
"a<	c #31018E",
"b<	c #33009B",
"c<	c #6605C1",
"d<	c #890FD8",
"e<	c #650DCE",
"f<	c #3E02C0",
"g<	c #3902B4",
"h<	c #300296",
"i<	c #25025E",
"j<	c #31027A",
"k<	c #280258",
"l<	c #240256",
"m<	c #2C036E",
"n<	c #330288",
"o<	c #4C04AC",
"p<	c #8627CE",
"q<	c #A131DF",
"r<	c #8520D5",
"s<	c #5618A0",
"t<	c #251845",
"u<	c #150D33",
"v<	c #0B081D",
"w<	c #0A0821",
"x<	c #48118B",
"y<	c #280573",
"z<	c #250180",
"A<	c #34019B",
"B<	c #3D0290",
"C<	c #190244",
"D<	c #200252",
"E<	c #210255",
"F<	c #19025C",
"G<	c #240280",
"H<	c #3602A8",
"I<	c #2F029A",
"J<	c #3102B3",
"K<	c #3A04C2",
"L<	c #1C0271",
"M<	c #3A02A1",
"N<	c #41029B",
"O<	c #19015C",
"P<	c #200176",
"Q<	c #3101AE",
"R<	c #4503CA",
"S<	c #5603C0",
"T<	c #490296",
"U<	c #280265",
"V<	c #220253",
"W<	c #2F025F",
"X<	c #1E0258",
"Y<	c #1C025D",
"Z<	c #250274",
"`<	c #3D0296",
" [	c #6405BC",
".[	c #8309D8",
"+[	c #6C06D5",
"@[	c #3F02C0",
"#[	c #3B02B2",
"$[	c #2F0299",
"%[	c #240274",
"&[	c #29026C",
"*[	c #2F0184",
"=[	c #27034E",
"-[	c #220347",
";[	c #230253",
">[	c #3C028C",
",[	c #5302B5",
"'[	c #7107D0",
")[	c #9626DB",
"![	c #9427DE",
"~[	c #6C19CC",
"{[	c #53259A",
"][	c #321D53",
"^[	c #140D31",
"/[	c #100D25",
"([	c #110C28",
"_[	c #42167B",
":[	c #260370",
"<[	c #24017B",
"[[	c #38029F",
"}[	c #300275",
"|[	c #180240",
"1[	c #1D024A",
"2[	c #1F0250",
"3[	c #1A024F",
"4[	c #2D0296",
"5[	c #3803AD",
"6[	c #290197",
"7[	c #3002AA",
"8[	c #22027A",
"9[	c #42029B",
"0[	c #2F0267",
"a[	c #21025A",
"b[	c #1B0160",
"c[	c #1C0169",
"d[	c #3601B3",
"e[	c #4E05D0",
"f[	c #6507CE",
"g[	c #52029C",
"h[	c #35017D",
"i[	c #3B026D",
"j[	c #350266",
"k[	c #35026D",
"l[	c #2B026D",
"m[	c #270170",
"n[	c #31027E",
"o[	c #3D0193",
"p[	c #5F05B3",
"q[	c #850FD2",
"r[	c #7F0EDA",
"s[	c #5905D1",
"t[	c #4404BE",
"u[	c #3A02A7",
"v[	c #31028C",
"w[	c #2A026C",
"x[	c #29026A",
"y[	c #2A027B",
"z[	c #230267",
"A[	c #1C023D",
"B[	c #1C033E",
"C[	c #1D0342",
"D[	c #210253",
"E[	c #4A01A2",
"F[	c #8509D8",
"G[	c #7806D7",
"H[	c #8813DB",
"I[	c #8111DF",
"J[	c #601AC5",
"K[	c #5C3195",
"L[	c #311B54",
"M[	c #170E31",
"N[	c #130D2D",
"O[	c #09081F",
"P[	c #5E298E",
"Q[	c #290173",
"R[	c #2C0289",
"S[	c #4802B8",
"T[	c #4201A4",
"U[	c #200159",
"V[	c #0D012B",
"W[	c #15023A",
"X[	c #1C024F",
"Y[	c #19024E",
"Z[	c #3403A8",
"`[	c #3603A7",
" }	c #280281",
".}	c #280293",
"+}	c #2A029B",
"@}	c #280287",
"#}	c #37026D",
"$}	c #24025A",
"%}	c #1A025A",
"&}	c #1F016C",
"*}	c #3802A9",
"=}	c #6508D7",
"-}	c #6805BA",
";}	c #5803A1",
">}	c #360282",
",}	c #1D0164",
"'}	c #4A028E",
")}	c #48028B",
"!}	c #37027D",
"~}	c #4C01A2",
"{}	c #5E02B8",
"]}	c #7608CC",
"^}	c #7D0FD9",
"/}	c #6F0FDA",
"(}	c #5B0AD1",
"_}	c #4A05BD",
":}	c #4502A4",
"<}	c #420289",
"[}	c #340271",
"}}	c #150237",
"|}	c #290261",
"1}	c #5C04B3",
"2}	c #5604B7",
"3}	c #7810D5",
"4}	c #8318DD",
"5}	c #5A1CBE",
"6}	c #57327B",
"7}	c #221345",
"8}	c #140D2A",
"9}	c #170F35",
"0}	c #5B2596",
"a}	c #330284",
"b}	c #3C01A4",
"c}	c #3C01A7",
"d}	c #360191",
"e}	c #20025A",
"f}	c #0F0130",
"g}	c #180242",
"h}	c #18034F",
"i}	c #3A03B5",
"j}	c #340299",
"k}	c #200264",
"l}	c #290290",
"m}	c #2B029C",
"n}	c #280286",
"o}	c #440289",
"p}	c #400277",
"q}	c #29025C",
"r}	c #190255",
"s}	c #340296",
"t}	c #5104CB",
"u}	c #5705D2",
"v}	c #6C08CE",
"w}	c #7B09C8",
"x}	c #6305B5",
"y}	c #2F018E",
"z}	c #3A0196",
"A}	c #51029F",
"B}	c #5E02A7",
"C}	c #5500A7",
"D}	c #6202B8",
"E}	c #6B04C5",
"F}	c #6F08D6",
"G}	c #6E0FDD",
"H}	c #690ED8",
"I}	c #4B05B7",
"J}	c #360285",
"K}	c #41027D",
"L}	c #2F0266",
"M}	c #130239",
"N}	c #120235",
"O}	c #17023E",
"P}	c #290263",
"Q}	c #5203BB",
"R}	c #6F0DD6",
"S}	c #7816D9",
"T}	c #5D23AE",
"U}	c #4C2C6C",
"V}	c #241544",
"W}	c #1C0D36",
"X}	c #1A0F3A",
"Y}	c #0D0A23",
"Z}	c #4E1894",
"`}	c #42039A",
" |	c #4601AA",
".|	c #4201A6",
"+|	c #42019C",
"@|	c #1D024B",
"#|	c #140240",
"$|	c #1A035D",
"%|	c #29048C",
"&|	c #3C03B6",
"*|	c #3A0299",
"=|	c #230282",
"-|	c #240279",
";|	c #350292",
">|	c #3A027D",
",|	c #430281",
"'|	c #2C0260",
")|	c #260271",
"!|	c #5405BB",
"~|	c #4A02C1",
"{|	c #5504C0",
"]|	c #7E0AD3",
"^|	c #7C08CF",
"/|	c #5D04BE",
"(|	c #5C05B8",
"_|	c #7208BD",
":|	c #8C0DC7",
"<|	c #8F0DCD",
"[|	c #7207CD",
"}|	c #6507D1",
"||	c #6A0ED6",
"1|	c #7714D4",
"2|	c #5906B8",
"3|	c #3A0289",
"4|	c #29035F",
"5|	c #2B035D",
"6|	c #310268",
"7|	c #13023B",
"8|	c #0F0231",
"9|	c #100232",
"0|	c #1A0248",
"a|	c #300273",
"b|	c #4C02B6",
"c|	c #5304C1",
"d|	c #6206D5",
"e|	c #6E18D1",
"f|	c #642E9F",
"g|	c #41265E",
"h|	c #1F123D",
"i|	c #120D29",
"j|	c #2A0E4E",
"k|	c #1B103D",
"l|	c #0F0A26",
"m|	c #540EA2",
"n|	c #4F02AA",
"o|	c #5702B6",
"p|	c #400295",
"q|	c #360283",
"r|	c #280262",
"s|	c #16024B",
"t|	c #250386",
"u|	c #3003A7",
"v|	c #3B03AF",
"w|	c #3A0293",
"x|	c #1E025D",
"y|	c #1E0271",
"z|	c #260286",
"A|	c #280182",
"B|	c #370280",
"C|	c #4D0291",
"D|	c #310265",
"E|	c #130243",
"F|	c #160151",
"G|	c #3A029A",
"H|	c #3901A8",
"I|	c #5E04C9",
"J|	c #6704D1",
"K|	c #6B06D1",
"L|	c #7D14D2",
"M|	c #8815D4",
"N|	c #9519D6",
"O|	c #8112D6",
"P|	c #730CD8",
"Q|	c #6C0CD1",
"R|	c #6409C5",
"S|	c #5306AA",
"T|	c #3F038D",
"U|	c #230351",
"V|	c #190243",
"W|	c #0D022D",
"X|	c #1B0249",
"Y|	c #5204BD",
"Z|	c #4101B7",
"`|	c #5F1AB5",
" 1	c #532C78",
".1	c #301A4E",
"+1	c #0F0B26",
"@1	c #3D1172",
"#1	c #1E0F42",
"$1	c #5906AA",
"%1	c #4E01AF",
"&1	c #5802B2",
"*1	c #5202AB",
"=1	c #270270",
"-1	c #1F0253",
";1	c #1A0269",
">1	c #29049A",
",1	c #3805BD",
"'1	c #2C027F",
")1	c #200364",
"!1	c #28027D",
"~1	c #250270",
"{1	c #33027B",
"]1	c #46028A",
"^1	c #310264",
"/1	c #1D024D",
"(1	c #2F0284",
"_1	c #4102B1",
":1	c #3401A7",
"<1	c #5502CB",
"[1	c #6A0FD2",
"}1	c #7110D9",
"|1	c #6508D5",
"11	c #6F0ED4",
"21	c #720FD1",
"31	c #6307BF",
"41	c #460299",
"51	c #3B028B",
"61	c #35027C",
"71	c #2C0366",
"81	c #250254",
"91	c #1F0246",
"01	c #180239",
"a1	c #100231",
"b1	c #0F0230",
"c1	c #0D022C",
"d1	c #0D022B",
"e1	c #240359",
"f1	c #33027C",
"g1	c #3A0292",
"h1	c #4B04AF",
"i1	c #660ACC",
"j1	c #5108AC",
"k1	c #380892",
"l1	c #551E98",
"m1	c #522A6F",
"n1	c #2C184D",
"o1	c #54169A",
"p1	c #291253",
"q1	c #0B0822",
"r1	c #6208B9",
"s1	c #5201BC",
"t1	c #4E01B4",
"u1	c #4602A2",
"v1	c #28026B",
"w1	c #15024B",
"x1	c #1C0273",
"y1	c #2E05AF",
"z1	c #3F06D2",
"A1	c #3503A4",
"B1	c #22036C",
"C1	c #1C0368",
"D1	c #170256",
"E1	c #24026D",
"F1	c #24026C",
"G1	c #2A0271",
"H1	c #3C027E",
"I1	c #340264",
"J1	c #20024A",
"K1	c #39029E",
"L1	c #3702AE",
"M1	c #3A02AF",
"N1	c #3E01AF",
"O1	c #3C02B6",
"P1	c #4402C6",
"Q1	c #5403D3",
"R1	c #4A03C6",
"S1	c #4604B8",
"T1	c #5106B6",
"U1	c #4802AF",
"V1	c #300285",
"W1	c #3F037A",
"X1	c #310361",
"Y1	c #120234",
"Z1	c #110236",
"`1	c #0F022F",
" 2	c #2F0466",
".2	c #49049C",
"+2	c #5103B1",
"@2	c #5705C2",
"#2	c #5005B2",
"$2	c #4A04A2",
"%2	c #5F15AF",
"&2	c #6A28A2",
"*2	c #532874",
"=2	c #281547",
"-2	c #100C2B",
";2	c #541D7C",
">2	c #501399",
",2	c #250F4F",
"'2	c #090821",
")2	c #7A0FD1",
"!2	c #6F06D4",
"~2	c #5202C0",
"{2	c #3F02A4",
"]2	c #410299",
"^2	c #3E0190",
"/2	c #27016C",
"(2	c #1B026E",
"_2	c #22028E",
":2	c #3305BF",
"<2	c #4105D1",
"[2	c #2D0280",
"}2	c #1F0460",
"|2	c #1A0263",
"12	c #110247",
"22	c #1C0263",
"32	c #250276",
"42	c #47028F",
"52	c #35035F",
"62	c #1A023C",
"72	c #1B025A",
"82	c #15023F",
"92	c #2F027F",
"02	c #3702A9",
"a2	c #3602B0",
"b2	c #3002A0",
"c2	c #3002A7",
"d2	c #3D02BD",
"e2	c #4202C4",
"f2	c #4101BA",
"g2	c #3701A3",
"h2	c #2B018F",
"i2	c #280177",
"j2	c #320368",
"k2	c #0F0237",
"l2	c #120238",
"m2	c #0F022B",
"n2	c #110230",
"o2	c #18023B",
"p2	c #1D0344",
"q2	c #3A0574",
"r2	c #5C08B8",
"s2	c #6105C8",
"t2	c #5503C0",
"u2	c #4102A0",
"v2	c #5102A9",
"w2	c #7E1ACC",
"x2	c #702BA6",
"y2	c #452167",
"z2	c #20123E",
"A2	c #6C1C9D",
"B2	c #4B1C8C",
"C2	c #29194B",
"D2	c #8714D9",
"E2	c #9013DD",
"F2	c #6103CC",
"G2	c #4D02B4",
"H2	c #41019D",
"I2	c #280279",
"J2	c #1B0269",
"K2	c #1E0277",
"L2	c #28029C",
"M2	c #3C06C9",
"N2	c #4205CE",
"O2	c #3A03AB",
"P2	c #2F037E",
"Q2	c #210461",
"R2	c #17025A",
"S2	c #150255",
"T2	c #190260",
"U2	c #20026B",
"V2	c #32028A",
"W2	c #4B029D",
"X2	c #40026C",
"Y2	c #2D0253",
"Z2	c #1A0256",
"`2	c #190250",
" 3	c #0D0227",
".3	c #2E028B",
"+3	c #3002A9",
"@3	c #2B029E",
"#3	c #3102A6",
"$3	c #4C04C4",
"%3	c #4902BE",
"&3	c #320194",
"*3	c #29027C",
"=3	c #210269",
"-3	c #190159",
";3	c #0F023A",
">3	c #110238",
",3	c #160237",
"'3	c #250353",
")3	c #310467",
"!3	c #400488",
"~3	c #5A06BF",
"{3	c #5A04C8",
"]3	c #5A02C4",
"^3	c #5B02BA",
"/3	c #6508B9",
"(3	c #9529DC",
"_3	c #682C9C",
":3	c #371A5A",
"<3	c #1A0F39",
"[3	c #0C0923",
"}3	c #8934B8",
"|3	c #422879",
"13	c #130D37",
"23	c #0E0A22",
"33	c #8111DA",
"43	c #981BDC",
"53	c #8A09DC",
"63	c #6E05C7",
"73	c #330290",
"83	c #30018A",
"93	c #250173",
"03	c #220281",
"a3	c #2D02A6",
"b3	c #4007D1",
"c3	c #3E05C9",
"d3	c #3A02A8",
"e3	c #330382",
"f3	c #21035E",
"g3	c #17035B",
"h3	c #180364",
"i3	c #2E0282",
"j3	c #45029A",
"k3	c #47027D",
"l3	c #370261",
"m3	c #160153",
"n3	c #120231",
"o3	c #1E0260",
"p3	c #29028A",
"q3	c #23028F",
"r3	c #270287",
"s3	c #4804B5",
"t3	c #22026C",
"u3	c #1D025A",
"v3	c #1B0258",
"w3	c #1B0253",
"x3	c #190346",
"y3	c #29025F",
"z3	c #5304C3",
"A3	c #5B03CA",
"B3	c #7103CF",
"C3	c #7B05D0",
"D3	c #7D1EC9",
"E3	c #9E3AD2",
"F3	c #6B2BA0",
"G3	c #311555",
"H3	c #180F36",
"I3	c #310F51",
"J3	c #7140BD",
"K3	c #211262",
"L3	c #190F43",
"M3	c #0F0C27",
"N3	c #961BDC",
"O3	c #A61ED9",
"P3	c #7309C2",
"Q3	c #380197",
"R3	c #25016D",
"S3	c #22026F",
"T3	c #3704B7",
"U3	c #4A0ADF",
"V3	c #4C09D0",
"W3	c #5406BB",
"X3	c #34047F",
"Y3	c #1B0353",
"Z3	c #210482",
"`3	c #180261",
" 4	c #1E0262",
".4	c #39028B",
"+4	c #550299",
"@4	c #440278",
"#4	c #29026D",
"$4	c #19025D",
"%4	c #0C012E",
"&4	c #0A0227",
"*4	c #28037C",
"=4	c #31039C",
"-4	c #27038B",
";4	c #2C028C",
">4	c #3E02AC",
",4	c #3D02AF",
"'4	c #2D0285",
")4	c #290277",
"!4	c #270271",
"~4	c #320379",
"{4	c #2C036D",
"]4	c #2C0270",
"^4	c #1C0253",
"/4	c #4302A6",
"(4	c #5502BC",
"_4	c #6903BA",
":4	c #7402C4",
"<4	c #7F1FCB",
"[4	c #8731C8",
"}4	c #65279B",
"|4	c #2E1256",
"14	c #411775",
"24	c #4A229D",
"34	c #28146D",
"44	c #1C124D",
"54	c #100D2A",
"64	c #9F2FDD",
"74	c #B035DB",
"84	c #B22BDA",
"94	c #7B0DC2",
"04	c #2C0272",
"a4	c #290175",
"b4	c #2B0289",
"c4	c #3102B0",
"d4	c #4608CE",
"e4	c #6511D9",
"f4	c #6D0ED1",
"g4	c #410591",
"h4	c #190362",
"i4	c #2C0599",
"j4	c #2D0273",
"k4	c #5A02A0",
"l4	c #46027F",
"m4	c #2B0271",
"n4	c #1E026C",
"o4	c #140248",
"p4	c #29047D",
"q4	c #2E058E",
"r4	c #25047D",
"s4	c #250280",
"t4	c #2E0296",
"u4	c #2E0297",
"v4	c #2C0293",
"w4	c #2B0296",
"x4	c #250289",
"y4	c #220275",
"z4	c #260274",
"A4	c #2C0384",
"B4	c #2F0290",
"C4	c #2F028D",
"D4	c #2A0284",
"E4	c #26027E",
"F4	c #1E0264",
"G4	c #240269",
"H4	c #3E019A",
"I4	c #4601AE",
"J4	c #3A029F",
"K4	c #5402AD",
"L4	c #6D03B6",
"M4	c #7C01C9",
"N4	c #8C1DD2",
"O4	c #7F2AC3",
"P4	c #581C94",
"Q4	c #140C31",
"R4	c #441484",
"S4	c #492189",
"T4	c #29166E",
"U4	c #1C1250",
"V4	c #110D2E",
"W4	c #BA3BDC",
"X4	c #C747DD",
"Y4	c #9C25D7",
"Z4	c #5F06B0",
"`4	c #34027B",
" 5	c #30028B",
".5	c #2D02A4",
"+5	c #4B08C9",
"@5	c #650FDB",
"#5	c #680BD4",
"$5	c #4503A1",
"%5	c #180259",
"&5	c #1D036E",
"*5	c #280592",
"=5	c #20057A",
"-5	c #140245",
";5	c #210257",
">5	c #3C027A",
",5	c #460285",
"'5	c #2E0266",
")5	c #1C0459",
"!5	c #2F0587",
"~5	c #270481",
"{5	c #1B0268",
"]5	c #1C0275",
"^5	c #1B0272",
"/5	c #1E0273",
"(5	c #200277",
"_5	c #200275",
":5	c #24027C",
"<5	c #240278",
"[5	c #1E0268",
"}5	c #210270",
"|5	c #2D027E",
"15	c #4101A3",
"25	c #5201B8",
"35	c #5D02B7",
"45	c #6B02B8",
"55	c #8004C8",
"65	c #9612D6",
"75	c #A932DB",
"85	c #8334C0",
"95	c #531698",
"05	c #281153",
"a5	c #581C95",
"b5	c #4A2081",
"c5	c #2E187A",
"d5	c #1B104D",
"e5	c #140E33",
"f5	c #AC2ADB",
"g5	c #A325DC",
"h5	c #740DC6",
"i5	c #390096",
"j5	c #2B0274",
"k5	c #2A0276",
"l5	c #4903B4",
"m5	c #4502CA",
"n5	c #5206D5",
"o5	c #5908D9",
"p5	c #5404CF",
"q5	c #380295",
"r5	c #200378",
"s5	c #290597",
"t5	c #290591",
"u5	c #200368",
"v5	c #1A0250",
"w5	c #3E027D",
"x5	c #49028C",
"y5	c #390373",
"z5	c #2A035B",
"A5	c #180342",
"B5	c #110242",
"C5	c #120247",
"D5	c #1F0463",
"E5	c #230477",
"F5	c #200374",
"G5	c #1A0265",
"H5	c #18025E",
"I5	c #150256",
"J5	c #1B026B",
"K5	c #1F0271",
"L5	c #22037C",
"M5	c #210474",
"N5	c #1B0260",
"O5	c #23027A",
"P5	c #29027E",
"Q5	c #3B0293",
"R5	c #5601B8",
"S5	c #7504CD",
"T5	c #8905D6",
"U5	c #8B05D5",
"V5	c #8305CE",
"W5	c #991CD5",
"X5	c #AE36DA",
"Y5	c #842DC3",
"Z5	c #49138C",
"`5	c #220F4A",
" 6	c #100732",
".6	c #63209C",
"+6	c #49207C",
"@6	c #2A1671",
"#6	c #180E4F",
"$6	c #160F3A",
"%6	c #7810B9",
"&6	c #8410D2",
"*6	c #6B0AB8",
"=6	c #320185",
"-6	c #3A0294",
";6	c #4202A6",
">6	c #5604CD",
",6	c #690CDE",
"'6	c #640BDA",
")6	c #5305D9",
"!6	c #4702C5",
"~6	c #30028E",
"{6	c #250287",
"]6	c #2A0394",
"^6	c #2F059B",
"/6	c #2E0482",
"(6	c #2C026B",
"_6	c #390280",
":6	c #380278",
"<6	c #300266",
"[6	c #21034E",
"}6	c #17023B",
"|6	c #12023E",
"16	c #15024E",
"26	c #12024A",
"36	c #13024D",
"46	c #1A035B",
"56	c #1E0364",
"66	c #200367",
"76	c #1F0267",
"86	c #2B027E",
"96	c #4802A2",
"06	c #7401CD",
"a6	c #960DD9",
"b6	c #A216DD",
"c6	c #920BDA",
"d6	c #7603CA",
"e6	c #8E0FD1",
"f6	c #9927D1",
"g6	c #7022AC",
"h6	c #3D1973",
"i6	c #1E113E",
"j6	c #1B074B",
"k6	c #5E1F99",
"l6	c #4A207C",
"m6	c #261462",
"n6	c #170D4C",
"o6	c #180F42",
"p6	c #160D43",
"q6	c #170C50",
"r6	c #3D1582",
"s6	c #40177C",
"t6	c #380F75",
"u6	c #310285",
"v6	c #4402A8",
"w6	c #5F06D1",
"x6	c #7412DB",
"y6	c #6C0FDC",
"z6	c #4D03D4",
"A6	c #3D02B7",
"B6	c #320294",
"C6	c #280283",
"D6	c #2C0296",
"E6	c #2D0395",
"F6	c #380591",
"G6	c #340380",
"H6	c #170249",
"I6	c #1A0255",
"J6	c #30036D",
"K6	c #2B0364",
"L6	c #1F0245",
"M6	c #190344",
"N6	c #17024B",
"O6	c #100240",
"P6	c #120343",
"Q6	c #140348",
"R6	c #0E023A",
"S6	c #0C0234",
"T6	c #170345",
"U6	c #12023A",
"V6	c #140241",
"W6	c #26017D",
"X6	c #290281",
"Y6	c #340282",
"Z6	c #5E02AF",
"`6	c #AF18DC",
" 7	c #A91DDE",
".7	c #9F1FDE",
"+7	c #8B0CDA",
"@7	c #6901C0",
"#7	c #881BCF",
"$7	c #8C38C8",
"%7	c #5A2B8E",
"&7	c #281752",
"*7	c #140E30",
"=7	c #36077E",
"-7	c #581F91",
";7	c #481F75",
">7	c #2A1568",
",7	c #180D51",
"'7	c #180F44",
")7	c #160B49",
"!7	c #130A4A",
"~7	c #2E176B",
"{7	c #53298A",
"]7	c #4F237E",
"^7	c #4E0EA5",
"/7	c #7911D1",
"(7	c #7E13D1",
"_7	c #6806D4",
":7	c #6309D9",
"<7	c #5F0ADB",
"[7	c #4B03D3",
"}7	c #4102BC",
"|7	c #3902A1",
"17	c #30028F",
"27	c #3102A7",
"37	c #290292",
"47	c #3C039A",
"57	c #4A049E",
"67	c #23026C",
"77	c #300376",
"87	c #2E0267",
"97	c #25034E",
"07	c #170242",
"a7	c #130248",
"b7	c #0E0239",
"c7	c #08022A",
"d7	c #080225",
"e7	c #0D022A",
"f7	c #220176",
"g7	c #260174",
"h7	c #380185",
"i7	c #6D06B6",
"j7	c #9913D9",
"k7	c #8915D9",
"l7	c #710AD3",
"m7	c #6A07C9",
"n7	c #590CAB",
"o7	c #7628BF",
"p7	c #6437AF",
"q7	c #211261",
"r7	c #180F40",
"s7	c #0F0B25",
"t7	c #7605CA",
"u7	c #551D8A",
"v7	c #50267E",
"w7	c #2F1672",
"x7	c #160B4B",
"y7	c #170D46",
"z7	c #130B39",
"A7	c #160E3A",
"B7	c #180F3E",
"C7	c #43296C",
"D7	c #73429C",
"E7	c #6D2DA6",
"F7	c #7509D8",
"G7	c #800FDC",
"H7	c #B524DF",
"I7	c #810ECB",
"J7	c #4F03C4",
"K7	c #4402BA",
"L7	c #4302BA",
"M7	c #3D01A9",
"N7	c #320299",
"O7	c #30029F",
"P7	c #270292",
"Q7	c #4002A5",
"R7	c #6B08BB",
"S7	c #58059F",
"T7	c #280271",
"U7	c #25026D",
"V7	c #380280",
"W7	c #410288",
"X7	c #3C0275",
"Y7	c #3C026B",
"Z7	c #190340",
"`7	c #17023F",
" 8	c #0A022E",
".8	c #080226",
"+8	c #0D022F",
"@8	c #14023A",
"#8	c #1C0166",
"$8	c #1F0164",
"%8	c #2F017D",
"&8	c #4C00AB",
"*8	c #7607CF",
"=8	c #6C06D1",
"-8	c #4701B6",
";8	c #4E109E",
">8	c #5720A2",
",8	c #401E8B",
"'8	c #241364",
")8	c #181043",
"!8	c #3E0B70",
"~8	c #770AC9",
"{8	c #6B2EA4",
"]8	c #442971",
"^8	c #170F3D",
"/8	c #170D3C",
"(8	c #140C3A",
"_8	c #0F0C24",
":8	c #180F39",
"<8	c #33205A",
"[8	c #4C2E73",
"}8	c #6D2C9F",
"|8	c #9421E0",
"18	c #7D11D9",
"28	c #C33CDB",
"38	c #A71BDB",
"48	c #5500AF",
"58	c #2E0373",
"68	c #38027F",
"78	c #30017C",
"88	c #3A0399",
"98	c #3A02B0",
"08	c #3402AC",
"a8	c #4102B4",
"b8	c #840FCD",
"c8	c #7E0CC0",
"d8	c #43038C",
"e8	c #4A029B",
"f8	c #480293",
"g8	c #3C0274",
"h8	c #2A035A",
"i8	c #22024F",
"j8	c #190342",
"k8	c #0C022E",
"l8	c #0A022D",
"m8	c #0F0236",
"n8	c #16023F",
"o8	c #1B0347",
"p8	c #2D0181",
"q8	c #5B02B7",
"r8	c #950FD9",
"s8	c #7308D0",
"t8	c #42029F",
"u8	c #501794",
"v8	c #4F1F8F",
"w8	c #391B7A",
"x8	c #22145E",
"y8	c #170F3F",
"z8	c #560B92",
"A8	c #53179B",
"B8	c #552987",
"C8	c #2B1B57",
"D8	c #170F38",
"E8	c #110D29",
"F8	c #150F31",
"G8	c #39245B",
"H8	c #331F55",
"I8	c #793D98",
"J8	c #BD49E2",
"K8	c #B93EDB",
"L8	c #CC4CDD",
"M8	c #8C15D5",
"N8	c #3C009E",
"O8	c #23026A",
"P8	c #2C0274",
"Q8	c #300277",
"R8	c #5302CA",
"S8	c #690CDF",
"T8	c #600BD2",
"U8	c #4E03CD",
"V8	c #750FCB",
"W8	c #8911C7",
"X8	c #4F049C",
"Y8	c #3D0293",
"Z8	c #41029D",
"`8	c #5102A4",
" 9	c #410284",
".9	c #2E0364",
"+9	c #2F045F",
"@9	c #270356",
"#9	c #13023F",
"$9	c #100239",
"%9	c #18033F",
"&9	c #1A0245",
"*9	c #21035C",
"=9	c #7B06CD",
"-9	c #A213DC",
";9	c #6605C2",
">9	c #3B019A",
",9	c #220460",
"'9	c #4B2082",
")9	c #32197A",
"!9	c #1F1256",
"~9	c #150F39",
"{9	c #4E05A4",
"]9	c #511297",
"^9	c #3E2267",
"/9	c #32205B",
"(9	c #160F37",
"_9	c #110E29",
":9	c #110E2A",
"<9	c #0F0C26",
"[9	c #130F2B",
"}9	c #322154",
"|9	c #322151",
"19	c #743894",
"29	c #B631E2",
"39	c #BC34DC",
"49	c #AB29DF",
"59	c #740CC8",
"69	c #370093",
"79	c #220269",
"89	c #5301CB",
"99	c #710FDA",
"09	c #7C17DC",
"a9	c #5304DD",
"b9	c #4302C8",
"c9	c #4403AF",
"d9	c #3F0398",
"e9	c #2D027F",
"f9	c #240371",
"g9	c #2F0186",
"h9	c #410198",
"i9	c #3D028E",
"j9	c #2B026E",
"k9	c #2B0360",
"l9	c #29025D",
"m9	c #240260",
"n9	c #1F0358",
"o9	c #16033B",
"p9	c #17023D",
"q9	c #1C0248",
"r9	c #220355",
"s9	c #2E0371",
"t9	c #380289",
"u9	c #3A028E",
"v9	c #420195",
"w9	c #6804B5",
"x9	c #8D0FD1",
"y9	c #6B08B8",
"z9	c #33028A",
"A9	c #3A0E74",
"B9	c #5C2095",
"C9	c #451E79",
"D9	c #28156C",
"E9	c #180E4D",
"F9	c #1B0E47",
"G9	c #6201C9",
"H9	c #541298",
"I9	c #37215A",
"J9	c #31205B",
"K9	c #171032",
"L9	c #120F29",
"M9	c #100D29",
"N9	c #0E0B23",
"O9	c #100C28",
"P9	c #32214F",
"Q9	c #2C2046",
"R9	c #6C2B8E",
"S9	c #AB1AE2",
"T9	c #8E11D8",
"U9	c #8D11DC",
"V9	c #7F0FCD",
"W9	c #360188",
"X9	c #3A0199",
"Y9	c #5002BB",
"Z9	c #5C04CC",
"`9	c #5D05D6",
" 0	c #620ADA",
".0	c #5707DB",
"+0	c #4301D0",
"@0	c #4602BD",
"#0	c #3A01A5",
"$0	c #2D0281",
"%0	c #32038D",
"&0	c #32029C",
"*0	c #350293",
"=0	c #37047D",
"-0	c #2C027B",
";0	c #2F0289",
">0	c #280264",
",0	c #28026E",
"'0	c #170246",
")0	c #1C0252",
"!0	c #20034D",
"~0	c #21034D",
"{0	c #270261",
"]0	c #3C019C",
"^0	c #33017D",
"/0	c #6705AF",
"(0	c #8A0FD1",
"_0	c #7409C0",
":0	c #4A02A1",
"<0	c #4C1590",
"[0	c #531F88",
"}0	c #3E1B71",
"|0	c #21115B",
"10	c #180E49",
"20	c #240B64",
"30	c #7002D5",
"40	c #5E149A",
"50	c #291C4A",
"60	c #311F57",
"70	c #150F2F",
"80	c #0F0C23",
"90	c #100D26",
"  . + @ # $ % & * = - ; > , ' ) ! ~ { ] ^ / ( _ : < [ } | 1 2 3 4 5 6 7 8 9 0 a b c d e f g h i j k l m n g o p q - r s t u v w ",
"x y z u A B C * D m E F G H I J K L M N O P Q R S T U V W X Y Z `  ...+.@.#.$.%.&.*.=.-.;.>.,.'.).!.~.{.].^./.(._.:.<.[.}.|.1.v ",
"2.3.4.5.6.7.8.9.8.0.a.b.c.d.e.f.g.h.i.j.k.l.m.n.o.p.q.r.s.t.u.v.w.x.y.z.A.B.C.D.E.F.G.H.I.J.K.L.M.N.O.P.Q.R.+.S.T.U.V.W.X.Y.Z.`.",
" +.+++A @+#+$+%+s &+*+=+-+;+>+,+'+)+!+~+{+]+^+/+(+_+:+<+[+}+|+1+2+3+4+5+6+7+8+9+0+a+b+c+d+e+f+g+h+i+j+k+l+m+n+o+p+q+r+s+s+t+ +u+",
"v+w+x+y+<.z+A+B+C+D+E+F+G+H+I+J+K+L+M+N+O+P+Q+R+S+T+U+V+W+X+Y+Z+`+ @.@+@@@#@$@%@&@*@=@-@;@>@,@'@)@!@~@{@]@^@/@(@_@:@<@[@}@<.|@1@",
"}.2@& A 3@4@5@6@7@8@9@0@a@b@c@d@e@f@g@h@i@j@k@l@m@n@o@p@q@r@s@t@u@v@w@x@y@z@A@B@C@D@E@F@G@H@I@J@K@L@M@N@O@P@Q@R@S@T@6.U@V@W@X@Y@",
"}.1@9.Z@`@ #$ .#+#0.@###$#%#&#*#=#-#;#>#,#'#)#!#~#{#]#^#/#(#_#:#<#[#}#|#1#2#3#4#5#6#7#8#9#0#a#b#c#d#e#f#g#h#i#j#k#l#m#n#y+E o#p#",
"q#= = r#s#t#u#v#+#w#x#y#z#A#B#C#D#E#F#G#H#I#J#K#L#M#N#O#P#Q#R#S#T#U#V#W#X#Y#Z#`# $.$+$@$#$$$%$&$*$=$-$;$>$,$'$)$!$~$].{$]$^$/$B ",
"o#D ($_$:$<$[$8@`@}$|$1$2$3$4$5$6$7$8$9$0$a$b$c$d$e$f$g$h$i$j$k$l$m$n$o$p$q$r$s$t$u$v$w$x$y$z$A$B$C$D$E$F$G$H$I$J$K$L$M$N$O$P$Q$",
"* R$<.S$T$U$V$W$X$Y$Z$`$ %.%+%@%#%$%%%&%*%=%-%;%>%,%'%)%E#!%~%{%]%^%/%(%_%:%<%[%}%|%1%2%3%4%5%6%7%8%9%0%a%b%c%d%e%f%g%h%i%j%k%l%",
"r+m%n%o%p%q%r%s%t%u%v%w%x%y%z%A%B%C%D%E%F%G%H%I%J%K%L%M%^#N%O%P%Q%R%S%T%U%V%W%X%Y%Z%`% &.&+&@&#&$&%&&&*&=&-&;&g$>&,&'&)&!&~&{&w ",
"]&^&[$/&(&_&[$w :&<&[&}&|&1&2&3&4&5&6&7&8&9&0&a&{#b&c&d&e&f&g&h&i&j&k&l&m&n&o&p&q&r&s&t&u&v&w&x&y&z&A&B&C&D&E&F&k@G&H&I&J&K&L&M&",
"N&O&P&Q&R&r%D+S&o$T&U&V&W&X&Y&Z&i@`& *.*+*@*#*$*%*&***=*-*;*>*,*'*)*!*~*{*]*^*/*(*_*:*5%<*[*}*|*1*2*3*4*5*6*7*8*9*0*a*b*c*d*e*f*",
"$ g*Q&}@h*i*j*k*l*m*n*o*p*q*r*s*t*u*v*w*x*y*z*A*B*C*D*E*F*G*H*I*J*K*L*M*N*O*P*Q*R*S*T*U*V*W*X*Y*Z*`* =.=+=@=#=$=%=&=*===-=;=>=,=",
"$ '=)=!=~={=]=^=/=(=_=:=<=[=}=|=1=2= *L%3=4=5=6=h$7=8=9=0=a=b=c=d=e=f=g=h&h=i=j=5=k=l=m=n=o=p=q=r=s=t=u=v=w=x=y=z=A=B=C=D=E=F=G=",
"H=D+I=7@<.n%J=K=L=M=N=O=P=Q=R=S=T=U=V=W=X=Y=Z=`= -.-+-@-#-$-%-&-*-=---;->-,-'-)-!-~-{-]-^-/-(-_-:-<-[-}-|-1-2-3-4-5-6-7-8-9-0-a-",
"u#b-c-v#d-U$e-f-g-h-i-j-k-l-m-n-o-p-~-q-r-s-t-u-a*v-w-x-y-z-A-B-C-D-E-F-G-H-I-J-K-L-p-M-N-O-P-Q-R-S-T-U-V-W-X-Y-Z-`- ;.;+;@;#;$;",
"%;&;}@*;_$=;-;;;>;,;';);!;~;{;];^;/;%*(;r-_;:;<;[;};|;1;2;3;4;5;6;7;8;9;0;a;b;c;d;e;f;g;h;i;j;k;l;m;n;o;p;q;r;s;t;u;v;w;x;y;z;A;",
"B;C;D;<.E;F;G;H;I;J;K;L;M;=&N;O;P;Q;Q;R;S;T;U;V;W;X;Y;Z;`; >.>+>@>#>$>%>&>*>=>->;>>>,>'>)>!>~>{>]>^>/>(>_>:><>[>}>|>1>2>3>4>5>6>",
"7>V$[$8>9>0>a>b>c>d>e>f>g>h>i>j>k>l>m>n>o>p>q>r>s>t>u>v>w>x>y>z>A>B>C>D>E>F>G>H>I>J>K>L>M>N>O>P>J>Q>R>S>T>U>V>W>X>Y>Z>`> ,.,+,@,",
"#,$,%,&,*,=,-,;,>,,,',),!,~,];{,],M>^,/,(,_,:,<,[,},v>|,y>1,2,3,4,5,6,7,8,9,0,a,b,c,x*R+d,e,f,g,h,i,J>j,k,r&l,m,n,o,p,q,r,s,t,u,",
"v,Y@w,x,y,z,A,B,C,D,E,F,G,H,I,J,K,L,M,m@N,O,P,9&Q,R,S,T,U,V,W,X,Y,Z,`, '.'+'@'#'$'@*%'&'*'='-';'>',''')'!'~'0*{']'^'/'('_':'<'['",
"r%1@}'|'1'2'3'4'5'6'7'8'9'0'a'b'c'd'e'f''>g'h'i'j'k'l'm'n'o'p'q'r's't'u'v'w'x'y'z'A')>B'C'>>D'E'F'G'H'I'J'K'L'M'N'O'P'Q'R'S'T'U'",
"Q&V'W'X'Y'Z'`' ).)+)@)#)$)c'%)&)*)=)e'-);)>),)')))!)~){)])^)/)()_):)<)[)})|)1)2)3)4)5)_,6)P#7)8)9)0)a)b)c)d)e)f)g)h)i)j)k)l)m)n)",
"o)p)q)r)s)t)u)v)w)x)y)z)A)B)>#C)D)E)F)G)H)I)J)K)L)M)N)O)P)Q)s;R)S)T)U)V)W)X)Y)Z)`) !.!+!T+@!#!$!%!&!*!=!-!;!>!,!'!)!!!~!{!]!^!/!",
"(!s X$_!:!<![!}!6*|!1!2!3!4!Y;5!6!7!8!9!0!a!b!c!d!e!f!g!h!i!j!k!l!m!n!o!p!q!r!s!t!u!v!w!x!y!z!A!B!C!D!E!=!u*F!G!H!I!J!K!L!M!N!$+",
"*;O!P!Q!R!S!T!U!V!W!X!Y!Z!`! ~.~+~>*@~#~$~%~&~*~=~-~;~>~,~'~)~!~~~4!{~k=]~L+^~/~(~_~:~<~[~}~|~1~2~3~4~5~6~I%n!7~8~9~0~a~b~c~d~e~",
"r f~g~h~i~j~k~l~m~n~o~p~q~C*r~s~t~u~v~w~x~y~z~A~B~C~D~E~F~R-0*G~k>`;H~I~<~U+J~K~L~M~N~O~P~Q~R~S~T~U~V~W~6~X~z*Y~Z~`~ {.{+{@{#{${",
"%{X'&{*{={-{;{>{,{'{){!{~{{{]{!#^{/{({o,_{:{<{[{}{|{1{2{3{4{@*M-5{6{Q>>!x!7{8{9{0{a{b{R*c{d{e{f{t-U~g{h{i{j{k{l{m{n{o{p{q{r{s{l ",
"F t{u{v{w{x{y{z{A{'{B{C{D{E{F{G{H{I{J{K{L{l.M{N{O{P{Q{R{S{v>T{U{V{a'W{X{d'Y{Z{`{ ].]+]@]8!#]$]%]&]*]=]-];]>],]'])]!]~]{]]]^]/](]",
"_]:]<][]}]|]1]2]3]V;4]5]3=(;6]7]8]9]0]a]b]c]d]e]f]g]&%h]i]j]k]l]_,m]o-n]o]p]q]r]s]t]u]4]v]w]&-x]L'C!y]&'z]A]B]C]h=D]E]F]G]H]I]J]",
"K]L]M]N]O]P]Q]_>R]4]S]T]U]/#V]W]X]Y]Z]`] ^.^+^@^#^$^%^&^*^g',>=^-^m@S+;^d'O%>^,^'^)^!^~^{^]^^^/^0&(^_^:^<^[^}^|^1^&)2^3^4^5^6^7^",
"8^9^0^a^b^c^d^e^f^g^h^i^j^k^J-l^m^n^o^p^q^r^s^t^4&u^v^d)w^x^y^z^A^B^C^D^E^F^G^=&H^I^J^)]K^L^M^N^k,O^P^Q^R^S^T^U^V^W^X^Y^Z^`^ # /",
"./+/@/#/$/%/x&&/*/=/-/5!;/>/c&,/V,'/)/!/~/{/]/^///(/_/:/</[/}/|/1/2/3/4/5/6/7/8/9/0/a/b/c/d/e/f/g/C!'>Q^h/5]i/j/k/l/m/n/o/p/q/r/",
"s/t/u/v/w/x/y/z/A/C]B/C/D/E/F/G/H/m^I/J/K/L/M/N/O/P/Q/1^T)e$R/1/S/2/T/U/V/W/l/X/Y/0/Z/`/ (.(+(@(#(=]$(p-%(&(*(=(-(;(>(,('()(!(6.",
"~({(](^(/(((_(:(h]W=<([(}(|(1(2(3(4(5(6(q!7(8(9(0(a(b(c(W=d(e(f(f(g(h(i(j(k(l(r@m(n(o(p(q(r(s(t(u(v(w(j{x(y(z(A(3$B(C(D(E(F(G(H(",
"I(J(K(L(M(N(O(P(Q(R(S(&*,#T(U(V(W(X(Y(Z(`(-&b{C) _._+_@_#_$_%_&_*_=_-_;_>_,_'_)_!_~_{_]_^_/_(___*'/,L-:_<_[_}_|_1_2_3_4_5_6_M&7_",
"8_9_0_a_b_c_d_e_K%f_g_h_i_j_k_l_m_n_o_p_q_r_V]%)s_t_u_v_w_x_y_h(=)K-z_A_B_C_D_E_F_G_H_I_J_K_L_/-M_N_O_P_Q_S)U^R_S_T_U_V_W_e-X_z+",
"Y_Z_`_ :.:+:@:#:d'_;$:%:&:*:=:-:;:>:,:f@':):!:~:{:]:^:/:(:m{_:::<:i_[:}:|:1:2:3:4:5:6:7:8:9:0:R+a:b:7~c:d:e:f:g:h:i:j:k:l:m:}'m%",
"n:o:p:W,q:r:5!^#s:A'S{{~t>t:u:v:w:x:y:B_z:#*O-A:B:C:D:E:F:G:H:I:4]G*J:K:5!L:M:N:O:P:Q:R:k_S:T:U:V:W:X:Y:Z:`: <.<+<@<#<$<%<J=&<*<",
"=<-<;<><,<'<)<W=!<~<{<T:]<^</<(<_<__:<<<@!5/[<}<|<1<2<3<h]4<5<6<7<7$8<9<0<a<b<c<d<e<f<g<h<];i<j<j<D_k<l<m<n<o<p<q<r<s<t<u<v<r w<",
"x<y<z<A<)*B<t~C<D<E<T)F<G<H<I<J<K<L<M<N<|^E%O<P<Q<R<S<T<U<V<W<4<i^X<Y<c,Z<`< [.[+[@[#[$[%[X<&[*[D#=[-[;[>[,['[)[![~[{[][^[/[([g ",
"_[:[<[[[=&}[|[[/1[2[3[G%4[5[$[6[7[8[X]9[0[a[b[c[d[e[f[g[h[Z:i[j[k[l[m[n[o[p[q[r[s[t[u[v[w[x[y[z[A[B[C[D[E[F[G[H[I[J[K[L[M[5.N[O[",
"P[Q[R[S[T[U[V[W[!#X[Y[/-Z[`[ }.}+}@}a=h&#}$}%}&}*}e[=}-};}>},}!^'})}!}~}{}]}^}/}(}_}:}<}[}W:%:!#}}%(7!|}T<1}2}3}4}5}6}7}8}v<9}- ",
"0}a}b}c}d}e}f}g}e&<:h}a'i}j}k}l}m}n}){o}p}q}r}G~s}t}u}v}w}x}y}z}A}B}C}D}E}F}G}H}I}J}J^K}L}D<!-f;M}N}O}P}j<z}Q}R}S}T}U}V}8}W}X}Y}",
"Z}`} |.|+|}~@|g}#|K>$|%|&|*|B/=|m}-|;|>|,|'|!<o])|!|~|{|]|^|/|(|_|:|<|[|}|||1|2|3|4|5|6|S]7|8|Q(8|9|0|a|Y;b|c|d|e|f|g|h|i|j|k|l|",
"m|n|o|z~p|q|r|::s|q>t|u|v|w|x|y|z|S>A|B|C|D|g$E|F|G|V,H|I|J|K|L|M|N|O|P|Q|R|S|T|~^b:A*U|V|V=,%W|8|X|D#J}k/r;Y|Z|`| 1.1@ +1@1#1${",
"$1%1&1*1=1j^-1Y[F<;1>1,1`['1)1]-j,!1~1{1]1^1/1B'K>(1_1:1Q=<1o'[1}1|111213141516171819101a1b1c1d1N}e1f1g1h1i1j1k1l1m1n1N[X#o1p1q1",
"r1s1t1u1H~v13[w1a'x1y1z1A1#)B1C1D1E1F1G1H1I1J1R+I~j^K1L1M1N1O1P1Q1R1S1T1U1V1O%W1X1z]Y1Z1X~Q(`1`1>] 2.2+2@2#2$2%2&2*2=2-2;2>2,2'2",
")2!2~2{2]2^2/2N-(2_2:2<2^%[2}2|2122232n&42526272d'829202a2b2c2d2e2f2g2h2/>i2a|j25=k24/~#l2m2n2o2p2q2r2s2t2u2v2w2x2y2z2${A2B2C2h ",
"D2E2F2G2o.H2I2J2K2L2M2N2O2P2Q2R2S2T2U2V2W2X2Y2Z2`2 3g$.3+3@3#3$3%3&3*3=3='-3.!6)e);3>3'%`15#,3'3)3!3~3{3]3^3/3(3_3:3<3[3}3|31323",
"33435363738393J203a3b3c3d3e3f3g3h3M-72i3j3k3l3!<m3n3~#o3p3q3r3s3p'~~t3U)u3R+v3O~w3x31[h/|[F{5=y3v]`}z3A3B3C3D3E3F3G3H3I3J3K3L3M3",
"])N3O3P3Q3Q[R3S3i$T3U3V3W3X3Y3(^Z3`3`& 4.4+4@4#4$4%4&4>!*4=4-4;4>4,4{''4G,)4!4x[~4{4]4f3s:^46]%:51/4S[(4_4:4<4[4}4|46^1424344454",
"64748494@~6104a4b4c4d4e4f4g4w1h4i4''m@d'j4k4l4m4n4o4W|k>P#p4q4r4s4t4u4v4w4x4y4z4A4B4C4D4E4F4Z=G4H4I4J4K4L4M4N4O4P4+@Q4R4S4T4U4V4",
"W4X4Y4Z4'*`4)#w! 5.5+5@5#5$5%5&5*5=5-5{#;5>5,5'5!<6]f$-]^;)5!5~5{5''[,T*]5^5/5(5_5:5 }<5[5}5-||515253545556575859505q/a5b5c5d5e5",
"f5g5h5i5=1j5}[k5l5m5n5o5p5q5n4r5s5t5u5v5r-w5x5y5z5A5[/6&B5C5D5E5F5G5H5t*I5J5K5L5M5S3<(='N5O5P5Q5R5S5T5U5V5W5X5Y5Z5`5 6.6+6@6#6$6",
"%6&6*6=6J-b%-6;6>6,6'6)6!6~6J>{6]6^6/64{d'(6_6:6<6[6O_}6|67&0)w*m]H%162636N-465666_;d'6{76_*869606a6b6c6d6e6f6g6h6i6j6k6l6m6n6o6",
"p6q6r6s6t6u6v6~2w6x6y6z6A6B6C6D6>:E6F6G6H6I6:~ ~J6K6'3L6M6N6`&O6P6Q6B5R6S6$(M#T6w(U6V6='W6X6Y6Z6`6 7.7+7@7#7$7%7&7*7=7-7;7>7,7'7",
")7!7~7{7]7^7/7(7_7:7<7[7}7|717u-27374757z(H%67k577u~87979107w(K%F:a7b7c7d78|X~N}e7b1Y[U2f7g7h7i7j7k7l7m7n7o7p7q7r7s7t7u7v7w7x7y7",
"z7A7B7C7D7E7F7G7H7I7J7K7L7M7N;N7O7P7Q7R7S7T7l]U7+]V7W7X7Y7Z7`7g}>3J% 8.8+8X~@8V=e$!#!<@*#8$8%8&8*8=8-8d=;8>8,8'8)8!8~8{8]8^8/8(8",
"_8R$:8<8[8}8|818283848586878h$889808a8b8c8d8];o3!<>|e8f8g8h8i8[6j8;%k8l8m8X~n8M}o8D<X[C'f_x|p8q8r8s8t8J-u8v8w8x8y8z8A8B8C8D8_8_8",
"E8R$F8G8H8I8J8K8L8M8N8O8P8Q8i3R8S8T8U8V8W8X8J-.!P#u^Y8Z8`8 9.9+9@9e&#9m@$9Q^W=%9<^&9y**9}(P8]2=9-9;9>9,9k6'9)9!9~9{9]9^9/9(9_9_8",
":9<9[9}9|91929394959691^79-6&=899909a9b9c9d9e9f9G!v1)^g9h9i9j9k9l9m9n9,>,>5&::o9p9q9r9s9t9u9v9w9x9y9z9A9B9C9D9E9F9G9H9I9J9K9L9_8",
"M9N9O9P9Q9R9S9T9U9V9W9E/U7X9Y9Z9`9 0.0+0@0#0$0%0*}&0*0=0-06/;0S)>004,0'0^#)0y_!0~0S^{08~]0d}^0/0(0_0:0<0[0}0|0102030405060708090"};
