/* XPM */
static char * portal_rot12_xpm[] = {
"64 64 2670 2",
"  	c #0C061E",
". 	c #0C051D",
"+ 	c #0B051B",
"@ 	c #0B061D",
"# 	c #060414",
"$ 	c #060415",
"% 	c #060418",
"& 	c #03030F",
"* 	c #02020C",
"= 	c #040311",
"- 	c #040314",
"; 	c #070417",
"> 	c #050313",
", 	c #02020B",
"' 	c #050315",
") 	c #1C0A3D",
"! 	c #210853",
"~ 	c #1E054D",
"{ 	c #14033B",
"] 	c #170332",
"^ 	c #04020E",
"/ 	c #04030C",
"( 	c #060411",
"_ 	c #05030F",
": 	c #070415",
"< 	c #100821",
"[ 	c #150A28",
"} 	c #190B2E",
"| 	c #1A0A30",
"1 	c #1B0836",
"2 	c #1D083F",
"3 	c #290856",
"4 	c #3C0B6C",
"5 	c #480A77",
"6 	c #4F0A7D",
"7 	c #470671",
"8 	c #3C056B",
"9 	c #2A054F",
"0 	c #040312",
"a 	c #030312",
"b 	c #030212",
"c 	c #030311",
"d 	c #060417",
"e 	c #080519",
"f 	c #08061B",
"g 	c #060416",
"h 	c #050411",
"i 	c #040411",
"j 	c #04030F",
"k 	c #0A0618",
"l 	c #080518",
"m 	c #0A0519",
"n 	c #0B061B",
"o 	c #0C051E",
"p 	c #0B051D",
"q 	c #040310",
"r 	c #070518",
"s 	c #0E0822",
"t 	c #09041A",
"u 	c #0F061A",
"v 	c #140920",
"w 	c #150A21",
"x 	c #0E071C",
"y 	c #050312",
"z 	c #03020D",
"A 	c #0E0523",
"B 	c #18063D",
"C 	c #1B0549",
"D 	c #18043C",
"E 	c #050314",
"F 	c #060312",
"G 	c #04030E",
"H 	c #060410",
"I 	c #090514",
"J 	c #0E071B",
"K 	c #120824",
"L 	c #1B0C30",
"M 	c #1F0C37",
"N 	c #210B3D",
"O 	c #230847",
"P 	c #2E0855",
"Q 	c #3B076A",
"R 	c #420878",
"S 	c #48077C",
"T 	c #53067D",
"U 	c #53067A",
"V 	c #4C037A",
"W 	c #3D0270",
"X 	c #32026C",
"Y 	c #280268",
"Z 	c #240651",
"` 	c #180B25",
" .	c #190A24",
"..	c #160921",
"+.	c #11081C",
"@.	c #10081D",
"#.	c #180B27",
"$.	c #1B0B2D",
"%.	c #1C0A31",
"&.	c #1B0A2F",
"*.	c #1A092C",
"=.	c #130723",
"-.	c #090418",
";.	c #0F081E",
">.	c #060514",
",.	c #03030E",
"'.	c #070413",
").	c #090517",
"!.	c #080417",
"~.	c #0D061E",
"{.	c #0E061F",
"].	c #0B061A",
"^.	c #03030D",
"/.	c #070515",
"(.	c #0C0623",
"_.	c #160534",
":.	c #0D0426",
"<.	c #110623",
"[.	c #190A2A",
"}.	c #070414",
"|.	c #0E061E",
"1.	c #110626",
"2.	c #11052D",
"3.	c #08031E",
"4.	c #080414",
"5.	c #0C0617",
"6.	c #1E102E",
"7.	c #210E3C",
"8.	c #230B41",
"9.	c #27094B",
"0.	c #2A0653",
"a.	c #310561",
"b.	c #480A7A",
"c.	c #530B87",
"d.	c #4C0487",
"e.	c #47027D",
"f.	c #390169",
"g.	c #350161",
"h.	c #350167",
"i.	c #2D016A",
"j.	c #270170",
"k.	c #2A0174",
"l.	c #400381",
"m.	c #420775",
"n.	c #340C54",
"o.	c #280A48",
"p.	c #2B0C4B",
"q.	c #250C3F",
"r.	c #220B3C",
"s.	c #260A45",
"t.	c #27094C",
"u.	c #1E0742",
"v.	c #140339",
"w.	c #0C032B",
"x.	c #140825",
"y.	c #0E081E",
"z.	c #080515",
"A.	c #03030C",
"B.	c #080514",
"C.	c #0B0618",
"D.	c #0A0616",
"E.	c #0C0619",
"F.	c #04040F",
"G.	c #060413",
"H.	c #0C061F",
"I.	c #090326",
"J.	c #250A49",
"K.	c #150340",
"L.	c #110532",
"M.	c #080416",
"N.	c #020208",
"O.	c #03020B",
"P.	c #0C061B",
"Q.	c #0D061C",
"R.	c #090515",
"S.	c #090516",
"T.	c #13091F",
"U.	c #180D26",
"V.	c #160B25",
"W.	c #211036",
"X.	c #311551",
"Y.	c #371160",
"Z.	c #350A63",
"`.	c #360669",
" +	c #3A0472",
".+	c #3C0477",
"++	c #4B0881",
"@+	c #490880",
"#+	c #3D017D",
"$+	c #3B0175",
"%+	c #280156",
"&+	c #1E0147",
"*+	c #210156",
"=+	c #29016E",
"-+	c #2F027C",
";+	c #2B0174",
">+	c #340277",
",+	c #38027A",
"'+	c #320172",
")+	c #280356",
"!+	c #220651",
"~+	c #1A054C",
"{+	c #1B054C",
"]+	c #1B044D",
"^+	c #210551",
"/+	c #2B0C58",
"(+	c #210454",
"_+	c #260F36",
":+	c #09051B",
"<+	c #0C071E",
"[+	c #060412",
"}+	c #080413",
"|+	c #04031B",
"1+	c #110432",
"2+	c #360E5C",
"3+	c #2F0858",
"4+	c #1F0248",
"5+	c #05030E",
"6+	c #020106",
"7+	c #0D081A",
"8+	c #0E081B",
"9+	c #11091F",
"0+	c #180C25",
"a+	c #1E102D",
"b+	c #251434",
"c+	c #28143F",
"d+	c #2B1247",
"e+	c #371856",
"f+	c #40146E",
"g+	c #491478",
"h+	c #480B7D",
"i+	c #42077D",
"j+	c #3A037D",
"k+	c #35037A",
"l+	c #3D067A",
"m+	c #2E0270",
"n+	c #350177",
"o+	c #32016D",
"p+	c #250152",
"q+	c #180142",
"r+	c #17014C",
"s+	c #230166",
"t+	c #250169",
"u+	c #1A0153",
"v+	c #1E0159",
"w+	c #2C016D",
"x+	c #330174",
"y+	c #250160",
"z+	c #290557",
"A+	c #380D4F",
"B+	c #0B012B",
"C+	c #150141",
"D+	c #14014E",
"E+	c #541080",
"F+	c #782990",
"G+	c #501473",
"H+	c #32143E",
"I+	c #120825",
"J+	c #050410",
"K+	c #07031F",
"L+	c #140433",
"M+	c #3B0F60",
"N+	c #501674",
"O+	c #0D0326",
"P+	c #03020C",
"Q+	c #120922",
"R+	c #1B0D2E",
"S+	c #231138",
"T+	c #2A1643",
"U+	c #331754",
"V+	c #391463",
"W+	c #4E2374",
"X+	c #55237D",
"Y+	c #5B2387",
"Z+	c #581F85",
"`+	c #531787",
" @	c #450887",
".@	c #32027A",
"+@	c #270172",
"@@	c #280276",
"#@	c #280173",
"$@	c #330178",
"%@	c #32016A",
"&@	c #220149",
"*@	c #19013F",
"=@	c #1B0148",
"-@	c #18014A",
";@	c #150145",
">@	c #13013E",
",@	c #180149",
"'@	c #1E0157",
")@	c #1E0153",
"!@	c #200156",
"~@	c #280163",
"{@	c #290265",
"]@	c #220359",
"^@	c #220351",
"/@	c #100048",
"(@	c #290368",
"_@	c #450488",
":@	c #4E1871",
"<@	c #381745",
"[@	c #140828",
"}@	c #08051A",
"|@	c #070412",
"1@	c #050316",
"2@	c #0D0525",
"3@	c #170536",
"4@	c #3C0F62",
"5@	c #481167",
"6@	c #02020A",
"7@	c #050311",
"8@	c #0A051D",
"9@	c #100725",
"0@	c #160A2D",
"a@	c #281444",
"b@	c #3C1A5F",
"c@	c #3B146A",
"d@	c #3C0F70",
"e@	c #4C147D",
"f@	c #5E2489",
"g@	c #61258B",
"h@	c #5F218A",
"i@	c #4F1880",
"j@	c #420B7D",
"k@	c #39057D",
"l@	c #24016D",
"m@	c #180160",
"n@	c #1D0168",
"o@	c #1E015E",
"p@	c #23015B",
"q@	c #21014F",
"r@	c #18013B",
"s@	c #180138",
"t@	c #1B0141",
"u@	c #17013C",
"v@	c #1C0146",
"w@	c #1C014D",
"x@	c #170147",
"y@	c #11013A",
"z@	c #13013F",
"A@	c #25015C",
"B@	c #370277",
"C@	c #320373",
"D@	c #24045F",
"E@	c #270654",
"F@	c #180259",
"G@	c #4D0887",
"H@	c #551D69",
"I@	c #321445",
"J@	c #18082F",
"K@	c #020209",
"L@	c #080412",
"M@	c #080419",
"N@	c #12052B",
"O@	c #1C0442",
"P@	c #35085E",
"Q@	c #120321",
"R@	c #050412",
"S@	c #090519",
"T@	c #0D0621",
"U@	c #12072A",
"V@	c #0F0727",
"W@	c #190833",
"X@	c #311746",
"Y@	c #472166",
"Z@	c #53237E",
"`@	c #461180",
" #	c #3C057A",
".#	c #511183",
"+#	c #5A1887",
"@#	c #5C1689",
"##	c #541184",
"$#	c #400676",
"%#	c #2F0171",
"&#	c #290170",
"*#	c #1D0160",
"=#	c #170157",
"-#	c #13014C",
";#	c #0C0138",
">#	c #0E0134",
",#	c #0D0129",
"'#	c #130136",
")#	c #18013E",
"!#	c #1B0142",
"~#	c #1C0145",
"{#	c #180143",
"]#	c #0E0135",
"^#	c #070124",
"/#	c #09012D",
"(#	c #210159",
"_#	c #38037A",
":#	c #340375",
"<#	c #1C0356",
"[#	c #1D044C",
"}#	c #180638",
"|#	c #390F4E",
"1#	c #551B70",
"2#	c #2E0D49",
"3#	c #1E0B36",
"4#	c #140829",
"5#	c #160830",
"6#	c #160635",
"7#	c #1F034D",
"8#	c #1E043E",
"9#	c #100722",
"0#	c #1B0B32",
"a#	c #2B114A",
"b#	c #2F1056",
"c#	c #36105F",
"d#	c #3A0E64",
"e#	c #391162",
"f#	c #4C216C",
"g#	c #56237F",
"h#	c #541D88",
"i#	c #4B0E89",
"j#	c #480B85",
"k#	c #4F0E88",
"l#	c #4F0E84",
"m#	c #4D0884",
"n#	c #45067D",
"o#	c #350370",
"p#	c #2B016D",
"q#	c #25016B",
"r#	c #190159",
"s#	c #12014D",
"t#	c #0B013C",
"u#	c #080131",
"v#	c #08012C",
"w#	c #060126",
"x#	c #0D0136",
"y#	c #11013C",
"z#	c #110139",
"A#	c #14013C",
"B#	c #14013A",
"C#	c #0E012D",
"D#	c #080123",
"E#	c #080125",
"F#	c #0D0132",
"G#	c #1B0154",
"H#	c #300377",
"I#	c #23045E",
"J#	c #170445",
"K#	c #140633",
"L#	c #0F0621",
"M#	c #0E051B",
"N#	c #1D0633",
"O#	c #210842",
"P#	c #190A36",
"Q#	c #180B32",
"R#	c #0A051B",
"S#	c #080516",
"T#	c #070411",
"U#	c #110821",
"V#	c #1E0C3C",
"W#	c #1E0847",
"X#	c #190449",
"Y#	c #160A2B",
"Z#	c #25103F",
"`#	c #35145A",
" $	c #401670",
".$	c #400E7D",
"+$	c #430B80",
"@$	c #470B83",
"#$	c #450C81",
"$$	c #491381",
"%$	c #4F1588",
"&$	c #592089",
"*$	c #5C2487",
"=$	c #450E80",
"-$	c #3C0678",
";$	c #3D047A",
">$	c #3F037C",
",$	c #380273",
"'$	c #270167",
")$	c #230165",
"!$	c #1B0159",
"~$	c #110146",
"{$	c #0B0138",
"]$	c #080132",
"^$	c #06012E",
"/$	c #080130",
"($	c #0F0145",
"_$	c #0E0141",
":$	c #0C0134",
"<$	c #0A012B",
"[$	c #0A0125",
"}$	c #080120",
"|$	c #080122",
"1$	c #0E0132",
"2$	c #140147",
"3$	c #20015D",
"4$	c #2C0271",
"5$	c #29036A",
"6$	c #1C0353",
"7$	c #13043C",
"8$	c #100626",
"9$	c #0B0518",
"0$	c #09041B",
"a$	c #170735",
"b$	c #1F0E3B",
"c$	c #140926",
"d$	c #0A0515",
"e$	c #130825",
"f$	c #230D46",
"g$	c #210656",
"h$	c #170539",
"i$	c #0E071D",
"j$	c #160B27",
"k$	c #1E0E32",
"l$	c #2A1343",
"m$	c #431A64",
"n$	c #4B167C",
"o$	c #490E84",
"p$	c #460687",
"q$	c #420480",
"r$	c #370275",
"s$	c #350375",
"t$	c #37037A",
"u$	c #3C057C",
"v$	c #450E7D",
"w$	c #451477",
"x$	c #320965",
"y$	c #1E0158",
"z$	c #23015E",
"A$	c #2D0166",
"B$	c #150149",
"C$	c #11013E",
"D$	c #0B012F",
"E$	c #080128",
"F$	c #060120",
"G$	c #060122",
"H$	c #08012A",
"I$	c #0D0139",
"J$	c #100142",
"K$	c #100143",
"L$	c #0B0134",
"M$	c #040117",
"N$	c #050119",
"O$	c #0B012C",
"P$	c #0C012F",
"Q$	c #0E0133",
"R$	c #140142",
"S$	c #1E0151",
"T$	c #250161",
"U$	c #1E054E",
"V$	c #11062A",
"W$	c #0A0518",
"X$	c #08031B",
"Y$	c #0A0321",
"Z$	c #060316",
"`$	c #09031D",
" %	c #0F0622",
".%	c #0A0516",
"+%	c #080517",
"@%	c #040211",
"#%	c #140635",
"$%	c #1E074E",
"%%	c #140A25",
"&%	c #1F0E32",
"*%	c #2B1440",
"=%	c #341455",
"-%	c #491A6C",
";%	c #5C2181",
">%	c #601C8B",
",%	c #531087",
"'%	c #490684",
")%	c #3C0377",
"!%	c #2C016A",
"~%	c #2E016D",
"{%	c #310171",
"]%	c #330272",
"^%	c #370273",
"/%	c #32036D",
"(%	c #1B024F",
"_%	c #120144",
":%	c #120145",
"<%	c #160149",
"[%	c #110142",
"}%	c #11013F",
"|%	c #0C0131",
"1%	c #0E012F",
"2%	c #0E012B",
"3%	c #0B0125",
"4%	c #0B0128",
"5%	c #0E012C",
"6%	c #0F012F",
"7%	c #0D0135",
"8%	c #060124",
"9%	c #05011B",
"0%	c #050118",
"a%	c #0C012C",
"b%	c #0D0131",
"c%	c #190142",
"d%	c #1D0146",
"e%	c #240157",
"f%	c #28025D",
"g%	c #24084B",
"h%	c #14072B",
"i%	c #0A0419",
"j%	c #0A0323",
"k%	c #11042B",
"l%	c #150827",
"m%	c #10061C",
"n%	c #050413",
"o%	c #070418",
"p%	c #110629",
"q%	c #1D0B35",
"r%	c #2B1142",
"s%	c #3E1858",
"t%	c #45186A",
"u%	c #49127B",
"v%	c #591B87",
"w%	c #6B298C",
"x%	c #591D84",
"y%	c #440C7B",
"z%	c #370379",
"A%	c #340273",
"B%	c #280168",
"C%	c #2B0168",
"D%	c #2F016A",
"E%	c #32016B",
"F%	c #2F0166",
"G%	c #290160",
"H%	c #1B014C",
"I%	c #110140",
"J%	c #0E013E",
"K%	c #090130",
"L%	c #0C0130",
"M%	c #110132",
"N%	c #110131",
"O%	c #100132",
"P%	c #100130",
"Q%	c #0F012B",
"R%	c #0F012D",
"S%	c #11012F",
"T%	c #0D012F",
"U%	c #090128",
"V%	c #070121",
"W%	c #120141",
"X%	c #220156",
"Y%	c #26015C",
"Z%	c #200647",
"`%	c #1F093C",
" &	c #130724",
".&	c #0C0329",
"+&	c #160431",
"@&	c #340E45",
"#&	c #250C35",
"$&	c #150821",
"%&	c #080418",
"&&	c #1E0938",
"*&	c #300F4F",
"=&	c #401463",
"-&	c #5C217D",
";&	c #571A85",
">&	c #4F0C8A",
",&	c #531289",
"'&	c #561B86",
")&	c #3A0777",
"!&	c #250168",
"~&	c #27016B",
"{&	c #240163",
"]&	c #220160",
"^&	c #23015C",
"/&	c #280160",
"(&	c #1D0153",
"_&	c #18014E",
":&	c #140148",
"<&	c #15014B",
"[&	c #130148",
"}&	c #100141",
"|&	c #0B0137",
"1&	c #0B0135",
"2&	c #0F0134",
"3&	c #110133",
"4&	c #0E0138",
"5&	c #10013F",
"6&	c #12013A",
"7&	c #16013A",
"8&	c #18013D",
"9&	c #16013E",
"0&	c #110138",
"a&	c #17014F",
"b&	c #1D015C",
"c&	c #250166",
"d&	c #220262",
"e&	c #1E0649",
"f&	c #180735",
"g&	c #0D032A",
"h&	c #0D032C",
"i&	c #150431",
"j&	c #2B093C",
"k&	c #390E45",
"l&	c #2F0C44",
"m&	c #240A40",
"n&	c #19092C",
"o&	c #010208",
"p&	c #100820",
"q&	c #290B4E",
"r&	c #350C63",
"s&	c #481278",
"t&	c #571787",
"u&	c #53118A",
"v&	c #4C0988",
"w&	c #510B87",
"x&	c #3E037C",
"y&	c #280165",
"z&	c #1F015B",
"A&	c #21015B",
"B&	c #21015E",
"C&	c #1D0156",
"D&	c #1B0155",
"E&	c #1B0153",
"F&	c #180150",
"G&	c #190152",
"H&	c #18014D",
"I&	c #0A012F",
"J&	c #0B012D",
"K&	c #0E012E",
"L&	c #0F0135",
"M&	c #160158",
"N&	c #140156",
"O&	c #14014F",
"P&	c #190150",
"Q&	c #1C014E",
"R&	c #190147",
"S&	c #0B0129",
"T&	c #14013F",
"U&	c #200160",
"V&	c #25016D",
"W&	c #260170",
"X&	c #1F0167",
"Y&	c #1E025D",
"Z&	c #1B044A",
"`&	c #15043F",
" *	c #110435",
".*	c #170535",
"+*	c #1E0635",
"@*	c #1E0630",
"#*	c #23052C",
"$*	c #2D0741",
"%*	c #28084C",
"&*	c #280B47",
"**	c #1E0B34",
"=*	c #190B2B",
"-*	c #130537",
";*	c #220656",
">*	c #290666",
",*	c #3F087D",
"'*	c #4F0C89",
")*	c #500C88",
"!*	c #561187",
"~*	c #500B84",
"{*	c #43057A",
"]*	c #2C0162",
"^*	c #1E0152",
"/*	c #190146",
"(*	c #190145",
"_*	c #1A0145",
":*	c #1C0148",
"<*	c #1E014D",
"[*	c #210153",
"}*	c #1D014F",
"|*	c #1D0150",
"1*	c #1A014A",
"2*	c #160144",
"3*	c #140143",
"4*	c #060121",
"5*	c #080127",
"6*	c #0A0129",
"7*	c #100135",
"8*	c #1F0160",
"9*	c #1D0163",
"0*	c #1E016A",
"a*	c #280270",
"b*	c #25016C",
"c*	c #1E0156",
"d*	c #14013B",
"e*	c #0F0130",
"f*	c #210257",
"g*	c #28026D",
"h*	c #24016E",
"i*	c #1C0160",
"j*	c #18024E",
"k*	c #16043C",
"l*	c #120535",
"m*	c #16062F",
"n*	c #1A0630",
"o*	c #19052B",
"p*	c #11031E",
"q*	c #280928",
"r*	c #45123F",
"s*	c #451351",
"t*	c #1B064C",
"u*	c #1F0844",
"v*	c #250A42",
"w*	c #210A3C",
"x*	c #08041C",
"y*	c #150349",
"z*	c #1B025E",
"A*	c #27026E",
"B*	c #42067F",
"C*	c #40067A",
"D*	c #400876",
"E*	c #440579",
"F*	c #39036C",
"G*	c #2B015C",
"H*	c #20014E",
"I*	c #18013F",
"J*	c #150139",
"K*	c #120135",
"L*	c #140135",
"M*	c #150137",
"N*	c #160138",
"O*	c #130135",
"P*	c #140138",
"Q*	c #080121",
"R*	c #06011C",
"S*	c #070125",
"T*	c #09012F",
"U*	c #0A0133",
"V*	c #0B0136",
"W*	c #21015C",
"X*	c #250167",
"Y*	c #2D0271",
"Z*	c #37037D",
"`*	c #38047F",
" =	c #250268",
".=	c #1B014E",
"+=	c #15013D",
"@=	c #1A0146",
"#=	c #230157",
"$=	c #280265",
"%=	c #220167",
"&=	c #1D0164",
"*=	c #180445",
"==	c #14072F",
"-=	c #130727",
";=	c #120623",
">=	c #130523",
",=	c #160621",
"'=	c #2B112E",
")=	c #42183D",
"!=	c #501A47",
"~=	c #4F1845",
"{=	c #2F0B3B",
"]=	c #180444",
"^=	c #1D0549",
"/=	c #23084C",
"(=	c #010105",
"_=	c #0C0236",
":=	c #140150",
"<=	c #1C0161",
"[=	c #2B016E",
"}=	c #2C0266",
"|=	c #25015B",
"1=	c #230158",
"2=	c #1F0155",
"3=	c #1F014A",
"4=	c #1B0144",
"5=	c #18013C",
"6=	c #120132",
"7=	c #0C0127",
"8=	c #0E012A",
"9=	c #0D0130",
"0=	c #0B012E",
"a=	c #0F013C",
"b=	c #130147",
"c=	c #100147",
"d=	c #0C0141",
"e=	c #0B013E",
"f=	c #0C013C",
"g=	c #28025F",
"h=	c #3A0672",
"i=	c #42097D",
"j=	c #2D0370",
"k=	c #1C0159",
"l=	c #1B014B",
"m=	c #1A0142",
"n=	c #210366",
"o=	c #1C0749",
"p=	c #160928",
"q=	c #110621",
"r=	c #0A031C",
"s=	c #130625",
"t=	c #2E1535",
"u=	c #421E43",
"v=	c #471E44",
"w=	c #45183F",
"x=	c #3E1139",
"y=	c #250532",
"z=	c #18023F",
"A=	c #17024A",
"B=	c #270656",
"C=	c #010106",
"D=	c #090328",
"E=	c #1F0163",
"F=	c #22015D",
"G=	c #1C014F",
"H=	c #0F0132",
"I=	c #0F0136",
"J=	c #150142",
"K=	c #170142",
"L=	c #130139",
"M=	c #13013C",
"N=	c #15013F",
"O=	c #1B0149",
"P=	c #1E015C",
"Q=	c #270165",
"R=	c #220165",
"S=	c #1B015E",
"T=	c #11014B",
"U=	c #0F0146",
"V=	c #13014A",
"W=	c #18014C",
"X=	c #21024F",
"Y=	c #35075D",
"Z=	c #450C73",
"`=	c #380673",
" -	c #230169",
".-	c #1B0156",
"+-	c #1A0149",
"@-	c #250163",
"#-	c #28016D",
"$-	c #21045A",
"%-	c #1B093B",
"&-	c #160732",
"*-	c #200D3A",
"=-	c #2B143C",
"--	c #3D1C41",
";-	c #321432",
">-	c #200824",
",-	c #13021D",
"'-	c #2B083A",
")-	c #210348",
"!-	c #1E0253",
"~-	c #53117F",
"{-	c #020107",
"]-	c #19024F",
"^-	c #210163",
"/-	c #240166",
"(-	c #260163",
"_-	c #200154",
":-	c #14013D",
"<-	c #0E0131",
"[-	c #0E0136",
"}-	c #140145",
"|-	c #19014F",
"1-	c #170148",
"2-	c #160148",
"3-	c #150148",
"4-	c #17014B",
"5-	c #200158",
"6-	c #2D016C",
"7-	c #35017A",
"8-	c #3A017D",
"9-	c #410281",
"0-	c #470384",
"a-	c #3C0280",
"b-	c #2F016E",
"c-	c #1E015B",
"d-	c #1C0156",
"e-	c #15014F",
"f-	c #220349",
"g-	c #360762",
"h-	c #3F0776",
"i-	c #330376",
"j-	c #200159",
"k-	c #1C0151",
"l-	c #20015B",
"m-	c #220457",
"n-	c #1B083B",
"o-	c #17053C",
"p-	c #1B0547",
"q-	c #1E0A45",
"r-	c #1E0C3E",
"s-	c #1A0A2F",
"t-	c #1A0927",
"u-	c #150425",
"v-	c #1D052F",
"w-	c #360D43",
"x-	c #300A46",
"y-	c #21025B",
"z-	c #3F077B",
"A-	c #14023D",
"B-	c #240167",
"C-	c #25016A",
"D-	c #260166",
"E-	c #15013B",
"F-	c #0F0139",
"G-	c #160142",
"H-	c #180151",
"I-	c #2A016C",
"J-	c #370274",
"K-	c #3D0277",
"L-	c #40027C",
"M-	c #3F017D",
"N-	c #430180",
"O-	c #4B0284",
"P-	c #4F0385",
"Q-	c #540489",
"R-	c #56048A",
"S-	c #4A0382",
"T-	c #3B0179",
"U-	c #32016E",
"V-	c #160151",
"W-	c #140151",
"X-	c #25044F",
"Y-	c #350565",
"Z-	c #41067B",
"`-	c #35027A",
" ;	c #1F0158",
".;	c #230164",
"+;	c #1D0350",
"@;	c #1B0352",
"#;	c #1D054F",
"$;	c #1A0642",
"%;	c #14062E",
"&;	c #0A021B",
"*;	c #100422",
"=;	c #17052B",
"-;	c #1B0632",
";;	c #1A0534",
">;	c #1B0535",
",;	c #180438",
"';	c #25035C",
");	c #4C0887",
"!;	c #2B0164",
"~;	c #270166",
"{;	c #19014A",
"];	c #0F0131",
"^;	c #110135",
"/;	c #120139",
"(;	c #0E013D",
"_;	c #12014B",
":;	c #1A015A",
"<;	c #21016A",
"[;	c #2A0173",
"};	c #390281",
"|;	c #420284",
"1;	c #490384",
"2;	c #470281",
"3;	c #46027F",
"4;	c #43027A",
"5;	c #3F0276",
"6;	c #3F0277",
"7;	c #4D0280",
"8;	c #560386",
"9;	c #580488",
"0;	c #4C0386",
"a;	c #3C027C",
"b;	c #280167",
"c;	c #1F0162",
"d;	c #1E0169",
"e;	c #160157",
"f;	c #340560",
"g;	c #470877",
"h;	c #41047C",
"i;	c #320275",
"j;	c #290168",
"k;	c #220158",
"l;	c #160147",
"m;	c #18024A",
"n;	c #1B034F",
"o;	c #17053D",
"p;	c #12062A",
"q;	c #110624",
"r;	c #110625",
"s;	c #14052D",
"t;	c #160533",
"u;	c #140432",
"v;	c #0D0329",
"w;	c #3E1055",
"x;	c #531872",
"y;	c #21024C",
"z;	c #2E0167",
"A;	c #290163",
"B;	c #0E0130",
"C;	c #07011E",
"D;	c #08011E",
"E;	c #10012F",
"F;	c #110134",
"G;	c #120137",
"H;	c #12013C",
"I;	c #120142",
"J;	c #12014C",
"K;	c #140159",
"L;	c #190163",
"M;	c #220171",
"N;	c #260174",
"O;	c #2D0175",
"P;	c #35017E",
"Q;	c #38017F",
"R;	c #38017B",
"S;	c #3D017C",
"T;	c #390178",
"U;	c #3A0275",
"V;	c #3D0276",
"W;	c #3F027A",
"X;	c #3B017A",
"Y;	c #4D0480",
"Z;	c #490586",
"`;	c #4B0687",
" >	c #3F047D",
".>	c #2C0174",
"+>	c #250173",
"@>	c #200171",
"#>	c #1D016A",
"$>	c #320469",
"%>	c #4C0B75",
"&>	c #4C097D",
"*>	c #350277",
"=>	c #290166",
"->	c #210150",
";>	c #1D0152",
">>	c #150238",
",>	c #1A053C",
"'>	c #1B0931",
")>	c #1A0932",
"!>	c #18092F",
"~>	c #160734",
"{>	c #14043A",
"]>	c #14033C",
"^>	c #0E0330",
"/>	c #0C0423",
"(>	c #080318",
"_>	c #0B031D",
":>	c #100424",
"<>	c #3F1156",
"[>	c #24015D",
"}>	c #0A0124",
"|>	c #0E013A",
"1>	c #0F0141",
"2>	c #19015E",
"3>	c #210170",
"4>	c #1E016D",
"5>	c #1E016C",
"6>	c #21016E",
"7>	c #23016D",
"8>	c #200167",
"9>	c #2B0177",
"0>	c #390183",
"a>	c #470485",
"b>	c #420382",
"c>	c #430384",
"d>	c #470484",
"e>	c #510887",
"f>	c #500887",
"g>	c #4D0787",
"h>	c #440480",
"i>	c #52088A",
"j>	c #4C0789",
"k>	c #3B0480",
"l>	c #2A0175",
"m>	c #250170",
"n>	c #220170",
"o>	c #34046F",
"p>	c #4F1271",
"q>	c #58137D",
"r>	c #40057B",
"s>	c #2B0166",
"t>	c #1E0146",
"u>	c #1D0149",
"v>	c #180147",
"w>	c #110136",
"x>	c #130137",
"y>	c #18033F",
"z>	c #1B0445",
"A>	c #1D054A",
"B>	c #2B055E",
"C>	c #2A045F",
"D>	c #1F0452",
"E>	c #1E0549",
"F>	c #1B0838",
"G>	c #140728",
"H>	c #0F051E",
"I>	c #1B062F",
"J>	c #1E0154",
"K>	c #14013E",
"L>	c #0C0133",
"M>	c #0E013C",
"N>	c #180159",
"O>	c #1B0161",
"P>	c #21016F",
"Q>	c #190162",
"R>	c #1B0163",
"S>	c #21016B",
"T>	c #1E0067",
"U>	c #21006B",
"V>	c #33017B",
"W>	c #460387",
"X>	c #510688",
"Y>	c #4B0684",
"Z>	c #450485",
"`>	c #440387",
" ,	c #470684",
".,	c #4E0B84",
"+,	c #490980",
"@,	c #45067E",
"#,	c #42047A",
"$,	c #3A0375",
"%,	c #43047E",
"&,	c #3B0280",
"*,	c #2C0175",
"=,	c #350470",
"-,	c #511170",
";,	c #5B147A",
">,	c #47087E",
",,	c #31016A",
"',	c #220148",
"),	c #1C0143",
"!,	c #15014C",
"~,	c #1E0160",
"{,	c #310272",
"],	c #3E0280",
"^,	c #3F047A",
"/,	c #370669",
"(,	c #280856",
"_,	c #250953",
":,	c #20064F",
"<,	c #160638",
"[,	c #0E061C",
"},	c #0C012E",
"|,	c #09012B",
"1,	c #0F0142",
"2,	c #1C0163",
"3,	c #1A0164",
"4,	c #1E016F",
"5,	c #180164",
"6,	c #18015F",
"7,	c #1B0166",
"8,	c #1E016B",
"9,	c #22016D",
"0,	c #2B0173",
"a,	c #3C0282",
"b,	c #440384",
"c,	c #3F0478",
"d,	c #2E0170",
"e,	c #2B0170",
"f,	c #2C026B",
"g,	c #2A026A",
"h,	c #2B0367",
"i,	c #290268",
"j,	c #290269",
"k,	c #3B027C",
"l,	c #39027B",
"m,	c #2E0171",
"n,	c #2A016B",
"o,	c #220166",
"p,	c #270269",
"q,	c #410873",
"r,	c #4F0D71",
"s,	c #59117A",
"t,	c #4C0783",
"u,	c #3C016D",
"v,	c #28014C",
"w,	c #100133",
"x,	c #33017A",
"y,	c #490487",
"z,	c #490486",
"A,	c #3E027D",
"B,	c #280269",
"C,	c #280271",
"D,	c #27036E",
"E,	c #1B054B",
"F,	c #180835",
"G,	c #110721",
"H,	c #0B0132",
"I,	c #0C013B",
"J,	c #0E0142",
"K,	c #0E013F",
"L,	c #1A015F",
"M,	c #20016E",
"N,	c #1F016B",
"O,	c #1B0162",
"P,	c #1B016C",
"Q,	c #1E0274",
"R,	c #1C0170",
"S,	c #180162",
"T,	c #1B0160",
"U,	c #20016A",
"V,	c #280170",
"W,	c #29016D",
"X,	c #30026D",
"Y,	c #300268",
"Z,	c #23015A",
"`,	c #1C0158",
" '	c #1F0153",
".'	c #1F014E",
"+'	c #1E0150",
"@'	c #200162",
"#'	c #25015F",
"$'	c #24026B",
"%'	c #3F0873",
"&'	c #45076D",
"*'	c #490679",
"='	c #4C0580",
"-'	c #430270",
";'	c #2F0153",
">'	c #0C012B",
",'	c #0C0129",
"''	c #100148",
")'	c #1C015C",
"!'	c #320176",
"~'	c #2C0171",
"{'	c #2D0177",
"]'	c #2C056F",
"^'	c #1D054D",
"/'	c #19083B",
"('	c #1B0A34",
"_'	c #140149",
":'	c #0C013F",
"<'	c #0D0142",
"['	c #0F014B",
"}'	c #120153",
"|'	c #170160",
"1'	c #1A0163",
"2'	c #20016C",
"3'	c #180158",
"4'	c #18015E",
"5'	c #1B016D",
"6'	c #1F0277",
"7'	c #180161",
"8'	c #24016A",
"9'	c #27016A",
"0'	c #250165",
"a'	c #17014A",
"b'	c #210155",
"c'	c #1E014E",
"d'	c #15013C",
"e'	c #170149",
"f'	c #1B0158",
"g'	c #1A0150",
"h'	c #110137",
"i'	c #1A0156",
"j'	c #2F0474",
"k'	c #3A0675",
"l'	c #3F046E",
"m'	c #3F0377",
"n'	c #44027E",
"o'	c #3B0164",
"p'	c #2D0157",
"q'	c #10013D",
"r'	c #090125",
"s'	c #0E0144",
"t'	c #270168",
"u'	c #320177",
"v'	c #2F0174",
"w'	c #350178",
"x'	c #33096D",
"y'	c #2B0D52",
"z'	c #210946",
"A'	c #240B42",
"B'	c #0E0146",
"C'	c #0F014D",
"D'	c #110156",
"E'	c #170266",
"F'	c #1D0272",
"G'	c #1E0273",
"H'	c #23016A",
"I'	c #1F015C",
"J'	c #11014A",
"K'	c #180163",
"L'	c #16015C",
"M'	c #180156",
"N'	c #1D015D",
"O'	c #220163",
"P'	c #150143",
"Q'	c #120140",
"R'	c #180148",
"S'	c #170145",
"T'	c #0F0149",
"U'	c #10014D",
"V'	c #140153",
"W'	c #130145",
"X'	c #150146",
"Y'	c #2D0474",
"Z'	c #380574",
"`'	c #35026A",
" )	c #380177",
".)	c #350170",
"+)	c #2E0159",
"@)	c #25014F",
"#)	c #0B0133",
"$)	c #090124",
"%)	c #0A0128",
"&)	c #0D013C",
"*)	c #170151",
"=)	c #350173",
"-)	c #450381",
";)	c #450285",
">)	c #390476",
",)	c #350866",
"')	c #290754",
"))	c #230B46",
"!)	c #130149",
"~)	c #150158",
"{)	c #170164",
"])	c #1C0273",
"^)	c #21027E",
"/)	c #24027F",
"()	c #210272",
"_)	c #1D015E",
":)	c #1B0151",
"<)	c #130140",
"[)	c #150159",
"})	c #210164",
"|)	c #22015F",
"1)	c #1B014D",
"2)	c #11013B",
"3)	c #130144",
"4)	c #0F013F",
"5)	c #0A0138",
"6)	c #0E0143",
"7)	c #130159",
"8)	c #110152",
"9)	c #19015C",
"0)	c #090133",
"a)	c #0C0132",
"b)	c #15014A",
"c)	c #130142",
"d)	c #1A0157",
"e)	c #2B0373",
"f)	c #30036F",
"g)	c #330173",
"h)	c #2B014F",
"i)	c #1E014A",
"j)	c #140146",
"k)	c #09012E",
"l)	c #160153",
"m)	c #21016D",
"n)	c #200163",
"o)	c #2B0161",
"p)	c #5A0987",
"q)	c #540487",
"r)	c #3F017A",
"s)	c #3A0373",
"t)	c #33046A",
"u)	c #250756",
"v)	c #1E026E",
"w)	c #21027B",
"x)	c #250385",
"y)	c #250282",
"z)	c #230274",
"A)	c #11014E",
"B)	c #200153",
"C)	c #13013B",
"D)	c #0F013D",
"E)	c #110149",
"F)	c #0C0140",
"G)	c #1A0155",
"H)	c #0E013B",
"I)	c #0F0147",
"J)	c #10013E",
"K)	c #2E0277",
"L)	c #32016C",
"M)	c #340171",
"N)	c #310163",
"O)	c #27014D",
"P)	c #0A012E",
"Q)	c #08012F",
"R)	c #1D0167",
"S)	c #38046A",
"T)	c #5C0F84",
"U)	c #5F0D89",
"V)	c #4D047F",
"W)	c #390175",
"X)	c #320171",
"Y)	c #1D0353",
"Z)	c #1A0167",
"`)	c #250280",
" !	c #2B0487",
".!	c #280280",
"+!	c #0E0140",
"@!	c #12014F",
"#!	c #150153",
"$!	c #180153",
"%!	c #23014F",
"&!	c #0F0144",
"*!	c #110150",
"=!	c #110154",
"-!	c #11014F",
";!	c #07011F",
">!	c #05011A",
",!	c #210162",
"'!	c #2F0170",
")!	c #370270",
"!!	c #380270",
"~!	c #36016D",
"{!	c #2F0156",
"]!	c #0F013B",
"^!	c #0B0130",
"/!	c #0B0131",
"(!	c #0A0132",
"_!	c #17015A",
":!	c #16015D",
"<!	c #3C066E",
"[!	c #560E87",
"}!	c #540A88",
"|!	c #41027D",
"1!	c #36017A",
"2!	c #29016A",
"3!	c #1A014F",
"4!	c #140245",
"5!	c #27027B",
"6!	c #310484",
"7!	c #3A0687",
"8!	c #32037A",
"9!	c #210160",
"0!	c #1A024D",
"a!	c #0C0139",
"b!	c #230153",
"c!	c #26014F",
"d!	c #200142",
"e!	c #140139",
"f!	c #0F0138",
"g!	c #0D013D",
"h!	c #11014C",
"i!	c #16015E",
"j!	c #1B016B",
"k!	c #1A0165",
"l!	c #1B0145",
"m!	c #0A0126",
"n!	c #030113",
"o!	c #02010E",
"p!	c #03010F",
"q!	c #18014B",
"r!	c #260263",
"s!	c #470378",
"t!	c #3F0274",
"u!	c #350163",
"v!	c #25014B",
"w!	c #0A012D",
"x!	c #0F013E",
"y!	c #150157",
"z!	c #16015B",
"A!	c #20015C",
"B!	c #3B0875",
"C!	c #521388",
"D!	c #55168A",
"E!	c #4C0B87",
"F!	c #3E0380",
"G!	c #260168",
"H!	c #320387",
"I!	c #3D058A",
"J!	c #420588",
"K!	c #380473",
"L!	c #1F0251",
"M!	c #0C0135",
"N!	c #0A0135",
"O!	c #0E0139",
"P!	c #1E014F",
"Q!	c #240150",
"R!	c #26014C",
"S!	c #19013B",
"T!	c #0D0138",
"U!	c #13014D",
"V!	c #190164",
"W!	c #200175",
"X!	c #25017A",
"Y!	c #120136",
"Z!	c #02010B",
"`!	c #010107",
" ~	c #020109",
".~	c #030114",
"+~	c #05011E",
"@~	c #070128",
"#~	c #280359",
"$~	c #470670",
"%~	c #4F0477",
"&~	c #42026D",
"*~	c #2C0156",
"=~	c #160152",
"-~	c #170156",
";~	c #2C0270",
">~	c #3B087B",
",~	c #4F1587",
"'~	c #57188A",
")~	c #57158A",
"!~	c #3A0480",
"~~	c #320288",
"{~	c #350386",
"]~	c #37037C",
"^~	c #0C0137",
"/~	c #0B013B",
"(~	c #280153",
"_~	c #1D0142",
":~	c #110144",
"<~	c #250179",
"[~	c #2E0281",
"}~	c #2F0179",
"|~	c #2A0164",
"1~	c #1E0145",
"2~	c #040115",
"3~	c #02010C",
"4~	c #02010A",
"5~	c #02010D",
"6~	c #0A012C",
"7~	c #130138",
"8~	c #1B0146",
"9~	c #250256",
"0~	c #380560",
"a~	c #510975",
"b~	c #4B046F",
"c~	c #37025F",
"d~	c #15014E",
"e~	c #160160",
"f~	c #130152",
"g~	c #1E015F",
"h~	c #28016E",
"i~	c #460887",
"j~	c #490D84",
"k~	c #350379",
"l~	c #290167",
"m~	c #28015B",
"n~	c #2B017E",
"o~	c #0B013F",
"p~	c #110145",
"q~	c #1E014C",
"r~	c #21014B",
"s~	c #1E0142",
"t~	c #270173",
"u~	c #320284",
"v~	c #380281",
"w~	c #350270",
"x~	c #240152",
"y~	c #140137",
"z~	c #1E0148",
"A~	c #1D014C",
"B~	c #27025F",
"C~	c #32036A",
"D~	c #3F046D",
"E~	c #3E0466",
"F~	c #300258",
"G~	c #250150",
"H~	c #10013B",
"I~	c #17014D",
"J~	c #1A0260",
"K~	c #0F014F",
"L~	c #0B0139",
"M~	c #120149",
"N~	c #140152",
"O~	c #1A0159",
"P~	c #2B026C",
"Q~	c #420682",
"R~	c #36027E",
"S~	c #2E0166",
"T~	c #28015F",
"U~	c #1B015B",
"V~	c #12014A",
"W~	c #11024D",
"X~	c #150259",
"Y~	c #0E0137",
"Z~	c #19014E",
"`~	c #290156",
" {	c #1E013F",
".{	c #150132",
"+{	c #0D012C",
"@{	c #330280",
"#{	c #380287",
"${	c #3C027A",
"%{	c #2F0162",
"&{	c #260153",
"*{	c #1A0140",
"={	c #090127",
"-{	c #080124",
";{	c #1D0155",
">{	c #250266",
",{	c #2F0270",
"'{	c #34036E",
"){	c #350365",
"!{	c #24026C",
"~{	c #200370",
"{{	c #110251",
"]{	c #0A013A",
"^{	c #38037D",
"/{	c #380280",
"({	c #31017A",
"_{	c #260161",
":{	c #230163",
"<{	c #130153",
"[{	c #15025C",
"}{	c #140257",
"|{	c #0D0137",
"1{	c #2A015C",
"2{	c #250149",
"3{	c #17012F",
"4{	c #0D012A",
"5{	c #31027D",
"6{	c #3A0280",
"7{	c #40027A",
"8{	c #320161",
"9{	c #180139",
"0{	c #1C0140",
"a{	c #200149",
"b{	c #11013D",
"c{	c #1C0157",
"d{	c #28016A",
"e{	c #29026A",
"f{	c #27026A",
"g{	c #2C026C",
"h{	c #150144",
"i{	c #12013D",
"j{	c #25026A",
"k{	c #22026B",
"l{	c #0B023A",
"m{	c #190153",
"n{	c #320276",
"o{	c #2F0175",
"p{	c #21015D",
"q{	c #1D0159",
"r{	c #410B78",
"s{	c #19015B",
"t{	c #18015D",
"u{	c #16015A",
"v{	c #180260",
"w{	c #12024C",
"x{	c #230156",
"y{	c #2B0155",
"z{	c #22013D",
"A{	c #140131",
"B{	c #0D0134",
"C{	c #1D0158",
"D{	c #25016E",
"E{	c #250172",
"F{	c #3E037E",
"G{	c #4F0481",
"H{	c #370269",
"I{	c #1B013F",
"J{	c #1B013C",
"K{	c #15013A",
"L{	c #190140",
"M{	c #1F0151",
"N{	c #190149",
"O{	c #13013A",
"P{	c #1E0263",
"Q{	c #0C013A",
"R{	c #090137",
"S{	c #240162",
"T{	c #340275",
"U{	c #3B027A",
"V{	c #26016F",
"W{	c #3F0580",
"X{	c #1B0157",
"Y{	c #1D0166",
"Z{	c #1A025A",
"`{	c #140249",
" ]	c #2F015B",
".]	c #2B0152",
"+]	c #1E013E",
"@]	c #100134",
"#]	c #0B012A",
"$]	c #3C027D",
"%]	c #4C0383",
"&]	c #36026F",
"*]	c #18014F",
"=]	c #200144",
"-]	c #170146",
";]	c #1A0144",
">]	c #24014E",
",]	c #240151",
"']	c #20014C",
")]	c #23014E",
"!]	c #2F0261",
"~]	c #340272",
"{]	c #290273",
"]]	c #1F0168",
"^]	c #150155",
"/]	c #090132",
"(]	c #080134",
"_]	c #0B0140",
":]	c #110153",
"<]	c #14015E",
"[]	c #140154",
"}]	c #1B015C",
"|]	c #3F027C",
"1]	c #450484",
"2]	c #340180",
"3]	c #430685",
"4]	c #531180",
"5]	c #17015F",
"6]	c #20025B",
"7]	c #23014A",
"8]	c #240149",
"9]	c #0C0136",
"0]	c #080126",
"a]	c #1F0165",
"b]	c #20016D",
"c]	c #280171",
"d]	c #390181",
"e]	c #420282",
"f]	c #270163",
"g]	c #280159",
"h]	c #10013C",
"i]	c #100138",
"j]	c #100139",
"k]	c #26014E",
"l]	c #280152",
"m]	c #260151",
"n]	c #250153",
"o]	c #230152",
"p]	c #240154",
"q]	c #2F0163",
"r]	c #32026B",
"s]	c #380278",
"t]	c #310276",
"u]	c #23026A",
"v]	c #160159",
"w]	c #10014A",
"x]	c #0A0139",
"y]	c #0A013C",
"z]	c #0B0145",
"A]	c #100154",
"B]	c #130151",
"C]	c #180155",
"D]	c #3F017B",
"E]	c #4F0487",
"F]	c #53058A",
"G]	c #490388",
"H]	c #460584",
"I]	c #430C6D",
"J]	c #210166",
"K]	c #1A0160",
"L]	c #26025C",
"M]	c #1D0144",
"N]	c #2A0156",
"O]	c #24014B",
"P]	c #110143",
"Q]	c #30017D",
"R]	c #44047F",
"S]	c #3D0373",
"T]	c #370169",
"U]	c #310160",
"V]	c #22014F",
"W]	c #110141",
"X]	c #2B016A",
"Y]	c #2C0163",
"Z]	c #2C015F",
"`]	c #2E0163",
" ^	c #310167",
".^	c #390277",
"+^	c #330277",
"@^	c #2E0274",
"#^	c #26026B",
"$^	c #0B013A",
"%^	c #0B0142",
"&^	c #0B0146",
"*^	c #100144",
"=^	c #43027D",
"-^	c #500485",
";^	c #5A078A",
">^	c #58068A",
",^	c #48087A",
"'^	c #2C074B",
")^	c #2C0170",
"!^	c #3C0374",
"~^	c #320261",
"{^	c #200146",
"]^	c #040118",
"^^	c #14014D",
"/^	c #1C016A",
"(^	c #1F016A",
"_^	c #260176",
":^	c #3F0584",
"<^	c #520782",
"[^	c #55057C",
"}^	c #450270",
"|^	c #220159",
"1^	c #22015E",
"2^	c #340177",
"3^	c #3D017A",
"4^	c #400276",
"5^	c #4C0478",
"6^	c #470579",
"7^	c #4C067F",
"8^	c #450480",
"9^	c #3C0381",
"0^	c #34027C",
"a^	c #290270",
"b^	c #0C013D",
"c^	c #090135",
"d^	c #08012D",
"e^	c #1E0165",
"f^	c #290172",
"g^	c #490381",
"h^	c #560787",
"i^	c #5C0A89",
"j^	c #580887",
"k^	c #430870",
"l^	c #45047C",
"m^	c #4B047A",
"n^	c #350261",
"o^	c #12013E",
"p^	c #1E0149",
"q^	c #130132",
"r^	c #160154",
"s^	c #16015F",
"t^	c #220177",
"u^	c #320184",
"v^	c #440589",
"w^	c #530887",
"x^	c #590885",
"y^	c #4E047E",
"z^	c #3F0177",
"A^	c #3C0177",
"B^	c #3E0276",
"C^	c #3F0375",
"D^	c #44037A",
"E^	c #46037D",
"F^	c #42037D",
"G^	c #4A0480",
"H^	c #540884",
"I^	c #590784",
"J^	c #4F0784",
"K^	c #4F0888",
"L^	c #420587",
"M^	c #370380",
"N^	c #24016C",
"O^	c #1C015D",
"P^	c #14014B",
"Q^	c #0F013A",
"R^	c #190157",
"S^	c #3C037E",
"T^	c #510884",
"U^	c #5C0B88",
"V^	c #620E8A",
"W^	c #5C1180",
"X^	c #4C1071",
"Y^	c #2D084A",
"Z^	c #180152",
"`^	c #230255",
" /	c #440570",
"./	c #4C0576",
"+/	c #2B0158",
"@/	c #130141",
"#/	c #1A0143",
"$/	c #18013A",
"%/	c #140158",
"&/	c #280176",
"*/	c #27017A",
"=/	c #2A017E",
"-/	c #320280",
";/	c #3F0485",
">/	c #470487",
",/	c #3F0283",
"'/	c #410282",
")/	c #470486",
"!/	c #500588",
"~/	c #4F0589",
"{/	c #4D038A",
"]/	c #420384",
"^/	c #490585",
"//	c #4C0985",
"(/	c #490685",
"_/	c #3C0484",
":/	c #300381",
"</	c #350484",
"[/	c #2C0281",
"}/	c #250178",
"|/	c #1D016D",
"1/	c #0D013F",
"2/	c #0A022F",
"3/	c #0C0128",
"4/	c #19014C",
"5/	c #490784",
"6/	c #5A0C87",
"7/	c #610E8A",
"8/	c #550E7A",
"9/	c #430E64",
"0/	c #2C0C49",
"a/	c #0C0621",
"b/	c #220153",
"c/	c #260253",
"d/	c #320260",
"e/	c #1D014E",
"f/	c #1B0147",
"g/	c #160139",
"h/	c #0F012A",
"i/	c #0A0122",
"j/	c #19025A",
"k/	c #140155",
"l/	c #230167",
"m/	c #2F017A",
"n/	c #280174",
"o/	c #260173",
"p/	c #420584",
"q/	c #420582",
"r/	c #3D0483",
"s/	c #45068A",
"t/	c #47068A",
"u/	c #420689",
"v/	c #380386",
"w/	c #2E027D",
"x/	c #290279",
"y/	c #2B0279",
"z/	c #25017D",
"A/	c #28027F",
"B/	c #25027D",
"C/	c #250279",
"D/	c #200173",
"E/	c #090120",
"F/	c #0B0124",
"G/	c #0E0129",
"H/	c #160141",
"I/	c #2B0171",
"J/	c #35017C",
"K/	c #38027D",
"L/	c #42057A",
"M/	c #410574",
"N/	c #350A59",
"O/	c #210A42",
"P/	c #1E083B",
"Q/	c #0D0623",
"R/	c #1D014B",
"S/	c #200151",
"T/	c #140144",
"U/	c #1A0148",
"V/	c #11012B",
"W/	c #0B0123",
"X/	c #08012B",
"Y/	c #130244",
"Z/	c #180253",
"`/	c #160252",
" (	c #1D015F",
".(	c #320271",
"+(	c #340270",
"@(	c #350371",
"#(	c #3D0478",
"$(	c #3D047D",
"%(	c #38037C",
"&(	c #34037D",
"*(	c #2F027D",
"=(	c #20016B",
"-(	c #1C0168",
";(	c #170159",
">(	c #120150",
",(	c #0A0137",
"'(	c #08012E",
")(	c #090129",
"!(	c #0B0126",
"~(	c #0D0126",
"{(	c #0C0125",
"](	c #1F0152",
"^(	c #330176",
"/(	c #3A027B",
"((	c #320270",
"_(	c #2B0460",
":(	c #2A0756",
"<(	c #220845",
"[(	c #290850",
"}(	c #0F0626",
"|(	c #1B014A",
"1(	c #160140",
"2(	c #270157",
"3(	c #11012C",
"4(	c #080129",
"5(	c #110240",
"6(	c #160251",
"7(	c #110148",
"8(	c #210168",
"9(	c #190154",
"0(	c #120143",
"a(	c #27025B",
"b(	c #28025C",
"c(	c #250259",
"d(	c #22015B",
"e(	c #240161",
"f(	c #1E015A",
"g(	c #16014F",
"h(	c #14014C",
"i(	c #110130",
"j(	c #210152",
"k(	c #2D0167",
"l(	c #3B0178",
"m(	c #3A0571",
"n(	c #2E065D",
"o(	c #26084C",
"p(	c #240A44",
"q(	c #1C0A37",
"r(	c #4C1C71",
"s(	c #320A60",
"t(	c #160832",
"u(	c #1A014C",
"v(	c #1E0167",
"w(	c #140141",
"x(	c #28015C",
"y(	c #190135",
"z(	c #0D013A",
"A(	c #110249",
"B(	c #1A0158",
"C(	c #1C014A",
"D(	c #180140",
"E(	c #20014A",
"F(	c #270153",
"G(	c #21014C",
"H(	c #150140",
"I(	c #100131",
"J(	c #180145",
"K(	c #2A0169",
"L(	c #350275",
"M(	c #3C037A",
"N(	c #3C0872",
"O(	c #330A60",
"P(	c #230945",
"Q(	c #1E0B38",
"R(	c #49155A",
"S(	c #5C1E85",
"T(	c #2F0860",
"U(	c #14062F",
"V(	c #28016B",
"W(	c #2E0177",
"X(	c #390387",
"Y(	c #320380",
"Z(	c #1A014B",
"`(	c #22015C",
" _	c #29015E",
"._	c #210147",
"+_	c #160132",
"@_	c #1A015C",
"#_	c #10013A",
"$_	c #19013C",
"%_	c #150136",
"&_	c #140134",
"*_	c #1C013F",
"=_	c #1E0143",
"-_	c #15013E",
";_	c #31046F",
">_	c #3E087A",
",_	c #3D136E",
"'_	c #381560",
")_	c #2B114D",
"!_	c #1E0C3A",
"~_	c #1C0B35",
"{_	c #19082F",
"]_	c #6E118E",
"^_	c #581480",
"/_	c #2D0E57",
"(_	c #160C2D",
"__	c #260167",
":_	c #320179",
"<_	c #370283",
"[_	c #45068B",
"}_	c #44068B",
"|_	c #2E027A",
"1_	c #0A0130",
"2_	c #0F012E",
"3_	c #0E0128",
"4_	c #0E0126",
"5_	c #0F0129",
"6_	c #10012B",
"7_	c #120131",
"8_	c #12013B",
"9_	c #180141",
"0_	c #170144",
"a_	c #1F014F",
"b_	c #240155",
"c_	c #230159",
"d_	c #1C0154",
"e_	c #260261",
"f_	c #34086B",
"g_	c #3B1368",
"h_	c #321652",
"i_	c #2E1647",
"j_	c #201133",
"k_	c #130828",
"l_	c #0E0621",
"m_	c #2C035A",
"n_	c #590387",
"o_	c #5D2180",
"p_	c #27154B",
"q_	c #08051F",
"r_	c #2A0467",
"s_	c #380285",
"t_	c #40058A",
"u_	c #41068C",
"v_	c #2C0282",
"w_	c #1F0149",
"x_	c #160137",
"y_	c #10012D",
"z_	c #070123",
"A_	c #08011F",
"B_	c #0B0127",
"C_	c #0E0124",
"D_	c #12012B",
"E_	c #14012F",
"F_	c #140133",
"G_	c #140140",
"H_	c #2C0169",
"I_	c #40037A",
"J_	c #41037B",
"K_	c #3A0770",
"L_	c #38086E",
"M_	c #380E69",
"N_	c #2B124C",
"O_	c #1D0D34",
"P_	c #110820",
"Q_	c #090518",
"R_	c #1C0434",
"S_	c #3D0076",
"T_	c #561582",
"U_	c #452577",
"V_	c #11083C",
"W_	c #0C0628",
"X_	c #0E082B",
"Y_	c #11083E",
"Z_	c #380981",
"`_	c #35038B",
" :	c #2A0183",
".:	c #23016E",
"+:	c #140232",
"@:	c #090123",
"#:	c #060123",
"$:	c #050120",
"%:	c #07012A",
"&:	c #0D0140",
"*:	c #0E0145",
"=:	c #110147",
"-:	c #06011E",
";:	c #06011B",
">:	c #040119",
",:	c #06011F",
"':	c #090121",
"):	c #1C0153",
"!:	c #3B0475",
"~:	c #551087",
"{:	c #581289",
"]:	c #511284",
"^:	c #4F167C",
"/:	c #3D1467",
"(:	c #2F1253",
"_:	c #24113E",
"::	c #160B2B",
"<:	c #09051A",
"[:	c #3B0371",
"}:	c #2F0266",
"|:	c #3F1371",
"1:	c #2B1162",
"2:	c #150843",
"3:	c #0E082E",
"4:	c #060517",
"5:	c #0E0730",
"6:	c #140941",
"7:	c #2B1450",
"8:	c #340E6E",
"9:	c #28017B",
"0:	c #17013A",
"a:	c #030118",
"b:	c #030117",
"c:	c #060125",
"d:	c #1A0151",
"e:	c #1D0148",
"f:	c #2B015E",
"g:	c #26015F",
"h:	c #23025C",
"i:	c #2E026B",
"j:	c #490885",
"k:	c #591884",
"l:	c #54167F",
"m:	c #461471",
"n:	c #3D1760",
"o:	c #281346",
"p:	c #211038",
"q:	c #170B2C",
"r:	c #14033F",
"s:	c #210066",
"t:	c #320B65",
"u:	c #2B1155",
"v:	c #160A43",
"w:	c #0E082F",
"x:	c #070519",
"y:	c #0D062F",
"z:	c #2C1349",
"A:	c #38115F",
"B:	c #36026D",
"C:	c #1F015D",
"D:	c #16013D",
"E:	c #04011A",
"F:	c #050117",
"G:	c #06011A",
"H:	c #07011D",
"I:	c #120133",
"J:	c #2F0160",
"K:	c #400279",
"L:	c #450280",
"M:	c #40037E",
"N:	c #4E127D",
"O:	c #4B107E",
"P:	c #4D0B84",
"Q:	c #4F117E",
"R:	c #4B186C",
"S:	c #3C145A",
"T:	c #2B1449",
"U:	c #23113D",
"V:	c #1C0E32",
"W:	c #130926",
"X:	c #060314",
"Y:	c #060213",
"Z:	c #3A027E",
"`:	c #180053",
" <	c #380F62",
".<	c #2B1150",
"+<	c #190B4B",
"@<	c #0D062E",
"#<	c #08051D",
"$<	c #08051E",
"%<	c #0C062D",
"&<	c #180B41",
"*<	c #2E124C",
"=<	c #3C155E",
"-<	c #36036A",
";<	c #2B006E",
"><	c #23015F",
",<	c #1B014F",
"'<	c #070120",
")<	c #160150",
"!<	c #0B0122",
"~<	c #3B0276",
"{<	c #4A0485",
"]<	c #590E8C",
"^<	c #5F178B",
"/<	c #60188C",
"(<	c #550E87",
"_<	c #420E66",
":<	c #280D3F",
"<<	c #1B0D31",
"[<	c #180C2B",
"}<	c #130A25",
"|<	c #030310",
"1<	c #400459",
"2<	c #420380",
"3<	c #230162",
"4<	c #110238",
"5<	c #3C1162",
"6<	c #2B104C",
"7<	c #170A45",
"8<	c #0B052F",
"9<	c #0A0621",
"0<	c #090522",
"a<	c #0B052E",
"b<	c #160A3F",
"c<	c #3C155D",
"d<	c #430676",
"e<	c #3B0184",
"f<	c #380184",
"g<	c #27016E",
"h<	c #0A0127",
"i<	c #1B023D",
"j<	c #22024C",
"k<	c #250258",
"l<	c #210158",
"m<	c #330275",
"n<	c #4A0687",
"o<	c #53098D",
"p<	c #510E8A",
"q<	c #480E83",
"r<	c #3F0E6F",
"s<	c #2A0A4C",
"t<	c #0F0724",
"u<	c #110920",
"v<	c #110921",
"w<	c #0B061C",
"x<	c #0E0323",
"y<	c #68088D",
"z<	c #3C0276",
"A<	c #14023F",
"B<	c #390F60",
"C<	c #2C104C",
"D<	c #14083C",
"E<	c #0A052D",
"F<	c #0B0627",
"G<	c #0A0528",
"H<	c #0A042F",
"I<	c #1B0B48",
"J<	c #2F1250",
"K<	c #361259",
"L<	c #5A088E",
"M<	c #56048C",
"N<	c #1F015A",
"O<	c #28024C",
"P<	c #0C012D",
"Q<	c #0D012E",
"R<	c #0A0123",
"S<	c #16013F",
"T<	c #1F014C",
"U<	c #29025E",
"V<	c #33026E",
"W<	c #2E016E",
"X<	c #300271",
"Y<	c #350278",
"Z<	c #34027A",
"`<	c #32027B",
" [	c #410486",
".[	c #4C088A",
"+[	c #4A0B87",
"@[	c #3F0E7C",
"#[	c #36126D",
"$[	c #2C1250",
"%[	c #14092B",
"&[	c #0B051E",
"*[	c #0D0619",
"=[	c #0E051F",
"-[	c #09051D",
";[	c #20024C",
">[	c #530384",
",[	c #280064",
"'[	c #25025B",
")[	c #350F5A",
"![	c #2B0F49",
"~[	c #17093F",
"{[	c #0B0530",
"][	c #0B0628",
"^[	c #0A042B",
"/[	c #08042B",
"([	c #190A41",
"_[	c #321656",
":[	c #2F124E",
"<[	c #2F0668",
"[[	c #54098C",
"}[	c #630F8C",
"|[	c #58048C",
"1[	c #4A0283",
"2[	c #21024B",
"3[	c #37027D",
"4[	c #35027B",
"5[	c #380378",
"6[	c #2D026F",
"7[	c #31027A",
"8[	c #3F0687",
"9[	c #460C83",
"0[	c #391173",
"a[	c #361860",
"b[	c #2D164E",
"c[	c #1E0F34",
"d[	c #0B061F",
"e[	c #080314",
"f[	c #11061E",
"g[	c #280C44",
"h[	c #120629",
"i[	c #08051B",
"j[	c #0A0422",
"k[	c #1C0149",
"l[	c #4B037D",
"m[	c #5C068A",
"n[	c #3D017B",
"o[	c #4A0282",
"p[	c #330E56",
"q[	c #2F144E",
"r[	c #1A0A46",
"s[	c #0A042D",
"t[	c #0A0529",
"u[	c #080421",
"v[	c #0A0521",
"w[	c #0B0624",
"x[	c #281642",
"y[	c #462662",
"z[	c #431968",
"A[	c #490389",
"B[	c #4F068C",
"C[	c #72138E",
"D[	c #520680",
"E[	c #2B0071",
"F[	c #17014E",
"G[	c #270169",
"H[	c #33017D",
"I[	c #37017F",
"J[	c #37017B",
"K[	c #2D0366",
"L[	c #23035F",
"M[	c #2F076A",
"N[	c #3B0F71",
"O[	c #3C1866",
"P[	c #311751",
"Q[	c #27143C",
"R[	c #1A0C2F",
"S[	c #0B061E",
"T[	c #3C0F49",
"U[	c #3F155D",
"V[	c #3C1362",
"W[	c #250749",
"X[	c #35016E",
"Y[	c #5C0888",
"Z[	c #490380",
"`[	c #490480",
" }	c #411966",
".}	c #281645",
"+}	c #0A0623",
"@}	c #0A0523",
"#}	c #0B0621",
"$}	c #1D1036",
"%}	c #2D1946",
"&}	c #431864",
"*}	c #5C118E",
"=}	c #4D078A",
"-}	c #7B238B",
";}	c #6A0D8B",
">}	c #33006E",
",}	c #20014F",
"'}	c #26017B",
")}	c #1C0150",
"!}	c #29015C",
"~}	c #35016A",
"{}	c #390176",
"]}	c #3C0179",
"^}	c #350176",
"/}	c #2E016C",
"(}	c #380178",
"_}	c #43017F",
":}	c #390471",
"<}	c #420A76",
"[}	c #3B0E68",
"}}	c #35135B",
"|}	c #32154F",
"1}	c #2A153C",
"2}	c #1B0E31",
"3}	c #140A28",
"4}	c #0B051C",
"5}	c #1C033A",
"6}	c #44095E",
"7}	c #63187D",
"8}	c #591D83",
"9}	c #1E083F",
"0}	c #0E0333",
"a}	c #250063",
"b}	c #550786",
"c}	c #49037B",
"d}	c #320A61",
"e}	c #331654",
"f}	c #180D35",
"g}	c #0A0620",
"h}	c #070516",
"i}	c #09061B",
"j}	c #211337",
"k}	c #1D0F33",
"l}	c #4B235F",
"m}	c #772B90",
"n}	c #75248B",
"o}	c #812D8C",
"p}	c #570987",
"q}	c #230063",
"r}	c #320180",
"s}	c #40048E",
"t}	c #41058B",
"u}	c #290275",
"v}	c #490374",
"w}	c #590583",
"x}	c #5C0588",
"y}	c #560487",
"z}	c #500284",
"A}	c #420177",
"B}	c #3E0172",
"C}	c #430176",
"D}	c #47017C",
"E}	c #4B0580",
"F}	c #521380",
"G}	c #52147E",
"H}	c #4C127A",
"I}	c #3F185D",
"J}	c #321449",
"K}	c #220F36",
"L}	c #160A29",
"M}	c #180432",
"N}	c #2E034F",
"O}	c #570582",
"P}	c #5F1584",
"Q}	c #45116D",
"R}	c #26094E",
"S}	c #11052A",
"T}	c #250255",
"U}	c #370279",
"V}	c #3F027D",
"W}	c #350174",
"X}	c #30085F",
"Y}	c #24113F",
"Z}	c #1C1037",
"`}	c #0A061F",
" |	c #070517",
".|	c #080618",
"+|	c #1C1132",
"@|	c #1C1130",
"#|	c #47205C",
"$|	c #731B90",
"%|	c #771E8C",
"&|	c #6C168E",
"*|	c #47047E",
"=|	c #1F005C",
"-|	c #19014D",
";|	c #4C0A8C",
">|	c #32028C",
",|	c #28017E",
"'|	c #38026F",
")|	c #500482",
"!|	c #650B8B",
"~|	c #640C8D",
"{|	c #650A8C",
"]|	c #5C048A",
"^|	c #530284",
"/|	c #50027F",
"(|	c #50047F",
"_|	c #4E0581",
":|	c #511281",
"<|	c #5D1E84",
"[|	c #511B75",
"}|	c #3C155C",
"||	c #2A1142",
"1|	c #1C0C30",
"2|	c #0B041B",
"3|	c #160345",
"4|	c #330369",
"5|	c #38026D",
"6|	c #460B79",
"7|	c #541881",
"8|	c #532077",
"9|	c #28134E",
"0|	c #180B31",
"a|	c #150243",
"b|	c #2E0261",
"c|	c #2D0170",
"d|	c #3C0180",
"e|	c #32085F",
"f|	c #1F1136",
"g|	c #1B1137",
"h|	c #0A061C",
"i|	c #080616",
"j|	c #060516",
"k|	c #1C112F",
"l|	c #181029",
"m|	c #421858",
"n|	c #6C0C90",
"o|	c #590789",
"p|	c #58078C",
"q|	c #4F0682",
"r|	c #1E0155",
"s|	c #2F0176",
"t|	c #3C048A",
"u|	c #280184",
"v|	c #290177",
"w|	c #210167",
"x|	c #280162",
"y|	c #4E0381",
"z|	c #4B0386",
"A|	c #450487",
"B|	c #540888",
"C|	c #5C0A8A",
"D|	c #550387",
"E|	c #4F0282",
"F|	c #5A0686",
"G|	c #66178A",
"H|	c #591484",
"I|	c #51167E",
"J|	c #491870",
"K|	c #38145A",
"L|	c #210D3B",
"M|	c #310449",
"N|	c #2E0362",
"O|	c #2B0362",
"P|	c #3E1270",
"Q|	c #3D1B6F",
"R|	c #2A1555",
"S|	c #140B35",
"T|	c #07041B",
"U|	c #0F0427",
"V|	c #320175",
"W|	c #260164",
"X|	c #2F0169",
"Y|	c #450187",
"Z|	c #390860",
"`|	c #160E2B",
" 1	c #1B0F35",
".1	c #09061A",
"  . + @ # $ % & & * * = - $ ; > , , ' ) ! ~ { ] ^ / ( _ : < [ } | 1 2 3 4 5 6 7 8 9 0 a b c d e f g # h i c a c & = j ( k l m n ",
"  o p l & q r s t u v w x # y , z # A B C D E F G H I J K L M N O P Q R S T U V W X Y Z `  ...+.@.#.$.%.&.*.=.-.;.>.G ,.'.).!.m ",
"~.{.].( q ^./.(._.:.<.[.: G , , }.|.1.2.3.j j ( 4.4.5.6.7.8.9.0.a.b.c.d.e.f.g.h.i.j.k.l.m.n.o.p.q.r.s.t.u.v.w.x.y.z.* A.j B.C.n ",
"D.E.F.& ,.G.H.I.J.K.L.M.z N.O.= P.|.Q.R.B.S.5.T.U.V.W.X.Y.Z.`. +.+++@+#+$+%+&+*+=+-+;+>+,+'+)+!+~+{+C ]+^+/+(+_+:+<+}.A.A.j D.z.",
"[+}+j ,.G S.|+1+2+3+4+5+6+O.h G.4.B.7+8+9+0+a+b+c+d+e+f+g+h+i+j+k+l+m+n+o+p+q+r+s+t+u+v+w+x+y+z+A+B+C+D+E+F+G+H+I+- B._ ^.G ( ( ",
"'.( J+& / - K+L+M+N+O+O.O.h [+_ P+}.x Q+R+S+T+U+V+W+X+Y+Z+`+ @.@+@@@#@$@%@&@*@=@-@;@>@,@'@)@!@~@{@]@^@/@(@_@:@<@[@}@q / A.j ( |@",
"'.( # P+& 1@2@3@4@5@P+6@G 7@# g % 8@9@0@a@b@c@d@e@f@g@h@i@j@k@l@m@n@o@p@q@r@s@t@*@u@v@w@x@y@z@A@B@C@D@E@F@G@H@I@J@  $ j K@7@h L@",
"( G.G.& # M@N@O@P@Q@j R@$ S@T@U@V@W@[@X@Y@Z@`@ #.#+#@###$#%#&#*#=#-#;#>#B+,#'#)#!#!#~#{#]#^#/#(#_#:#<#[#}#|#1#2#3#4#M@# ,.q h ( ",
"h # = 7@m 5#6#7#8#q # S@9#0#a#b#c#d#e#f#g#h#i#j#k#l#m#n#o#p#q#r#s#t#u#v#w#/#x#y#z#A#B#C#D#E#F#G#.@H#I#J#K#L#M#N#O#P#Q#R#7@j # _ ",
"[+S#G T#U#V#W#X#$ l ~.Y#Z#`# $.$+$@$#$$$%$&$*$=$-$;$>$,$'$)$!$~${$]$^$]$/${$($_$:$<$[$}$|$B+1$2$3$4$5$6$7$8$9$M.0$a$b$c$d$^.z.J+",
"}.B.P+4.e$f$g$h$i$j$k$l$m$n$o$p$q$r$s$t$u$v$w$x$y$z$A$~@'@B$C$D$E$F$G$H$D$I$J$K$L$F$M$N$|$O$P$Q$R$S$T$Y U$V$W$X$Y$Z$`$ %.%A.l G.",
"l +%P+6+@%#%$%%%&%*%=%-%;%>%,%'%)%!%~%{%]%^%/%(%_%:%<%[%}%|%P$1%2%3%4%5%6%1%]#7%D$8%9%0%}$a%b%A#c%d%e%f%g%h%i%j%k%l%m%c n%, !.g ",
"o%e * , # p%q%r%s%t%u%v%w%x%y%z%A%B%C%D%E%F%G%H%I%J$J%{$K%/#L%M%M%N%O%P%N%Q%R%S%P%T%U%V%4%y@W%,@X%Y%(#Z%`% &3..&+&@&#&$&P.}@}@d ",
"$ %&, ,.P.&&*&=&-&;&>&,&'&)&!&~&{&]&^&y+/&(#(&_&:&<&[&}&|&1&1&2&M%3&2&4&5&5&6&7&8&9&0&D$T%R$a&b&c&!&d&e&f&g&h&i&j&k&l&m&n&x n # ",
"$ y o&,.p&q&r&s&t&u&v&w&x&y&z&v+(&(&'@A&B&C&D&E&F&G&H&}%7%I&I&J&K&1%L&[%M&N&O&P&Q&R&A#1%S&T&U&V&W&X&Y&Z&`& *.*+*@*#*$*%*&***=*x.",
"g O.N.= -*;*>*,*'*)*!*~*{*]*^*/*(*_*:*<*[*}*|*1*2*3*z#P$E#4*4*5*6*P$7*,@8*9*0*a*b*c*d*e*1%d*f*g*h*i*j*k*l*m*n*o*p*q*r*s*t*u*v*w*",
"y N.P+x*y*z*A*_#B*C*D*E*F*G*H*I*J*K*L*M*N*L*O*P*K*M%3%Q*R*F$S*T*U*V*I$H%W*X*Y*Z*`* =.=+=P*@=#=$=%=&=*===-=;=>=,='=)=!=~={=]=^=/=",
"G (=,._=:=<=V&[=}=|=1=2=3=4=5=3&e*O%O*6=S%7=8=N%L*L*O%9=0=F#a=b=c=d=e=f=<%c*g=h=i=j=k=l=m==@X%A@s+n=o=p=q=r=s=t=u=v=w=x=y=z=A=B=",
"5+C=D=-#r#E=!&F=G=z@z#H=4%4%2&I=z@J=K=L=2&P$M=N=O=X%A@v+A&P=Q=R=S=T=U=U=V=W=X=Y=Z=`= -.-+-_**+@-#-$-%-x.N@&-*-=---;->-,-'-)-!-~-",
"G {-]-^-)$/-(-_-:-<-B+E$J&[-I%}-W=|-1-2-3-4-c*5-/&6-x+7-8-9-0-a-b-c-d-e-O&F&J=f-g-h-i-~&j-k-l-#-#-m-n-o-p-q-r-s-t-p*u-v-w-x-y-z-",
"P+A-B-C-D-*+=@E-O%T%Q$]#F-T&G-T&R$R$}-H-!$^-I-J-K-L-M-N-O-P-Q-R-S-T-U-'@V-W-V=J=X-Y-Z-`-p#T$ ;.;#-+;@;<##;$;%;&;*;=;-;;;>;,;';);",
"6@!;~;W*{;];3%7=1%^;0&/;A#+=:-a=(;_;:;X&<;[;};|;1;2;3;4;5;6;7;8;9;0;a;b;c;d;m@e;a&f;g;h;i;j;k;y+l-l;m;n;o;p;q;r;s;t;u;g&.&v;w;x;",
"y;z;A;_-B;C;D;7=E;F;^;G;H;I;J;N&K;L;M;N;l@O;P;Q;R;S;T;U;V;W;X;3;Y;Z;`; >.>+>@>#>X&$>%>&>*>=>->[*;>H=>>,>'>)>!>~>{>]>^>/>(>_>:><>",
"[>Q&}*=@P%}>4%5%6%1%1$|>1>-#2>3>4>5>6>7>8>7>9>0>a>b>c>d>e>f>g>q$h>'%i>j>k>l>m>n>N;o>p>q>r>s>t>u>v>w>x>y>z>A>B>C>D>E>F>&.G>H>M#I>",
"J>R$K>P*5%[$B+T%T%L>M>($W-N>O>P>0*Q>R>S>T>U>V>W>X>Y>Z>`> ,.,+,@,#,$,%,Z>&,.@*,b*a*=,-,;,>,,,',),/*^;F;z@!,~,{,],^,/,(,_,:,<,<.[,",
"A;/*1$},J&|,L%L%L>1,e;O>2,O>3,4,5,6,7,8,9,0,a,b,c,o#d,e,f,g,h,i,j,/-b-k,l,m,n,o,p,q,r,s,t,u,v,t>K=w,6%}%J;6,x,y,z,A,B,C,D,E,F,G,",
"(#;@H,V*;#I,J,K,O&L,M,N,O,P,Q,R,S,T,U,#@V,W,X,Y,Z,`,W* 'G=.'+'(&P=@'P=#'=>;>)@c;$'%'&'*'='-';'H*I;>',':$'')'!'W>W>!'~'{']'^'/'('",
"_'_$:'<'['}'|'1'2'U,9*3'4'5'6'7'L,8'9'0'c*a'-@-@)@b'c'm='#L*d'+=e'F&V-f'U&g'h'i'j'k'l'm'n'o'p'2=q'r'4%1&s'F&t'u',+v'w'a,x'y'z'A'",
"K$B'C'D'E'F'G'M,H'I'2$J'K'5,L'M'N'O'c*P'y#Q'x@,@R'S'3*($t#T'U'V'_'~$K,W'.-X'L&H-Y'Z'`' ).)+)@)P&#)$)%)&)K$*)*#8'b;=)-);)>),)')))",
"!)~){)])^)/)()_):)<)~$[)m@~)M'})|)1)2)4&|>3)<&4)5)6)D'7)8)[)[)N>9)O&0)a)b)c)1$d)e)f)F%g)E%h)i)j)H,U%k)t#;#l)m)n)o)*'p)q)r)s)t)u)",
"9)v)w)x)y)z)~,r+I%K,A)6,e;r#P=F=B)C)]#D)''E)U=F)(;b)G)!,[%}%]#H)I%T=I)H,J)y#I=c-K)s>L)M)N)O)q+(;P$P)Q)|&K$M&R)I'S)T)U)V)W)X)=>Y)",
"Z)`) !.!3>c;H&Q'4)+!@!#!$!v+e%%!I*h'4&&!U'*!=!-!,@v@I*];r';!N$>!^#1&&)L$I$P$T&,!'!)!!!~!{!!#]!^!/!H,(!K$_!:!_!d-<![!}!|!1!2!3!4!",
"5!6!7!8!9!0!<)M>a!&)!)e-$!b!c!d!e!f!g!h!i!j!k!i'l!5=e*m!9%n!o!p!M$8%T*U*T*L&q!r!!!s!t!u!v!w>K%w!1&;#x!y!|'z!r#A!B!C!D!E!F!G!}%O$",
"H!I!J!K!L!K>M!N!K%O!3)}-P!Q!R!S!L&T!U!V!W!X!C-H*N*Y!H=r'M$Z!`! ~.~+~@~Q)I&A#:)#~$~%~&~*~N=(!k)H,T![%=~L;i!-~~,;~>~,~'~)~!~{&l=w>",
"~~{~]~A@h'^~/~5){$}&j)P'%+(~_~x>7%:~O><~[~}~|~1~E;d*B#Q*2~3~4~5~2~+~S*6~7~8~9~0~a~b~c~Q!z@^~1&^~T!d~V!e~f~d~g~h~0,i~u&j~k~l~m~+'",
"n~#@c-c){$''A)o~;#p~W=q~r~s~L*1$/!F&t~u~v~w~x~M%y~z~8&Q*N$.~.~2~9%V%0=z#A~B~C~D~E~F~G~,@R$H~[-y#I~J~K'K~L~M~N~O~P~Q~i~R~!'S~T~(&",
"U,U~V~J,W~X~W~V*Y~Z~A@`~ {.{+{<$f!W*@{#{${%{l!F;_~&{*{a%={-{4*4*U%]#j);{>{,{'{){&{+-R$z@B#L=G-(&!{~{{{]{/~E):=i'X*^{/{({l~k;_{:{",
"~,l)f~<{[{}{/~S*|{j-1{2{3{4{P)|,2$I-5{6{7{8{G-9{0{a{z~+=b{}%}%q'_'c{d{e{f{g{/&^*:&h{i{0&d'l=@-j{k{F@l{/$t#E)~$m{@-n{V>o{p{q{X,r{",
"N's{t{u{v{w{/!B+T&x{y{z{A{B{/!y@C{D{E{F{G{H{O=I{J{K{L{l!M{'@,!v+!$B&#'^*W=k-1)1)N{q+O{m=X%B%V,P{@!Q{]$R{B'-!J;$!S{T{b>U{#-V{W{@#",
"X{Y{1'4'Z{`{<-},4= ].]+]@]H,#]T&^-U,W&$]%]&]*]i)=]'#Y!I*l!+'k;)@H%-](*;]u>>],]'];]l!)]!]~]{]]]^]_$/](]_]:]<][]}]s+w+|]d.1]2]3]4]",
"^-R>5]}]6]S'1$P*7]*~8]G-9]0]r';@a]b]c]d]e]r$f]g](~l!h]f!i]j]R'R&O=O=i)k]l]m]n]o]p]q]r]s]t]u]v]w]f=x]y]z]A]<]B]C]c;p#D]E]F]G]H]I]",
"J]n@K](-L]K=T%M]N]O];]P]/]R*-{r+5>P>+@Q]F!R]S]T]U]V]1*c)W]!,G)9!~;X]Y]Z]%{`] ^.).^$]+^@^#^N>h!s'$^5)y]%^&^:'*^C]J]'+=^-^;^>^,^'^",
"d{#@)^!^~^A#i]=@p+{^e!T!8%]^J&^^7,/^(^_^:^G@<^[^}^q]o)A@|^1^l~#-2^3^4^5^6^7^8^c>9^0^a^9!H-_$b^c^d^u#(](]]$H,!)e^f^${g^h^i^j^k^& ",
"z&c&l^m^n^o^C${;p^I{q^B+Q*4*:$r^s^V!/^t^u^v^w^x^y^z^A^B^C^D^E^F^G^H^I^x^J^K^L^M^K)N^O^P^g!{$u#H$H$v#5*0]B+Q^R^V,S^T^U^V^W^X^Y^= ",
"Z^`^ /./+/@/I;R'#/$/8=[$-{<$I;-~%/<=&/*/=/-/;/`;>/,/'/)/!/~/{/]/^///(/_/:/</[/}/|/R>@!1/L~1&2/U%E#$)3/5%2&4/c&.@5/6/7/8/9/0/a/R@",
"b/S'c/d/e/5&I;v>f/g/h/i/^#P)Q'j/k/l/m/n/+>o/k~p/q/r/s/t/s/u/v/w/x/y/z/A/B/C/D/j!7'<{<'N!(!<$4%3%E/F/G/M%H/1^I/J/K/L/M/N/O/P/Q/# ",
"R/=@l=S/T/]!y#U/O=8&V/W/E#X/Y/Z/`/ (f^8*f'S=l/.(+(@(#($(%(&(*(o/=(-(0*(^O,;(>(@!s',('(X/)(!(7=~({(Q%S%E-](C%^(/(((_(:(<(&*[(}($ ",
"|(f/P'_&:~2)1(b!2(I{3(3/4(X/5(6(7(:;8(9(0(_%O&f'!@X%a(b(c(d(e(0'f(g(h(:&5&^~7%L>D$0]E#D#[$7=i(S%N%y~q+j(k(l(>$m(n(o(p(q(r(s(t(= ",
"u(1)C&0,v(w(=@x(1{8]y(,'|,X/z(A(($N~9*B(;@7%H)}-C(']u>D(u@r@E(F(G(K=z@M=H(P*y~I(5%3%3%3%,#E;P*d*:-J(;>K(L(M(N(O(P(8.Q(R(S(T(U(c ",
"p{V(W(X(Y(3$Z(`( _._+_}>5*w#Q)f=/~J,^]@_H-z@H,#_!# {$_%_q^&_*_=_t@{#2*e'u(l={#+=3&1%];F;h'Y!-_J(q!4-c*;_>_,_'_)_!_~_{_]_^_/_(_d ",
"__:_<_[_}_|_D&(#G%@)S%!(-{8%4(1_V*$^s'<{-~B$f!^~7%2_3_4_5_6_7_6=P%w>8_2)A#u@9_A#0&z#>@2*0_a_b_c_A&d_e_f_g_h_i_j_k_l_m_n_o_p_q_h ",
"R@r_s_t_u_v_)'(&Y%w_x_y_r'z_E$E$X/u#L~B'-!!)w(K>^!S*F$Q*D;D;E/A_Q*B_3%3%C_D_E_F_G;y@y@G_^*H_I_J_K!K_L_M_N_O_U#P_Q_R_S_T_U_V_W_# ",
"# X_Y_Z_`_ :.:P=d_8~9{+:@:4*#:$:G$%:,(&:*:=:e'J(^;!(;!;!Q*-:;:N$>:,:}$':W/4_S%u@{#2*y@b{):!:~:{:]:^:/:(:_:::<:}.G.[:}:|:1:2:3:4:",
"o%5:6:7:8:9:t~E=d)S'0:F_}>>!a:b:]^c:(!K,J'T=D+d:J(M%3%C;R*R*;:0%0%R*R*}$3%R%e:f:f]g:f(h:i:j:k:l:m:n:o:p:q:  g j r:s:L]t:u:v:w:x:",
"e y:v:z:A:B:[=C:G&x@D:7~S&-:E:>:N$-:6*|{p~E)_;M'm{K>S&}$F:G:;:;:H:$)4{2%I:l!J:K:L:M:N:O:P:Q:R:S:T:U:V:W:R#X:y Y:Z:`:J= <.<+<@<#<",
"$<%<&<*<=<-<;<m,><,<+-G_9=-{-:'<Q*A_D##]Y~}%[%^^)<P^f!3/W/4_3_!<S%K{q+(*O=H%Y]~<{<]<^</<(<_<:<0#<<[<}<}@> = |<1<2<3<4<5<6<7<8<9<",
"0<a<b<*<c<d<e<f<g<.;e(G_O$h<r'|$@:C;;:;:r'P$[-Q^P]p~]!b%M%N*9{i<j<k<l<;{^&c&[=m<n<o<p<q<r<s<9@t<u<v<w<E E = x<y<z<k=A<B<C<D<E<F<",
"G<H<I<J<K<@+L<M<Q]'+N<A&O<P<Q<S&R<@:}$R*V%)(/!T!K,~$[%h]S<:*T<U<V<L(W<X<Y<Z<`< [.[+[@[#[$[%[&[m *[8+{.=[-[= ;[>[x^,['[)[![~[{[][",
"^[/[([_[:[<[[[}[|[1[3'}-R$2[y~3%3%3/C#K&]#M>J$~$M~e-_'W=!@[>B%t]3[K/4[Y<5[6[7[8[9[0[a[b[c[d[%&e[f[g[P/h[i[j[k[l[m[n[o[p[q[r[s[t[",
"u[v[w[x[y[z[A[B[C[D[E[b!J(N{l;x![$3/+{>#}%p~h(d~F[c*A&(-G[9'[;H[I[J[w+C%K[L[M[N[O[P[Q[R[S[+%!.T[U[V[W[Q/# d~c*X[Y[Z[`[ }.}+}@}u[",
"G.S##}$}%}&}*}=}-};}>}/*,}(*z@I/'}4/e*I=T!J%I;)}!}~}{}]}^}/}X](}_}L:,$:}<}[}}}|}1}2}3}4}# 5}6}7}8}r&9}&[0}T=y$a}b}c}d}e}f}g}G.G.",
"h}S#i}j}k}l}m}n}o}p}q}W%R'O=P&r}s}t}u}3*f!a=;@|=v}w}x}y}z}A}B}C}D}E}F}G}H}I}J}K}L}  S@M}N}~}O}P}Q}R}S}1@h(L%T}U}V}W}X}Y}Z}`}h}G.",
" |# .|+|@|#|$|%|&|*|=|-|I%W*e,r}s/;|>|,|k=*]g:'|)|!|~|{|]|^|/|(|_|:|<|[|}|||1|I+p 2|3|4|5|6|7|8|9|0|8@a|_'(*b|b-c|d|e|f|g|h|i|G.",
"j|R@$ k|l|m|n|o|p|q|r|T&3*9!s|v~#{t|`_u|v|w|x|y|z|A|B|C|D|E|F|G|H|I|J|K|L|[@  %&M|N|g,O'O|P|Q|R|S|T|U|V|W,W|X|r|P=Y|Z|`| 1.1[+>."};
