/* XPM */
static char * portal_rot4_xpm[] = {
"64 64 3599 2",
"  	c #180D32",
". 	c #180C30",
"+ 	c #160C2E",
"@ 	c #170D30",
"# 	c #0F0924",
"$ 	c #0D0A25",
"% 	c #0E0B29",
"& 	c #08061D",
"* 	c #06061C",
"= 	c #0B081E",
"- 	c #100C24",
"; 	c #0D0A22",
"> 	c #0C081E",
", 	c #110B24",
"' 	c #190E35",
") 	c #1F0E43",
"! 	c #250C4F",
"~ 	c #340C6A",
"{ 	c #5B1894",
"] 	c #8E2ACA",
"^ 	c #4B079A",
"/ 	c #41019F",
"( 	c #5901BA",
"_ 	c #43039B",
": 	c #320879",
"< 	c #2A0C64",
"[ 	c #350B7A",
"} 	c #330884",
"| 	c #32078F",
"1 	c #360990",
"2 	c #3A0A88",
"3 	c #350C78",
"4 	c #240E50",
"5 	c #1F0F3B",
"6 	c #1A0E2E",
"7 	c #100821",
"8 	c #140736",
"9 	c #180647",
"0 	c #280B50",
"a 	c #451453",
"b 	c #120920",
"c 	c #180C2C",
"d 	c #0A0721",
"e 	c #080621",
"f 	c #080521",
"g 	c #08071E",
"h 	c #0E0B28",
"i 	c #110C2B",
"j 	c #120D2F",
"k 	c #0E0B26",
"l 	c #0D0923",
"m 	c #0C0920",
"n 	c #0B091F",
"o 	c #08081E",
"p 	c #080821",
"q 	c #08071F",
"r 	c #08071C",
"s 	c #0A081E",
"t 	c #09081C",
"u 	c #0D091F",
"v 	c #150D29",
"w 	c #120C29",
"x 	c #150C2B",
"y 	c #170E2E",
"z 	c #180D33",
"A 	c #180C33",
"B 	c #170C30",
"C 	c #08081C",
"D 	c #09081E",
"E 	c #100C2A",
"F 	c #1B1238",
"G 	c #130A2C",
"H 	c #120C26",
"I 	c #110C24",
"J 	c #0A071B",
"K 	c #0F091F",
"L 	c #1C1032",
"M 	c #2A154F",
"N 	c #2D125C",
"O 	c #2E0C69",
"P 	c #430C83",
"Q 	c #6315A2",
"R 	c #711BB6",
"S 	c #4501A6",
"T 	c #5603B8",
"U 	c #760CCA",
"V 	c #5403B3",
"W 	c #4B01A7",
"X 	c #37008F",
"Y 	c #3D0293",
"Z 	c #43029F",
"` 	c #6508C3",
" .	c #4A08A8",
"..	c #2F0782",
"+.	c #1C055E",
"@.	c #1E0959",
"#.	c #210C55",
"$.	c #190D32",
"%.	c #140C27",
"&.	c #12082F",
"*.	c #190845",
"=.	c #340E54",
"-.	c #6E217C",
";.	c #420D4C",
">.	c #46134D",
",.	c #501C4D",
"'.	c #25153A",
").	c #2A163B",
"!.	c #2A153B",
"~.	c #271335",
"{.	c #1E1230",
"].	c #29173F",
"^.	c #2D1647",
"/.	c #30154D",
"(.	c #2E154C",
"_.	c #2C1347",
":.	c #221039",
"<.	c #130B2A",
"[.	c #1C1232",
"}.	c #0F0C24",
"|.	c #09081B",
"1.	c #08071A",
"2.	c #100B22",
"3.	c #130C28",
"4.	c #120B28",
"5.	c #190F31",
"6.	c #1B0F34",
"7.	c #160D2C",
"8.	c #0D0A20",
"9.	c #060619",
"0.	c #100C25",
"a.	c #180D3A",
"b.	c #210C47",
"c.	c #110C29",
"d.	c #100B25",
"e.	c #070518",
"f.	c #0E081E",
"g.	c #21123B",
"h.	c #371868",
"i.	c #341176",
"j.	c #300B78",
"k.	c #4F0C95",
"l.	c #660CAC",
"m.	c #4D05A0",
"n.	c #3E01A5",
"o.	c #5404BC",
"p.	c #5E07BF",
"q.	c #5002B4",
"r.	c #5201B0",
"s.	c #410196",
"t.	c #30017A",
"u.	c #410394",
"v.	c #5608B6",
"w.	c #5D0AC3",
"x.	c #4408A7",
"y.	c #410C9A",
"z.	c #370691",
"A.	c #35068B",
"B.	c #311266",
"C.	c #20103A",
"D.	c #12082C",
"E.	c #170643",
"F.	c #300D54",
"G.	c #3A1053",
"H.	c #2A0936",
"I.	c #5E1D59",
"J.	c #90327C",
"K.	c #832D77",
"L.	c #471561",
"M.	c #461868",
"N.	c #41146F",
"O.	c #451874",
"P.	c #3C1861",
"Q.	c #38165D",
"R.	c #3E156B",
"S.	c #3F1375",
"T.	c #321066",
"U.	c #240859",
"V.	c #180746",
"W.	c #24123C",
"X.	c #1B1131",
"Y.	c #110C25",
"Z.	c #050518",
"`.	c #080718",
" +	c #0A081D",
".+	c #120C24",
"++	c #160E2A",
"@+	c #170E2D",
"#+	c #140D27",
"$+	c #180E2A",
"%+	c #0B091C",
"&+	c #07061B",
"*+	c #0F0B22",
"=+	c #180E34",
"-+	c #13083E",
";+	c #250E49",
">+	c #110B29",
",+	c #0C0821",
"'+	c #050416",
")+	c #170938",
"!+	c #30126B",
"~+	c #461193",
"{+	c #6212B0",
"]+	c #8312BD",
"^+	c #7303BA",
"/+	c #3B0193",
"(+	c #4102B1",
"_+	c #4301B6",
":+	c #2B0086",
"<+	c #340188",
"[+	c #310184",
"}+	c #1F015E",
"|+	c #17014D",
"1+	c #160152",
"2+	c #330188",
"3+	c #4D04B5",
"4+	c #4D02B9",
"5+	c #4703AA",
"6+	c #3F0399",
"7+	c #4902A1",
"8+	c #410E7E",
"9+	c #2D1844",
"0+	c #110634",
"a+	c #17074B",
"b+	c #310F57",
"c+	c #2C0C45",
"d+	c #140426",
"e+	c #61265A",
"f+	c #762C6A",
"g+	c #591E53",
"h+	c #350A40",
"i+	c #591863",
"j+	c #5B1A76",
"k+	c #2C0A6C",
"l+	c #2B0C72",
"m+	c #2F0C75",
"n+	c #2D0C70",
"o+	c #2E0A76",
"p+	c #360C7C",
"q+	c #441887",
"r+	c #360B81",
"s+	c #3E1D55",
"t+	c #130C2F",
"u+	c #181031",
"v+	c #100B23",
"w+	c #070618",
"x+	c #080618",
"y+	c #0A081C",
"z+	c #140D26",
"A+	c #120C25",
"B+	c #0F0B21",
"C+	c #110B22",
"D+	c #0B081C",
"E+	c #07061A",
"F+	c #130C26",
"G+	c #0B072D",
"H+	c #1E0A4D",
"I+	c #0E0A25",
"J+	c #0F0A26",
"K+	c #060518",
"L+	c #0F0A24",
"M+	c #1C0C3B",
"N+	c #341272",
"O+	c #6917B0",
"P+	c #8B15C8",
"Q+	c #7F0BB8",
"R+	c #5D01A3",
"S+	c #46019F",
"T+	c #4703B4",
"U+	c #4904B3",
"V+	c #1D0163",
"W+	c #22015F",
"X+	c #320184",
"Y+	c #230168",
"Z+	c #0F013A",
"`+	c #12023E",
" @	c #220264",
".@	c #2A017C",
"+@	c #240172",
"@@	c #240164",
"#@	c #350179",
"$@	c #320177",
"%@	c #310E63",
"&@	c #301553",
"*@	c #19074A",
"=@	c #200A53",
"-@	c #311055",
";@	c #2B0C42",
">@	c #240E30",
",@	c #70366D",
"'@	c #76356D",
")@	c #270C2C",
"!@	c #220834",
"~@	c #3C115B",
"{@	c #370F59",
"]@	c #1F084B",
"^@	c #1B0847",
"/@	c #18063E",
"(@	c #200556",
"_@	c #240177",
":@	c #811EC1",
"<@	c #B542D8",
"[@	c #7B24AF",
"}@	c #4E2460",
"|@	c #0B0824",
"1@	c #0C081D",
"2@	c #070619",
"3@	c #0F0A20",
"4@	c #0E0A1F",
"5@	c #0D0A1E",
"6@	c #0C091E",
"7@	c #0A0718",
"8@	c #0A0724",
"9@	c #100834",
"0@	c #1D0B43",
"a@	c #0C0823",
"b@	c #08051B",
"c@	c #040415",
"d@	c #0C0820",
"e@	c #261148",
"f@	c #3B147C",
"g@	c #6A15B8",
"h@	c #7208B6",
"i@	c #560299",
"j@	c #3B017A",
"k@	c #2D0176",
"l@	c #370297",
"m@	c #33028D",
"n@	c #200161",
"o@	c #2A0164",
"p@	c #34017A",
"q@	c #200159",
"r@	c #0E0134",
"s@	c #11013A",
"t@	c #19014E",
"u@	c #1A014E",
"v@	c #1B0153",
"w@	c #2A0264",
"x@	c #3B017F",
"y@	c #41009E",
"z@	c #340984",
"A@	c #300E6C",
"B@	c #240864",
"C@	c #230D52",
"D@	c #290F46",
"E@	c #1E0835",
"F@	c #3C1E48",
"G@	c #6A366D",
"H@	c #653063",
"I@	c #15052A",
"J@	c #2A0B43",
"K@	c #300D55",
"L@	c #18074A",
"M@	c #180542",
"N@	c #140630",
"O@	c #140928",
"P@	c #150B25",
"Q@	c #170B33",
"R@	c #2C086C",
"S@	c #5E09B6",
"T@	c #7829AB",
"U@	c #59286B",
"V@	c #241241",
"W@	c #120C2C",
"X@	c #0A071E",
"Y@	c #0B0718",
"Z@	c #0B081D",
"`@	c #0D091E",
" #	c #100B21",
".#	c #0D0A1F",
"+#	c #0F0B23",
"@#	c #0C0826",
"##	c #190C3C",
"$#	c #160934",
"%#	c #080519",
"&#	c #050414",
"*#	c #170D2C",
"=#	c #251242",
"-#	c #30125E",
";#	c #531199",
">#	c #700EC6",
",#	c #7704C2",
"'#	c #4D0197",
")#	c #28025F",
"!#	c #2A0178",
"~#	c #28016A",
"{#	c #240157",
"]#	c #30016A",
"^#	c #2F016B",
"/#	c #1F0150",
"(#	c #110135",
"_#	c #150143",
":#	c #180149",
"<#	c #1F0156",
"[#	c #300176",
"}#	c #3C018B",
"|#	c #3E019B",
"1#	c #300399",
"2#	c #330A7D",
"3#	c #1F055B",
"4#	c #231143",
"5#	c #210E3A",
"6#	c #0D0325",
"7#	c #381D52",
"8#	c #482762",
"9#	c #311841",
"0#	c #1D0834",
"a#	c #2C0E4C",
"b#	c #280C4D",
"c#	c #14063C",
"d#	c #12072C",
"e#	c #150A25",
"f#	c #1B0E2D",
"g#	c #1E1034",
"h#	c #1E1131",
"i#	c #160C2A",
"j#	c #110A27",
"k#	c #361249",
"l#	c #39194F",
"m#	c #271146",
"n#	c #050413",
"o#	c #110B21",
"p#	c #0F0B20",
"q#	c #0E0A22",
"r#	c #08071D",
"s#	c #0E0A24",
"t#	c #110A2B",
"u#	c #1E0B41",
"v#	c #09071A",
"w#	c #03030F",
"x#	c #0E0925",
"y#	c #23133C",
"z#	c #2E1452",
"A#	c #3B0F74",
"B#	c #7618BD",
"C#	c #750CCE",
"D#	c #6202BF",
"E#	c #5301A7",
"F#	c #2E0164",
"G#	c #2C0163",
"H#	c #31016A",
"I#	c #30016C",
"J#	c #260163",
"K#	c #190146",
"L#	c #0C012A",
"M#	c #120138",
"N#	c #14013C",
"O#	c #19014D",
"P#	c #190256",
"Q#	c #250270",
"R#	c #3B019A",
"S#	c #3D01A4",
"T#	c #300196",
"U#	c #29037C",
"V#	c #220C4E",
"W#	c #23123E",
"X#	c #1C0C33",
"Y#	c #160636",
"Z#	c #351962",
"`#	c #361A5E",
" $	c #080121",
".$	c #210B3B",
"+$	c #2A0E4F",
"@$	c #210857",
"#$	c #170642",
"$$	c #211037",
"%$	c #2E124E",
"&$	c #2B0F63",
"*$	c #271056",
"=$	c #2A1353",
"-$	c #2B144F",
";$	c #2B1644",
">$	c #251336",
",$	c #1C0E2E",
"'$	c #120C2A",
")$	c #170E32",
"!$	c #110C2C",
"~$	c #0E0B24",
"{$	c #08061B",
"]$	c #0C091F",
"^$	c #0E0A1E",
"/$	c #0F0B24",
"($	c #0B081F",
"_$	c #140C2A",
":$	c #26124D",
"<$	c #1D0B3E",
"[$	c #080516",
"}$	c #0D0922",
"|$	c #1E1136",
"1$	c #301850",
"2$	c #391466",
"3$	c #470C8A",
"4$	c #831ACE",
"5$	c #720FC4",
"6$	c #4801A9",
"7$	c #5B01B9",
"8$	c #4F0299",
"9$	c #300264",
"0$	c #260253",
"a$	c #2A015E",
"b$	c #26015F",
"c$	c #1E0159",
"d$	c #17014A",
"e$	c #110136",
"f$	c #080123",
"g$	c #0B0128",
"h$	c #110132",
"i$	c #1B014E",
"j$	c #280274",
"k$	c #2A0285",
"l$	c #3B03A7",
"m$	c #3F02B2",
"n$	c #31019A",
"o$	c #2B038C",
"p$	c #2A0F62",
"q$	c #281445",
"r$	c #1E0E35",
"s$	c #260D55",
"t$	c #34156D",
"u$	c #2B1259",
"v$	c #12052C",
"w$	c #200D3D",
"x$	c #240C50",
"y$	c #230660",
"z$	c #250C54",
"A$	c #3C1D59",
"B$	c #400E8D",
"C$	c #3D06A7",
"D$	c #2A0879",
"E$	c #250C5E",
"F$	c #331369",
"G$	c #421970",
"H$	c #401963",
"I$	c #351552",
"J$	c #241236",
"K$	c #1B102F",
"L$	c #180F30",
"M$	c #0E0B25",
"N$	c #0D0921",
"O$	c #0E0A23",
"P$	c #0D0A21",
"Q$	c #110C26",
"R$	c #09071B",
"S$	c #100A20",
"T$	c #201237",
"U$	c #32185E",
"V$	c #160933",
"W$	c #050312",
"X$	c #08061A",
"Y$	c #2C184A",
"Z$	c #351859",
"`$	c #3A106E",
" %	c #50099C",
".%	c #6D0FC1",
"+%	c #7317BC",
"@%	c #3D01A7",
"#%	c #5402BC",
"$%	c #4D02A1",
"%%	c #220155",
"&%	c #1B0244",
"*%	c #1D0155",
"=%	c #1A015D",
"-%	c #1A015E",
";%	c #120145",
">%	c #0D0134",
",%	c #0B012B",
"'%	c #0A0227",
")%	c #110235",
"!%	c #1A024B",
"~%	c #2C037C",
"{%	c #3F049F",
"]%	c #4504AB",
"^%	c #38039D",
"/%	c #3703AA",
"(%	c #350894",
"_%	c #301750",
":%	c #1C0D33",
"<%	c #2E0C6F",
"[%	c #320E7A",
"}%	c #210C4D",
"|%	c #21103A",
"1%	c #22113E",
"2%	c #240B60",
"3%	c #2D0972",
"4%	c #460F86",
"5%	c #421089",
"6%	c #3B029F",
"7%	c #4702BB",
"8%	c #4A10A3",
"9%	c #461C76",
"0%	c #3A1272",
"a%	c #2B1169",
"b%	c #3A1475",
"c%	c #3C1276",
"d%	c #431772",
"e%	c #351657",
"f%	c #2C1647",
"g%	c #2A1643",
"h%	c #25123F",
"i%	c #190D30",
"j%	c #0A081F",
"k%	c #080518",
"l%	c #120B23",
"m%	c #22123C",
"n%	c #321560",
"o%	c #090619",
"p%	c #30194E",
"q%	c #35155F",
"r%	c #4D0F8F",
"s%	c #5F08B4",
"t%	c #5906B8",
"u%	c #4F05B9",
"v%	c #3F01B5",
"w%	c #39019F",
"x%	c #2A016E",
"y%	c #160144",
"z%	c #0F0138",
"A%	c #13014D",
"B%	c #1C016A",
"C%	c #1F0171",
"D%	c #1C0262",
"E%	c #120243",
"F%	c #140346",
"G%	c #18024D",
"H%	c #130140",
"I%	c #14023F",
"J%	c #1F0253",
"K%	c #300373",
"L%	c #3D038D",
"M%	c #3B0391",
"N%	c #3A039B",
"O%	c #360595",
"P%	c #301164",
"Q%	c #280F5C",
"R%	c #31078A",
"S%	c #300980",
"T%	c #1D0C37",
"U%	c #291741",
"V%	c #29134A",
"W%	c #440899",
"X%	c #5A07B6",
"Y%	c #6E08C2",
"Z%	c #5602B6",
"`%	c #3C01A0",
" &	c #4F01BA",
".&	c #5005BA",
"+&	c #5212A0",
"@&	c #59129E",
"#&	c #5A0BA9",
"$&	c #410898",
"%&	c #2F0881",
"&&	c #300C7B",
"*&	c #34126D",
"=&	c #361464",
"-&	c #3C1568",
";&	c #381464",
">&	c #301453",
",&	c #2A1244",
"'&	c #1B0C31",
")&	c #120C28",
"!&	c #03030E",
"~&	c #09051E",
"{&	c #160938",
"]&	c #0F0A1F",
"^&	c #130C24",
"/&	c #24163B",
"(&	c #371C5D",
"_&	c #471681",
":&	c #5A0FA8",
"<&	c #6208BD",
"[&	c #4F05C2",
"}&	c #2D0198",
"|&	c #3201A5",
"1&	c #220175",
"2&	c #14014A",
"3&	c #110144",
"4&	c #0E0241",
"5&	c #130151",
"6&	c #1C0166",
"7&	c #1E0269",
"8&	c #190253",
"9&	c #190348",
"0&	c #1E0251",
"a&	c #24025F",
"b&	c #240261",
"c&	c #1C0150",
"d&	c #180343",
"e&	c #1E0252",
"f&	c #320179",
"g&	c #370181",
"h&	c #390287",
"i&	c #3F029D",
"j&	c #4702AF",
"k&	c #370887",
"l&	c #2F087A",
"m&	c #2D0384",
"n&	c #2C0C6C",
"o&	c #2C1449",
"p&	c #331365",
"q&	c #3F0C88",
"r&	c #5F04C2",
"s&	c #6A04CC",
"t&	c #7C0CCF",
"u&	c #6105C3",
"v&	c #3E01A1",
"w&	c #5D03C1",
"x&	c #6A04CD",
"y&	c #6903C2",
"z&	c #5E01B6",
"A&	c #5301AF",
"B&	c #240169",
"C&	c #18034D",
"D&	c #23075E",
"E&	c #2B0A6E",
"F&	c #300D71",
"G&	c #360F75",
"H&	c #310E68",
"I&	c #240A53",
"J&	c #1E0C3E",
"K&	c #100B29",
"L&	c #040416",
"M&	c #0E0923",
"N&	c #080419",
"O&	c #060415",
"P&	c #0E091D",
"Q&	c #321F45",
"R&	c #4D2480",
"S&	c #601AA5",
"T&	c #7218BF",
"U&	c #6F14C8",
"V&	c #5708BF",
"W&	c #2A0192",
"X&	c #29018B",
"Y&	c #1F0170",
"Z&	c #0F0147",
"`&	c #120153",
" *	c #130255",
".*	c #130249",
"+*	c #180247",
"@*	c #1C0347",
"#*	c #22034D",
"$*	c #2C035E",
"%*	c #2C026A",
"&*	c #290268",
"**	c #210354",
"=*	c #210353",
"-*	c #25025C",
";*	c #250259",
">*	c #2D016D",
",*	c #350185",
"'*	c #3F01A5",
")*	c #4501AE",
"!*	c #39019A",
"~*	c #1F0160",
"{*	c #20035D",
"]*	c #300C60",
"^*	c #2C0962",
"/*	c #2A0572",
"(*	c #270184",
"_*	c #3601A1",
":*	c #5F05C3",
"<*	c #720CCD",
"[*	c #6807C8",
"}*	c #4C01B1",
"|*	c #5804B2",
"1*	c #7F0FCD",
"2*	c #850BCC",
"3*	c #5901AE",
"4*	c #3B0199",
"5*	c #1B0159",
"6*	c #150146",
"7*	c #230260",
"8*	c #270372",
"9*	c #4F1191",
"0*	c #4D188B",
"a*	c #371079",
"b*	c #2B1059",
"c*	c #130B29",
"d*	c #09061A",
"e*	c #110A21",
"f*	c #28183B",
"g*	c #5B2B92",
"h*	c #671EB3",
"i*	c #8D36CE",
"j*	c #741BC8",
"k*	c #5708C1",
"l*	c #35019D",
"m*	c #290187",
"n*	c #1F0275",
"o*	c #0E0144",
"p*	c #0F013E",
"q*	c #180245",
"r*	c #1E024B",
"s*	c #1E0248",
"t*	c #1D0247",
"u*	c #24035B",
"v*	c #2C036E",
"w*	c #33018D",
"x*	c #34028D",
"y*	c #300381",
"z*	c #2F0379",
"A*	c #300275",
"B*	c #2D026E",
"C*	c #2A026D",
"D*	c #2E0178",
"E*	c #300181",
"F*	c #380192",
"G*	c #3B0198",
"H*	c #2A0175",
"I*	c #19024B",
"J*	c #220157",
"K*	c #24015E",
"L*	c #220169",
"M*	c #22017C",
"N*	c #270191",
"O*	c #4C01AF",
"P*	c #5001B6",
"Q*	c #4801B0",
"R*	c #40019C",
"S*	c #5601AC",
"T*	c #8E19CB",
"U*	c #9016CD",
"V*	c #6703B9",
"W*	c #5401B7",
"X*	c #4801B1",
"Y*	c #270177",
"Z*	c #260164",
"`*	c #310178",
" =	c #2B0176",
".=	c #210172",
"+=	c #6C17B2",
"@=	c #AF3FD5",
"#=	c #7524A8",
"$=	c #481E6A",
"%=	c #030312",
"&=	c #110A24",
"*=	c #180F2A",
"==	c #27183D",
"-=	c #3A1D5E",
";=	c #662C9F",
">=	c #832ECD",
",=	c #913BCE",
"'=	c #5B08B4",
")=	c #4B01B0",
"!=	c #3F02A3",
"~=	c #2C018D",
"{=	c #180161",
"]=	c #100142",
"^=	c #0D0130",
"/=	c #120237",
"(=	c #1D024B",
"_=	c #1E024C",
":=	c #1C0253",
"<=	c #1F026C",
"[=	c #210177",
"}=	c #4503B6",
"|=	c #5306C0",
"1=	c #4102B0",
"2=	c #300193",
"3=	c #2E018B",
"4=	c #2C0185",
"5=	c #34028B",
"6=	c #3A0193",
"7=	c #3A018E",
"8=	c #380283",
"9=	c #3D018D",
"0=	c #350285",
"a=	c #220260",
"b=	c #1D024D",
"c=	c #1F014F",
"d=	c #1E016A",
"e=	c #1D0170",
"f=	c #2B0181",
"g=	c #2C0186",
"h=	c #35019F",
"i=	c #2F0187",
"j=	c #4C0199",
"k=	c #901DC9",
"l=	c #8D1AD1",
"m=	c #6A05C6",
"n=	c #7611CA",
"o=	c #5F08C4",
"p=	c #3F01A1",
"q=	c #3F018F",
"r=	c #410190",
"s=	c #2E017C",
"t=	c #280183",
"u=	c #4F07AC",
"v=	c #7118C6",
"w=	c #7427A3",
"x=	c #4D2460",
"y=	c #070517",
"z=	c #060517",
"A=	c #080619",
"B=	c #261638",
"C=	c #3B2453",
"D=	c #481E80",
"E=	c #8841C0",
"F=	c #933DD2",
"G=	c #892CCA",
"H=	c #640EB1",
"I=	c #4701A7",
"J=	c #4202A8",
"K=	c #2C028B",
"L=	c #13023D",
"M=	c #16023C",
"N=	c #180241",
"O=	c #200253",
"P=	c #18024B",
"Q=	c #1E0170",
"R=	c #29018D",
"S=	c #27018F",
"T=	c #3A03AA",
"U=	c #5407BC",
"V=	c #6610C2",
"W=	c #6E17BD",
"X=	c #5B0FAF",
"Y=	c #4704B0",
"Z=	c #4D05B9",
"`=	c #4E04B2",
" -	c #4B02AF",
".-	c #4701A5",
"+-	c #3D028A",
"@-	c #2D0262",
"#-	c #30026D",
"$-	c #2C036D",
"%-	c #200259",
"&-	c #1C0247",
"*-	c #18014D",
"=-	c #1A0165",
"--	c #1E016B",
";-	c #2B0185",
">-	c #3701A8",
",-	c #37019F",
"'-	c #37018D",
")-	c #6812AF",
"!-	c #841ECF",
"~-	c #7C1AD3",
"{-	c #9435D2",
"]-	c #7618CE",
"^-	c #4101B0",
"/-	c #5101A8",
"(-	c #430192",
"_-	c #40019D",
":-	c #3F03A5",
"<-	c #7118BF",
"[-	c #7C26B4",
"}-	c #6A2A8A",
"|-	c #461F5B",
"1-	c #040311",
"2-	c #1B0F2B",
"3-	c #351F4B",
"4-	c #4B2B6F",
"5-	c #6324A6",
"6-	c #9A48D5",
"7-	c #9334CE",
"8-	c #8B20CE",
"9-	c #6A0DB9",
"0-	c #4702A2",
"a-	c #380198",
"b-	c #250273",
"c-	c #19024F",
"d-	c #1B0349",
"e-	c #20034D",
"f-	c #220353",
"g-	c #1A0252",
"h-	c #200267",
"i-	c #2E0287",
"j-	c #4203A2",
"k-	c #440598",
"l-	c #560D9A",
"m-	c #64179F",
"n-	c #6413AA",
"o-	c #6612B2",
"p-	c #6A10BA",
"q-	c #660CBD",
"r-	c #5805B7",
"s-	c #4D01B1",
"t-	c #43019F",
"u-	c #33016F",
"v-	c #2B015D",
"w-	c #310370",
"x-	c #2A0373",
"y-	c #180147",
"z-	c #17023D",
"A-	c #120135",
"B-	c #18025C",
"C-	c #1C0168",
"D-	c #190157",
"E-	c #2D0197",
"F-	c #2D0195",
"G-	c #2A017A",
"H-	c #470899",
"I-	c #7624C2",
"J-	c #8229CF",
"K-	c #8729D0",
"L-	c #7A1ECB",
"M-	c #4E01BA",
"N-	c #4F01AA",
"O-	c #34017C",
"P-	c #3B018D",
"Q-	c #5E0ABE",
"R-	c #A534D6",
"S-	c #872FB0",
"T-	c #572277",
"U-	c #351753",
"V-	c #02020C",
"W-	c #170E2A",
"X-	c #2B183E",
"Y-	c #3E245A",
"Z-	c #532689",
"`-	c #661EB1",
" ;	c #8323CA",
".;	c #8C27CB",
"+;	c #7A12C8",
"@;	c #6A09BE",
"#;	c #1D0259",
"$;	c #160247",
"%;	c #1E034F",
"&;	c #1E0351",
"*;	c #1C034D",
"=;	c #1F0259",
"-;	c #2F0376",
";;	c #3A038C",
">;	c #2F037D",
",;	c #2E027A",
"';	c #2C026E",
");	c #38086C",
"!;	c #440C7D",
"~;	c #3B087C",
"{;	c #4D0A8F",
"];	c #7412B4",
"^;	c #8317C4",
"/;	c #7614C0",
"(;	c #5805B6",
"_;	c #4B019B",
":;	c #420276",
"<;	c #38036C",
"[;	c #2D0278",
"};	c #1B015B",
"|;	c #12013A",
"1;	c #140139",
"2;	c #15024D",
"3;	c #180162",
"4;	c #170153",
"5;	c #250187",
"6;	c #270193",
"7;	c #280182",
"8;	c #350192",
"9;	c #5307B6",
"0;	c #5707C1",
"a;	c #7717CF",
"b;	c #6D12CD",
"c;	c #5203BE",
"d;	c #4602A8",
"e;	c #2E017F",
"f;	c #350195",
"g;	c #5D0AC1",
"h;	c #811ACD",
"i;	c #7920AF",
"j;	c #461771",
"k;	c #311555",
"l;	c #0C081B",
"m;	c #03020D",
"n;	c #130C25",
"o;	c #180F2B",
"p;	c #211433",
"q;	c #311B47",
"r;	c #412468",
"s;	c #5D1EA9",
"t;	c #5A0DB1",
"u;	c #791CC8",
"v;	c #801ECD",
"w;	c #690CC0",
"x;	c #5E04B8",
"y;	c #47039E",
"z;	c #180250",
"A;	c #110341",
"B;	c #18024F",
"C;	c #1A0256",
"D;	c #1B024F",
"E;	c #13023E",
"F;	c #1A0257",
"G;	c #180259",
"H;	c #120250",
"I;	c #1E0268",
"J;	c #29017A",
"K;	c #290272",
"L;	c #1F0161",
"M;	c #1D0164",
"N;	c #1F016C",
"O;	c #3A048A",
"P;	c #6211A4",
"Q;	c #7F21AA",
"R;	c #8F2AB9",
"S;	c #7A19C2",
"T;	c #6103C3",
"U;	c #6303A3",
"V;	c #4B027B",
"W;	c #40028D",
"X;	c #250275",
"Y;	c #150246",
"Z;	c #130239",
"`;	c #130248",
" >	c #13014E",
".>	c #1E0169",
"+>	c #28018C",
"@>	c #25018D",
"#>	c #3A0299",
"$>	c #4A03B4",
"%>	c #3B01A3",
"&>	c #610BBD",
"*>	c #660CCA",
"=>	c #4C01BC",
"->	c #4901B0",
";>	c #370193",
">>	c #3601A7",
",>	c #4701BF",
"'>	c #6709CC",
")>	c #6616AA",
"!>	c #431378",
"~>	c #31125F",
"{>	c #0B071B",
"]>	c #030310",
"^>	c #0E0A20",
"/>	c #18102A",
"(>	c #1B122E",
"_>	c #211338",
":>	c #341C56",
"<>	c #5A2B8B",
"[>	c #8135C8",
"}>	c #6009C2",
"|>	c #6D0ED0",
"1>	c #640DC4",
"2>	c #4803A5",
"3>	c #38018F",
"4>	c #1B015E",
"5>	c #13024D",
"6>	c #140250",
"7>	c #170254",
"8>	c #14024C",
"9>	c #12023F",
"0>	c #120240",
"a>	c #17025C",
"b>	c #160162",
"c>	c #19016A",
"d>	c #1F0174",
"e>	c #290181",
"f>	c #24017B",
"g>	c #270189",
"h>	c #2F029B",
"i>	c #3701A6",
"j>	c #3C01A7",
"k>	c #590CA0",
"l>	c #8523AB",
"m>	c #9025BA",
"n>	c #8115C8",
"o>	c #7306BC",
"p>	c #590290",
"q>	c #40027A",
"r>	c #2E0281",
"s>	c #19025D",
"t>	c #150240",
"u>	c #140147",
"v>	c #12014A",
"w>	c #180257",
"x>	c #2A0294",
"y>	c #26018F",
"z>	c #26017E",
"A>	c #30018D",
"B>	c #2B0187",
"C>	c #3B029C",
"D>	c #4B04B1",
"E>	c #5705BF",
"F>	c #5C04BD",
"G>	c #6A07C6",
"H>	c #730CCB",
"I>	c #6B06CD",
"J>	c #6D05CE",
"K>	c #7612B6",
"L>	c #421087",
"M>	c #35156E",
"N>	c #040312",
"O>	c #0C081A",
"P>	c #120C21",
"Q>	c #190F2E",
"R>	c #201241",
"S>	c #351C5B",
"T>	c #753BA1",
"U>	c #8335CA",
"V>	c #7F2AD1",
"W>	c #7F28C9",
"X>	c #5A17AA",
"Y>	c #240179",
"Z>	c #22016E",
"`>	c #1D0166",
" ,	c #18015B",
".,	c #18035C",
"+,	c #1B025E",
"@,	c #17034D",
"#,	c #100238",
"$,	c #0E0135",
"%,	c #120244",
"&,	c #18025F",
"*,	c #1E0271",
"=,	c #1D026F",
"-,	c #210272",
";,	c #2B0280",
">,	c #280181",
",,	c #3301A1",
"',	c #3501AC",
"),	c #3202A6",
"!,	c #3902AA",
"~,	c #4103B5",
"{,	c #5A0CB3",
"],	c #7416AD",
"^,	c #6D10A4",
"/,	c #6F0CB9",
"(,	c #6C06C1",
"_,	c #57029B",
":,	c #410175",
"<,	c #310276",
"[,	c #1E026F",
"},	c #180150",
"|,	c #16014D",
"1,	c #160155",
"2,	c #1A0259",
"3,	c #2A0391",
"4,	c #29029C",
"5,	c #220174",
"6,	c #20016A",
"7,	c #200176",
"8,	c #32018A",
"9,	c #3E0395",
"0,	c #4F05AE",
"a,	c #6406BE",
"b,	c #7407CA",
"c,	c #7E0BCE",
"d,	c #870ED0",
"e,	c #8B0ED3",
"f,	c #810FC8",
"g,	c #54149E",
"h,	c #050415",
"i,	c #070515",
"j,	c #130B30",
"k,	c #1E103D",
"l,	c #271544",
"m,	c #81459F",
"n,	c #8430CF",
"o,	c #9341D1",
"p,	c #8637C3",
"q,	c #4E129B",
"r,	c #23016D",
"s,	c #1E025F",
"t,	c #1E0164",
"u,	c #210170",
"v,	c #250276",
"w,	c #1F0261",
"x,	c #140241",
"y,	c #0C012D",
"z,	c #16024E",
"A,	c #26027C",
"B,	c #310198",
"C,	c #2A0283",
"D,	c #370291",
"E,	c #4D02A6",
"F,	c #3A0190",
"G,	c #350193",
"H,	c #4001AF",
"I,	c #3E01AE",
"J,	c #3D01A8",
"K,	c #3F02A7",
"L,	c #340299",
"M,	c #3B0599",
"N,	c #6012AA",
"O,	c #7112AA",
"P,	c #5C05A5",
"Q,	c #5F04BD",
"R,	c #4E01AA",
"S,	c #4B0282",
"T,	c #35026E",
"U,	c #1C025E",
"V,	c #15024A",
"W,	c #18015D",
"X,	c #200265",
"Y,	c #2A0291",
"Z,	c #27019B",
"`,	c #1B026B",
" '	c #19015E",
".'	c #24017D",
"+'	c #230175",
"@'	c #23016E",
"#'	c #2C0181",
"$'	c #4002A3",
"%'	c #3B0197",
"&'	c #5901B4",
"*'	c #7307C2",
"='	c #810ECB",
"-'	c #8D0ED2",
";'	c #881BC4",
">'	c #5E199A",
",'	c #0D0826",
"''	c #160C33",
")'	c #2C1351",
"!'	c #4F1E81",
"~'	c #7830B7",
"{'	c #741ECE",
"]'	c #670FC1",
"^'	c #5E0CB2",
"/'	c #4D01A5",
"('	c #31037C",
"_'	c #24026A",
":'	c #24026E",
"<'	c #2A0179",
"['	c #100134",
"}'	c #140142",
"|'	c #24016C",
"1'	c #41029E",
"2'	c #5403BC",
"3'	c #5402B6",
"4'	c #6503C0",
"5'	c #6803C5",
"6'	c #5302BB",
"7'	c #680AC2",
"8'	c #6009C1",
"9'	c #4E03BC",
"0'	c #4D03B9",
"a'	c #4902B0",
"b'	c #3D01A1",
"c'	c #3502A0",
"d'	c #4C0CB0",
"e'	c #5E10B1",
"f'	c #52049C",
"g'	c #5402AA",
"h'	c #4D01B4",
"i'	c #4F0297",
"j'	c #3E0273",
"k'	c #1D0265",
"l'	c #130149",
"m'	c #1D025B",
"n'	c #2B0392",
"o'	c #250296",
"p'	c #160262",
"q'	c #130254",
"r'	c #1B016A",
"s'	c #1E016F",
"t'	c #200272",
"u'	c #2B0286",
"v'	c #350196",
"w'	c #380199",
"x'	c #4C02AA",
"y'	c #6903BE",
"z'	c #7205C6",
"A'	c #9819D2",
"B'	c #8C23BC",
"C'	c #471A79",
"D'	c #2C135B",
"E'	c #0B081B",
"F'	c #100B24",
"G'	c #110B30",
"H'	c #201247",
"I'	c #591D93",
"J'	c #6C18BF",
"K'	c #6C12C9",
"L'	c #5908BC",
"M'	c #4C02AF",
"N'	c #5303AA",
"O'	c #4E02A3",
"P'	c #3D028C",
"Q'	c #290179",
"R'	c #2A027C",
"S'	c #2C017D",
"T'	c #230163",
"U'	c #120133",
"V'	c #100135",
"W'	c #24016A",
"X'	c #6607C2",
"Y'	c #7C09D0",
"Z'	c #8809D3",
"`'	c #8B0BCE",
" )	c #790ACB",
".)	c #7C11D1",
"+)	c #8015D2",
"@)	c #7812CF",
"#)	c #6106C6",
"$)	c #4F02B6",
"%)	c #4502A2",
"&)	c #290169",
"*)	c #290279",
"=)	c #3A03A8",
"-)	c #5D11C3",
";)	c #4E06A4",
">)	c #4A0299",
",)	c #5102B1",
"')	c #5302A0",
"))	c #410276",
"!)	c #1D0254",
"~)	c #120149",
"{)	c #140149",
"])	c #180157",
"^)	c #1C015C",
"/)	c #2E038C",
"()	c #2D04A8",
"_)	c #11024E",
":)	c #12024B",
"<)	c #17025E",
"[)	c #1F017C",
"})	c #230189",
"|)	c #22027C",
"1)	c #290180",
"2)	c #2E0191",
"3)	c #4201A7",
"4)	c #6203BC",
"5)	c #8111C9",
"6)	c #961ECF",
"7)	c #7B1DAD",
"8)	c #341663",
"9)	c #271051",
"0)	c #130C2C",
"a)	c #26124B",
"b)	c #4D2087",
"c)	c #701CC5",
"d)	c #6A0CC7",
"e)	c #4D03AB",
"f)	c #4E02AA",
"g)	c #5203A5",
"h)	c #410191",
"i)	c #2C017B",
"j)	c #2D0183",
"k)	c #2F017F",
"l)	c #270167",
"m)	c #210254",
"n)	c #1E0247",
"o)	c #1D024E",
"p)	c #270170",
"q)	c #3D01A0",
"r)	c #5901C5",
"s)	c #830BD2",
"t)	c #870BCA",
"u)	c #8606CB",
"v)	c #7C09C1",
"w)	c #6A0ABE",
"x)	c #6C0AC9",
"y)	c #710EC5",
"z)	c #6A0AC4",
"A)	c #6905CA",
"B)	c #5403B0",
"C)	c #330286",
"D)	c #21025B",
"E)	c #1C0252",
"F)	c #270179",
"G)	c #3C05A5",
"H)	c #4F06BA",
"I)	c #3F018D",
"J)	c #5A04B0",
"K)	c #5903A8",
"L)	c #4B0384",
"M)	c #23015C",
"N)	c #12014C",
"O)	c #180155",
"P)	c #220261",
"Q)	c #39059E",
"R)	c #3608A7",
"S)	c #180361",
"T)	c #120249",
"U)	c #16035F",
"V)	c #1F0182",
"W)	c #2A02A4",
"X)	c #210181",
"Y)	c #1C0160",
"Z)	c #2D0192",
"`)	c #4000B0",
" !	c #6707C0",
".!	c #991CCF",
"+!	c #9318D2",
"@!	c #631599",
"#!	c #311262",
"$!	c #27114D",
"%!	c #1B0F37",
"&!	c #4D247B",
"*!	c #6424B0",
"=!	c #6A11CA",
"-!	c #5D05BB",
";!	c #40019A",
">!	c #4702A1",
",!	c #4A02A0",
"'!	c #430392",
")!	c #35018D",
"!!	c #2D0187",
"~!	c #350188",
"{!	c #2D0270",
"]!	c #230356",
"^!	c #230252",
"/!	c #230253",
"(!	c #3C0187",
"_!	c #4801A5",
":!	c #5501B9",
"<!	c #6D03C7",
"[!	c #7305C0",
"}!	c #5F03B3",
"|!	c #5901B3",
"1!	c #5D05BD",
"2!	c #770CC8",
"3!	c #4D04A3",
"4!	c #4401A5",
"5!	c #420397",
"6!	c #3B028D",
"7!	c #360197",
"8!	c #2F0183",
"9!	c #1D0157",
"0!	c #350393",
"a!	c #4704B4",
"b!	c #4C02A5",
"c!	c #5D04AA",
"d!	c #6304B0",
"e!	c #4E018A",
"f!	c #240264",
"g!	c #1C025C",
"h!	c #17014F",
"i!	c #280268",
"j!	c #4205AD",
"k!	c #2F0598",
"l!	c #18035E",
"m!	c #110349",
"n!	c #14025A",
"o!	c #180173",
"p!	c #1B017C",
"q!	c #180166",
"r!	c #190159",
"s!	c #4201AF",
"t!	c #6A0CC5",
"u!	c #8E1CD0",
"v!	c #6805C0",
"w!	c #460E85",
"x!	c #331263",
"y!	c #27124A",
"z!	c #0B0820",
"A!	c #130C2A",
"B!	c #241343",
"C!	c #5C298F",
"D!	c #691CC3",
"E!	c #740FCE",
"F!	c #730EC6",
"G!	c #5305AC",
"H!	c #3E0199",
"I!	c #39018F",
"J!	c #35018A",
"K!	c #3B018C",
"L!	c #2F016D",
"M!	c #1F034B",
"N!	c #1C0243",
"O!	c #1E014D",
"P!	c #250161",
"Q!	c #420199",
"R!	c #5101B0",
"S!	c #5F02BC",
"T!	c #7104BD",
"U!	c #5A02AB",
"V!	c #5A03AE",
"W!	c #6904C2",
"X!	c #7912CD",
"Y!	c #7612C7",
"Z!	c #600AB1",
"`!	c #360199",
" ~	c #360196",
".~	c #29017E",
"+~	c #2E0189",
"@~	c #2D0189",
"#~	c #210266",
"$~	c #150241",
"%~	c #230364",
"&~	c #3A03A1",
"*~	c #5201AD",
"=~	c #7308B8",
"-~	c #7106B2",
";~	c #550393",
">~	c #350277",
",~	c #230268",
"'~	c #1F0256",
")~	c #320280",
"!~	c #4004A9",
"~~	c #230382",
"{~	c #140352",
"]~	c #12034D",
"^~	c #14025B",
"/~	c #160167",
"(~	c #16016A",
"_~	c #12014D",
":~	c #17014E",
"<~	c #25017A",
"[~	c #4101A8",
"}~	c #5703BE",
"|~	c #5C04BC",
"1~	c #4805A2",
"2~	c #411181",
"3~	c #391666",
"4~	c #281248",
"5~	c #180F32",
"6~	c #371C5A",
"7~	c #642A9B",
"8~	c #8120D1",
"9~	c #811DCD",
"0~	c #600CBA",
"a~	c #4A01B0",
"b~	c #350191",
"c~	c #330181",
"d~	c #35017A",
"e~	c #2D0264",
"f~	c #230250",
"g~	c #18023F",
"h~	c #180143",
"i~	c #250164",
"j~	c #30017F",
"k~	c #440198",
"l~	c #6303BB",
"m~	c #6F03C4",
"n~	c #6D03BC",
"o~	c #4A01A6",
"p~	c #7309C1",
"q~	c #8A18D3",
"r~	c #7C18CA",
"s~	c #580DAD",
"t~	c #390399",
"u~	c #340290",
"v~	c #28017E",
"w~	c #1F016B",
"x~	c #15014C",
"y~	c #1D015B",
"z~	c #1E015C",
"A~	c #1D0150",
"B~	c #4001A2",
"C~	c #6F12AA",
"D~	c #850CB8",
"E~	c #5D0394",
"F~	c #34037A",
"G~	c #260269",
"H~	c #24035A",
"I~	c #260260",
"J~	c #3F0299",
"K~	c #3E03AA",
"L~	c #260287",
"M~	c #190364",
"N~	c #15035A",
"O~	c #14025C",
"P~	c #14025E",
"Q~	c #130259",
"R~	c #10023D",
"S~	c #17014B",
"T~	c #4501AA",
"U~	c #4D02B8",
"V~	c #5801B9",
"W~	c #490A96",
"X~	c #3D1272",
"Y~	c #391863",
"Z~	c #251245",
"`~	c #100B28",
" {	c #1E1238",
".{	c #422168",
"+{	c #7E32B1",
"@{	c #9D39D3",
"#{	c #852AC6",
"${	c #4704AB",
"%{	c #3C00A0",
"&{	c #320187",
"*{	c #2C0174",
"={	c #250257",
"-{	c #1D0348",
";{	c #210250",
">{	c #180141",
",{	c #2E017B",
"'{	c #3B0195",
"){	c #6305B8",
"!{	c #7207C6",
"~{	c #6F04C3",
"{{	c #5901B7",
"]{	c #6206BE",
"^{	c #7B10D0",
"/{	c #720ECC",
"({	c #4E04B1",
"_{	c #300190",
":{	c #360281",
"<{	c #1A0162",
"[{	c #0E0140",
"}{	c #130145",
"|{	c #1A015C",
"1{	c #2C0277",
"2{	c #641099",
"3{	c #7D10B0",
"4{	c #470182",
"5{	c #2A0270",
"6{	c #1E0256",
"7{	c #250262",
"8{	c #4A03A9",
"9{	c #3B04AB",
"0{	c #260289",
"a{	c #1B036D",
"b{	c #17035F",
"c{	c #120253",
"d{	c #12024D",
"e{	c #0F0240",
"f{	c #13023C",
"g{	c #1B024C",
"h{	c #29016C",
"i{	c #3E019D",
"j{	c #4D02B0",
"k{	c #6305BC",
"l{	c #4F0E96",
"m{	c #361363",
"n{	c #3B1A64",
"o{	c #1F113D",
"p{	c #291843",
"q{	c #49266D",
"r{	c #822FBE",
"s{	c #AA48D4",
"t{	c #7324C1",
"u{	c #370199",
"v{	c #35018E",
"w{	c #2E0177",
"x{	c #2A0167",
"y{	c #25025B",
"z{	c #1E024D",
"A{	c #210253",
"B{	c #240259",
"C{	c #1E0257",
"D{	c #24026F",
"E{	c #33018C",
"F{	c #4802B5",
"G{	c #6B07CE",
"H{	c #5E04BC",
"I{	c #4F01B5",
"J{	c #6304C4",
"K{	c #700ACD",
"L{	c #6205CC",
"M{	c #4D03B0",
"N{	c #380191",
"O{	c #320176",
"P{	c #2C025F",
"Q{	c #20015D",
"R{	c #240176",
"S{	c #2B038D",
"T{	c #260285",
"U{	c #27028B",
"V{	c #1B0167",
"W{	c #140151",
"X{	c #2A026B",
"Y{	c #2A0275",
"Z{	c #630CA3",
"`{	c #650AA0",
" ]	c #3E017F",
".]	c #26016C",
"+]	c #21025F",
"@]	c #1F0158",
"#]	c #38037B",
"$]	c #4D04AB",
"%]	c #3C03AC",
"&]	c #250287",
"*]	c #1C0371",
"=]	c #17035E",
"-]	c #0F0241",
";]	c #12024E",
">]	c #12023B",
",]	c #190242",
"']	c #20034E",
")]	c #270166",
"!]	c #3B0191",
"~]	c #5801B4",
"{]	c #6408BB",
"]]	c #521397",
"^]	c #371664",
"/]	c #2E1553",
"(]	c #1A0F37",
"_]	c #1E1235",
":]	c #3C2059",
"<]	c #5C268F",
"[]	c #7A20C8",
"}]	c #9837D4",
"|]	c #6B0CC7",
"1]	c #340187",
"2]	c #2D0170",
"3]	c #2A0262",
"4]	c #1E014E",
"5]	c #27016A",
"6]	c #26016F",
"7]	c #2B0180",
"8]	c #350199",
"9]	c #4C03B8",
"0]	c #5D04C7",
"a]	c #5001BB",
"b]	c #6605CA",
"c]	c #8311D0",
"d]	c #740FC6",
"e]	c #3F01AE",
"f]	c #36018F",
"g]	c #310174",
"h]	c #20014C",
"i]	c #18014C",
"j]	c #1E0184",
"k]	c #280191",
"l]	c #27037D",
"m]	c #1F0265",
"n]	c #170157",
"o]	c #15024E",
"p]	c #13014F",
"q]	c #130147",
"r]	c #29035F",
"s]	c #3B0387",
"t]	c #5909AB",
"u]	c #5B079F",
"v]	c #2A0176",
"w]	c #270264",
"x]	c #20015A",
"y]	c #4D0592",
"z]	c #5E07BC",
"A]	c #4604AE",
"B]	c #270386",
"C]	c #1C036A",
"D]	c #120351",
"E]	c #0F023F",
"F]	c #120242",
"G]	c #130238",
"H]	c #190340",
"I]	c #1E0346",
"J]	c #210257",
"K]	c #430295",
"L]	c #6301BE",
"M]	c #5D08B3",
"N]	c #582297",
"O]	c #3E2168",
"P]	c #251544",
"Q]	c #110B2A",
"R]	c #27173F",
"S]	c #4E2670",
"T]	c #7628B3",
"U]	c #7315CD",
"V]	c #7612CD",
"W]	c #6D0CC4",
"X]	c #5502AE",
"Y]	c #470390",
"Z]	c #39017E",
"`]	c #2A025F",
" ^	c #190248",
".^	c #22015D",
"+^	c #2B017D",
"@^	c #2A0177",
"#^	c #3901A5",
"$^	c #3F01AC",
"%^	c #4501B0",
"&^	c #4B01BA",
"*^	c #6C05CE",
"=^	c #790CCB",
"-^	c #5B08AB",
";^	c #2F018B",
">^	c #350184",
",^	c #30026A",
"'^	c #190151",
")^	c #140164",
"!^	c #280299",
"~^	c #250272",
"{^	c #0C012F",
"]^	c #10023E",
"^^	c #100243",
"/^	c #2F036A",
"(^	c #410498",
"_^	c #5007AD",
":^	c #51079C",
"<^	c #21016F",
"[^	c #2A0271",
"}^	c #2C0267",
"|^	c #270161",
"1^	c #5703A5",
"2^	c #5505BB",
"3^	c #4004A8",
"4^	c #230375",
"5^	c #170359",
"6^	c #130339",
"7^	c #130235",
"8^	c #18023D",
"9^	c #2E026C",
"0^	c #44019A",
"a^	c #5703B8",
"b^	c #5C16AE",
"c^	c #623194",
"d^	c #402858",
"e^	c #180D30",
"f^	c #120B26",
"g^	c #331B4D",
"h^	c #5E2A87",
"i^	c #9F41CC",
"j^	c #7616CE",
"k^	c #7A18CC",
"l^	c #8E1ECF",
"m^	c #740EBF",
"n^	c #4E0397",
"o^	c #360274",
"p^	c #220253",
"q^	c #1B0155",
"r^	c #240170",
"s^	c #250169",
"t^	c #22026E",
"u^	c #3601A4",
"v^	c #3F01B1",
"w^	c #330195",
"x^	c #3700AA",
"y^	c #6607C9",
"z^	c #6B08C6",
"A^	c #3C018C",
"B^	c #370189",
"C^	c #36017E",
"D^	c #190175",
"E^	c #1F017E",
"F^	c #1A014A",
"G^	c #0C0129",
"H^	c #07011F",
"I^	c #05011D",
"J^	c #080125",
"K^	c #0D0138",
"L^	c #28026D",
"M^	c #4103A7",
"N^	c #4C04AD",
"O^	c #38028B",
"P^	c #2D0178",
"Q^	c #320276",
"R^	c #2B0268",
"S^	c #44028B",
"T^	c #5803B2",
"U^	c #4803B0",
"V^	c #3A049C",
"W^	c #1C0265",
"X^	c #17035B",
"Y^	c #150355",
"Z^	c #140245",
"`^	c #17023C",
" /	c #140335",
"./	c #1E0347",
"+/	c #240255",
"@/	c #2F0176",
"#/	c #3E019A",
"$/	c #5F0FBB",
"%/	c #6022A6",
"&/	c #4D2772",
"*/	c #1F1235",
"=/	c #100926",
"-/	c #441D67",
";/	c #702AA2",
">/	c #9234CE",
",/	c #7C18CE",
"'/	c #811DCE",
")/	c #791EBE",
"!/	c #5603AE",
"~/	c #2D0172",
"{/	c #15023B",
"]/	c #150140",
"^/	c #1E0163",
"//	c #28016C",
"(/	c #22015E",
"_/	c #240184",
":/	c #3801AC",
"</	c #3E02AF",
"[/	c #3801A1",
"}/	c #33019C",
"|/	c #3B01A1",
"1/	c #5C05C2",
"2/	c #5905B0",
"3/	c #20006B",
"4/	c #390188",
"5/	c #2B016B",
"6/	c #13015E",
"7/	c #250198",
"8/	c #27017C",
"9/	c #1A0151",
"0/	c #100132",
"a/	c #070121",
"b/	c #030115",
"c/	c #030112",
"d/	c #06011E",
"e/	c #100137",
"f/	c #1C0154",
"g/	c #2B017E",
"h/	c #4305AA",
"i/	c #36028A",
"j/	c #1D0068",
"k/	c #400181",
"l/	c #360271",
"m/	c #5603AB",
"n/	c #5E06C2",
"o/	c #4804B1",
"p/	c #30038D",
"q/	c #1C0267",
"r/	c #160359",
"s/	c #160350",
"t/	c #150341",
"u/	c #18033D",
"v/	c #1B0341",
"w/	c #1E034B",
"x/	c #2E0182",
"y/	c #4C08AA",
"z/	c #561E99",
"A/	c #3B1D64",
"B/	c #271646",
"C/	c #120B2B",
"D/	c #08051C",
"E/	c #4D1C7C",
"F/	c #5D19A5",
"G/	c #7219C4",
"H/	c #7B17CE",
"I/	c #6D10C2",
"J/	c #4D05A3",
"K/	c #320183",
"L/	c #24025E",
"M/	c #0F0136",
"N/	c #17014C",
"O/	c #290263",
"P/	c #1A0150",
"Q/	c #1A016D",
"R/	c #270194",
"S/	c #3501A8",
"T/	c #32019E",
"U/	c #3501A2",
"V/	c #31019E",
"W/	c #4001AD",
"X/	c #4201A5",
"Y/	c #320181",
"Z/	c #2A0171",
"`/	c #1B015C",
" (	c #150164",
".(	c #2A0186",
"+(	c #2A0265",
"@(	c #13013B",
"#(	c #0D012F",
"$(	c #07011E",
"%(	c #01010D",
"&(	c #02010E",
"*(	c #0B012C",
"=(	c #110137",
"-(	c #23016F",
";(	c #4403A2",
">(	c #400496",
",(	c #250268",
"'(	c #2D016E",
")(	c #3F017C",
"!(	c #3A017C",
"~(	c #47029A",
"{(	c #6305C1",
"](	c #6109C8",
"^(	c #3B03A8",
"/(	c #2A028A",
"((	c #1B0368",
"_(	c #160357",
":(	c #140249",
"<(	c #14023C",
"[(	c #1A0343",
"}(	c #200250",
"|(	c #220259",
"1(	c #26016A",
"2(	c #270174",
"3(	c #48089D",
"4(	c #5C1AA1",
"5(	c #41246B",
"6(	c #2C194D",
"7(	c #0D0929",
"8(	c #4D1986",
"9(	c #42168E",
"0(	c #4E09B3",
"a(	c #6A0DC8",
"b(	c #5508AB",
"c(	c #34017F",
"d(	c #210160",
"e(	c #150142",
"f(	c #120142",
"g(	c #1B0156",
"h(	c #240260",
"i(	c #250160",
"j(	c #20016C",
"k(	c #290191",
"l(	c #3301A6",
"m(	c #3101A0",
"n(	c #25018B",
"o(	c #30019E",
"p(	c #3301A5",
"q(	c #4A01B6",
"r(	c #2C017C",
"s(	c #1D015D",
"t(	c #2C0175",
"u(	c #120154",
"v(	c #1E0162",
"w(	c #2F0171",
"x(	c #2A015D",
"y(	c #160141",
"z(	c #090124",
"A(	c #040116",
"B(	c #050118",
"C(	c #080124",
"D(	c #12013D",
"E(	c #4603A4",
"F(	c #2B0271",
"G(	c #2B016A",
"H(	c #400276",
"I(	c #410182",
"J(	c #450293",
"K(	c #6205B6",
"L(	c #6908C9",
"M(	c #3101A4",
"N(	c #2A0393",
"O(	c #19036A",
"P(	c #13034D",
"Q(	c #120241",
"R(	c #14013B",
"S(	c #18023C",
"T(	c #240257",
"U(	c #260264",
"V(	c #2A0273",
"W(	c #2F0184",
"X(	c #3D0393",
"Y(	c #6717B3",
"Z(	c #5D219B",
"`(	c #3D2164",
" _	c #271545",
"._	c #0C0822",
"+_	c #3F137D",
"@_	c #320A8A",
"#_	c #4A03B0",
"$_	c #3C0197",
"%_	c #2A0170",
"&_	c #1A024F",
"*_	c #14023E",
"=_	c #180252",
"-_	c #1F015C",
";_	c #25025D",
">_	c #220160",
",_	c #210178",
"'_	c #3602A7",
")_	c #3A02AC",
"!_	c #2C0195",
"~_	c #3B01A7",
"{_	c #4201A1",
"]_	c #220164",
"^_	c #1C0159",
"/_	c #280173",
"(_	c #220271",
"__	c #100159",
":_	c #1F016E",
"<_	c #330270",
"[_	c #240156",
"}_	c #1E0152",
"|_	c #090126",
"1_	c #090128",
"2_	c #0D0132",
"3_	c #130144",
"4_	c #21016A",
"5_	c #300182",
"6_	c #23015F",
"7_	c #43027C",
"8_	c #430093",
"9_	c #5F06B0",
"0_	c #8412CE",
"a_	c #630ACB",
"b_	c #4003B8",
"c_	c #3003A9",
"d_	c #26028F",
"e_	c #180264",
"f_	c #110241",
"g_	c #12023A",
"h_	c #14023A",
"i_	c #1A0242",
"j_	c #220354",
"k_	c #22025B",
"l_	c #35037C",
"m_	c #5303B0",
"n_	c #600CB7",
"o_	c #882DC8",
"p_	c #4E2481",
"q_	c #381F5A",
"r_	c #1E1139",
"s_	c #0D0925",
"t_	c #09071E",
"u_	c #350D78",
"v_	c #250381",
"w_	c #33019D",
"x_	c #3B01A0",
"y_	c #19024D",
"z_	c #1E0259",
"A_	c #23025A",
"B_	c #1F0177",
"C_	c #2B018E",
"D_	c #300195",
"E_	c #3003A8",
"F_	c #260190",
"G_	c #310199",
"H_	c #4101A6",
"I_	c #350187",
"J_	c #1E015A",
"K_	c #1D0171",
"L_	c #1C017A",
"M_	c #270185",
"N_	c #230152",
"O_	c #21015B",
"P_	c #26025E",
"Q_	c #12013C",
"R_	c #250177",
"S_	c #320286",
"T_	c #2A016C",
"U_	c #2A016B",
"V_	c #37017E",
"W_	c #480197",
"X_	c #6507AE",
"Y_	c #8212C5",
"Z_	c #7D14CD",
"`_	c #4F08C8",
" :	c #3B03BD",
".:	c #2D02A3",
"+:	c #1E0278",
"@:	c #12023C",
"#:	c #13023A",
"$:	c #23025E",
"%:	c #3B0286",
"&:	c #5E05B0",
"*:	c #7B12CD",
"=:	c #7F18CD",
"-:	c #7829B7",
";:	c #412470",
">:	c #311D4C",
",:	c #180F36",
"':	c #0C0924",
"):	c #2B0870",
"!:	c #1A006A",
"~:	c #310197",
"{:	c #38019A",
"]:	c #4401A0",
"^:	c #2F0271",
"/:	c #1B024A",
"(:	c #1C024F",
"_:	c #200255",
"::	c #25017E",
"<:	c #2E018F",
"[:	c #2D029A",
"}:	c #3403B7",
"|:	c #260191",
"1:	c #2E0190",
"2:	c #4002A4",
"3:	c #1E0160",
"4:	c #1E0178",
"5:	c #1D0176",
"6:	c #2A029F",
"7:	c #2E0194",
"8:	c #340175",
"9:	c #23014E",
"0:	c #210158",
"a:	c #30026F",
"b:	c #250170",
"c:	c #400296",
"d:	c #300270",
"e:	c #240160",
"f:	c #3C0192",
"g:	c #4E01AE",
"h:	c #5F01B4",
"i:	c #8C11C6",
"j:	c #7A0FC6",
"k:	c #5409C4",
"l:	c #4005C1",
"m:	c #3703AF",
"n:	c #240285",
"o:	c #19025E",
"p:	c #150344",
"q:	c #17023E",
"r:	c #17023B",
"s:	c #1D034A",
"t:	c #25016A",
"u:	c #29026D",
"v:	c #420297",
"w:	c #5A04B4",
"x:	c #8F26D2",
"y:	c #8826C7",
"z:	c #622598",
"A:	c #3C2161",
"B:	c #2D1949",
"C:	c #1D1238",
"D:	c #0C0824",
"E:	c #27046C",
"F:	c #2E018D",
"G:	c #390199",
"H:	c #16013C",
"I:	c #1C0249",
"J:	c #1B0249",
"K:	c #170250",
"L:	c #1D016B",
"M:	c #2D0293",
"N:	c #3002A7",
"O:	c #3503B8",
"P:	c #290292",
"Q:	c #360192",
"R:	c #2A016D",
"S:	c #190150",
"T:	c #1D0160",
"U:	c #1B0170",
"V:	c #240085",
"W:	c #3403B5",
"X:	c #4103B0",
"Y:	c #420189",
"Z:	c #1F014B",
"`:	c #1D014D",
" <	c #3D017E",
".<	c #3B027C",
"+<	c #2E026A",
"@<	c #2B026A",
"#<	c #35027C",
"$<	c #2D016B",
"%<	c #4701AD",
"&<	c #5401B8",
"*<	c #7706C1",
"=<	c #9B19D1",
"-<	c #5608C7",
";<	c #4205C8",
"><	c #3A03B5",
",<	c #250185",
"'<	c #19015F",
")<	c #1D0248",
"!<	c #240265",
"~<	c #260168",
"{<	c #2D0175",
"]<	c #8019D3",
"^<	c #8837B0",
"/<	c #442369",
"(<	c #2A174D",
"_<	c #24153A",
":<	c #1D1234",
"<<	c #0B0821",
"[<	c #2C066D",
"}<	c #3A019F",
"|<	c #40019F",
"1<	c #300173",
"2<	c #14013A",
"3<	c #190249",
"4<	c #190259",
"5<	c #240280",
"6<	c #3503A7",
"7<	c #300299",
"8<	c #280197",
"9<	c #3503B7",
"0<	c #1F0178",
"a<	c #320193",
"b<	c #3D0198",
"c<	c #2C026C",
"d<	c #1D0153",
"e<	c #180156",
"f<	c #1C016B",
"g<	c #2A0197",
"h<	c #3801BA",
"i<	c #4903BB",
"j<	c #470193",
"k<	c #23015B",
"l<	c #3E017A",
"m<	c #320172",
"n<	c #2C0266",
"o<	c #2E0266",
"p<	c #29015E",
"q<	c #1E0153",
"r<	c #1C015A",
"s<	c #29017B",
"t<	c #310191",
"u<	c #4701A8",
"v<	c #6D09BC",
"w<	c #8112CA",
"x<	c #7615C9",
"y<	c #3C02C0",
"z<	c #3B03BA",
"A<	c #33029A",
"B<	c #18015E",
"C<	c #17024A",
"D<	c #1F024D",
"E<	c #27025B",
"F<	c #23025D",
"G<	c #1F035B",
"H<	c #20025D",
"I<	c #1E0258",
"J<	c #1B034F",
"K<	c #22016A",
"L<	c #5005AA",
"M<	c #7818C8",
"N<	c #6C249C",
"O<	c #2A1648",
"P<	c #1F1041",
"Q<	c #1A112E",
"R<	c #19102C",
"S<	c #09081F",
"T<	c #2C0176",
"U<	c #4001AA",
"V<	c #1D0152",
"W<	c #130137",
"X<	c #190245",
"Y<	c #1A024A",
"Z<	c #18024A",
"`<	c #1B0261",
" [	c #2E0397",
".[	c #3503A5",
"+[	c #2A0189",
"@[	c #240187",
"#[	c #2A019D",
"$[	c #1F0172",
"%[	c #350197",
"&[	c #3F0196",
"*[	c #2F0264",
"=[	c #1A015A",
"-[	c #1B0164",
";[	c #2F01A3",
">[	c #4705C2",
",[	c #5805C0",
"'[	c #4D029B",
")[	c #2D015B",
"![	c #290156",
"~[	c #1E0150",
"{[	c #1A0154",
"][	c #200168",
"^[	c #2A0182",
"/[	c #6B06BC",
"([	c #7B0BCE",
"_[	c #610AC3",
":[	c #4204B8",
"<[	c #3401AC",
"[[	c #300199",
"}[	c #240175",
"|[	c #1E0158",
"1[	c #270162",
"2[	c #2E026F",
"3[	c #270262",
"4[	c #200351",
"5[	c #210359",
"6[	c #240263",
"7[	c #240369",
"8[	c #350194",
"9[	c #6D19BD",
"0[	c #8716D2",
"a[	c #641A99",
"b[	c #2A124A",
"c[	c #150C32",
"d[	c #130D29",
"e[	c #3B038D",
"f[	c #3E01A0",
"g[	c #3B019C",
"h[	c #320087",
"i[	c #23015D",
"j[	c #170140",
"k[	c #160241",
"l[	c #16034C",
"m[	c #1A0264",
"n[	c #3503AA",
"o[	c #310295",
"p[	c #22016C",
"q[	c #26018A",
"r[	c #280294",
"s[	c #260182",
"t[	c #300189",
"u[	c #36017D",
"v[	c #350269",
"w[	c #230255",
"x[	c #1C0164",
"y[	c #3401A2",
"z[	c #4603C4",
"A[	c #6007CB",
"B[	c #56029F",
"C[	c #3A0182",
"D[	c #230162",
"E[	c #330166",
"F[	c #350264",
"G[	c #320167",
"H[	c #220167",
"I[	c #290170",
"J[	c #460296",
"K[	c #6C08BC",
"L[	c #820BD2",
"M[	c #5E03C9",
"N[	c #3C02B7",
"O[	c #3902AB",
"P[	c #2D0193",
"Q[	c #28025D",
"R[	c #24034E",
"S[	c #23024E",
"T[	c #340285",
"U[	c #43039F",
"V[	c #721CC0",
"W[	c #9E32D4",
"X[	c #8A22D3",
"Y[	c #5917A2",
"Z[	c #221441",
"`[	c #170D36",
" }	c #090617",
".}	c #08081D",
"+}	c #4901A0",
"@}	c #4D01AA",
"#}	c #4801A2",
"$}	c #43019B",
"%}	c #320178",
"&}	c #1E024F",
"*}	c #18024E",
"=}	c #180359",
"-}	c #270385",
";}	c #3803AB",
">}	c #31028B",
",}	c #1A0253",
"'}	c #2A0298",
")}	c #24027A",
"!}	c #35028C",
"~}	c #430182",
"{}	c #3B0171",
"]}	c #240256",
"^}	c #180151",
"/}	c #35019B",
"(}	c #4D03C8",
"_}	c #5A05C9",
":}	c #6705BC",
"<}	c #5F03A6",
"[}	c #40028C",
"}}	c #1F0168",
"|}	c #470187",
"1}	c #420281",
"2}	c #320275",
"3}	c #5001A8",
"4}	c #6A06BB",
"5}	c #7D0ECC",
"6}	c #760ECF",
"7}	c #5707CA",
"8}	c #4404B7",
"9}	c #37029F",
"0}	c #300186",
"a}	c #290274",
"b}	c #24016F",
"c}	c #1E0240",
"d}	c #1E0341",
"e}	c #1E0340",
"f}	c #20024D",
"g}	c #3C018A",
"h}	c #5803B0",
"i}	c #6A06C6",
"j}	c #8A20D1",
"k}	c #932AD4",
"l}	c #6D18C7",
"m}	c #501E9C",
"n}	c #2F1B4E",
"o}	c #120B2F",
"p}	c #130A27",
"q}	c #160D33",
"r}	c #4D01A7",
"s}	c #5301AB",
"t}	c #4D029F",
"u}	c #290174",
"v}	c #2F0173",
"w}	c #160243",
"x}	c #16024C",
"y}	c #19035C",
"z}	c #240387",
"A}	c #2F03A0",
"B}	c #3C03A9",
"C}	c #350288",
"D}	c #1C025B",
"E}	c #200279",
"F}	c #27028C",
"G}	c #240178",
"H}	c #300187",
"I}	c #350174",
"J}	c #40017A",
"K}	c #240254",
"L}	c #1C0157",
"M}	c #16014C",
"N}	c #5605BF",
"O}	c #4D03C0",
"P}	c #6A08C7",
"Q}	c #810BC8",
"R}	c #6405B0",
"S}	c #350190",
"T}	c #3A0191",
"U}	c #4F0198",
"V}	c #55019B",
"W}	c #4D0199",
"X}	c #5901AD",
"Y}	c #7008CA",
"Z}	c #700ED2",
"`}	c #6510D0",
" |	c #5208C2",
".|	c #4103AA",
"+|	c #43019A",
"@|	c #3E0181",
"#|	c #2A0269",
"$|	c #1B024B",
"%|	c #140234",
"&|	c #18023A",
"*|	c #19033D",
"=|	c #490199",
"-|	c #7A08C9",
";|	c #7105CD",
">|	c #8112D1",
",|	c #7B0FD4",
"'|	c #5D18BC",
")|	c #542B8F",
"!|	c #311B53",
"~|	c #140C30",
"{|	c #251043",
"]|	c #180E37",
"^|	c #0C0921",
"/|	c #4701AA",
"(|	c #4D01A8",
"_|	c #3E018E",
":|	c #1C015D",
"<|	c #21015D",
"[|	c #190149",
"}|	c #18014F",
"||	c #18015C",
"1|	c #1A026A",
"2|	c #2A039C",
"3|	c #3504B5",
"4|	c #270270",
"5|	c #1A0169",
"6|	c #24017C",
"7|	c #25017B",
"8|	c #250176",
"9|	c #3F0185",
"0|	c #430181",
"a|	c #2A025C",
"b|	c #1C015E",
"c|	c #4603A9",
"d|	c #3A01AF",
"e|	c #4001AC",
"f|	c #7308CB",
"g|	c #6A05C2",
"h|	c #5803B7",
"i|	c #5D06B2",
"j|	c #7008B6",
"k|	c #880BBD",
"l|	c #7C08BD",
"m|	c #6604BD",
"n|	c #5E05C3",
"o|	c #670CCE",
"p|	c #6A0FCE",
"q|	c #5D08C2",
"r|	c #40039A",
"s|	c #2F0172",
"t|	c #36016D",
"u|	c #3D0176",
"v|	c #29025D",
"w|	c #1F0250",
"x|	c #1A0247",
"y|	c #130138",
"z|	c #120137",
"A|	c #130135",
"B|	c #18023E",
"C|	c #2A0263",
"D|	c #42028B",
"E|	c #5003A5",
"F|	c #5304B0",
"G|	c #7510CD",
"H|	c #7A16D1",
"I|	c #551CB2",
"J|	c #54307A",
"K|	c #1E103F",
"L|	c #32105C",
"M|	c #190F3A",
"N|	c #0D0924",
"O|	c #5801C3",
"P|	c #4701AB",
"Q|	c #310186",
"R|	c #30017C",
"S|	c #18014B",
"T|	c #1A0168",
"U|	c #210385",
"V|	c #3105B1",
"W|	c #3905BC",
"X|	c #2C028A",
"Y|	c #24016B",
"Z|	c #1D0361",
"`|	c #180262",
" 1	c #1C0163",
".1	c #260173",
"+1	c #38017F",
"@1	c #3C0179",
"#1	c #280255",
"$1	c #180148",
"%1	c #120143",
"&1	c #1D015C",
"*1	c #360194",
"=1	c #3B01A8",
"-1	c #3501A0",
";1	c #5502C0",
">1	c #5E03C6",
",1	c #6B09C9",
"'1	c #7C16CA",
")1	c #8714CC",
"!1	c #931ACC",
"~1	c #760CCB",
"{1	c #6809CE",
"]1	c #670CCD",
"^1	c #660DC4",
"/1	c #5F0BB4",
"(1	c #460394",
"_1	c #300271",
":1	c #260357",
"<1	c #290359",
"[1	c #2C0260",
"}1	c #210251",
"|1	c #100133",
"11	c #0F0131",
"21	c #0F012F",
"31	c #17013F",
"41	c #3B019B",
"51	c #5304B8",
"61	c #700DCF",
"71	c #6F14CA",
"81	c #57249E",
"91	c #442763",
"01	c #1F123D",
"a1	c #3B1461",
"b1	c #42127B",
"c1	c #1C0E3E",
"d1	c #7608CD",
"e1	c #4601B0",
"f1	c #3F019D",
"g1	c #5101AA",
"h1	c #18015F",
"i1	c #1A0170",
"j1	c #27039E",
"k1	c #3805C2",
"l1	c #3B04BB",
"m1	c #310392",
"n1	c #25036D",
"o1	c #170258",
"p1	c #160150",
"q1	c #2E0171",
"r1	c #3B0177",
"s1	c #29024B",
"t1	c #160145",
"u1	c #15014A",
"v1	c #34018A",
"w1	c #3501A1",
"x1	c #3401A0",
"y1	c #4301AF",
"z1	c #4801B8",
"A1	c #4A02BD",
"B1	c #660DCC",
"C1	c #690DCD",
"D1	c #680BCB",
"E1	c #6A0CCA",
"F1	c #6D0CC9",
"G1	c #5E07B1",
"H1	c #49039E",
"I1	c #380184",
"J1	c #2D0370",
"K1	c #26035E",
"L1	c #21034D",
"M1	c #23034D",
"N1	c #0C012B",
"O1	c #0B012A",
"P1	c #0F0132",
"Q1	c #24025B",
"R1	c #31017A",
"S1	c #320186",
"T1	c #4F02BB",
"U1	c #5104BA",
"V1	c #6307D1",
"W1	c #6A18C5",
"X1	c #592F84",
"Y1	c #351E53",
"Z1	c #1C1138",
"`1	c #0F0B25",
" 2	c #602690",
".2	c #501493",
"+2	c #26114F",
"@2	c #0A0820",
"#2	c #8712D0",
"$2	c #6504C0",
"%2	c #4702A0",
"&2	c #2D0181",
"*2	c #1B0165",
"=2	c #1A016B",
"-2	c #2E03AD",
";2	c #4107D1",
">2	c #3C03B7",
",2	c #240365",
"'2	c #1A035C",
")2	c #13024E",
"!2	c #160254",
"~2	c #1E0165",
"{2	c #380181",
"]2	c #3E0277",
"^2	c #270247",
"/2	c #160143",
"(2	c #190155",
"_2	c #140140",
":2	c #3502B0",
"<2	c #3801A5",
"[2	c #3601B0",
"}2	c #4902C4",
"|2	c #4D03C5",
"12	c #4703B8",
"22	c #5806B6",
"32	c #4602A1",
"42	c #330180",
"52	c #35027B",
"62	c #320270",
"72	c #280359",
"82	c #1F0247",
"92	c #19023C",
"02	c #10022D",
"a2	c #0E012B",
"b2	c #0C022C",
"c2	c #0B0127",
"d2	c #310183",
"e2	c #4903A6",
"f2	c #5504BB",
"g2	c #4602AC",
"h2	c #480AB1",
"i2	c #5B1EA3",
"j2	c #4B2A65",
"k2	c #20123F",
"l2	c #140D2C",
"m2	c #8730C1",
"n2	c #4C1292",
"o2	c #230E4B",
"p2	c #08081F",
"q2	c #9F1CD4",
"r2	c #7C0CC6",
"s2	c #440299",
"t2	c #250171",
"u2	c #1E0171",
"v2	c #280293",
"w2	c #3404B6",
"x2	c #3E06C8",
"y2	c #3702AD",
"z2	c #320288",
"A2	c #290365",
"B2	c #150253",
"C2	c #16025B",
"D2	c #430199",
"E2	c #42027B",
"F2	c #320257",
"G2	c #180152",
"H2	c #1B014C",
"I2	c #2F0284",
"J2	c #3202A5",
"K2	c #2F02A2",
"L2	c #2A0195",
"M2	c #3101A8",
"N2	c #4001BC",
"O2	c #3F01B9",
"P2	c #3A01A9",
"Q2	c #2E0195",
"R2	c #27018D",
"S2	c #39036D",
"T2	c #310260",
"U2	c #200248",
"V2	c #110133",
"W2	c #100234",
"X2	c #0E0130",
"Y2	c #0E012C",
"Z2	c #17033D",
"`2	c #30036D",
" 3	c #360188",
".3	c #3D029A",
"+3	c #5C06C2",
"@3	c #5B0BB2",
"#3	c #3A0394",
"$3	c #471292",
"%3	c #512381",
"&3	c #41215D",
"*3	c #20113D",
"=3	c #641382",
"-3	c #8623C1",
";3	c #471A85",
">3	c #261847",
",3	c #AF2ED1",
"'3	c #8110C2",
")3	c #4200A6",
"!3	c #310177",
"~3	c #23016A",
"{3	c #3003A1",
"]3	c #4108CB",
"^3	c #4708CA",
"/3	c #4705B4",
"(3	c #340387",
"_3	c #24035F",
":3	c #160353",
"<3	c #180365",
"[3	c #180263",
"}3	c #170150",
"|3	c #1E0161",
"13	c #450181",
"23	c #3B0360",
"33	c #220252",
"43	c #160153",
"53	c #120134",
"63	c #1E025B",
"73	c #290296",
"83	c #2B0297",
"93	c #4203B1",
"03	c #4A03BB",
"a3	c #3901A0",
"b3	c #240362",
"c3	c #1B014D",
"d3	c #0F0137",
"e3	c #0F0134",
"f3	c #0E012F",
"g3	c #120231",
"h3	c #140235",
"i3	c #270354",
"j3	c #43058A",
"k3	c #5604B2",
"l3	c #5404B7",
"m3	c #5404BB",
"n3	c #3B038E",
"o3	c #47039F",
"p3	c #6A1EAD",
"q3	c #5E2B83",
"r3	c #361B56",
"s3	c #1A0F35",
"t3	c #7107AB",
"u3	c #8E37C0",
"v3	c #3F2573",
"w3	c #120C34",
"x3	c #A62FCF",
"y3	c #7A0EBA",
"z3	c #420191",
"A3	c #310275",
"B3	c #2C016F",
"C3	c #2A016F",
"D3	c #27017A",
"E3	c #2E02A0",
"F3	c #3703C1",
"G3	c #590FCD",
"H3	c #6D0DCE",
"I3	c #440594",
"J3	c #1E0354",
"K3	c #160255",
"L3	c #240485",
"M3	c #120144",
"N3	c #2E0179",
"O3	c #4A0191",
"P3	c #48017C",
"Q3	c #2A0162",
"R3	c #0E0133",
"S3	c #0C0135",
"T3	c #210370",
"U3	c #28028E",
"V3	c #1B0272",
"W3	c #360399",
"X3	c #4A03B5",
"Y3	c #3B029B",
"Z3	c #250172",
"`3	c #1E015E",
" 4	c #16014E",
".4	c #140150",
"+4	c #130153",
"@4	c #15024F",
"#4	c #10013B",
"$4	c #100130",
"%4	c #0A0123",
"&4	c #0D0226",
"*4	c #1D0342",
"=4	c #270353",
"-4	c #32036A",
";4	c #5107A4",
">4	c #5905BC",
",4	c #5503BB",
"'4	c #450199",
")4	c #680FB6",
"!4	c #7824B7",
"~4	c #542877",
"{4	c #281546",
"]4	c #120C2B",
"^4	c #1A063B",
"/4	c #8325C4",
"(4	c #6B3CB4",
"_4	c #1F115D",
":4	c #180E40",
"<4	c #8016C6",
"[4	c #2A0173",
"}4	c #2D0171",
"|4	c #2E0170",
"14	c #260167",
"24	c #300285",
"34	c #2C019B",
"44	c #4205BC",
"54	c #600ED0",
"64	c #6A0DCE",
"74	c #4803A3",
"84	c #150356",
"94	c #280591",
"04	c #1D0370",
"a4	c #0E013A",
"b4	c #150144",
"c4	c #4F0292",
"d4	c #470280",
"e4	c #1E016D",
"f4	c #0A0126",
"g4	c #1F0264",
"h4	c #2C038A",
"i4	c #29038D",
"j4	c #24027C",
"k4	c #38029E",
"l4	c #3C01AA",
"m4	c #2D018C",
"n4	c #280275",
"o4	c #2E027B",
"p4	c #230267",
"q4	c #1F025D",
"r4	c #23025B",
"s4	c #140237",
"t4	c #240253",
"u4	c #2D0364",
"v4	c #36037A",
"w4	c #4D04B0",
"x4	c #5403C0",
"y4	c #5702BD",
"z4	c #5E02BB",
"A4	c #5F05B3",
"B4	c #8624C9",
"C4	c #7026AB",
"D4	c #47206D",
"E4	c #22123F",
"F4	c #0F0A28",
"G4	c #300669",
"H4	c #6222AB",
"I4	c #462095",
"J4	c #251268",
"K4	c #1A1149",
"L4	c #0F0C28",
"M4	c #6809B4",
"N4	c #280271",
"O4	c #27016B",
"P4	c #2E0175",
"Q4	c #4402C1",
"R4	c #4D05CA",
"S4	c #5407CF",
"T4	c #5304C7",
"U4	c #3B0295",
"V4	c #1A0260",
"W4	c #1B036A",
"X4	c #25048B",
"Y4	c #220480",
"Z4	c #130345",
"`4	c #150244",
" 5	c #430180",
".5	c #1B0258",
"+5	c #100232",
"@5	c #24036A",
"#5	c #2D0588",
"$5	c #25037C",
"%5	c #220276",
"&5	c #2C0190",
"*5	c #260281",
"=5	c #25026A",
"-5	c #2D0375",
";5	c #2C0372",
">5	c #2B0270",
",5	c #230362",
"'5	c #1A024D",
")5	c #1A024C",
"!5	c #5403C2",
"~5	c #6202BC",
"{5	c #7E05CC",
"]5	c #6A10BC",
"^5	c #9B38CE",
"/5	c #6F2DA5",
"(5	c #37175C",
"_5	c #1B0F39",
":5	c #0C0923",
"<5	c #36047D",
"[5	c #501699",
"}5	c #451F82",
"|5	c #261469",
"15	c #1A114C",
"25	c #100C2B",
"35	c #450980",
"45	c #2A026F",
"55	c #240167",
"65	c #2B0179",
"75	c #3C0198",
"85	c #4401AA",
"95	c #5504C5",
"05	c #640BD4",
"a5	c #5D0AD0",
"b5	c #4F05CE",
"c5	c #4501BE",
"d5	c #2C0285",
"e5	c #1E026C",
"f5	c #1F0278",
"g5	c #280390",
"h5	c #28048B",
"i5	c #210369",
"j5	c #19024E",
"k5	c #1D024F",
"l5	c #3B0276",
"m5	c #440184",
"n5	c #35036A",
"o5	c #260356",
"p5	c #0F0139",
"q5	c #130146",
"r5	c #2A057C",
"s5	c #1A0364",
"t5	c #180261",
"u5	c #1E0274",
"v5	c #1B0270",
"w5	c #1A026C",
"x5	c #1F026D",
"y5	c #250279",
"z5	c #2B028C",
"A5	c #2C018A",
"B5	c #28027F",
"C5	c #24017A",
"D5	c #1B025C",
"E5	c #1A025B",
"F5	c #20015E",
"G5	c #38018A",
"H5	c #4C01AA",
"I5	c #6203B0",
"J5	c #6C01B7",
"K5	c #7618C1",
"L5	c #822DC1",
"M5	c #67289D",
"N5	c #2F1256",
"O5	c #170D34",
"P5	c #13083C",
"Q5	c #250367",
"R5	c #591C95",
"S5	c #461E7B",
"T5	c #2B1774",
"U5	c #190F49",
"V5	c #120C30",
"W5	c #120C31",
"X5	c #180D48",
"Y5	c #271266",
"Z5	c #3B1083",
"`5	c #4601A9",
" 6	c #5102BC",
".6	c #5E08C9",
"+6	c #7012D1",
"@6	c #620CD2",
"#6	c #4703C7",
"$6	c #3801AA",
"%6	c #2D0188",
"&6	c #220178",
"*6	c #27018A",
"=6	c #28038D",
"-6	c #2C0393",
";6	c #2E037D",
">6	c #22025E",
",6	c #2C0169",
"'6	c #37017C",
")6	c #360273",
"!6	c #2A025D",
"~6	c #1C0345",
"{6	c #140238",
"]6	c #100235",
"^6	c #10013C",
"/6	c #0F013F",
"(6	c #170353",
"_6	c #1E036C",
":6	c #1E036D",
"<6	c #18025E",
"[6	c #17025A",
"}6	c #140253",
"|6	c #16025D",
"16	c #200376",
"26	c #1E0370",
"36	c #240174",
"46	c #1E026A",
"56	c #210271",
"66	c #270172",
"76	c #5401A5",
"86	c #6C03B0",
"96	c #7901C2",
"06	c #871BCA",
"a6	c #7A28BA",
"b6	c #561B8F",
"c6	c #2B1055",
"d6	c #130C30",
"e6	c #2A056F",
"f6	c #1E0358",
"g6	c #5E1E94",
"h6	c #451E76",
"i6	c #28146B",
"j6	c #170C4B",
"k6	c #140D37",
"l6	c #130C38",
"m6	c #170C49",
"n6	c #271561",
"o6	c #492175",
"p6	c #5D2491",
"q6	c #620AB9",
"r6	c #5A04CA",
"s6	c #5E0AD0",
"t6	c #5608D2",
"u6	c #4402C5",
"v6	c #3B01AC",
"w6	c #310190",
"x6	c #2A0187",
"y6	c #2E029A",
"z6	c #2A0295",
"A6	c #2D038D",
"B6	c #38038D",
"C6	c #300376",
"D6	c #150247",
"E6	c #1D0159",
"F6	c #2D026B",
"G6	c #2C0364",
"H6	c #240353",
"I6	c #1E0244",
"J6	c #13023F",
"K6	c #120247",
"L6	c #110245",
"M6	c #13024B",
"N6	c #150250",
"O6	c #13024C",
"P6	c #190260",
"Q6	c #1A0262",
"R6	c #1E036E",
"S6	c #1E0369",
"T6	c #210269",
"U6	c #1C0259",
"V6	c #190254",
"W6	c #19025C",
"X6	c #220176",
"Y6	c #37018B",
"Z6	c #6002BC",
"`6	c #6F02C2",
" 7	c #7503BD",
".7	c #7E05C2",
"+7	c #961BCE",
"@7	c #A232D0",
"#7	c #7B30B6",
"$7	c #4D138D",
"%7	c #24104B",
"&7	c #0F0929",
"*7	c #2C027E",
"=7	c #240462",
"-7	c #591D92",
";7	c #471E76",
">7	c #24125D",
",7	c #150C48",
"'7	c #170E3F",
")7	c #140C40",
"!7	c #150B4C",
"~7	c #2D166F",
"{7	c #4A217B",
"]7	c #552188",
"^7	c #7011C1",
"/7	c #8A12D5",
"(7	c #7F0BD3",
"_7	c #4F03C6",
":7	c #4201C0",
"<7	c #4101B1",
"[7	c #350198",
"}7	c #32019F",
"|7	c #2A0194",
"17	c #45039E",
"27	c #4A0493",
"37	c #2E036F",
"47	c #2D0269",
"57	c #250351",
"67	c #1D0340",
"77	c #180342",
"87	c #16024A",
"97	c #0E023B",
"07	c #120341",
"a7	c #120344",
"b7	c #0F023D",
"c7	c #0D023A",
"d7	c #0E023C",
"e7	c #130247",
"f7	c #17034A",
"g7	c #190353",
"h7	c #1A0255",
"i7	c #160246",
"j7	c #17024F",
"k7	c #23017A",
"l7	c #45019D",
"m7	c #6801C2",
"n7	c #8808CE",
"o7	c #9209D1",
"p7	c #8606CC",
"q7	c #7804C3",
"r7	c #981ECE",
"s7	c #9F30CE",
"t7	c #7627B2",
"u7	c #41117E",
"v7	c #1E0D43",
"w7	c #470B6C",
"x7	c #400099",
"y7	c #3C048B",
"z7	c #531D8A",
"A7	c #441D70",
"B7	c #281363",
"C7	c #170C4D",
"D7	c #160D41",
"E7	c #140A45",
"F7	c #120946",
"G7	c #2B1565",
"H7	c #4F2683",
"I7	c #4B2178",
"J7	c #4B0E9E",
"K7	c #8113D2",
"L7	c #971DD2",
"M7	c #8609D3",
"N7	c #7205C5",
"O7	c #300191",
"P7	c #2E0184",
"Q7	c #2B027C",
"R7	c #310292",
"S7	c #2F0199",
"T7	c #750AB8",
"U7	c #3C0381",
"V7	c #1F0166",
"W7	c #25026B",
"X7	c #2B026F",
"Y7	c #2F0267",
"Z7	c #30025B",
"`7	c #24024A",
" 8	c #120239",
".8	c #0F0237",
"+8	c #11023B",
"@8	c #0A0130",
"#8	c #080127",
"$8	c #120238",
"%8	c #0D012E",
"&8	c #3A0187",
"*8	c #6B06B0",
"=8	c #9510D0",
"-8	c #9E16D3",
";8	c #9F1DD4",
">8	c #8307CF",
",8	c #6401B9",
"'8	c #8D0FCC",
")8	c #8D2AC3",
"!8	c #5B1E95",
"~8	c #331661",
"{8	c #170C35",
"]8	c #6E0CA3",
"^8	c #5F01BA",
"/8	c #7205C4",
"(8	c #511B83",
"_8	c #4C2478",
":8	c #2C146C",
"<8	c #140A47",
"[8	c #150C42",
"}8	c #120A35",
"|8	c #140C36",
"18	c #160E3B",
"28	c #402766",
"38	c #6D3E94",
"48	c #682A9E",
"58	c #7008CE",
"68	c #7A0DD2",
"78	c #AC22D4",
"88	c #7D0EC0",
"98	c #4400AB",
"08	c #39027F",
"a8	c #31029A",
"b8	c #3802AE",
"c8	c #5C07B8",
"d8	c #820EC3",
"e8	c #6507A5",
"f8	c #260172",
"g8	c #1E015B",
"h8	c #43018D",
"i8	c #480192",
"j8	c #400178",
"k8	c #2C0256",
"l8	c #180240",
"m8	c #0E0233",
"n8	c #0C0134",
"o8	c #08012A",
"p8	c #080126",
"q8	c #0C022B",
"r8	c #110232",
"s8	c #110233",
"t8	c #0D022B",
"u8	c #0A0124",
"v8	c #1F016F",
"w8	c #200170",
"x8	c #41018E",
"y8	c #820CBD",
"z8	c #9C18D2",
"A8	c #9118D4",
"B8	c #8111D0",
"C8	c #7005C2",
"D8	c #6B11B7",
"E8	c #8227C3",
"F8	c #7B35B1",
"G8	c #3B246F",
"H8	c #1A113B",
"I8	c #8712C7",
"J8	c #7007C0",
"K8	c #7109C0",
"L8	c #652B9C",
"M8	c #41276B",
"N8	c #150D3A",
"O8	c #150C39",
"P8	c #120B37",
"Q8	c #0E0B22",
"R8	c #160E35",
"S8	c #301E55",
"T8	c #482B6D",
"U8	c #682A98",
"V8	c #8D1FD5",
"W8	c #7610CF",
"X8	c #BA39D1",
"Y8	c #9F19D1",
"Z8	c #5100A6",
"`8	c #2B036D",
" 9	c #220163",
".9	c #4403AB",
"+9	c #5506C2",
"@9	c #770FC4",
"#9	c #6A0AAA",
"$9	c #380280",
"%9	c #1E0262",
"&9	c #260261",
"*9	c #3B0183",
"=9	c #400189",
"-9	c #390371",
";9	c #240252",
">9	c #240350",
",9	c #1E0349",
"'9	c #120236",
")9	c #0C012C",
"!9	c #0B022E",
"~9	c #14023B",
"{9	c #120235",
"]9	c #110234",
"^9	c #1E025E",
"/9	c #1D0167",
"(9	c #210163",
"_9	c #6C05BA",
":9	c #780ACD",
"<9	c #5403C3",
"[9	c #5303B4",
"}9	c #5004A4",
"|9	c #5C1AA7",
"19	c #632AAA",
"29	c #4A288C",
"39	c #1E1153",
"49	c #120C33",
"59	c #24075D",
"69	c #8110C9",
"79	c #7008BA",
"89	c #4E1593",
"99	c #512781",
"09	c #291953",
"a9	c #150D35",
"b9	c #100C26",
"c9	c #110C27",
"d9	c #130D2F",
"e9	c #352257",
"f9	c #301D51",
"g9	c #733A91",
"h9	c #B445D8",
"i9	c #B03BD1",
"j9	c #C248D3",
"k9	c #8513CB",
"l9	c #390096",
"m9	c #210264",
"n9	c #2B017C",
"o9	c #4E02C1",
"p9	c #640CD1",
"q9	c #4F03C9",
"r9	c #38029B",
"s9	c #25036C",
"t9	c #1C025A",
"u9	c #410194",
"v9	c #4A0196",
"w9	c #34026F",
"x9	c #2A0359",
"y9	c #2B0359",
"z9	c #1C0348",
"A9	c #15033A",
"B9	c #18033F",
"C9	c #1C0248",
"D9	c #1A0248",
"E9	c #180153",
"F9	c #410192",
"G9	c #6C05BD",
"H9	c #7E0ACD",
"I9	c #5603BC",
"J9	c #300089",
"K9	c #3B0486",
"L9	c #52179B",
"M9	c #471F8D",
"N9	c #2C1570",
"O9	c #1D114F",
"P9	c #470699",
"Q9	c #6205BC",
"R9	c #5301B0",
"S9	c #4D1190",
"T9	c #3B2062",
"U9	c #301E57",
"V9	c #140D34",
"W9	c #100C27",
"X9	c #100C28",
"Y9	c #120D29",
"Z9	c #301F50",
"`9	c #301F4D",
" 0	c #6E358D",
".0	c #AD2FD8",
"+0	c #B331D2",
"@0	c #A326D4",
"#0	c #6E0BBE",
"$0	c #34008C",
"%0	c #2A0276",
"&0	c #200164",
"*0	c #36018D",
"=0	c #4602AA",
"-0	c #4E01C2",
";0	c #6B0ED0",
">0	c #7615D2",
",0	c #4E03D3",
"'0	c #4002BE",
")0	c #3A01A5",
"!0	c #2E0185",
"~0	c #270272",
"{0	c #290172",
"]0	c #300180",
"^0	c #36018B",
"/0	c #280263",
"(0	c #270259",
"_0	c #1D0353",
":0	c #170347",
"<0	c #150242",
"[0	c #19024A",
"}0	c #16023D",
"|0	c #150338",
"10	c #140239",
"20	c #1F0356",
"30	c #1F0357",
"40	c #250264",
"50	c #2F0181",
"60	c #5E02B0",
"70	c #8C0DCC",
"80	c #810CC9",
"90	c #5303AC",
"00	c #2C017A",
"a0	c #3F107A",
"b0	c #521C8E",
"c0	c #401D7B",
"d0	c #241465",
"e0	c #191047",
"f0	c #180B3B",
"g0	c #4C03A7",
"h0	c #5D01C0",
"i0	c #501191",
"j0	c #341F55",
"k0	c #2E1E56",
"l0	c #150F30",
"m0	c #110D27",
"n0	c #0F0C26",
"o0	c #0C0A21",
"p0	c #301F4B",
"q0	c #2A1E42",
"r0	c #672987",
"s0	c #A318D8",
"t0	c #8710CE",
"u0	c #8610D2",
"v0	c #790DC3",
"w0	c #230161",
"x0	c #4C02B2",
"y0	c #5803C2",
"z0	c #5905CC",
"A0	c #5D09D0",
"B0	c #5306D1",
"C0	c #4001C6",
"D0	c #4201B4",
"E0	c #37019D",
"F0	c #2A027B",
"G0	c #300386",
"H0	c #330298",
"I0	c #2A0284",
"J0	c #2F0287",
"K0	c #30018F",
"L0	c #2A026A",
"M0	c #26026A",
"N0	c #170244",
"O0	c #19014C",
"P0	c #180341",
"Q0	c #1A0243",
"R0	c #1F034F",
"S0	c #280364",
"T0	c #33027E",
"U0	c #5201A1",
"V0	c #8E0DCC",
"W0	c #6C07B8",
"X0	c #3C0193",
"Y0	c #27036A",
"Z0	c #511987",
"`0	c #4E1E81",
" a	c #371974",
".a	c #23125F",
"+a	c #160E3F",
"@a	c #32076F",
"#a	c #32018C",
"$a	c #6A01CB",
"%a	c #591293",
"&a	c #271A46",
"*a	c #2F1D53",
"=a	c #130E2C",
"-a	c #0D0B21",
"  . + @ # $ % & * = - ; > , ' ) ! ~ { ] ^ / ( _ : < [ } | 1 2 3 4 5 6 7 8 9 0 a b c d e f g h i j k l m n o p q r s t u v w x y ",
"z A B w C D E F G H I J K L M N O P Q R S T U V W X Y Z `  ...+.@.#.$.%.&.*.=.-.;.>.,.'.).!.~.{.{.].^./.(._.:.<.[.}.|.1.2.3.4.x ",
"5.6.7.8.s 9.0.a.b.c.d.e.f.g.h.i.j.k.l.m.n.o.p.q.r.s.t.u.v.w.x.y.z.A.B.C.D.E.F.G.H.I.J.K.L.M.N.O.P.Q.R.S.T.U.V.W.X.Y.Z.`. +.+++@+",
"#+$+%+C &+*+=+-+;+>+,+'+e.)+!+~+{+]+^+/+(+_+:+<+[+}+|+1+2+3+4+5+6+7+8+9+0+a+b+c+d+e+f+g+h+i+j+k+l+m+n+o+p+q+r+s+t+u+v+w+x+y+z+A+",
"B+C+D+E+|.F+G+H+I+J+K+K+L+M+N+O+P+Q+R+S+T+U+V+W+X+Y+Z+`+ @.@+@@@#@$@%@&@*@=@-@;@>@,@'@)@!@~@{@]@^@/@(@_@:@<@[@}@g.|@.+1@2@|.3@4@",
"2.5@6@C 7@8@9@0@a@b@c@d@6.e@f@g@h@i@j@k@l@m@n@o@p@q@r@s@t@u@v@w@x@y@z@A@B@C@D@E@F@G@H@I@J@K@L@M@N@O@P@Q@R@S@T@U@V@W@X@Y@x+Z@`@ #",
"2..#+#K+& @###$#%#&#b@*#=#-#;#>#,#'#)#@@!#~#{#]#^#/#(#_#:#:#<#[#}#|#1#2#3#4#5#6#7#8#9#0#a#b#c#d#e#f#g#h#i#j#k#l#m#  I+ +n#> 6@o#",
"p#q#; r#s#t#u#v#w#K+x#y#z#A#B#C#D#E#j@F#G#H#F#I#J#K#L#M#N#O#P#Q#R#S#T#U#V#W#X#Y#Z#`# $.$+$@$#$$$%$&$*$=$-$;$>$,$'$)$!$~${$= ]$^$",
"6@/$($> _$:$<$[$&#}$|$1$2$3$4$5$6$7$8$9$0$a$b$c$d$e$f$g$h$i$j$k$l$m$n$o$p$q$r$s$t$u$v$w$x$y$z$A$B$C$D$E$F$G$H$I$J$K$L$M$N$= O$1@",
"P$Q$R$S$T$U$V$W$X$L$Y$Z$`$ %.%+%@%#%$%%%&%*%=%-%;%>%,%'%)%!%W+~%{%]%^%/%(%_%:%<%[%}%|%1%2%3%4%5%6%7%8%9%0%a%b%c%d%e%f%g%h%i%($j%",
"v+I k%l%m%n%K+W$o%w p%q%r%s%t%u%v%w%x%y%z%A%B%C%D%E%`+F%G%H%I%J%K%L%M%N%O%P%Q%R%S%T%U%V%W%X%Y%Z%`% &.&+&@&#&$&%&&&*&=&-&;&>&,&'&",
"w )&e.!&~&{&x+]&^&/&(&_&:&<&[&}&|&1&2&3&4&5&6&7&8&9&0&a&b&c&d&e&f&g&h&i&j&k&l&m&n&o&p&q&r&s&t&u&v&w&x&y&z&A&/+B&C&D&E&F&G&H&I&J&",
"K&'$Z.L&M&N&O&P&l%Q&R&S&T&U&V&W&X&Y&Z&`& *.*G%+*@*#*$*%*&***=*-*;*>*,*'*)*!*~*{*]*^*/*(*_*:*<*[*}*|*1*2*3*r.4*5*6*i$7*8*9*0*a*b*",
"I+>+'+X$c*%#> d*e*f*g*h*i*j*k*l*m*n*`&o*p*q*r*s*t*u*v*w*x*y*z*A*B*C*D*E*F*G*H*I*J*K*L*M*N*O*P*Q*R*S*T*U*V*W*X*Y*Z*`* =.=+=@=#=$=",
"I+,+%={$&=Z@Z@*===-=;=>=,='=)=!=~={=]=^=/=(=_=:=<=[=W&}=|=1=2=3=4=5=6=7=8=9=0=a=b=c=}+d=e=f=g=h=i=j=k=l=m=n=o=p=q=r=s=t=u=v=w=x=",
"J+y=%=($z=> A=B=C=D=E=F=G=H=I=J=K=1+L=M=N=O=P=Q=R=S=T=U=V=W=X=Y=Z=`= -.-+-@-#-$-%-&-K#*-=---;->-,-'-)-!-~-{-]-^-/-(-_-:-<-[-}-|-",
",+1-K+,+X$N$2-3-4-5-6-7-8-9-0-a-b-c-d-e-f-e&g-h-i-6%j-k-l-m-n-o-p-q-r-s-t-u-v-w-x-y-z-A-B-C-D-E-F-G-H-I-J-K-L-M-N-O-P-Q-R-S-T-U-",
"v#V-X$N$]$W-X-Y-Z-`- ;.;+;@;j-w*#;$;b=%;&;*;*;=;-;;;>;,;';);!;~;{;];^;/;(;_;:;<;[;};|;1;2;3;4;5;6;7;8;9;0;a;b;c;d;e;f;g;h;i;j;k;",
"l;m;O$n;o;p;q;r;s;t;u;v;w;x;y;!#z;A;B;C;D;d&E;F;G;H;I;J;K;L;M;N;O;P;Q;R;S;T;U;V;W;X;Y;Z;`; >.>+>@>m*#>$>%>&>*>=>->;>>>,>'>)>!>~>",
"{>]>^>/>(>_>:><>[>}>|>1>2>3>H*4>5>6>7>8>9>0>2;a>b>c>d>e>f>M*g>h>i>j>k>l>m>n>o>p>q>r>s>t>u>v>w>x>y>z>A>2=B>C>D>E>F>G>H>I>J>K>L>M>",
"e.N>O>P>Q>R>S>T>U>V>W>X>Y>Z>`> ,.,+,@,#,$,%,&,*,=,-,;,J;>,,,',),!,~,{,],^,/,(,_,:,<,[,},|,1,2,3,4,5,6,7,>,8,9,0,a,b,c,d,e,f,g,f@",
"h,{>i,k%j,k,l,m,n,o,p,q,r,s,t,u,v,w,x,y,$,z,A,B,C,D,E,F,G,H,I,J,K,L,M,N,O,P,Q,R,S,T,U,V,|+W,X,Y,Z,`, '.'+'@'#'$'%'&'*'='-';'>'t$",
"W$v#1@,''')'!'~'{']'^'/'('_':'#'<':=['y,}'|'1'2'3'4'5'6'7'8'9'0'a'b'c'd'e'f'g'h'i'j'k'l'u>W,m'n'o'p'q'r's't'u'v'w'x'y'z'A'B'C'D'",
"'+E'F'G'H'I'J'K'L'M'N'O'P'Q'R'S'T'M=U'V'W'w%X'Y'Z'`' ).)+)@)#)$)%)&)*)=)-);)>),)')))!)~){)])^)/)()_):)<)[)})|)1)2)3)4)5)6)7)8)9)",
"X$= 0)a)b)c)d)2>e)f)g)h)i)j)k)l)m)n)o)p)q)r)s)t)u)v)w)x)y)z)A)B)C)D)E)F)G)H)I)J)K)L)M)N)O)O)P)Q)R)S)T)U)V)W)X)Y)Z)`) !.!+!@!#!$!",
"X@L+%!&!*!=!-!;!>!,!'!)!!!~!{!]!^!/!(!_!:!<![!}!|!4)1!2!3!4!5!6!7!8!E)9!0!a!b!c!d!e!f!w>g!h!i!j!k!l!m!n!o!p!q!r!~=s!t!u!v!w!x!y!",
"z!A!B!C!D!E!F!G!H!I!J!I!K!L!M!N!O!P!Q!R!S!T!U!V!W!X!Y!Z!`! ~g=.~+~@~#~$~%~&~*~=~-~;~>~,~a='~)~!~~~{~]~^~/~(~_~:~<~[~}~|~1~2~3~4~",
"s#5~6~7~8~9~0~a~b~)!c~d~e~f~g~h~i~j~k~l~m~n~o~p~q~r~s~t~u~m@v~w~x~y~:'z~A~x*B~C~D~E~F~G~H~I~J~K~L~M~N~O~P~Q~R~S~r,T~U~V~W~X~Y~Z~",
"`~ {.{+{@{#{${%{&{*{>*={-{;{>{*-,{'{){!{~{{{]{^{/{({_{:{w@_=V+<{[{}{|{O)c&1{y*2{3{4{5{g!6{7{8{9{0{a{b{c{d{e{f{g{h{i{j{k{l{m{n{o{",
"'$p{q{r{s{t{u{v{w{x{y{z{A{B{C{D{E{F{G{H{I{J{K{L{M{N{O{P{Q{R{S{T{U{V{1+W{u>X{Y{Z{`{ ].]+]@]#]$]%]&]*]=]-];]>],]'])]!]~]{]]]^]/](]",
"_]:]<][]}]|]w'1]2]3]r*4]Z*5]6]7]8]9]0]a]b]c]d]e]f]g]h]i]j]k]l]m]1+n]o]p]q]r]s]t]u]v].]w]x]y]z]A]B]C]D]E]F]G]H]I]J]K]L]M]N]O]P]Q]",
"R]S]T]U]V]W]X]Y]Z]`] ^.^+^@^f!A>#^$^%^&^*^=^-^;^>^,^'^)^!^~^I%{^{^z%]^^^$;/^(^_^:^<^[^}^|^1^2^3^4^5^]~E%6^7^8^M!9^0^a^b^c^d^e^f^",
"g^h^i^j^k^l^m^n^o^p^q^r^!#s^t^u^v^w^h=x^y^z^A^B^C^~#D^E^v,F^G^H^I^J^r@K^+*L^M^N^O^P^Q^R^S^T^U^V^W^X^Y^Z^`^ /./+/@/#/$/%/&/*/=/F+",
"-/;/>/,/'/)/!/~/{/]/^///(/5*_/:/</[/}/|/1/2/3/4/5/6/7/8/9/0/a/b/c/d/y,e/f/g/h/i/j/k/l/$@m/n/o/p/q/r/s/t/u/v/w/a& =x/y/z/A/B/C/D/",
"E/F/G/H/I/J/K/L/M/N/W'O/P/Q/R/S/T/U/V/W/X/Y/W'Z/`/ (.(+(@(#($(%(&(d/*(=(-(;(>(,('()(!(~({(](^(/(((_(:(<([(}(|(1(2(!#3(4(5(6(7($ ",
"8(9(0(a(b(c(d(e(f(g(h(i(j(k(l(m(n(o(p(q(r(s(t(|'u(v(w(x(y((#z(A(B(C({^D(B>E(F(G(H(I(J(K(L(U=M(N(O(P(Q(R(S(T(U(V(W(X(Y(Z(`( _,'._",
"+_@_K~#_$_%_&_*_=_-_;_>_,_'_)_o(@>!_~_{_]_^_/_(___:_<_[_}_y(y,|_1_2_3_4_+~5_6_u-7_8_9_0_a_b_c_d_e_f_g_h_i_j_k_l_m_n_o_p_q_r_s_t_",
"u_v_w_x_F,%_D;y_z_|(A_t,B_C_D_E_F_G_H_I_J_5*d=K_L_M_I#N_O_P_V'^=Q_S~R_8;S_T_U_V_W_X_Y_Z_`_ :.:+::)@:#:u/J%$:%:&:*:=:-:;:>:,:':E+",
"):!:~:{:]:^:/:(:_:O=f/<{::<:[:}:|:1:2://*-3:4:5:6:7:8:9:0:a:A{+*9!b:a-c:d:e:f:g:h:i:j:k:l:m:n:o:p:q:r:s:t:u:v:w:x:y:z:A:B:C:D:t_",
"E:Y&F:G:6!p^H:I:A{J:K:L:7:M:N:O:P:B>Q:R:S:T:U:V:W:X:Y:Z:`: <.<+<@<#<#<$<t:8!%<&<*<=<-<;<><,<'<G%(=)<g{z_!<~<{<2>]<^</<(<_<:<w <<",
"[<_@}<|<1<2<A-N=z{3<4<5<6<7<8<9<0<a<b<c<d<e<f<g<h<i<j<k<K#l<m<n<o<p<q<r<s<t<u<v<w<x<y<z<A<B<C<D<E<F<G<H<I<J<K<L<M<N<O<P<{.Q<R<S<",
"T<f;U<4*V<L#W<X<Y<Z<`< [.[+[@[#[$[%[&[*[_:=[-[;[>[,['['(}_)[![~[d<{[=[][^[_-/[([_[:[<[[[}[|[1[2[F(3[4[5[6[7[8[9[0[a[b[c[3.^&d[g ",
"e[f[g[h[i[A-j[k[y_l[m[n[o[p[q[r[s[t[u[v[w[D-x[y[z[A[B[C[D[E[F[G[Z*H[I[ =J[K[L[M[N[O[P[}[#;P!,{~/Q[R[S[@<T[U[V[W[X[Y[Z[`[>  }C/.}",
"+}@}#}$}%}&}R(9>*}=}-};}>},}5;'})}!}~}{}]}^}Y)/}(}_}:}<}[}}}%}|}1}2}h)3}4}5}6}7}8}9}0}l)7{a}b}c}d}e}f}g}h}i}j}k}l}m}n}o}8.p}q}s ",
"r}s}t}u}v}O=w}x}y}z}A}B}C}D}E}F}G}H}I}J}K}L}M}.@N}O}P}Q}R}S}T}U}V}W}X}V*Y}Z}`} |.|+|@|]##|f!$|%|&|*|w[=|-|;|>|,|'|)|!|~|+#{|]|^|",
"/|(|_|:|<|[|}|||1|2|3|L,4|+,5|6|7|8|9|0|a|O#f(b|c|d|e|f|g|h|i|j|k|l|m|n|o|p|q|r|s|t|u|v|w|x|y|z|A|B|C|D|E|F|G|H|I|J|K|w 1@L|M|N|",
"O|P|Q|R|~#S|1,T|U|V|W|X|Y|Z|`| 1.13:+1@1#1$1%1&1*1=1-1;1>1,1'1)1!1~1{1]1^1/1(1_1:1<1[1}1|;|1e$112131w@{<41516171819101f^a1b1c1s_",
"d1e1f1g1E*r!h1i1j1k1l1m1n1Z|o1p1K< @q1r1s1t1u1P/v1w1x1y1z1A1B1C1D1E1F1G1H1I1J1K1L1M1n){/N1O1N1P1N=Q1R1S1T1U1V1W1X1Y1Z1`1 2.2+2@2",
"#2$2%2F,&2*2=2E^-2;2>2>},2'2)2!2~28|{2]2^2/2(2_25]/}:2<2u^[2}2|2129;223242526272829202a2b2c2G^G]B{q1d2e2f2g2h2i2j2k2l2^|m2n2o2p2",
"q2r2s2s<t2M;u2v2w2x2y2z2A2B2D]C2r!R{D2E2F2O!G2@(H2I2J2K2L2M2N2O2P2Q2R2v~5{S2T2U2V2V2W2(#X2L#Y2Z2`2 3.3+3@3#3$3%3&3*3`~=3-3;3>3h ",
",3'3)3!3s^~3R{{3]3^3/3(3_3:3<3[3}3|3/+1323334353|163/(73839303a3f=t2s(b|s^b3c3d3e/e3)%f3Y2g3h3i3j3k3l3m3n3o3p3q3r3s3':t3u3v3w3m ",
"x3y3z3A3B3C3D3E3F3G3H3I3J3K3L3`,M3|+N3O3P3Q3h1R3g$S3T3U3V3W3X3Y3Z3`3 4|,.4+4@4#4V'|1$4%4&4*4=4-4;4>4,4I='4)4!4~4{4]4^4/4(4_4:4~$",
"<4H1[4}4|414243444546474@4849404a4b4Z*c4d4>*e4~)f4#4g4h4i4j4k4l4m4n4o4p4q4r4L/%;s:i_q:s4r:t4u4v4w4x4y4z4A4B4C4D4E4F4G4H4I4J4K4L4",
"M4&{N4O4P4v]j&Q4R4S4T4U4V4W4X4Y4Z4`4A~l/ 53].5P=+59>,}@5#5$5%5C_M:Z)&5*5X;=5-5;5>5,5!)'5)5r4Q^Y 9]!5~5{5]5^5/5(5_5:5<5[5}5|51525",
"3545556575859505a5b5c5d5e5f5g5h5i5j5k5l5m5n5o5q*2<p5q5l[r5$5s5t5u5v5+:+:w5x5y5z5A5B5C5D5E5F5G5|<8]H5I5J5K5L5M5N5O5P5Q5R5S5T5U5V5",
"W5X5Y5Z5`5 6.6+6@6#6$6%6&6*6=6-6;6>6$;,6'6)6!6~6{6]6^6/6(6_6:6<6[6}6|6e_*,1626e536u, 1465666G*`5%'76869606a6b6c6d6e6f6g6h6i6j6k6",
"l6m6n6o6p6q6r6s6t6u6v6w6x6y6z6A6B6C6D6E6[4F6G6H6I68^J6K6L6M6N6N6O6T) >P6Q6R6S6T6U6V6W6X6R_Y6H5Z6`6 7.7+7@7#7$7%7&7*7=7-7;7>7,7'7",
")7!7~7{7]7^7/7(7_7:7<7[7d5}7|7@[1727a&e<|'[^374757677787^69707a7b7c7d7e7f7g7h7G%i7j7~2k7@^l7m7n7o7p7q7r7s7t7u7v7w7x7y7z7A7B7C7D7",
"E7F7G7H7I7J7K7L7M7N7O7P7Q7R7S7@>5+T7U7V7V7W7X7d~Y7Z7`7#: 8.8+8%,@8#8J^['f{$8%8#(Y;t,G}F)&8*8=8-8;8>8,8'8)8!8~8{8]8^8/8(8_8:8<8[8",
"}8|818283848586878889808U_e;a8b8c8d8e8f8U,g8$:h8i8j8k8S(l8<(m8n8o8p8q8r8s8t8u8(#z_v8w8p)x8y8z8A8B8C8D8E8F8G8H8k I8J8K8L8M8N8O8P8",
"Q8Q$R8S8T8U8V8W8X8Y8Z8`8#@G( 9.9+9@9#9$9%9U6&9*90^=9-9;9>9,9'9)9#8!9]6~9{9]9N=k5^9/9 '(9I__9:9<9[9}9|919293949596979899909a9Q8Q8",
"b9c9d9e9f9g9h9i9j9k9l9m9C3}4n9o905p9q9r9s9t97*%_[+u9v9w9x9y9z9g_$,n8]6#:A9B9C9D9,}E9(2~3F9G9H9I9J9K9L9M9N9O9V5P9Q9R9S9T9U9V9W9Q8",
"X9~$Y9Z9`9 0.0+0@0#0$0%0&0*0=0-0;0>0,0'0)0!0~0*{{0]0^0N3/0(0Q1_0:0@:<0[0}0|010X<203040506070809000a0b0c0d0e0f0g0/|h0i0j0k0l0m0Q8",
"n0o0`1p0q0r0s0t0u0v0c~w0Y+Q:x0y0z0A0B0C0D0E0F0G0H0I0J0K02(L/L0M0P=N0O0+*P0u/Q0R0S0T0B^P-U0V0W0X0Y0Z0`0 a.a+a@ac~#a$a%a&a*a=a-a}."};
