/* XPM */
static char * portal_rot17_xpm[] = {
"64 64 221 2",
"  	c #000000",
". 	c #00001E",
"+ 	c #000030",
"@ 	c #000001",
"# 	c #000015",
"$ 	c #00002B",
"% 	c #00000A",
"& 	c #000018",
"* 	c #000034",
"= 	c #000014",
"- 	c #000011",
"; 	c #000005",
"> 	c #000007",
", 	c #00000F",
"' 	c #000009",
") 	c #000026",
"! 	c #000013",
"~ 	c #00001A",
"{ 	c #000028",
"] 	c #00002A",
"^ 	c #000035",
"/ 	c #000041",
"( 	c #000049",
"_ 	c #00004C",
": 	c #00004E",
"< 	c #000042",
"[ 	c #00002D",
"} 	c #000024",
"| 	c #000020",
"1 	c #00001C",
"2 	c #000022",
"3 	c #00000C",
"4 	c #150056",
"5 	c #4D0067",
"6 	c #050047",
"7 	c #000012",
"8 	c #00003A",
"9 	c #000048",
"0 	c #240055",
"a 	c #110055",
"b 	c #000055",
"c 	c #170059",
"d 	c #2B0059",
"e 	c #2B005D",
"f 	c #17005C",
"g 	c #00005B",
"h 	c #00005A",
"i 	c #000056",
"j 	c #000058",
"k 	c #050049",
"l 	c #0A0051",
"m 	c #000051",
"n 	c #00004A",
"o 	c #00004D",
"p 	c #11004F",
"q 	c #05004C",
"r 	c #000043",
"s 	c #00003E",
"t 	c #00003F",
"u 	c #000027",
"v 	c #000039",
"w 	c #00005E",
"x 	c #000044",
"y 	c #000023",
"z 	c #000036",
"A 	c #000059",
"B 	c #17005E",
"C 	c #0E005E",
"D 	c #05005F",
"E 	c #2F005E",
"F 	c #20005A",
"G 	c #000057",
"H 	c #000052",
"I 	c #11005C",
"J 	c #15005E",
"K 	c #00005D",
"L 	c #000054",
"M 	c #010058",
"N 	c #22005C",
"O 	c #2D0060",
"P 	c #28005E",
"Q 	c #20005C",
"R 	c #11005A",
"S 	c #05005A",
"T 	c #010052",
"U 	c #050050",
"V 	c #00003B",
"W 	c #000053",
"X 	c #17003A",
"Y 	c #000033",
"Z 	c #000050",
"` 	c #05005E",
" .	c #05005D",
"..	c #00004F",
"+.	c #000047",
"@.	c #20005D",
"#.	c #01005B",
"$.	c #05005C",
"%.	c #1A005C",
"&.	c #24005E",
"*.	c #00003D",
"=.	c #06001C",
"-.	c #00002F",
";.	c #000037",
">.	c #000017",
",.	c #000046",
"'.	c #00000E",
").	c #000032",
"!.	c #00001D",
"~.	c #000002",
"{.	c #150058",
"].	c #320058",
"^.	c #000021",
"/.	c #00000D",
"(.	c #000040",
"_.	c #00005F",
":.	c #00005C",
"<.	c #0E005B",
"[.	c #17005F",
"}.	c #1C005D",
"|.	c #01005C",
"1.	c #000025",
"2.	c #010049",
"3.	c #1C004D",
"4.	c #0A0047",
"5.	c #200050",
"6.	c #050054",
"7.	c #0A005D",
"8.	c #1C0058",
"9.	c #040027",
"0.	c #1A0056",
"a.	c #26005D",
"b.	c #000060",
"c.	c #17005D",
"d.	c #1A005D",
"e.	c #0A005A",
"f.	c #150055",
"g.	c #15005F",
"h.	c #00001F",
"i.	c #1C0060",
"j.	c #000019",
"k.	c #26005B",
"l.	c #3B005E",
"m.	c #1E0056",
"n.	c #280056",
"o.	c #1A005B",
"p.	c #0E0050",
"q.	c #1A0058",
"r.	c #000064",
"s.	c #01005A",
"t.	c #1C005E",
"u.	c #150060",
"v.	c #01004D",
"w.	c #000061",
"x.	c #22005D",
"y.	c #22005E",
"z.	c #26005F",
"A.	c #1E005F",
"B.	c #2A005E",
"C.	c #260059",
"D.	c #240056",
"E.	c #1A0051",
"F.	c #000045",
"G.	c #150059",
"H.	c #2D005E",
"I.	c #010059",
"J.	c #050059",
"K.	c #120026",
"L.	c #220065",
"M.	c #1A0063",
"N.	c #240060",
"O.	c #330064",
"P.	c #28005F",
"Q.	c #1C0063",
"R.	c #24005F",
"S.	c #15005A",
"T.	c #1C005A",
"U.	c #17005A",
"V.	c #0B0045",
"W.	c #20005B",
"X.	c #150063",
"Y.	c #320063",
"Z.	c #1E0063",
"`.	c #0C004D",
" +	c #260060",
".+	c #0A0061",
"++	c #1E005E",
"@+	c #11005B",
"#+	c #010063",
"$+	c #460065",
"%+	c #0E0056",
"&+	c #0A0027",
"*+	c #0E0048",
"=+	c #050058",
"-+	c #1A0059",
";+	c #110056",
">+	c #3F0064",
",+	c #240057",
"'+	c #000010",
")+	c #26005E",
"!+	c #260065",
"~+	c #500061",
"{+	c #3B0061",
"]+	c #030051",
"^+	c #1E0046",
"/+	c #2F005C",
"(+	c #220059",
"_+	c #24005B",
":+	c #010048",
"<+	c #4C0067",
"[+	c #490061",
"}+	c #570063",
"|+	c #000065",
"1+	c #04004A",
"2+	c #0C003C",
"3+	c #470067",
"4+	c #4C0063",
"5+	c #3E0065",
"6+	c #000063",
"7+	c #3E0067",
"8+	c #20005F",
"                                                                              . + @                                             ",
"                                                                                  # $ %                                         ",
"                                                                                      & * =                                     ",
"                                                  - ;                                     > , '         % . #                   ",
"                ) !             @ ~ { ] ] $ ^ / ( _ : < ^ #   ; ) [ } . | #   1 2 #             3 =     4 5 6                   ",
"                [ 7           | 8 9 0 a b c d e f g h i j 9 / k l m 9 n o p q _ n r 8 ^ + 8 s t s < s u v w x                   ",
"                y           2 z n A B C D B E F G A H n _ H A I J K L M N O P Q R G m o o L S h H T U : V W X                   ",
"                3         . Y r Z g ` C  .j ..+.+._ +.V < n m A @.#.h $.%.&.Q b i h L : ..Z H L o *.< : x $ =.                  ",
"                    . [ ] -.v s < ( ..b j ..^ $ Y ;.;.;.*.r 9 o _ +.( H G G Z 9 n o < s n +.( 9 ^ >.} v t s |                   ",
"                >.-.;.;.Y ^ Y ) . 1 $ s ,.V ) '.- >.} ) Y 8 *.s ).1 | V _ ( / / / z $ [ v s n V -   ; ;.x ,.r #                 ",
"            !.>.z Y ) ~ - '.'.          @ # ;       ; | ] $ ] ] ;     >.+ Y + Y + | '.    '.. -     ; v n ( Z : -               ",
"            >.% '.~                                   @ . 2 ~ '.                                      - 2 } / : z               ",
"          # 2                                             ; - -                                             -.x 8 >.            ",
"          ~ %                                                     ;                                         - } ] | ;           ",
"                                                                                                                ~ + 1           ",
"                                                                                                                # s ;.#   { ( v ",
"      ~.  '.'.% - @                   # | >.; ; >.~ >.# '.                                                      $ : 9 $ @ [ {.].",
"      ^.Y V *./ / / v ).$ { + + [ } } -.< V ^ s *.8 8 *.V ^ [ + $ %                                             s o *.~ % -.K +.",
"    /.(.Z b j i L o r t V 8 ;.v Y ^ ).8 t 8 V / x / +.H b .._ n n r ).>.            ; } >.                      [ +.Y     % x $ ",
"    s G h g b : 9 8 [ 2 | # - | + t ,.< z + ).8 V V +.L G j i L b b i : / [ ;       | + ^ ] %                   @ z ^       ] - ",
"    g _.w L < ).} '.        @ ) ^ < r v + -.;.*.8 V ( L G H H m Z L g :.A x 2       '.Y < 9 s >.                  2 ^ %         ",
"  x j A L / 1             '.) $ ] ) ) ] ^ ;./ < < 9 L :.:.A i : n _ Z <.[.Z Y #       | s Z o )           >.. | ~ . ]           ",
"  (./ z ]                 >.. | | } $ ] Y Y ;.z s +.L G G h g h j H Z G }.A _ ).% @     ).o 9 $         $ V 8 ;.$ @             ",
"] [ 1                     % - | 2 { ) #           ) ^ ;.s +.H g g |.A b G :.b v 1 %     2 ,.x ]       @ + / s ^ ]               ",
"1.2 # ;   @ ;               - # - @                   ~ . -.;./ o i i b j :.h ,.Y + '.  # / +.^ ;     1 Y 8 Y . @               ",
"2 -.{ . ) .               '.;                           ;     >.[ v ,.o ..g w L 9 t -.'.% ;._ / |   @ 2 [ z [                   ",
").).-.) }           -     %                                       >.-.v / H :.i n x t -.) *..._ ).- | Y V Y 1                   ",
"z [ { } @         | } >.              @ 1 { { #         ~           # -.^ 9 L m o x r / V +.Z _ V { $ s V 1                     ",
"t ^ [ 1         '.~ @               ) *.,.+.t [ ;     ; ;   ~ - %     - . $ < < < t < x r 2.m n v 2 [ 8 ]                       ",
"n 9 Y           | '.              -.n b G ..s 1                 . >.    @ ) ] '.] ^ V x r 3.m x { - 2 |   % @                   ",
"_ ( {       % %                 + o h G ..s }                     @       ~ ;   - z / ,.4.5.L V     @                           ",
"t Y         %                 [ r m G ..;.#                                     # x 9 < ( 6...+                                 ",
"2 @                         $ v < : b +.2                                       + 9 +.< o b ,..                                 ",
"                          1 8 t ,.H j < '.                                    . r x s x _ +.).#               %                 ",
"                          ).t r : G H 8                                     % ;.,.8 8 +.< ] ~ >.            $ t s ~             ",
"|     %                 1 Y V t Z i Z 8 ~                                   [ t r / < s -.                - 8 m j ( 2           ",
"-.  ~ 2               # . -.;.r Z A i r -.#         '.                    ~ + ,._ ,.s ] ;                 >.r A K b V #         ",
"t % ) {               . . Y 9 _ G K #.Z s 2         ; ) } ; % ~ >.>.2 $ -.-./ +.,.8 }                     1 s b g : / s $       ",
";.1 { 1             @ '.) < o : b g 7.8.n Y ~         - - # { + ;.v *./ *.*.V V ).1                     @ [ v ,._ ( 9 ( s       ",
"z >.) ;                 ) < 8 t ( L :.#.L ,.v 2               % ; . z Y -.2 ~ - %                       } V Y ^ ,.Z b ( [     9.",
"v | '.                  { + ~ >.Y +.A g h L ..x z $ [ + ] -         ; '.@                         - 2 ) ] [ )./ m h A ,..     ).",
"-.|                     ) }     - z 9 m h :.:.j H : +.,.,.*.{ # % @ ;                         >.) $ ] } | ~ *.0.a.%.i +.-.  !.  ",
"$ @                     - |       # $ V _ A b._._.K i b L o r ;.$ | - @                 >.} $ ).[ | 1 ) [ ;.: c.d.L n +.s >.Y   ",
";.'.                      >.        @ # + ,.H A :.h j h e.F f..._ / V ).) } | ] -.^ v v 8 s + >.    ; [ < o h g.:.H 9 *.).h.    ",
"/ ] ;                     %               >.[ r H o o m j h h g g j i ....x 9 +.,./ 8 [ } >.          { t ..w i.C G t ~         ",
"_ Y >.                                        ~ ^ V 8 < : i i A g j L m : +.+.r 8 -.1               ; 1 v L w ` h o $           ",
"i 2 |                                           >.. # } ;.< ( ..Z o ,.t ;.-.} | # @                   2 s i :.i ..s 2     ;     ",
"o }                                                       % 1 { z v Y ] '.                    # .   '.$ r m H _ r ^ ) @ (.[     ",
"x ~                         '.@                                                               | | 1 ) ^ n H n ;.{ $ ) j.k.[     ",
")                           @ '.                                                                  # [ V _ b ( Y } v z l.m.1     ",
"        >.2                                                                                       . ^ t ..g i ( _ Z r @.n.      ",
"    ~ 1 n b $                                                                                   [ V r n b ` w j h o.p.q._       ",
"  # v n A r.A 1                                                                             # Y +.Z m b s.t.u.:.L v.z x +       ",
"  % * W :.w.b.,.            ;                                                             { *.( b A %.x.y.z.A.m + z ) ^ >.      ",
"      7 9 w w.j [       1 } { | 1 >.# ; % '.@             . #           @           >.) z / n Z L G B.C.D.E.( $ 1.-   + ;       ",
"        ] V ..L / . ) + < n ( ,.s v z V < x < + ~ %   - v _ r $ @     ).< 8 ) # @ ~ V ,._ .._ +./ / r ;.[ |     F.+   +         ",
"        { n h h / ^ t ..G.H.P I.../ / o m H ..,./ V ^ ;.x b j Z t + ;.: J.i 9 z ] ^ x _ +.x v ) >.# @         K.n |   [         ",
"      ; | i L.M.H ,.^ Z K N.O.P.M 9 t o L m n n _ _ : _ : :.Q.R.S.G L J.T.U.G ( / V ^ [ ] | @         .       V.W.Y } 2         ",
"      ~   v X.Y.Z.A .   [ `. +R.%.H n : L L r 8 s t o j w _..+g.++@+9 t t < t 8 -..               - V < #     H  +Z j ~         ",
"        + v _.#+$+%+x -     &+*+=+-+;+b b b o +.s + r i h b H ..+.z %                             >+,+v     '+/ )+i i z         ",
"          Y !+b.~+{+/   @     x ]+^+/+{.%+(+p...8 $ ] ^ z ).] )                               { n _+:+@     !.).f Z -.#         ",
"          $ <+[+}+}.).      ; i |+w.1+2+9 < ;.) ;                                           < s T ...       >.: H 9 $           ",
"          ) 3+4+5+L )     ) r i b.6+6+L | & 3                                           ;.$ -.^ V [         -./ r i $           ",
"          . 7+8+Z.M >.    [ n G K b.w.h _ ;.+ ,.]                                     s m 1   -.|       ) Y 8 >.) K [           "};
