/* XPM */
static char * portal_rot5_xpm[] = {
"64 64 3476 2",
"  	c #160C2F",
". 	c #160B2D",
"+ 	c #140A2B",
"@ 	c #150C2D",
"# 	c #0E0822",
"$ 	c #0C0923",
"% 	c #0D0A26",
"& 	c #07051B",
"* 	c #05051A",
"= 	c #040417",
"- 	c #0D0823",
"; 	c #100A26",
"> 	c #0C081F",
", 	c #090517",
"' 	c #150B28",
") 	c #22123E",
"! 	c #30165A",
"~ 	c #2C0E60",
"{ 	c #2E086C",
"] 	c #470C86",
"^ 	c #6818A4",
"/ 	c #6013A7",
"( 	c #4201A0",
"_ 	c #5B05B2",
": 	c #6407B8",
"< 	c #420199",
"[ 	c #31027F",
"} 	c #2D0671",
"| 	c #3B0587",
"1 	c #320487",
"2 	c #390694",
"3 	c #330886",
"4 	c #350A7E",
"5 	c #2E0C68",
"6 	c #1F0E41",
"7 	c #1B0E2D",
"8 	c #150A26",
"9 	c #0E0722",
"0 	c #140636",
"a 	c #13072F",
"b 	c #160B29",
"c 	c #09061F",
"d 	c #07051F",
"e 	c #07061C",
"f 	c #0D0A25",
"g 	c #0F0B28",
"h 	c #110C2C",
"i 	c #0D0A24",
"j 	c #0C0820",
"k 	c #0A081E",
"l 	c #0A081D",
"m 	c #07071C",
"n 	c #07071F",
"o 	c #07061D",
"p 	c #07061A",
"q 	c #09071C",
"r 	c #08071A",
"s 	c #0C081D",
"t 	c #130C26",
"u 	c #110A26",
"v 	c #130B28",
"w 	c #150D2B",
"x 	c #170C30",
"y 	c #160B30",
"z 	c #150B2D",
"A 	c #07071A",
"B 	c #08071B",
"C 	c #0E0B27",
"D 	c #191035",
"E 	c #120929",
"F 	c #1A0E29",
"G 	c #1F112F",
"H 	c #0E0A24",
"I 	c #110A28",
"J 	c #070519",
"K 	c #040311",
"L 	c #0B061E",
"M 	c #27114D",
"N 	c #351371",
"O 	c #360E7E",
"P 	c #400A82",
"Q 	c #570A9A",
"R 	c #610AA5",
"S 	c #3A0093",
"T 	c #3F01A5",
"U 	c #6207BF",
"V 	c #5705B2",
"W 	c #5602B4",
"X 	c #4A01A4",
"Y 	c #360188",
"Z 	c #3E0193",
"` 	c #4903A1",
" .	c #6208BC",
"..	c #390693",
"+.	c #24056D",
"@.	c #1B0655",
"#.	c #1F0A50",
"$.	c #1B0C39",
"%.	c #0F0722",
"&.	c #130636",
"*.	c #1D0746",
"=.	c #421359",
"-.	c #4E1958",
";.	c #231336",
">.	c #271438",
",.	c #281337",
"'.	c #241232",
").	c #1C102C",
"!.	c #1B102D",
"~.	c #26153B",
"{.	c #2A1443",
"].	c #2C1349",
"^.	c #2B1347",
"/.	c #291242",
"(.	c #1F0E35",
"_.	c #120A27",
":.	c #1A112F",
"<.	c #0E0A22",
"[.	c #080719",
"}.	c #070618",
"|.	c #0E0A1F",
"1.	c #120B25",
"2.	c #110A25",
"3.	c #170E2E",
"4.	c #190E31",
"5.	c #140C29",
"6.	c #0C091E",
"7.	c #09071B",
"8.	c #050517",
"9.	c #0E0A23",
"0.	c #160C36",
"a.	c #240B4D",
"b.	c #17093A",
"c.	c #150B2C",
"d.	c #0D0923",
"e.	c #0C0720",
"f.	c #050415",
"g.	c #060517",
"h.	c #0E0724",
"i.	c #200E49",
"j.	c #330E7C",
"k.	c #5E13A8",
"l.	c #7E13B7",
"m.	c #7309B1",
"n.	c #5902A1",
"o.	c #3B019B",
"p.	c #3C01A7",
"q.	c #37019E",
"r.	c #36018D",
"s.	c #3F009C",
"t.	c #340182",
"u.	c #260168",
"v.	c #250164",
"w.	c #3D038B",
"x.	c #5B09BB",
"y.	c #4F07B2",
"z.	c #3D0996",
"A.	c #360889",
"B.	c #2B0578",
"C.	c #280970",
"D.	c #251044",
"E.	c #100921",
"F.	c #120532",
"G.	c #160641",
"H.	c #46135F",
"I.	c #531760",
"J.	c #470F52",
"K.	c #591C67",
"L.	c #491A67",
"M.	c #3D1269",
"N.	c #41166D",
"O.	c #39175C",
"P.	c #351457",
"Q.	c #3A1365",
"R.	c #3B126E",
"S.	c #2F0E60",
"T.	c #210754",
"U.	c #160642",
"V.	c #211039",
"W.	c #190F2E",
"X.	c #0F0B23",
"Y.	c #050516",
"Z.	c #070617",
"`.	c #100A22",
" +	c #140D27",
".+	c #150D2A",
"++	c #120C24",
"@+	c #160D28",
"#+	c #0A081A",
"$+	c #060519",
"%+	c #160D31",
"&+	c #12073A",
"*+	c #391269",
"=+	c #22075C",
"-+	c #0F0926",
";+	c #0A061D",
">+	c #040415",
",+	c #1B0D35",
"'+	c #2B105B",
")+	c #4E148F",
"!+	c #7815BA",
"~+	c #850DB7",
"{+	c #5C019E",
"]+	c #44018E",
"^+	c #4102A2",
"/+	c #4A04B5",
"(+	c #330288",
"_+	c #1E0160",
":+	c #270170",
"<+	c #25016D",
"[+	c #130146",
"}+	c #0F013D",
"|+	c #190157",
"1+	c #3F029E",
"2+	c #4602AD",
"3+	c #4803AE",
"4+	c #3D0495",
"5+	c #43029D",
"6+	c #41078B",
"7+	c #311258",
"8+	c #170C2D",
"9+	c #110535",
"0+	c #1D074A",
"a+	c #360F53",
"b+	c #280A39",
"c+	c #27072F",
"d+	c #79286A",
"e+	c #8D307A",
"f+	c #55196E",
"g+	c #2D0972",
"h+	c #290B6E",
"i+	c #2C0A6E",
"j+	c #2A0A69",
"k+	c #2B0970",
"l+	c #330B76",
"m+	c #40177F",
"n+	c #330A7A",
"o+	c #3A1B50",
"p+	c #120B2C",
"q+	c #0E0A20",
"r+	c #070517",
"s+	c #09071A",
"t+	c #110B23",
"u+	c #0F0A1F",
"v+	c #0A071A",
"w+	c #060518",
"x+	c #120A24",
"y+	c #0A062A",
"z+	c #1D094A",
"A+	c #501885",
"B+	c #340D5F",
"C+	c #09061B",
"D+	c #050413",
"E+	c #040414",
"F+	c #0C071F",
"G+	c #1B1031",
"H+	c #251144",
"I+	c #35106C",
"J+	c #5A12A6",
"K+	c #6B0AB1",
"L+	c #570296",
"M+	c #3B017A",
"N+	c #2C0169",
"O+	c #310286",
"P+	c #39029B",
"Q+	c #1F0167",
"R+	c #1A0149",
"S+	c #35017D",
"T+	c #260169",
"U+	c #150146",
"V+	c #0E0134",
"W+	c #17024A",
"X+	c #220165",
"Y+	c #240171",
"Z+	c #1D015F",
"`+	c #2B0169",
" @	c #350177",
".@	c #2F046B",
"+@	c #351756",
"@@	c #1D0B3D",
"#@	c #140644",
"$@	c #280C51",
"%@	c #2D0D4A",
"&@	c #1E0731",
"*@	c #3D173C",
"=@	c #6F2B65",
"-@	c #6E2762",
";@	c #340A3C",
">@	c #380943",
",@	c #531860",
"'@	c #230647",
")@	c #230260",
"!@	c #220171",
"~@	c #7A1BB6",
"{@	c #AB3ECC",
"]@	c #7422A5",
"^@	c #4A215B",
"/@	c #1F1138",
"(@	c #0A0722",
"_@	c #110A21",
":@	c #0A071B",
"<@	c #0E091E",
"[@	c #0D091D",
"}@	c #0C091C",
"|@	c #0A081B",
"1@	c #090616",
"2@	c #090621",
"3@	c #0E0731",
"4@	c #210A4C",
"5@	c #571A8A",
"6@	c #240B3A",
"7@	c #040310",
"8@	c #050414",
"9@	c #0A071E",
"0@	c #190E2F",
"a@	c #241242",
"b@	c #2F105B",
"c@	c #4D0E8B",
"d@	c #710FC2",
"e@	c #7404BF",
"f@	c #5501A1",
"g@	c #2F0267",
"h@	c #23015C",
"i@	c #26016D",
"j@	c #21015A",
"k@	c #260157",
"l@	c #2E0169",
"m@	c #24015A",
"n@	c #0E012F",
"o@	c #160146",
"p@	c #170148",
"q@	c #18014B",
"r@	c #24015C",
"s@	c #31016C",
"t@	c #3B018B",
"u@	c #32057E",
"v@	c #30115E",
"w@	c #220955",
"x@	c #1B0753",
"y@	c #2C0F4F",
"z@	c #2A0C42",
"A@	c #16052B",
"B@	c #5C2C5C",
"C@	c #6D3167",
"D@	c #4E1F4A",
"E@	c #170428",
"F@	c #310C46",
"G@	c #511865",
"H@	c #280A4B",
"I@	c #1E0455",
"J@	c #1B0262",
"K@	c #3E0695",
"L@	c #6509C2",
"M@	c #7126A2",
"N@	c #532565",
"O@	c #22113D",
"P@	c #100A29",
"Q@	c #0A0616",
"R@	c #0C081C",
"S@	c #0C091D",
"T@	c #0B0724",
"U@	c #170A39",
"V@	c #250B50",
"W@	c #44146E",
"X@	c #070515",
"Y@	c #120B29",
"Z@	c #281644",
"`@	c #311456",
" #	c #390D73",
".#	c #761AB5",
"+#	c #7311C2",
"@#	c #5A02B6",
"##	c #5101A5",
"$#	c #3D017E",
"%#	c #2C0160",
"&#	c #28015D",
"*#	c #2F0167",
"=#	c #2A015C",
"-#	c #310169",
";#	c #2A0164",
">#	c #1F014F",
",#	c #110133",
"'#	c #120139",
")#	c #160145",
"!#	c #1A014A",
"~#	c #2A0169",
"{#	c #37017C",
"]#	c #3D018F",
"^#	c #31028F",
"/#	c #310A78",
"(#	c #250860",
"_#	c #1F0B4E",
":#	c #220E3D",
"<#	c #1E0934",
"[#	c #251135",
"}#	c #5C3064",
"|#	c #6C3569",
"1#	c #190726",
"2#	c #230738",
"3#	c #300C4F",
"4#	c #26094E",
"5#	c #190546",
"6#	c #17063D",
"7#	c #170738",
"8#	c #180553",
"9#	c #5F0EA5",
"0#	c #7A2D96",
"a#	c #4B2264",
"b#	c #271146",
"c#	c #040412",
"d#	c #0A071C",
"e#	c #0B081C",
"f#	c #0E0A1E",
"g#	c #0D091F",
"h#	c #0C091F",
"i#	c #07061B",
"j#	c #0D0922",
"k#	c #0F0928",
"l#	c #1F0B42",
"m#	c #2C0A61",
"n#	c #20073C",
"o#	c #050311",
"p#	c #150E2C",
"q#	c #261440",
"r#	c #311753",
"s#	c #351164",
"t#	c #450989",
"u#	c #6D10BC",
"v#	c #7213BA",
"w#	c #3D0198",
"x#	c #5402B0",
"y#	c #4C0295",
"z#	c #310264",
"A#	c #24024F",
"B#	c #280258",
"C#	c #28015C",
"D#	c #1F0157",
"E#	c #1B0152",
"F#	c #160140",
"G#	c #090122",
"H#	c #0E0130",
"I#	c #120135",
"J#	c #170146",
"K#	c #190252",
"L#	c #210266",
"M#	c #35018C",
"N#	c #3C019B",
"O#	c #2F0194",
"P#	c #2A037D",
"Q#	c #1E0652",
"R#	c #201040",
"S#	c #1E0D35",
"T#	c #0E0425",
"U#	c #2C1548",
"V#	c #41225B",
"W#	c #361B48",
"X#	c #16052A",
"Y#	c #280B42",
"Z#	c #2C0D4F",
"`#	c #140540",
" $	c #100430",
".$	c #110627",
"+$	c #120923",
"@$	c #160A25",
"#$	c #160B28",
"$$	c #3E1556",
"%$	c #371258",
"&$	c #301450",
"*$	c #20103E",
"=$	c #0F0A28",
"-$	c #0D0A22",
";$	c #0B081D",
">$	c #0D091C",
",$	c #0E0A21",
"'$	c #0A071D",
")$	c #120B28",
"!$	c #241148",
"~$	c #240C4F",
"{$	c #27065B",
"]$	c #040411",
"^$	c #080517",
"/$	c #2D184A",
"($	c #410E7A",
"_$	c #51079E",
":$	c #5F0AB1",
"<$	c #5E0EAE",
"[$	c #3901A1",
"}$	c #4A02AE",
"|$	c #460296",
"1$	c #1F0150",
"2$	c #1B0242",
"3$	c #1E0152",
"4$	c #1B0156",
"5$	c #170152",
"6$	c #120143",
"7$	c #0C012D",
"8$	c #070121",
"9$	c #090124",
"0$	c #0E012D",
"a$	c #180147",
"b$	c #26026E",
"c$	c #26027B",
"d$	c #35029A",
"e$	c #3902A5",
"f$	c #2E018F",
"g$	c #25027A",
"h$	c #240B58",
"i$	c #21123A",
"j$	c #1B0D31",
"k$	c #160636",
"l$	c #32175F",
"m$	c #34195C",
"n$	c #110428",
"o$	c #1C0835",
"p$	c #270D48",
"q$	c #21094F",
"r$	c #13053B",
"s$	c #15092C",
"t$	c #1D0D31",
"u$	c #1B0E2F",
"v$	c #1D0E37",
"w$	c #1F1035",
"x$	c #170D29",
"y$	c #120A26",
"z$	c #130730",
"A$	c #1E0D40",
"B$	c #27144A",
"C$	c #130B2A",
"D$	c #0D0920",
"E$	c #0F0B24",
"F$	c #080619",
"G$	c #1E1134",
"H$	c #2F1658",
"I$	c #2F0F68",
"J$	c #120536",
"K$	c #090617",
"L$	c #120A23",
"M$	c #221439",
"N$	c #321856",
"O$	c #3D1273",
"P$	c #530D9B",
"Q$	c #6008B6",
"R$	c #4D05B2",
"S$	c #4003AB",
"T$	c #3902AB",
"U$	c #31018B",
"V$	c #220160",
"W$	c #14013F",
"X$	c #0E0135",
"Y$	c #13014B",
"Z$	c #180161",
"`$	c #1B0166",
" %	c #15014F",
".%	c #0D0134",
"+%	c #0C0131",
"@%	c #0B022C",
"#%	c #0F0235",
"$%	c #1F0259",
"%%	c #2B0279",
"&%	c #3D049D",
"*%	c #4003A5",
"=%	c #320296",
"-%	c #31029C",
";%	c #2D0C75",
">%	c #281444",
",%	c #1B0C31",
"'%	c #260C57",
")%	c #301268",
"!%	c #281053",
"~%	c #100429",
"{%	c #1E0B39",
"]%	c #230C4A",
"^%	c #1F055A",
"/%	c #1A0747",
"(%	c #2E1744",
"_%	c #341264",
":%	c #300C76",
"<%	c #260D60",
"[%	c #2A1255",
"}%	c #2C1250",
"|%	c #291443",
"1%	c #221133",
"2%	c #170B28",
"3%	c #130C2C",
"4%	c #190F32",
"5%	c #0B081B",
"6%	c #0F0A21",
"7%	c #070516",
"8%	c #110A20",
"9%	c #1F1139",
"0%	c #361766",
"a%	c #2A0A6A",
"b%	c #050412",
"c%	c #0E091D",
"d%	c #120A20",
"e%	c #311F46",
"f%	c #461F79",
"g%	c #5A149C",
"h%	c #6211AE",
"i%	c #5B07B9",
"j%	c #4704AE",
"k%	c #26018B",
"l%	c #2A0190",
"m%	c #1B0161",
"n%	c #0E013B",
"o%	c #0F023F",
"p%	c #0C023B",
"q%	c #130152",
"r%	c #1C016A",
"s%	c #1C0266",
"t%	c #180254",
"u%	c #140245",
"v%	c #150243",
"w%	c #19024F",
"x%	c #12013C",
"y%	c #12023A",
"z%	c #1E0251",
"A%	c #300271",
"B%	c #3B038B",
"C%	c #37028D",
"D%	c #350297",
"E%	c #33088B",
"F%	c #2C144B",
"G%	c #1E0C3F",
"H%	c #2D0A71",
"I%	c #1C0A42",
"J%	c #1F0E36",
"K%	c #1F0F3B",
"L%	c #1F0957",
"M%	c #270766",
"N%	c #340E66",
"O%	c #3C1373",
"P%	c #3D0798",
"Q%	c #4002B0",
"R%	c #31087E",
"S%	c #2F1163",
"T%	c #3E1769",
"U%	c #3A175B",
"V%	c #2D1345",
"W%	c #1F102E",
"X%	c #150E2B",
"Y%	c #100B2A",
"Z%	c #100B25",
"`%	c #100B26",
" &	c #100A25",
".&	c #03020D",
"+&	c #08051C",
"@&	c #220E4E",
"#&	c #1B0749",
"$&	c #0D071C",
"%&	c #391F57",
"&&	c #5C2798",
"*&	c #651BAC",
"=&	c #7E28C3",
"-&	c #7117C6",
";&	c #4404A9",
">&	c #270184",
",&	c #24017E",
"'&	c #190160",
")&	c #0E0146",
"!&	c #11014D",
"~&	c #12024E",
"{&	c #120248",
"]&	c #16024B",
"^&	c #170249",
"/&	c #170242",
"(&	c #1D0246",
"_&	c #230255",
":&	c #260162",
"<&	c #210259",
"[&	c #1A0249",
"}&	c #1F0254",
"|&	c #310176",
"1&	c #37027E",
"2&	c #36027E",
"3&	c #390297",
"4&	c #35028E",
"5&	c #2C0D61",
"6&	c #2A0A6E",
"7&	c #2D0584",
"8&	c #290A6D",
"9&	c #1E0E36",
"0&	c #271440",
"a&	c #27104D",
"b&	c #3D068C",
"c&	c #490899",
"d&	c #6008AE",
"e&	c #46049C",
"f&	c #380198",
"g&	c #4502AF",
"h&	c #48129B",
"i&	c #461B75",
"j&	c #3A1271",
"k&	c #2A0F64",
"l&	c #38136D",
"m&	c #3B126C",
"n&	c #391460",
"o&	c #281242",
"p&	c #211235",
"q&	c #1C0F32",
"r&	c #0D0921",
"s&	c #0E0A26",
"t&	c #050416",
"u&	c #0D0820",
"v&	c #1A0B37",
"w&	c #080618",
"x&	c #1D112F",
"y&	c #27173D",
"z&	c #421F6A",
"A&	c #6724A8",
"B&	c #7F30BF",
"C&	c #7D2EBE",
"D&	c #5507B0",
"E&	c #4101A9",
"F&	c #2D0189",
"G&	c #24017D",
"H&	c #170260",
"I&	c #0C013C",
"J&	c #0F023D",
"K&	c #170243",
"L&	c #1A0244",
"M&	c #1A0242",
"N&	c #1E0246",
"O&	c #240252",
"P&	c #2C0264",
"Q&	c #290169",
"R&	c #240260",
"S&	c #1D024D",
"T&	c #200253",
"U&	c #27025E",
"V&	c #2F0172",
"W&	c #38018B",
"X&	c #3E019F",
"Y&	c #4901B2",
"Z&	c #31057E",
"`&	c #270276",
" *	c #290376",
".*	c #290E56",
"+*	c #2E134C",
"@*	c #300F66",
"#*	c #460A90",
"$*	c #5804B6",
"%*	c #6905C3",
"&*	c #7108C2",
"**	c #4F02AD",
"=*	c #34018F",
"-*	c #5702BB",
";*	c #4F05AE",
">*	c #4F0C9D",
",*	c #570E9C",
"'*	c #51089F",
")*	c #380787",
"!*	c #2C0879",
"~*	c #330F70",
"{*	c #35145F",
"]*	c #321453",
"^*	c #311452",
"/*	c #2B1246",
"(*	c #1F0E38",
"_*	c #0F0A26",
":*	c #070518",
"<*	c #160D2C",
"[*	c #130829",
"}*	c #09061A",
"|*	c #2D1B42",
"1*	c #3C205F",
"2*	c #53248A",
"3*	c #9246CC",
"4*	c #8A36C4",
"5*	c #6E1DB2",
"6*	c #4A03A0",
"7*	c #4301A3",
"8*	c #350296",
"9*	c #210173",
"0*	c #12014D",
"a*	c #0C012A",
"b*	c #13023A",
"c*	c #1F024D",
"d*	c #1C0243",
"e*	c #19024A",
"f*	c #1C0258",
"g*	c #210267",
"h*	c #2D0185",
"i*	c #370297",
"j*	c #34028D",
"k*	c #2E027C",
"l*	c #2C0271",
"m*	c #2F026E",
"n*	c #270262",
"o*	c #280166",
"p*	c #2C0178",
"q*	c #35018D",
"r*	c #3A019B",
"s*	c #310184",
"t*	c #1B0251",
"u*	c #1F0351",
"v*	c #2C0A59",
"w*	c #27055F",
"x*	c #280277",
"y*	c #21007E",
"z*	c #4601AA",
"A*	c #690AC1",
"B*	c #6E0BC3",
"C*	c #5504B2",
"D*	c #4201A1",
"E*	c #5E04B8",
"F*	c #6B04C4",
"G*	c #6402B6",
"H*	c #5701AB",
"I*	c #4801A3",
"J*	c #310181",
"K*	c #1B0257",
"L*	c #1F0659",
"M*	c #280A6A",
"N*	c #2F0E68",
"O*	c #37116A",
"P*	c #361165",
"Q*	c #2B1151",
"R*	c #0A071F",
"S*	c #020311",
"T*	c #180E2E",
"U*	c #0E091F",
"V*	c #2B183C",
"W*	c #3D2557",
"X*	c #532488",
"Y*	c #7935B2",
"Z*	c #9342C8",
"`*	c #8629C3",
" =	c #7C1BBD",
".=	c #4C029F",
"+=	c #4402A3",
"@=	c #310193",
"#=	c #1B015C",
"$=	c #120241",
"%=	c #140239",
"&=	c #16023A",
"*=	c #1B0246",
"==	c #1A024A",
"-=	c #180253",
";=	c #1E016D",
">=	c #240187",
",=	c #1E017D",
"'=	c #3301AB",
")=	c #5707BD",
"!=	c #4D07B2",
"~=	c #340198",
"{=	c #2C0188",
"]=	c #29017E",
"^=	c #2C017C",
"/=	c #2F027C",
"(=	c #320183",
"_=	c #31017E",
":=	c #350284",
"<=	c #360187",
"[=	c #1F025B",
"}=	c #1F0153",
"|=	c #21015E",
"1=	c #1F016A",
"2=	c #20017E",
"3=	c #350199",
"4=	c #5701BA",
"5=	c #5704B6",
"6=	c #4E01B2",
"7=	c #44019E",
"8=	c #6407B4",
"9=	c #8811C5",
"0=	c #7006B6",
"a=	c #5201A5",
"b=	c #4601A2",
"c=	c #2B0179",
"d=	c #140146",
"e=	c #13013E",
"f=	c #160242",
"g=	c #250563",
"h=	c #29076F",
"i=	c #310C71",
"j=	c #2F0E66",
"k=	c #0E0924",
"l=	c #060415",
"m=	c #030311",
"n=	c #150D29",
"o=	c #150D27",
"p=	c #241435",
"q=	c #351F4C",
"r=	c #46266C",
"s=	c #5D1FA1",
"t=	c #741BBC",
"u=	c #8A2BC3",
"v=	c #7E1BC0",
"w=	c #720FBB",
"x=	c #4F04A2",
"y=	c #280177",
"z=	c #17024E",
"A=	c #190246",
"B=	c #1C0246",
"C=	c #220250",
"D=	c #1F024F",
"E=	c #18024A",
"F=	c #1B025C",
"G=	c #24017B",
"H=	c #2F0192",
"I=	c #580AAE",
"J=	c #6413B1",
"K=	c #6917AF",
"L=	c #4505A1",
"M=	c #4203AD",
"N=	c #4704A6",
"O=	c #4202A1",
"P=	c #40019B",
"Q=	c #390186",
"R=	c #320271",
"S=	c #35027A",
"T=	c #2B0272",
"U=	c #1D014A",
"V=	c #1C024E",
"W=	c #1D0163",
"X=	c #190167",
"Y=	c #26017A",
"Z=	c #2D0182",
"`=	c #380197",
" -	c #31018E",
".-	c #390185",
"+-	c #690AAE",
"@-	c #9B1FC9",
"#-	c #750ABB",
"$-	c #5301A6",
"%-	c #4E01B4",
"&-	c #34018D",
"*-	c #1E015C",
"=-	c #250160",
"--	c #240162",
";-	c #24016A",
">-	c #450A87",
",-	c #711EA7",
"'-	c #642395",
")-	c #0B071F",
"!-	c #04030F",
"~-	c #0F0A24",
"{-	c #150E26",
"]-	c #170E29",
"^-	c #1D122E",
"/-	c #2A1740",
"(-	c #3B205D",
"_-	c #521E92",
":-	c #5712A8",
"<-	c #6512B2",
"[-	c #8021C3",
"}-	c #6B0EB9",
"|-	c #6305B8",
"1-	c #4A03A2",
"2-	c #35018B",
"3-	c #1F0160",
"4-	c #170245",
"5-	c #1C024B",
"6-	c #1D024B",
"7-	c #1B024A",
"8-	c #1C0253",
"9-	c #240264",
"0-	c #3F0297",
"a-	c #38028B",
"b-	c #350282",
"c-	c #430787",
"d-	c #54118C",
"e-	c #5E1399",
"f-	c #5D0FA5",
"g-	c #620FAE",
"h-	c #600BB5",
"i-	c #4D03AF",
"j-	c #4A02A7",
"k-	c #42029B",
"l-	c #320270",
"m-	c #2A025D",
"n-	c #2F026B",
"o-	c #260263",
"p-	c #1B0249",
"q-	c #180241",
"r-	c #170145",
"s-	c #160255",
"t-	c #210169",
"u-	c #340197",
"v-	c #39018A",
"w-	c #6910A9",
"x-	c #881CC4",
"y-	c #7611C3",
"z-	c #680ABC",
"A-	c #690EC0",
"B-	c #4602AA",
"C-	c #30017D",
"D-	c #41018E",
"E-	c #31017A",
"F-	c #21016E",
"G-	c #37048A",
"H-	c #7A22BA",
"I-	c #8E30B9",
"J-	c #02020A",
"K-	c #100A23",
"L-	c #140E26",
"M-	c #180F2A",
"N-	c #1D1132",
"O-	c #2C174C",
"P-	c #4A2576",
"Q-	c #7F37BE",
"R-	c #5C0EB7",
"S-	c #6108C1",
"T-	c #6812BE",
"U-	c #47029D",
"V-	c #3E028C",
"W-	c #23016C",
"X-	c #16014E",
"Y-	c #0E0239",
"Z-	c #15024A",
"`-	c #170252",
" ;	c #19024C",
".;	c #14023D",
"+;	c #18024E",
"@;	c #1B0253",
"#;	c #240266",
"$;	c #230269",
"%;	c #260271",
"&;	c #2A026D",
"*;	c #1F0154",
"=;	c #3A086F",
"-;	c #3A0876",
";;	c #470A87",
">;	c #6A10A7",
",;	c #7512B6",
"';	c #650EB2",
");	c #3D018C",
"!;	c #2E015E",
"~;	c #2C025C",
"{;	c #2C0371",
"];	c #18014C",
"^;	c #15023B",
"/;	c #16024F",
"(;	c #1A0163",
"_;	c #1C0160",
":;	c #2C018B",
"<;	c #3602A8",
"[;	c #2C017E",
"};	c #3B0286",
"|;	c #7318BE",
"1;	c #781CC7",
"2;	c #8A31C7",
"3;	c #7B20C5",
"4;	c #5006B2",
"5;	c #43019C",
"6;	c #450191",
"7;	c #3A018A",
"8;	c #2D0186",
"9;	c #350295",
"0;	c #6B0EC1",
"a;	c #7125A5",
"b;	c #0A0719",
"c;	c #02020C",
"d;	c #0B081E",
"e;	c #080515",
"f;	c #080514",
"g;	c #1D0F3D",
"h;	c #2D174F",
"i;	c #6A3592",
"j;	c #7E35BE",
"k;	c #7222C5",
"l;	c #7823C2",
"m;	c #5B14AD",
"n;	c #27007D",
"o;	c #280175",
"p;	c #1E0164",
"q;	c #170156",
"r;	c #13024D",
"s;	c #15024F",
"t;	c #130249",
"u;	c #12023C",
"v;	c #11023A",
"w;	c #120244",
"x;	c #150254",
"y;	c #120158",
"z;	c #140158",
"A;	c #18015F",
"B;	c #240174",
"C;	c #1B015E",
"D;	c #1B0164",
"E;	c #2F037A",
"F;	c #5D0F9B",
"G;	c #7218A5",
"H;	c #8221B3",
"I;	c #670EB8",
"J;	c #5403A9",
"K;	c #4A0284",
"L;	c #3C026A",
"M;	c #310272",
"N;	c #1D0164",
"O;	c #110137",
"P;	c #130135",
"Q;	c #180163",
"R;	c #13014A",
"S;	c #1F0176",
"T;	c #25018B",
"U;	c #25017B",
"V;	c #5A14A9",
"W;	c #7827C1",
"X;	c #7921C4",
"Y;	c #7E20C5",
"Z;	c #4F01AA",
"`;	c #390181",
" >	c #350183",
".>	c #4804A6",
"+>	c #7C23BB",
"@>	c #8228B5",
"#>	c #6D2988",
"$>	c #0A0619",
"%>	c #03020E",
"&>	c #09051C",
"*>	c #120A2E",
"=>	c #1A0E35",
"->	c #261441",
";>	c #7A419A",
">>	c #7D2CC4",
",>	c #8D3FC7",
"'>	c #7F35BB",
")>	c #4E1394",
"!>	c #1A0160",
"~>	c #1C0260",
"{>	c #18015D",
"]>	c #1B0260",
"^>	c #1A025B",
"/>	c #150248",
"(>	c #0E0235",
"_>	c #0D0132",
":>	c #0F023E",
"<>	c #180262",
"[>	c #170161",
"}>	c #1B0268",
"|>	c #1F0172",
"1>	c #200171",
"2>	c #22017D",
"3>	c #250185",
"4>	c #2B0291",
"5>	c #32019A",
"6>	c #37009C",
"7>	c #5C129A",
"8>	c #8728A5",
"9>	c #8E27B4",
"0>	c #6D0EBB",
"a>	c #6A02AE",
"b>	c #4F027F",
"c>	c #3E0282",
"d>	c #280278",
"e>	c #150249",
"f>	c #120235",
"g>	c #13024E",
"h>	c #170155",
"i>	c #230187",
"j>	c #33028B",
"k>	c #4A05AB",
"l>	c #4A02B2",
"m>	c #6A11C2",
"n>	c #6D13C3",
"o>	c #5003B6",
"p>	c #4602A5",
"q>	c #2B0174",
"r>	c #2F017D",
"s>	c #5B07B6",
"t>	c #8923C8",
"u>	c #8228AF",
"v>	c #571F7A",
"w>	c #060417",
"x>	c #0E0920",
"y>	c #0E0829",
"z>	c #170E36",
"A>	c #35155E",
"B>	c #571E8F",
"C>	c #7028B2",
"D>	c #6D1BC1",
"E>	c #640FB8",
"F>	c #5D10AA",
"G>	c #410294",
"H>	c #25026C",
"I>	c #1F0260",
"J>	c #1D0260",
"K>	c #250271",
"L>	c #0B012A",
"M>	c #210270",
"N>	c #280183",
"O>	c #1F0270",
"P>	c #29027A",
"Q>	c #310282",
"R>	c #280180",
"S>	c #33019D",
"T>	c #3201A4",
"U>	c #2F029D",
"V>	c #3602A3",
"W>	c #3F02AF",
"X>	c #530AA4",
"Y>	c #6D139F",
"Z>	c #7216A2",
"`>	c #7510B8",
" ,	c #7007BA",
".,	c #56028F",
"+,	c #3C0270",
"@,	c #2C017A",
"#,	c #18025B",
"$,	c #13023C",
"%,	c #120142",
"&,	c #100143",
"*,	c #19025A",
"=,	c #28028B",
"-,	c #240189",
";,	c #25017E",
">,	c #32018D",
",,	c #4102A5",
"',	c #300192",
"),	c #5608AE",
"!,	c #610BBF",
"~,	c #4B02B4",
"{,	c #4501A9",
"],	c #33018B",
"^,	c #3901AE",
"/,	c #670FBF",
"(,	c #7019AB",
"_,	c #42146F",
":,	c #090719",
"<,	c #100A28",
"[,	c #1B0E3C",
"},	c #31175C",
"|,	c #661EA5",
"1,	c #6C12C0",
"2,	c #600DBB",
"3,	c #5005AF",
"4,	c #4902A5",
"5,	c #5004A3",
"6,	c #4B019C",
"7,	c #370281",
"8,	c #24026C",
"9,	c #250270",
"0,	c #2B017D",
"a,	c #26016C",
"b,	c #150242",
"c,	c #0B012B",
"d,	c #130141",
"e,	c #210164",
"f,	c #3A0294",
"g,	c #4102A7",
"h,	c #3E019C",
"i,	c #4D02A3",
"j,	c #5B02B2",
"k,	c #3C0194",
"l,	c #380194",
"m,	c #3E01A8",
"n,	c #3A01A4",
"o,	c #3A02A0",
"p,	c #39029C",
"q,	c #310291",
"r,	c #46099B",
"s,	c #6914A6",
"t,	c #6A0F9E",
"u,	c #6108A9",
"v,	c #5E05B6",
"w,	c #4D0293",
"x,	c #3D016B",
"y,	c #2C026D",
"z,	c #1C0267",
"A,	c #16014A",
"B,	c #140148",
"C,	c #13014F",
"D,	c #160250",
"E,	c #28028F",
"F,	c #24028D",
"G,	c #230173",
"H,	c #28017A",
"I,	c #280182",
"J,	c #26017B",
"K,	c #370292",
"L,	c #4604A8",
"M,	c #4F04B3",
"N,	c #4F02AE",
"O,	c #5704AF",
"P,	c #5706B3",
"Q,	c #5002BC",
"R,	c #6507C3",
"S,	c #6012A1",
"T,	c #3F1175",
"U,	c #0E0921",
"V,	c #180E35",
"W,	c #431F6F",
"X,	c #571CA1",
"Y,	c #6513BC",
"Z,	c #5A07B2",
"`,	c #410299",
" '	c #4802A2",
".'	c #4A01A1",
"+'	c #4E029C",
"@'	c #3A0183",
"#'	c #290173",
"$'	c #29017A",
"%'	c #280174",
"&'	c #250169",
"*'	c #1C0152",
"='	c #140237",
"-'	c #11013B",
";'	c #220167",
">'	c #350099",
",'	c #6006BA",
"''	c #6B05C5",
")'	c #7506C0",
"!'	c #7005BF",
"~'	c #6805BF",
"{'	c #6308BB",
"]'	c #6C0CC0",
"^'	c #5F0ABA",
"/'	c #4A04B3",
"('	c #4A03AF",
"_'	c #4202A4",
":'	c #360196",
"<'	c #300294",
"['	c #500EA5",
"}'	c #5D0EA2",
"|'	c #53039A",
"1'	c #5602AE",
"2'	c #49019F",
"3'	c #47027A",
"4'	c #310267",
"5'	c #170257",
"6'	c #130244",
"7'	c #15014C",
"8'	c #160155",
"9'	c #1F0261",
"0'	c #28028C",
"a'	c #25028F",
"b'	c #1B0266",
"c'	c #1B0160",
"d'	c #2F0182",
"e'	c #3B048E",
"f'	c #4F05A9",
"g'	c #6706BC",
"h'	c #6D07BF",
"i'	c #7A0BC6",
"j'	c #7A0AC6",
"k'	c #760AC3",
"l'	c #760EB6",
"m'	c #3D0F85",
"n'	c #0C0821",
"o'	c #140C2B",
"p'	c #28134A",
"q'	c #602B93",
"r'	c #5F17B9",
"s'	c #680AC1",
"t'	c #4E04A3",
"u'	c #3D0194",
"v'	c #440298",
"w'	c #430294",
"x'	c #40028D",
"y'	c #300182",
"z'	c #270179",
"A'	c #320187",
"B'	c #2C016E",
"C'	c #1F0252",
"D'	c #20024D",
"E'	c #1B0244",
"F'	c #2C017D",
"G'	c #4101A1",
"H'	c #5E03BB",
"I'	c #7A0AC4",
"J'	c #8A0CC5",
"K'	c #8407C3",
"L'	c #870DC0",
"M'	c #6D0BBC",
"N'	c #7611C5",
"O'	c #7B13C8",
"P'	c #6B0CC2",
"Q'	c #5704B7",
"R'	c #4702A6",
"S'	c #3E0294",
"T'	c #290171",
"U'	c #2E028D",
"V'	c #4206B1",
"W'	c #550CAC",
"X'	c #420284",
"Y'	c #4A029F",
"Z'	c #4A02A6",
"`'	c #490288",
" )	c #340269",
".)	c #18025A",
"+)	c #170159",
"@)	c #1F025C",
"#)	c #2A0294",
"$)	c #200287",
"%)	c #130257",
"&)	c #17015D",
"*)	c #1F0170",
"=)	c #1E0169",
"-)	c #21016B",
";)	c #2E0181",
">)	c #3C0299",
",)	c #39018E",
"')	c #5E02B2",
"))	c #7609BD",
"!)	c #800EC3",
"~)	c #850CC8",
"{)	c #7A11BC",
"])	c #4F1391",
"^)	c #09071D",
"/)	c #1E1139",
"()	c #44206C",
"_)	c #6423A7",
":)	c #6911C3",
"<)	c #6E0CC1",
"[)	c #650DB3",
"})	c #3F019A",
"|)	c #39018C",
"1)	c #340184",
"2)	c #330186",
"3)	c #31017C",
"4)	c #2A0269",
"5)	c #210251",
"6)	c #21024F",
"7)	c #240259",
"8)	c #440198",
"9)	c #4701A6",
"0)	c #5701B7",
"a)	c #7004BE",
"b)	c #6905B4",
"c)	c #6103AE",
"d)	c #6503B2",
"e)	c #5B04AC",
"f)	c #5A06B3",
"g)	c #6608BD",
"h)	c #630AB1",
"i)	c #5702B5",
"j)	c #6505BF",
"k)	c #410296",
"l)	c #29026E",
"m)	c #1D0252",
"n)	c #1F015E",
"o)	c #32038E",
"p)	c #4D0AAD",
"q)	c #450497",
"r)	c #440191",
"s)	c #4D02AC",
"t)	c #4F028E",
"u)	c #320264",
"v)	c #16014C",
"w)	c #100142",
"x)	c #160152",
"y)	c #1F0262",
"z)	c #2A028F",
"A)	c #21028B",
"B)	c #0E0244",
"C)	c #120253",
"D)	c #1A0167",
"E)	c #1B0169",
"F)	c #200273",
"G)	c #2B0284",
"H)	c #33018F",
"I)	c #390195",
"J)	c #5302A9",
"K)	c #6603B5",
"L)	c #760ABF",
"M)	c #8A12C6",
"N)	c #8222B0",
"O)	c #43177B",
"P)	c #130C2B",
"Q)	c #1F123B",
"R)	c #4F267B",
"S)	c #7D28BE",
"T)	c #8725C5",
"U)	c #6512B6",
"V)	c #5005AD",
"W)	c #3B0198",
"X)	c #310185",
"Y)	c #370178",
"Z)	c #28025B",
"`)	c #1C0244",
" !	c #17023B",
".!	c #180141",
"+!	c #310179",
"@!	c #46019C",
"#!	c #5301AE",
"$!	c #6002B2",
"%!	c #6C04B2",
"&!	c #460198",
"*!	c #5702A8",
"=!	c #5C02B7",
"-!	c #6B0AC2",
";!	c #6B0BB9",
">!	c #5506A4",
",!	c #390192",
"'!	c #3C0289",
")!	c #310186",
"!!	c #32018F",
"~!	c #230164",
"{!	c #14013B",
"]!	c #240270",
"^!	c #4205AC",
"/!	c #4704A7",
"(!	c #4A0296",
"_!	c #5604A6",
":!	c #500294",
"<!	c #3B026F",
"[!	c #110146",
"}!	c #180155",
"|!	c #14014E",
"1!	c #230261",
"2!	c #3505A3",
"3!	c #240482",
"4!	c #0F0247",
"5!	c #12024C",
"6!	c #180265",
"7!	c #1F017F",
"8!	c #220276",
"9!	c #28017E",
"0!	c #4E02A8",
"a!	c #6301B6",
"b!	c #8112C2",
"c!	c #8B1BBF",
"d!	c #6D1B99",
"e!	c #321562",
"f!	c #0C0922",
"g!	c #1D1135",
"h!	c #351B53",
"i!	c #642993",
"j!	c #9539C7",
"k!	c #9639C4",
"l!	c #4403A6",
"m!	c #380099",
"n!	c #330188",
"o!	c #2A0172",
"p!	c #2C016D",
"q!	c #280160",
"r!	c #240253",
"s!	c #1E0248",
"t!	c #1D0154",
"u!	c #31017B",
"v!	c #300080",
"w!	c #5702A9",
"x!	c #6804B9",
"y!	c #6703B6",
"z!	c #5702A7",
"A!	c #5A04A8",
"B!	c #710DBB",
"C!	c #7712C4",
"D!	c #7C1BBF",
"E!	c #5A0AA8",
"F!	c #2C0090",
"G!	c #370295",
"H!	c #2A0182",
"I!	c #280178",
"J!	c #2C0187",
"K!	c #1D0258",
"L!	c #350394",
"M!	c #4002A6",
"N!	c #4F0298",
"O!	c #6705B2",
"P!	c #560296",
"Q!	c #380271",
"R!	c #170253",
"S!	c #170151",
"T!	c #1B0154",
"U!	c #2E027A",
"V!	c #3E07AE",
"W!	c #22057E",
"X!	c #100242",
"Y!	c #170267",
"Z!	c #21018A",
"`!	c #240191",
" ~	c #1B016A",
".~	c #310196",
"+~	c #4901AA",
"@~	c #6D09B8",
"#~	c #951CC8",
"$~	c #8C1CC1",
"%~	c #4B1678",
"&~	c #2C1157",
"*~	c #110B27",
"=~	c #281740",
"-~	c #472466",
";~	c #6D24AC",
">~	c #9B41C6",
",~	c #822FBF",
"'~	c #3E029C",
")~	c #300184",
"!~	c #2F017A",
"~~	c #28025F",
"{~	c #1B0247",
"]~	c #210250",
"^~	c #1A0247",
"/~	c #190150",
"(~	c #37018E",
"_~	c #5203A5",
":~	c #6B07BC",
"<~	c #7005BE",
"[~	c #5701AE",
"}~	c #4901A7",
"|~	c #750EC0",
"1~	c #7912C7",
"2~	c #670EBB",
"3~	c #4C08A2",
"4~	c #35028D",
"5~	c #2B017F",
"6~	c #2E027D",
"7~	c #180152",
"8~	c #23026D",
"9~	c #210264",
"0~	c #2A0276",
"a~	c #3D019B",
"b~	c #6006A6",
"c~	c #760AB2",
"d~	c #610399",
"e~	c #42027C",
"f~	c #1F0264",
"g~	c #230264",
"h~	c #24015D",
"i~	c #390394",
"j~	c #330495",
"k~	c #1C036D",
"l~	c #100244",
"m~	c #11024C",
"n~	c #13025D",
"o~	c #190175",
"p~	c #17016D",
"q~	c #110147",
"r~	c #320099",
"s~	c #5405B3",
"t~	c #7E15C2",
"u~	c #8717C4",
"v~	c #710EB2",
"w~	c #37106A",
"x~	c #2C1055",
"y~	c #1F1235",
"z~	c #3D1F59",
"A~	c #5D258F",
"B~	c #7018BF",
"C~	c #7D1BC8",
"D~	c #6B0EBF",
"E~	c #41029C",
"F~	c #31017F",
"G~	c #2D0171",
"H~	c #20024F",
"I~	c #1A0245",
"J~	c #200154",
"K~	c #24026D",
"L~	c #2E0183",
"M~	c #3D01A3",
"N~	c #5D05BF",
"O~	c #5A04B6",
"P~	c #5002AE",
"Q~	c #5702B4",
"R~	c #6306BD",
"S~	c #6908C6",
"T~	c #5B05BB",
"U~	c #3B009E",
"V~	c #350274",
"W~	c #1F0152",
"X~	c #1A0154",
"Y~	c #1B0163",
"Z~	c #100146",
"`~	c #0F013C",
" {	c #170250",
".{	c #14013E",
"+{	c #2A026A",
"@{	c #550E92",
"#{	c #7D10AD",
"${	c #640596",
"%{	c #3F027A",
"&{	c #240267",
"*{	c #24025C",
"={	c #2D0271",
"-{	c #4302A8",
";{	c #280288",
">{	c #18025F",
",{	c #13024F",
"'{	c #120254",
"){	c #140162",
"!{	c #120157",
"~{	c #310191",
"{{	c #4A02AF",
"]{	c #6D0DBF",
"^{	c #5504AF",
"/{	c #460A8F",
"({	c #39116C",
"_{	c #29114F",
":{	c #512474",
"<{	c #8333B2",
"[{	c #7019C3",
"}{	c #690FC1",
"|{	c #7012BD",
"1{	c #5702AD",
"2{	c #4A038F",
"3{	c #37017A",
"4{	c #29025E",
"5{	c #1E0151",
"6{	c #28016F",
"7{	c #240268",
"8{	c #30018F",
"9{	c #4202A9",
"0{	c #5804BD",
"a{	c #4901AE",
"b{	c #5601BE",
"c{	c #7B0EC5",
"d{	c #700EBF",
"e{	c #5004B0",
"f{	c #3C0198",
"g{	c #240251",
"h{	c #1A0158",
"i{	c #2C028F",
"j{	c #26027F",
"k{	c #240285",
"l{	c #1A0164",
"m{	c #14014D",
"n{	c #130144",
"o{	c #240160",
"p{	c #2C0276",
"q{	c #47097D",
"r{	c #7A11AB",
"s{	c #480180",
"t{	c #2B026C",
"u{	c #1C025B",
"v{	c #1B0252",
"w{	c #3C028E",
"x{	c #3E03A4",
"y{	c #2A028E",
"z{	c #1B026B",
"A{	c #150258",
"B{	c #120257",
"C{	c #120255",
"D{	c #0E023F",
"E{	c #130142",
"F{	c #1D015E",
"G{	c #370192",
"H{	c #4802AE",
"I{	c #5202B2",
"J{	c #3C0E7A",
"K{	c #381464",
"L{	c #2C144E",
"M{	c #3D1B5C",
"N{	c #692994",
"O{	c #9137C3",
"P{	c #710FC3",
"Q{	c #7A1BC3",
"R{	c #831DC1",
"S{	c #710EB8",
"T{	c #48028D",
"U{	c #32026D",
"V{	c #19014E",
"W{	c #27016D",
"X{	c #1D0257",
"Y{	c #2F018F",
"Z{	c #3801A1",
"`{	c #39019F",
" ]	c #3D01A2",
".]	c #4301AE",
"+]	c #6304C3",
"@]	c #760CC3",
"#]	c #600AAA",
"$]	c #2D018A",
"%]	c #310180",
"&]	c #300269",
"*]	c #1C0148",
"=]	c #1E0180",
"-]	c #230273",
";]	c #1E0260",
">]	c #15014E",
",]	c #170157",
"']	c #14024B",
")]	c #0E013E",
"!]	c #230257",
"~]	c #520796",
"{]	c #5E099B",
"]]	c #3E017C",
"^]	c #240168",
"/]	c #1D0253",
"(]	c #260260",
"_]	c #47039D",
":]	c #3C04A7",
"<]	c #260287",
"[]	c #1B026D",
"}]	c #16025C",
"|]	c #12024D",
"1]	c #100248",
"2]	c #0E023E",
"3]	c #170144",
"4]	c #1F0258",
"5]	c #3A0194",
"6]	c #4201A5",
"7]	c #5802B2",
"8]	c #4D0898",
"9]	c #3B1070",
"0]	c #36165F",
"a]	c #2A124A",
"b]	c #491A73",
"c]	c #601AA1",
"d]	c #7621BD",
"e]	c #7717C4",
"f]	c #7316BF",
"g]	c #6415AD",
"h]	c #45019B",
"i]	c #280167",
"j]	c #100231",
"k]	c #13013C",
"l]	c #1C015C",
"m]	c #240169",
"n]	c #1B0155",
"o]	c #220176",
"p]	c #3501A2",
"q]	c #3C02A8",
"r]	c #310195",
"s]	c #33009F",
"t]	c #6006BF",
"u]	c #6507BB",
"v]	c #3D018A",
"w]	c #34017A",
"x]	c #2A0165",
"y]	c #17015B",
"z]	c #170169",
"A]	c #250288",
"B]	c #210262",
"C]	c #120138",
"D]	c #0A012C",
"E]	c #0E0137",
"F]	c #0F0242",
"G]	c #120243",
"H]	c #27025C",
"I]	c #3B0384",
"J]	c #4B07A0",
"K]	c #57079A",
"L]	c #280171",
"M]	c #230166",
"N]	c #1F0155",
"O]	c #420481",
"P]	c #5706AC",
"Q]	c #4304A9",
"R]	c #250283",
"S]	c #140257",
"T]	c #0D023B",
"U]	c #110247",
"V]	c #11023C",
"W]	c #17023D",
"X]	c #1D0248",
"Y]	c #24025D",
"Z]	c #340185",
"`]	c #4A01A3",
" ^	c #6005B3",
".^	c #500E95",
"+^	c #351260",
"@^	c #36175D",
"#^	c #221140",
"$^	c #4A1880",
"%^	c #491593",
"&^	c #5F12B4",
"*^	c #7312C6",
"=^	c #5A0AAC",
"-^	c #3A0289",
";^	c #28016E",
">^	c #1C024F",
",^	c #17014C",
"'^	c #25015E",
")^	c #170147",
"!^	c #17015E",
"~^	c #3501A5",
"{^	c #35019E",
"]^	c #35019A",
"^^	c #2E0193",
"/^	c #3D019E",
"(^	c #5405A6",
"_^	c #1F0068",
":^	c #380184",
"<^	c #2C016C",
"[^	c #19015C",
"}^	c #1B0180",
"|^	c #1F017A",
"1^	c #1F0263",
"2^	c #16013D",
"3^	c #06011C",
"4^	c #05011B",
"5^	c #080124",
"6^	c #0D0139",
"7^	c #140243",
"8^	c #2A0268",
"9^	c #3D0396",
"0^	c #4B05A7",
"a^	c #460590",
"b^	c #200169",
"c^	c #28026C",
"d^	c #290261",
"e^	c #210158",
"f^	c #500498",
"g^	c #5305B1",
"h^	c #3E04A1",
"i^	c #240277",
"j^	c #17025C",
"k^	c #110249",
"l^	c #0E023C",
"m^	c #17023C",
"n^	c #1B0241",
"o^	c #1F0253",
"p^	c #3D028B",
"q^	c #5901B0",
"r^	c #5C07AF",
"s^	c #511692",
"t^	c #391964",
"u^	c #271249",
"v^	c #391276",
"w^	c #360A8E",
"x^	c #5105AF",
"y^	c #400491",
"z^	c #230065",
"A^	c #1B014F",
"B^	c #220159",
"C^	c #1C0167",
"D^	c #240184",
"E^	c #2A0195",
"F^	c #2D0197",
"G^	c #2A018C",
"H^	c #31019B",
"I^	c #2C0194",
"J^	c #4201AA",
"K^	c #3C0296",
"L^	c #2C0175",
"M^	c #29016D",
"N^	c #1B015B",
"O^	c #150165",
"P^	c #250265",
"Q^	c #130139",
"R^	c #05011C",
"S^	c #020112",
"T^	c #030112",
"U^	c #06011F",
"V^	c #0F0136",
"W^	c #1A014F",
"X^	c #4203A8",
"Y^	c #43039C",
"Z^	c #280173",
"`^	c #2E0175",
" /	c #30026D",
"./	c #270160",
"+/	c #420285",
"@/	c #4F02A5",
"#/	c #4604A9",
"$/	c #370496",
"%/	c #1A025F",
"&/	c #130251",
"*/	c #12034C",
"=/	c #120236",
"-/	c #120231",
";/	c #2A0265",
">/	c #410191",
",/	c #5602B1",
"'/	c #530BA5",
")/	c #5C2B92",
"!/	c #3C235D",
"~/	c #25076A",
"{/	c #2A028B",
"]/	c #35019C",
"^/	c #3D019A",
"//	c #320181",
"(/	c #21015D",
"_/	c #1F0158",
":/	c #240258",
"</	c #1F015C",
"[/	c #1F0179",
"}/	c #3401A1",
"|/	c #29018F",
"1/	c #250188",
"2/	c #2D0198",
"3/	c #4001A1",
"4/	c #2C0173",
"5/	c #0E014B",
"6/	c #1E0167",
"7/	c #2B016D",
"8/	c #230154",
"9/	c #110136",
"0/	c #0B0128",
"a/	c #05011A",
"b/	c #01010A",
"c/	c #02010E",
"d/	c #06011E",
"e/	c #0A012B",
"f/	c #100136",
"g/	c #200168",
"h/	c #3A0393",
"i/	c #37048B",
"j/	c #290271",
"k/	c #280169",
"l/	c #3C017A",
"m/	c #32026A",
"n/	c #5704A9",
"o/	c #5805B8",
"p/	c #4204A5",
"q/	c #2C0282",
"r/	c #19025E",
"s/	c #150255",
"t/	c #14034E",
"u/	c #13023F",
"v/	c #150237",
"w/	c #130232",
"x/	c #1D0245",
"y/	c #220251",
"z/	c #2F0175",
"A/	c #3E0199",
"B/	c #570AAF",
"C/	c #5B229C",
"D/	c #4F2976",
"E/	c #2F1C44",
"F/	c #140A29",
"G/	c #110A24",
"H/	c #230568",
"I/	c #320196",
"J/	c #390194",
"K/	c #21015C",
"L/	c #160241",
"M/	c #1E0253",
"N/	c #1C0164",
"O/	c #22017C",
"P/	c #330299",
"Q/	c #260192",
"R/	c #230183",
"S/	c #2C0190",
"T/	c #4001A4",
"U/	c #1C0158",
"V/	c #1E015D",
"W/	c #25016E",
"X/	c #1A0162",
"Y/	c #110153",
"Z/	c #240269",
"`/	c #32016A",
" (	c #1C0149",
".(	c #15013F",
"+(	c #0E012E",
"@(	c #07011E",
"#(	c #040114",
"$(	c #0D0130",
"%(	c #160149",
"&(	c #2C0185",
"*(	c #4B04A8",
"=(	c #280269",
"-(	c #240164",
";(	c #34016D",
">(	c #390174",
",(	c #39017E",
"'(	c #4B029C",
")(	c #5C05B7",
"!(	c #5507B7",
"~(	c #35029B",
"{(	c #240178",
"](	c #150253",
"^(	c #130239",
"/(	c #18023D",
"((	c #1A0240",
"_(	c #24025F",
":(	c #580EAE",
"<(	c #4F2086",
"[(	c #331A54",
"}(	c #180D30",
"|(	c #0E081F",
"1(	c #1D0264",
"2(	c #240179",
"3(	c #2F018C",
"4(	c #35027F",
"5(	c #220255",
"6(	c #170240",
"7(	c #1C0250",
"8(	c #180154",
"9(	c #190162",
"0(	c #280184",
"a(	c #2D029F",
"b(	c #29029B",
"c(	c #28018B",
"d(	c #350198",
"e(	c #220161",
"f(	c #16014B",
"g(	c #1B0157",
"h(	c #1E016C",
"i(	c #180166",
"j(	c #1B0174",
"k(	c #2A025F",
"l(	c #1D014D",
"m(	c #1B014D",
"n(	c #080123",
"o(	c #090126",
"p(	c #0C0130",
"q(	c #22016C",
"r(	c #2F0185",
"s(	c #340281",
"t(	c #430276",
"u(	c #3C0181",
"v(	c #440294",
"w(	c #6805BB",
"x(	c #5F08BE",
"y(	c #4504A9",
"z(	c #2E0297",
"A(	c #22027A",
"B(	c #16025B",
"C(	c #13024B",
"D(	c #120240",
"E(	c #130238",
"F(	c #1B0243",
"G(	c #1F0256",
"H(	c #25016A",
"I(	c #23016A",
"J(	c #2D017D",
"K(	c #4A0C9A",
"L(	c #4E1B88",
"M(	c #351C58",
"N(	c #241442",
"O(	c #0A0723",
"P(	c #07051A",
"Q(	c #27017C",
"R(	c #3D0192",
"S(	c #1F0250",
"T(	c #16013B",
"U(	c #170248",
"V(	c #170158",
"W(	c #200173",
"X(	c #2D0190",
"Y(	c #280186",
"Z(	c #3203B5",
"`(	c #2C029E",
" _	c #20017D",
"._	c #340192",
"+_	c #1D0157",
"@_	c #180150",
"#_	c #1C0166",
"$_	c #1B0172",
"%_	c #28029B",
"&_	c #280157",
"*_	c #1B014B",
"=_	c #280163",
"-_	c #1C024A",
";_	c #0F0135",
">_	c #12013D",
",_	c #190153",
"'_	c #240170",
")_	c #2C0279",
"!_	c #240163",
"~_	c #27015F",
"{_	c #390274",
"]_	c #3F0183",
"^_	c #54049C",
"/_	c #6B0BB4",
"(_	c #760EC6",
"__	c #4D05BB",
":_	c #3002A5",
"<_	c #2D029D",
"[_	c #1F027D",
"}_	c #120251",
"|_	c #110239",
"1_	c #130236",
"2_	c #220256",
"3_	c #250264",
"4_	c #2A0174",
"5_	c #250176",
"6_	c #3B028F",
"7_	c #6315AE",
"8_	c #4A1F80",
"9_	c #351D59",
"0_	c #1F113A",
"a_	c #0C0824",
"b_	c #2C017F",
"c_	c #370196",
"d_	c #3D019C",
"e_	c #300179",
"f_	c #0E012C",
"g_	c #140238",
"h_	c #1B0147",
"i_	c #180244",
"j_	c #16024A",
"k_	c #1C0269",
"l_	c #2C0290",
"m_	c #2E0294",
"n_	c #290291",
"o_	c #2F02A9",
"p_	c #2C029B",
"q_	c #1F016E",
"r_	c #350192",
"s_	c #300177",
"t_	c #19014B",
"u_	c #180164",
"v_	c #1D0075",
"w_	c #280195",
"x_	c #3402A4",
"y_	c #350182",
"z_	c #310161",
"A_	c #2C0269",
"B_	c #2E0265",
"C_	c #18014A",
"D_	c #1D015C",
"E_	c #380288",
"F_	c #290267",
"G_	c #280164",
"H_	c #34017D",
"I_	c #4C019E",
"J_	c #7E0FB7",
"K_	c #7B13BF",
"L_	c #600CBF",
"M_	c #4405BA",
"N_	c #3102A6",
"O_	c #25028E",
"P_	c #190268",
"Q_	c #0F0236",
"R_	c #140236",
"S_	c #1E024C",
"T_	c #240261",
"U_	c #420291",
"V_	c #4D05A3",
"W_	c #671AAE",
"X_	c #6F23AC",
"Y_	c #3D2167",
"Z_	c #2F1A4D",
"`_	c #0E0926",
" :	c #0C0721",
".:	c #08061B",
"+:	c #3A0197",
"@:	c #360198",
"#:	c #31008A",
"$:	c #0D012C",
"%:	c #110132",
"&:	c #16023E",
"*:	c #180246",
"=:	c #170246",
"-:	c #23027A",
";:	c #3302A5",
">:	c #2D028F",
",:	c #2C01A0",
"':	c #2B0183",
"):	c #380191",
"!:	c #310177",
"~:	c #17015C",
"{:	c #22007C",
"]:	c #2C01A8",
"^:	c #3F03B5",
"/:	c #430195",
"(:	c #2C0162",
"_:	c #33016B",
"::	c #3A017A",
"<:	c #30026B",
"[:	c #280261",
"}:	c #2C026F",
"|:	c #390284",
"1:	c #320272",
"2:	c #240166",
"3:	c #3C0191",
"4:	c #4601A4",
"5:	c #5B01AF",
"6:	c #770AB6",
"7:	c #8712C1",
"8:	c #5309B8",
"9:	c #3C04B8",
"0:	c #3D04B8",
"a:	c #280292",
"b:	c #1D026F",
"c:	c #14024F",
"d:	c #15023A",
"e:	c #1B0248",
"f:	c #200259",
"g:	c #280266",
"h:	c #460295",
"i:	c #6905BD",
"j:	c #760FC3",
"k:	c #7C24BF",
"l:	c #5E2690",
"m:	c #371F5C",
"n:	c #261641",
"o:	c #44019D",
"p:	c #3E0197",
"q:	c #3A018E",
"r:	c #2A016A",
"s:	c #120239",
"t:	c #150247",
"u:	c #17025A",
"v:	c #2D0294",
"w:	c #310299",
"x:	c #250177",
"y:	c #280194",
"z:	c #1D016F",
"A:	c #2D018B",
"B:	c #31026B",
"C:	c #200252",
"D:	c #18015C",
"E:	c #27018C",
"F:	c #3A02B2",
"G:	c #4A04B8",
"H:	c #4C029B",
"I:	c #2D0169",
"J:	c #0F013B",
"K:	c #300162",
"L:	c #31016A",
"M:	c #2A0261",
"N:	c #2A0260",
"O:	c #29015D",
"P:	c #25015A",
"Q:	c #19014F",
"R:	c #200164",
"S:	c #2B0180",
"T:	c #3A019C",
"U:	c #4600A9",
"V:	c #7005B7",
"W:	c #8917C3",
"X:	c #650BBE",
"Y:	c #4205BD",
"Z:	c #3803B1",
"`:	c #2C0294",
" <	c #1B016B",
".<	c #17014F",
"+<	c #160243",
"@<	c #190241",
"#<	c #160238",
"$<	c #1A0246",
"%<	c #220262",
"&<	c #250167",
"*<	c #4A02A0",
"=<	c #7919C1",
"-<	c #8B28C3",
";<	c #7020AE",
"><	c #42246B",
",<	c #301B4A",
"'<	c #1F123C",
")<	c #0E0927",
"!<	c #4F01A5",
"~<	c #4B029A",
"{<	c #370184",
"]<	c #100139",
"^<	c #160251",
"/<	c #210276",
"(<	c #3402A5",
"_<	c #30028A",
":<	c #23017E",
"<<	c #26028C",
"[<	c #24017C",
"}<	c #2D0181",
"|<	c #35017A",
"1<	c #340165",
"2<	c #170153",
"3<	c #150153",
"4<	c #2D0195",
"5<	c #3F03B6",
"6<	c #5705BC",
"7<	c #4F029A",
"8<	c #340174",
"9<	c #1B0153",
"0<	c #2A0157",
"a<	c #2A0155",
"b<	c #180151",
"c<	c #260175",
"d<	c #31018A",
"e<	c #4B02A1",
"f<	c #6707B5",
"g<	c #7A0FC0",
"h<	c #6B12BE",
"i<	c #3702B4",
"j<	c #3802B4",
"k<	c #33029C",
"l<	c #1D0169",
"m<	c #15014D",
"n<	c #170244",
"o<	c #1F024E",
"p<	c #1B024D",
"q<	c #1B0254",
"r<	c #1E025A",
"s<	c #1F0159",
"t<	c #35018F",
"u<	c #7010C3",
"v<	c #822EB3",
"w<	c #5C2587",
"x<	c #381D5B",
"y<	c #271642",
"z<	c #201339",
"A<	c #09071E",
"B<	c #4A019F",
"C<	c #3F018B",
"D<	c #200163",
"E<	c #280168",
"F<	c #1A0146",
"G<	c #140240",
"H<	c #14024A",
"I<	c #170258",
"J<	c #23027F",
"K<	c #2C0297",
"L<	c #3902A2",
"M<	c #320283",
"N<	c #190253",
"O<	c #1F0277",
"P<	c #26028B",
"Q<	c #1E026A",
"R<	c #3D017A",
"S<	c #39016D",
"T<	c #1A015B",
"U<	c #4603BC",
"V<	c #5905C2",
"W<	c #5D04A9",
"X<	c #49028C",
"Y<	c #1E0161",
"Z<	c #29015E",
"`<	c #320263",
" [	c #320165",
".[	c #1F0162",
"+[	c #300180",
"@[	c #4E02A1",
"#[	c #7608BF",
"$[	c #6D07C3",
"%[	c #5305B6",
"&[	c #3D03AD",
"*[	c #2F01A1",
"=[	c #2D0192",
"-[	c #240175",
";[	c #1A0153",
">[	c #280267",
",[	c #240263",
"'[	c #1E0256",
")[	c #1D0256",
"![	c #1B024F",
"~[	c #420396",
"{[	c #6E12C1",
"][	c #7528A5",
"^[	c #2C1849",
"/[	c #201044",
"([	c #1E1232",
"_[	c #1B112E",
":[	c #150D28",
"<[	c #100B28",
"[[	c #07071B",
"}[	c #4401A1",
"|[	c #2C0177",
"1[	c #17024C",
"2[	c #150143",
"3[	c #16014F",
"4[	c #17015A",
"5[	c #1B026C",
"6[	c #280397",
"7[	c #3103A9",
"8[	c #320192",
"9[	c #250269",
"0[	c #190257",
"a[	c #23017A",
"b[	c #230174",
"c[	c #2A0179",
"d[	c #31016E",
"e[	c #3A0171",
"f[	c #1A0152",
"g[	c #140149",
"h[	c #2C027E",
"i[	c #4D04B6",
"j[	c #4E04BB",
"k[	c #6605AD",
"l[	c #460293",
"m[	c #23016D",
"n[	c #430281",
"o[	c #3E027A",
"p[	c #2E016D",
"q[	c #380182",
"r[	c #5904A6",
"s[	c #760CBE",
"t[	c #770CC5",
"u[	c #5002BD",
"v[	c #3A02AD",
"w[	c #3502A0",
"x[	c #280189",
"y[	c #1B0256",
"z[	c #2C0171",
"A[	c #280264",
"B[	c #250255",
"C[	c #1F024A",
"D[	c #200255",
"E[	c #24026A",
"F[	c #32018E",
"G[	c #6417B0",
"H[	c #7911C3",
"I[	c #641998",
"J[	c #251142",
"K[	c #170C34",
"L[	c #170E2A",
"M[	c #170E28",
"N[	c #180F2C",
"O[	c #140C30",
"P[	c #3C019E",
"Q[	c #350189",
"R[	c #3E018C",
"S[	c #180165",
"T[	c #220389",
"U[	c #3104AE",
"V[	c #3404AA",
"W[	c #28027D",
"X[	c #200261",
"Y[	c #190259",
"Z[	c #180261",
"`[	c #210171",
" }	c #220169",
".}	c #450188",
"+}	c #3C0174",
"@}	c #250254",
"#}	c #110140",
"$}	c #230168",
"%}	c #4D04AE",
"&}	c #3200A5",
"*}	c #5905B2",
"=}	c #810AC3",
"-}	c #6205AD",
";}	c #3C0193",
">}	c #39008D",
",}	c #4E0192",
"'}	c #4F0192",
")}	c #47018F",
"!}	c #5301A2",
"~}	c #5E02AD",
"{}	c #6D07BC",
"]}	c #710DC5",
"^}	c #630CC4",
"/}	c #5308C0",
"(}	c #4204AE",
"_}	c #350195",
":}	c #2D017C",
"<}	c #250161",
"[}	c #22025C",
"}}	c #20024E",
"|}	c #210245",
"1}	c #1F0240",
"2}	c #2D026E",
"3}	c #370189",
"4}	c #47039F",
"5}	c #711CB8",
"6}	c #952FC9",
"7}	c #841FC8",
"8}	c #561696",
"9}	c #241043",
"0}	c #140C31",
"a}	c #0C0719",
"b}	c #240F40",
"c}	c #170D34",
"d}	c #0A081F",
"e}	c #4C02AA",
"f}	c #410196",
"g}	c #400194",
"h}	c #160157",
"i}	c #17015F",
"j}	c #2803A2",
"k}	c #3905C0",
"l}	c #3503A7",
"m}	c #2B027F",
"n}	c #200263",
"o}	c #1B025E",
"p}	c #1A0159",
"q}	c #220168",
"r}	c #340268",
"s}	c #1F0249",
"t}	c #140142",
"u}	c #11013F",
"v}	c #210165",
"w}	c #370197",
"x}	c #6104BF",
"y}	c #5D04B8",
"z}	c #5404B0",
"A}	c #7108AF",
"B}	c #840AB4",
"C}	c #6D05B0",
"D}	c #5D02B0",
"E}	c #5C04B9",
"F}	c #640AC3",
"G}	c #620CC6",
"H}	c #590ABE",
"I}	c #4304AA",
"J}	c #3E0187",
"K}	c #3B0176",
"L}	c #2C0163",
"M}	c #270264",
"N}	c #21025F",
"O}	c #190248",
"P}	c #160234",
"Q}	c #170237",
"R}	c #1A023C",
"S}	c #420094",
"T}	c #6104B3",
"U}	c #6B06C0",
"V}	c #861FC7",
"W}	c #8825C8",
"X}	c #6717BB",
"Y}	c #4A1A90",
"Z}	c #241642",
"`}	c #110A2D",
" |	c #160829",
".|	c #310E5B",
"+|	c #6704B6",
"@|	c #2C0181",
"#|	c #2B017E",
"$|	c #21016A",
"%|	c #180160",
"&|	c #1B0170",
"*|	c #23028B",
"=|	c #3305B2",
"-|	c #3B05BD",
";|	c #3702A3",
">|	c #1D0357",
",|	c #170259",
"'|	c #0F0243",
")|	c #1F0164",
"!|	c #330170",
"~|	c #330264",
"{|	c #210244",
"]|	c #130143",
"^|	c #1E015A",
"/|	c #390197",
"(|	c #2F0198",
"_|	c #38019F",
":|	c #4B01B6",
"<|	c #5302B8",
"[|	c #6A0EBF",
"}|	c #7614C1",
"||	c #8013C1",
"1|	c #8616C1",
"2|	c #6D09C0",
"3|	c #5A06C3",
"4|	c #5D09C0",
"5|	c #6C12C2",
"6|	c #5D0AB5",
"7|	c #47049B",
"8|	c #310277",
"9|	c #2B0262",
"0|	c #320164",
"a|	c #350169",
"b|	c #220253",
"c|	c #180242",
"d|	c #100131",
"e|	c #120134",
"f|	c #140234",
"g|	c #2C0265",
"h|	c #6905B7",
"i|	c #6D07C2",
"j|	c #7A11C7",
"k|	c #710DC8",
"l|	c #5317AF",
"m|	c #4D287E",
"n|	c #281646",
"o|	c #110A2A",
"p|	c #4C1A79",
"q|	c #3E1074",
"r|	c #1A0D3A",
"s|	c #0C0823",
"t|	c #5E06AA",
"u|	c #310183",
"v|	c #200177",
"w|	c #2A029B",
"x|	c #3906BF",
"y|	c #3704B4",
"z|	c #320295",
"A|	c #2B0273",
"B|	c #1E0257",
"C|	c #11024B",
"D|	c #160257",
"E|	c #250173",
"F|	c #410186",
"G|	c #32025C",
"H|	c #1B0239",
"I|	c #17014B",
"J|	c #150147",
"K|	c #1C0150",
"L|	c #2F0282",
"M|	c #31019C",
"N|	c #33019C",
"O|	c #3D01A1",
"P|	c #3B01A6",
"Q|	c #4200B6",
"R|	c #600AC3",
"S|	c #5E09C0",
"T|	c #660BC0",
"U|	c #640ABA",
"V|	c #5807AC",
"W|	c #4A049D",
"X|	c #3D0288",
"Y|	c #2D026D",
"Z|	c #240257",
"`|	c #21024D",
" 1	c #260255",
".1	c #110135",
"+1	c #0F0133",
"@1	c #0F0132",
"#1	c #0F0131",
"$1	c #17013D",
"%1	c #2E026A",
"&1	c #3A027F",
"*1	c #400196",
"=1	c #5305AE",
"-1	c #7311C6",
";1	c #6A14C0",
">1	c #50209D",
",1	c #4A296F",
"'1	c #180D37",
")1	c #110B26",
"!1	c #6D2CA2",
"~1	c #4B128B",
"{1	c #240F4A",
"]1	c #5202A1",
"^1	c #35027C",
"/1	c #240165",
"(1	c #280287",
"_1	c #3504AF",
":1	c #4208C7",
"<1	c #4206B5",
"[1	c #370294",
"}1	c #2C036B",
"|1	c #130253",
"11	c #140259",
"21	c #150151",
"31	c #42018C",
"41	c #380261",
"51	c #250247",
"61	c #170150",
"71	c #28026B",
"81	c #310297",
"91	c #3002A0",
"01	c #2E0194",
"a1	c #2F019C",
"b1	c #3401AB",
"c1	c #4702BB",
"d1	c #4302B5",
"e1	c #4604AC",
"f1	c #5809AF",
"g1	c #5204AD",
"h1	c #300272",
"i1	c #26025F",
"j1	c #1E0245",
"k1	c #1F0245",
"l1	c #0E022B",
"m1	c #0A0126",
"n1	c #0A0129",
"o1	c #0E022F",
"p1	c #14023A",
"q1	c #280268",
"r1	c #4201A3",
"s1	c #5705B9",
"t1	c #7310CC",
"u1	c #5C12B6",
"v1	c #4F287F",
"w1	c #351E52",
"x1	c #180E32",
"y1	c #722486",
"z1	c #842FBD",
"A1	c #47108A",
"B1	c #200D46",
"C1	c #07071D",
"D1	c #360185",
"E1	c #2F016E",
"F1	c #270286",
"G1	c #2C01AA",
"H1	c #4C0CBF",
"I1	c #600DC3",
"J1	c #5107A5",
"K1	c #2A0369",
"L1	c #190263",
"M1	c #1B0271",
"N1	c #13014E",
"O1	c #140143",
"P1	c #240173",
"Q1	c #3D0184",
"R1	c #3D026A",
"S1	c #2B0253",
"T1	c #17014D",
"U1	c #120141",
"V1	c #0E012A",
"W1	c #280281",
"X1	c #2B029F",
"Y1	c #27028C",
"Z1	c #2A0196",
"`1	c #3A01AC",
" 2	c #3C01AF",
".2	c #3901A7",
"+2	c #300195",
"@2	c #28018C",
"#2	c #2E018A",
"$2	c #270172",
"%2	c #2A0264",
"&2	c #37026D",
"*2	c #2D025D",
"=2	c #170239",
"-2	c #0C0129",
";2	c #0A0127",
">2	c #0A0124",
",2	c #15023C",
"'2	c #220254",
")2	c #2E0172",
"!2	c #4602A2",
"~2	c #4F04B9",
"{2	c #610FC1",
"]2	c #5E20A6",
"^2	c #4A2A64",
"/2	c #241444",
"(2	c #130C29",
"_2	c #901BB8",
":2	c #7E20B6",
"<2	c #43187E",
"[2	c #241643",
"}2	c #260166",
"|2	c #330298",
"12	c #3402A9",
"22	c #550CC3",
"32	c #690FCA",
"42	c #4F04AD",
"52	c #22025D",
"62	c #21047A",
"72	c #1F0377",
"82	c #120149",
"92	c #10013A",
"02	c #20015D",
"a2	c #3D0183",
"b2	c #500186",
"c2	c #2D015A",
"d2	c #10013D",
"e2	c #0C0128",
"f2	c #1E0264",
"g2	c #240282",
"h2	c #220283",
"i2	c #350299",
"j2	c #4C04B7",
"k2	c #4001A7",
"l2	c #28017D",
"m2	c #250172",
"n2	c #290265",
"o2	c #2C025B",
"p2	c #1B0240",
"q2	c #0E0131",
"r2	c #0C012C",
"s2	c #100134",
"t2	c #0B0127",
"u2	c #100230",
"v2	c #210252",
"w2	c #2D026F",
"x2	c #390290",
"y2	c #5805BA",
"z2	c #4903A9",
"A2	c #35019B",
"B2	c #5314A5",
"C2	c #4F257D",
"D2	c #371F51",
"E2	c #180E33",
"F2	c #37056C",
"G2	c #8106C0",
"H2	c #8734B6",
"I2	c #3B236D",
"J2	c #100A31",
"K2	c #210163",
"L2	c #2F017E",
"M2	c #4302A9",
"N2	c #4904BA",
"O2	c #4604BF",
"P2	c #4F06C4",
"Q2	c #4F04BF",
"R2	c #41029F",
"S2	c #220481",
"T2	c #20047D",
"U2	c #110244",
"V2	c #3F027B",
"W2	c #480282",
"X2	c #310167",
"Y2	c #1F0169",
"Z2	c #13014D",
"`2	c #070120",
" 3	c #090128",
".3	c #190256",
"+3	c #2A0287",
"@3	c #200176",
"#3	c #3D02A1",
"$3	c #3D029E",
"%3	c #260176",
"&3	c #1D015B",
"*3	c #12014B",
"=3	c #0E0139",
"-3	c #0E0133",
";3	c #0E022E",
">3	c #0E012B",
",3	c #0F022D",
"'3	c #2F0464",
")3	c #430392",
"!3	c #43029C",
"~3	c #4F04AF",
"{3	c #5307AB",
"]3	c #450695",
"^3	c #390A87",
"/3	c #4B1B87",
"(3	c #482562",
"_3	c #120B2A",
":3	c #0B0820",
"<3	c #4F0296",
"[3	c #7C23BA",
"}3	c #6539AA",
"|3	c #1D0F57",
"13	c #160D3C",
"23	c #1A044F",
"33	c #3B0195",
"43	c #4602A9",
"53	c #5104BB",
"63	c #600BC8",
"73	c #5C0AC6",
"83	c #4B04C4",
"93	c #4202B6",
"03	c #2F0289",
"a3	c #230384",
"b3	c #250487",
"c3	c #190359",
"d3	c #140241",
"e3	c #170247",
"f3	c #2E0264",
"g3	c #40017B",
"h3	c #2D0261",
"i3	c #0E0230",
"j3	c #18024F",
"k3	c #270382",
"l3	c #1C026A",
"m3	c #2C0286",
"n3	c #2D018D",
"o3	c #28026D",
"p3	c #1F025E",
"q3	c #19024E",
"r3	c #1A0252",
"s3	c #12023D",
"t3	c #120237",
"u3	c #0B0223",
"v3	c #1F0247",
"w3	c #280357",
"x3	c #420583",
"y3	c #5505AD",
"z3	c #5704B5",
"A3	c #4C03AF",
"B3	c #350287",
"C3	c #46029A",
"D3	c #6317A6",
"E3	c #5C2688",
"F3	c #421F5F",
"G3	c #22123D",
"H3	c #0E0925",
"I3	c #37076D",
"J3	c #460393",
"K3	c #5C1FA2",
"L3	c #421E8D",
"M3	c #231162",
"N3	c #180F45",
"O3	c #0E0A25",
"P3	c #1D0D53",
"Q3	c #380A8B",
"R3	c #5004B3",
"S3	c #5706BF",
"T3	c #680FC6",
"U3	c #5D0BC7",
"V3	c #4302BD",
"W3	c #2A0281",
"X3	c #1C016D",
"Y3	c #23017F",
"Z3	c #250286",
"`3	c #28048A",
" 4	c #24036E",
".4	c #19024D",
"+4	c #35026D",
"@4	c #42017E",
"#4	c #320266",
"$4	c #0F0138",
"%4	c #130145",
"&4	c #1A0255",
"*4	c #28047A",
"=4	c #26047A",
"-4	c #1E026C",
";4	c #250180",
">4	c #2A018A",
",4	c #2A0187",
"'4	c #250279",
")4	c #2A0266",
"!4	c #25025D",
"~4	c #1B0245",
"{4	c #16023C",
"]4	c #140235",
"^4	c #130235",
"/4	c #28025A",
"(4	c #46049A",
"_4	c #5104B2",
":4	c #4F02B2",
"<4	c #4B01A8",
"[4	c #440295",
"}4	c #5C0AA8",
"|4	c #761EB8",
"14	c #552879",
"24	c #2A1548",
"34	c #150D2E",
"44	c #2C027D",
"54	c #3A0385",
"64	c #4B1491",
"74	c #411D7B",
"84	c #241263",
"94	c #180F47",
"04	c #0E0A28",
"a4	c #170D47",
"b4	c #241363",
"c4	c #431E72",
"d4	c #5314A7",
"e4	c #5608C2",
"f4	c #4F05C7",
"g4	c #3F02BA",
"h4	c #3701A1",
"i4	c #2C0186",
"j4	c #27017E",
"k4	c #2E037C",
"l4	c #22025F",
"m4	c #320174",
"n4	c #33026C",
"o4	c #280257",
"p4	c #18023E",
"q4	c #110233",
"r4	c #24046A",
"s4	c #230376",
"t4	c #190261",
"u4	c #120252",
"v4	c #1A026C",
"w4	c #1D0275",
"x4	c #1E0279",
"y4	c #1F0267",
"z4	c #270273",
"A4	c #290279",
"B4	c #2B0275",
"C4	c #1C0259",
"D4	c #2C026A",
"E4	c #360281",
"F4	c #4702AA",
"G4	c #4F03B9",
"H4	c #5501B5",
"I4	c #6903B9",
"J4	c #5F05AF",
"K4	c #8428BF",
"L4	c #7026A9",
"M4	c #471F6D",
"N4	c #29065E",
"O4	c #260077",
"P4	c #531A8D",
"Q4	c #421C74",
"R4	c #28156D",
"S4	c #170E45",
"T4	c #110B2D",
"U4	c #110A2E",
"V4	c #160C44",
"W4	c #261560",
"X4	c #451F6E",
"Y4	c #592387",
"Z4	c #500698",
"`4	c #3E01B4",
" 5	c #3B01A4",
".5	c #28027F",
"+5	c #2F029A",
"@5	c #27018D",
"#5	c #280283",
"$5	c #3A038C",
"%5	c #2E0271",
"&5	c #27016C",
"*5	c #28025C",
"=5	c #1F0248",
"-5	c #19023C",
";5	c #0F0241",
">5	c #1A0261",
",5	c #140254",
"'5	c #12024F",
")5	c #15025C",
"!5	c #16025F",
"~5	c #1B0269",
"{5	c #1C026B",
"]5	c #1C026C",
"^5	c #240279",
"/5	c #280185",
"(5	c #240177",
"_5	c #1A0258",
":5	c #170256",
"<5	c #1E0157",
"[5	c #34017F",
"}5	c #3B0194",
"|5	c #3D029F",
"15	c #4B02AC",
"25	c #5C02AB",
"35	c #6F03B7",
"45	c #6612B3",
"55	c #8D33C0",
"65	c #692A9E",
"75	c #351659",
"85	c #1B0E37",
"95	c #4E0696",
"05	c #1C0353",
"a5	c #581C8C",
"b5	c #411B6F",
"c5	c #251265",
"d5	c #150B46",
"e5	c #120C34",
"f5	c #120A35",
"g5	c #150B45",
"h5	c #24135C",
"i5	c #582387",
"j5	c #630DA9",
"k5	c #5701BB",
"l5	c #5301BB",
"m5	c #3A019E",
"n5	c #300189",
"o5	c #2A027B",
"p5	c #2E0290",
"q5	c #250182",
"r5	c #4D04A4",
"s5	c #530594",
"t5	c #170154",
"u5	c #230167",
"v5	c #28026A",
"w5	c #2B0268",
"x5	c #1F0246",
"y5	c #13023E",
"z5	c #120245",
"A5	c #0E013D",
"B5	c #120247",
"C5	c #120246",
"D5	c #100246",
"E5	c #180260",
"F5	c #1B0264",
"G5	c #1C0367",
"H5	c #1D0160",
"I5	c #1A025C",
"J5	c #1D0267",
"K5	c #26016E",
"L5	c #39018F",
"M5	c #33018E",
"N5	c #6102A5",
"O5	c #6901B1",
"P5	c #7216B7",
"Q5	c #7728B3",
"R5	c #5C238F",
"S5	c #2B0F4F",
"T5	c #3E0A59",
"U5	c #5803A9",
"V5	c #2C0180",
"W5	c #22045C",
"X5	c #541B8A",
"Y5	c #421B6F",
"Z5	c #211157",
"`5	c #130A44",
" 6	c #150D3B",
".6	c #120A3C",
"+6	c #130A47",
"@6	c #2A1469",
"#6	c #461F74",
"$6	c #501F81",
"%6	c #690FB6",
"&6	c #8211CA",
"*6	c #7D0AC8",
"=6	c #4801B3",
"-6	c #4A02A3",
";6	c #300291",
">6	c #33019B",
",6	c #6207AE",
"'6	c #6E09AB",
")6	c #370377",
"!6	c #240265",
"~6	c #2A016B",
"{6	c #2E026D",
"]6	c #270257",
"^6	c #220247",
"/6	c #0D0235",
"(6	c #11023D",
"_6	c #110240",
":6	c #0D0239",
"<6	c #0C0237",
"[6	c #140247",
"}6	c #1B025B",
"|6	c #17024B",
"16	c #16024C",
"26	c #210175",
"36	c #23016E",
"46	c #350187",
"56	c #4601A1",
"66	c #5B01A9",
"76	c #6002A5",
"86	c #7203B2",
"96	c #7E0ABF",
"06	c #871FC2",
"a6	c #7129AD",
"b6	c #47157D",
"c6	c #240E48",
"d6	c #5E0793",
"e6	c #8111BD",
"f6	c #3C0090",
"g6	c #390483",
"h6	c #4F1B82",
"i6	c #401B69",
"j6	c #25125D",
"k6	c #150A48",
"l6	c #140C3D",
"m6	c #120941",
"n6	c #100842",
"o6	c #281360",
"p6	c #4A247C",
"q6	c #461F71",
"r6	c #460D95",
"s6	c #7A12C7",
"t6	c #8F1BC7",
"u6	c #7E08C8",
"v6	c #6C04BB",
"w6	c #27017F",
"x6	c #200165",
"y6	c #330196",
"z6	c #6D0EB9",
"A6	c #760DB2",
"B6	c #4A048B",
"C6	c #1F0165",
"D6	c #1A0257",
"E6	c #2C016A",
"F6	c #43018B",
"G6	c #3B0178",
"H6	c #3D016A",
"I6	c #1B023D",
"J6	c #120238",
"K6	c #0F023C",
"L6	c #080129",
"M6	c #070125",
"N6	c #090226",
"O6	c #12023B",
"P6	c #130242",
"Q6	c #1C0165",
"R6	c #230172",
"S6	c #2E017A",
"T6	c #48019C",
"U6	c #6101BA",
"V6	c #7E05C3",
"W6	c #8105C3",
"X6	c #7904BC",
"Y6	c #7A05BB",
"Z6	c #9C2AC6",
"`6	c #9431C1",
" 7	c #6A27A4",
".7	c #42127A",
"+7	c #1B0D3D",
"@7	c #11072F",
"#7	c #6D06B2",
"$7	c #850EC3",
"%7	c #5A01B0",
"&7	c #6C04BA",
"*7	c #4C197C",
"=7	c #472171",
"-7	c #291266",
";7	c #120943",
">7	c #130A3E",
",7	c #100932",
"'7	c #120B33",
")7	c #140D37",
"!7	c #3C2460",
"~7	c #673A8C",
"{7	c #622895",
"]7	c #6907C3",
"^7	c #730CC7",
"/7	c #A31FC9",
"(7	c #760DB6",
"_7	c #4000A2",
":7	c #350278",
"<7	c #270165",
"[7	c #3D047C",
"}7	c #60099D",
"|7	c #4C0490",
"17	c #3E018B",
"27	c #3F0188",
"37	c #37016D",
"47	c #25024F",
"57	c #190240",
"67	c #0B012C",
"77	c #09012B",
"87	c #070124",
"97	c #080125",
"07	c #0C0229",
"a7	c #0F0230",
"b7	c #0F0231",
"c7	c #0A0125",
"d7	c #1F016D",
"e7	c #240176",
"f7	c #41018D",
"g7	c #7609B3",
"h7	c #870CC5",
"i7	c #9313C8",
"j7	c #8E10C8",
"k7	c #7704BF",
"l7	c #6B04B5",
"m7	c #9C1DC8",
"n7	c #8528BB",
"o7	c #571A94",
"p7	c #310E61",
"q7	c #160A34",
"r7	c #22045E",
"s7	c #4F019E",
"t7	c #8411C2",
"u7	c #6A06B6",
"v7	c #6B08B6",
"w7	c #602894",
"x7	c #3D2465",
"y7	c #130C36",
"z7	c #130A35",
"A7	c #110A34",
"B7	c #0D0A1F",
"C7	c #140D32",
"D7	c #2D1B50",
"E7	c #442867",
"F7	c #62278F",
"G7	c #851DCA",
"H7	c #700EC4",
"I7	c #B035C6",
"J7	c #9717C6",
"K7	c #4C009D",
"L7	c #310172",
"M7	c #1F015D",
"N7	c #3C01B3",
"O7	c #390399",
"P7	c #1E025D",
"Q7	c #1C0257",
"R7	c #2F017C",
"S7	c #350270",
"T7	c #270253",
"U7	c #1A0241",
"V7	c #0A0128",
"W7	c #0C022E",
"X7	c #0D022B",
"Y7	c #0E022C",
"Z7	c #1A024D",
"`7	c #1C0168",
" 8	c #2C0170",
".8	c #4E0198",
"+8	c #9812C4",
"@8	c #9B1CC8",
"#8	c #8917C8",
"$8	c #8210C5",
"%8	c #6903B6",
"&8	c #6F0CB6",
"*8	c #8420BC",
"=8	c #7328A5",
"-8	c #3D1872",
";8	c #201242",
">8	c #0A0724",
",8	c #39008E",
"'8	c #7A0EBF",
")8	c #6907B0",
"!8	c #4A138B",
"~8	c #4C247A",
"{8	c #26174E",
"]8	c #130C31",
"^8	c #120C2C",
"/8	c #321F52",
"(8	c #2D1B4C",
"_8	c #6D3689",
":8	c #AA41CC",
"<8	c #A737C6",
"[8	c #B844C8",
"}8	c #7E12C0",
"|8	c #35008E",
"18	c #1F025F",
"28	c #270169",
"38	c #4A02B6",
"48	c #5E0AC9",
"58	c #5F0BC6",
"68	c #4703C1",
"78	c #28016D",
"88	c #2C0179",
"98	c #390188",
"08	c #240254",
"a8	c #280255",
"b8	c #21024E",
"c8	c #0F0237",
"d8	c #0B0130",
"e8	c #0E0231",
"f8	c #100233",
"g8	c #17023F",
"h8	c #1B024B",
"i8	c #4D029B",
"j8	c #7609BE",
"k8	c #6708BF",
"l8	c #5C05BB",
"m8	c #6005B6",
"n8	c #4D039A",
"o8	c #7220B2",
"p8	c #6F35AF",
"q8	c #4D257E",
"r8	c #26164D",
"s8	c #130C2E",
"t8	c #120638",
"u8	c #39037B",
"v8	c #5103AD",
"w8	c #5C04B2",
"x8	c #4F01A6",
"y8	c #480F88",
"z8	c #371E5C",
"A8	c #2C1B52",
"B8	c #120C31",
"C8	c #0E0B24",
"D8	c #0E0B25",
"E8	c #0D0A21",
"F8	c #100C26",
"G8	c #2C1D4B",
"H8	c #2C1D48",
"I8	c #683185",
"J8	c #A42CCC",
"K8	c #A92EC7",
"L8	c #9A24C9",
"M8	c #680AB4",
"N8	c #310084",
"O8	c #280270",
"P8	c #1E015E",
"Q8	c #330185",
"R8	c #4A01B7",
"S8	c #650DC5",
"T8	c #6F13C7",
"U8	c #4A03C8",
"V8	c #3C02B4",
"W8	c #36019C",
"X8	c #2B017B",
"Y8	c #25016B",
"Z8	c #24025A",
"`8	c #1F0257",
" 9	c #110237",
".9	c #190251",
"+9	c #5101A6",
"@9	c #7708C0",
"#9	c #5F05BC",
"$9	c #3C019C",
"%9	c #37028B",
"&9	c #490F91",
"*9	c #531E98",
"=9	c #45228A",
"-9	c #1E0F57",
";9	c #150C39",
">9	c #0C0921",
",9	c #26035E",
"'9	c #45038B",
")9	c #47029E",
"!9	c #4301A1",
"~9	c #5701B6",
"{9	c #4B0F89",
"]9	c #311D50",
"^9	c #2B1C51",
"/9	c #130E2C",
"(9	c #0F0C24",
"_9	c #0B091F",
":9	c #2C1D46",
"<9	c #271B3E",
"[9	c #61267F",
"}9	c #9A17CC",
"|9	c #7E0EC7",
"19	c #720CB9",
"29	c #30017A",
"39	c #20015C",
"49	c #200162",
"59	c #33018A",
"69	c #4702A9",
"79	c #5303B8",
"89	c #5304C1",
"99	c #5708C5",
"09	c #4E05C6",
"a9	c #3C01BB",
"b9	c #3E01AA",
"c9	c #340194",
"d9	c #280274",
"e9	c #320195",
"f9	c #260178",
"g9	c #270269",
"h9	c #14023F",
"i9	c #110231",
"j9	c #1E024F",
"k9	c #22025B",
"l9	c #250261",
"m9	c #2C0174",
"n9	c #4C029A",
"o9	c #7607BB",
"p9	c #8B0EC5",
"q9	c #5A04B2",
"r9	c #250266",
"s9	c #4C158B",
"t9	c #441B80",
"u9	c #2F176E",
"v9	c #1D1053",
"w9	c #130D37",
"x9	c #280669",
"y9	c #3A0290",
"z9	c #460196",
"A9	c #2F0184",
"B9	c #6401C0",
"C9	c #54118B",
"D9	c #241842",
"E9	c #2C1B4E",
"F9	c #120D29",
"G9	c #0C0A1F",
"  . + @ # $ % & * = = - ; > , ' ) ! ~ { ] ^ / ( _ : < [ } | 1 2 3 4 5 6 7 8 9 0 a b c d d e f g h i j k l m n o p q r s t u v w ",
"x y z u A B C D E F G H I J K L M N O P Q R S T U V W X Y Z `  ...+.@.#.$.b %.&.*.=.-.;.>.,.'.).!.~.{.].^./.(._.:.<.[.}.|.1.2.v ",
"3.4.5.6.7.8.9.0.a.b.c.d.e.f.g.h.i.j.k.l.m.n.o.p.q.r.s.t.u.v.w.x.y.z.A.B.C.D.E.F.G.H.I.J.K.L.M.N.O.P.Q.R.S.T.U.V.W.X.Y.Z.7.`. +.+",
"++@+#+A $+|.%+&+*+=+-+;+>+g.2.,+'+)+!+~+{+]+^+/+(+_+:+<+[+}+|+1+2+3+4+5+6+7+8+9+0+a+b+c+d+e+f+g+h+i+j+k+l+m+n+o+p+3.q+g.r+s+++t+",
"|.u+v+w+[.x+y+z+A+B+C+D+E+F+G+H+I+J+K+L+M+N+O+P+Q+R+S+T+U+V+W+X+Y+Z+`+ @.@+@@@#@$@%@&@*@=@-@;@>@,@'@)@!@~@{@]@^@/@(@_@:@g.[.<@[@",
"|.}@|@A 1@2@3@4@5@6@7@8@9@0@a@b@c@d@e@f@g@h@i@<+j@k@l@m@n@V+o@p@q@r@s@t@u@v@w@x@y@z@A@B@C@D@E@F@G@H@I@J@K@L@M@N@O@P@C+Q@r+:@R@|.",
"|.S@q+8.& T@U@V@W@X@7@7.Y@Z@`@ #.#+#@###$#%#&#*#=#-#;#>#,#'#)#)#!#~#{#]#^#/#(#_#:#<#[#}#|#1#2#3#4#5#6#7#8#9#0#a#b#  d.7.c#d#e#u+",
"f#g#h#i#j#k#l#m#n#o#r+p#q#r#s#t#u#v#w#x#y#z#A#B#C#D#E#F#G#H#I#J#K#L#M#N#O#P#Q#R#S#T#U#V#W#X#Y#Z#`# $.$+$@$#$$$%$&$*$=$-$J :@;$>$",
"e#,$'$d#)$!$~${$f.]$^$)$/$`@($_$:$<$[$}$|$1$2$3$4$5$6$7$8$9$0$a$b$c$d$e$f$g$h$i$j$k$l$m$n$o$p$q$r$s$t$u$v$w$x$y$z$A$B$C$d#7.D$:@",
"h#E$F$<@G$H$I$J$K$u+L$M$N$O$P$Q$R$S$T$U$V$W$X$Y$Z$`$ %.%+%@%#%J#$%%%&%*%=%-%;%>%,%'%)%!%~%{%]%^%/%(%_%:%<%[%}%|%1%2%3%4%x+r+X.5%",
"q+6%7%8%9%0%a%D+b%c%d%e%f%g%h%i%j%k%l%m%n%o%p%q%r%s%t%u%v%W+w%x%y%z%A%B%C%D%E%F%G%H%:%I%J%K%L%M%N%O%P%Q%R%L%S%T%U%V%W%X%Y%k Z%h#",
"`% &g..&+&@&#&:@:@$&8%%&&&*&=&-&;&>&,&'&)&!&~&{&]&^&/&(&_&:&<&[&/&}&|&1&2&3&4&5&6&7&8&9&0&a&b&c&d&e&f&g&h&i&j&k&l&m&n&o&p&q&r&j ",
"s&I t&E+u&v&r+R@w&x&y&z&A&B&C&D&E&F&G&H&)&I&J&K&L&M&N&O&P&Q&R&S&T&_&U&V&W&X&Y&Z&`& *.*+*@*#*$*%*&***=*-*;*>*,*'*)*!*~*{*]*^*/*(*",
"d._*E+:*<*[*}*v+F |*1*2*3*4*5*6*7*8*9*0*X$a*b*c*d*e*f*g*h*i*j*k*l*m*n*o*p*q*r*s*t*u*v*w*x*y*z*A*B*C*D*E*F*G*H*I*J*K*L*M*N*O*P*Q*",
"d.R*S*J T*Y.l U*V*W*X*Y*Z*`* =.=+=@=#=$=%=&=*===-=;=>=,='=)=!=~={=]=^=/=(=_=:=<=[=[&}=|=1=2=3=4=5=6=7=8=9=0=a=b=c=d=e=f=g=h=i=j=",
"k=l=m=9@n=q+o=p=q=r=s=t=u=v=w=x=q*y=z=A=B=C=D=E=F=G=H=D%;&I=J=K=L=M=N=O=P=Q=R=S=T=t*U=V=W=X=Y=Z=`= -.-+-@-#-$-%-&-*-=---;->-,-'-",
")-!-t&~-{-]-^-/-(-_-:-<-[-}-|-1-2-3-u%4-5-6-7-==8-9-0-a-b-c-d-e-f-g-h-i-j-k-l-m-n-o-p-q-r-s-`$t-H=u-v-w-x-y-z-A-B-C-D-E-F-G-H-I-",
"w&J-:*K-L-M-N-O-P-Q-R-S-T-I=U-V-W-X-Y-Z-`- ;/&.;+;@;#;$;%;&;*;=;-;;;>;,;';z*);!;~;{;];^;I#/;(;_;:;<;[;};|;1;2;3;4;5;6;7;8;9;0;a;",
"b;c;d;e;f;5.g;h;i;j;k;l;m;n;o;p;q;r;r;s;t;u;v;w;x;y;z;A;B;%;3-C;D;E;F;G;H;I;J;K;L;M;N;O;P;$=Q;R;S;T;U;^=V;W;X;Y;Y&Z;`; >.>+>@>#>",
"$>%>r+7%&>*>=>->;>>>,>'>)>!>~>m%{>]>^>/>(>_>:>x;<>[>}>|>B;1>2>3>4>5>6>7>8>9>0>a>b>c>d>e>f>$=g>h>G&i>,&j>k>l>m>n>o>p>q>r>s>t>u>v>",
"w>7@v+x>y>z>A>B>C>D>E>F>G>H>I>J>Y+K>f*v;L>_>t;M>N>O>P>Q>c=R>S>T>U>V>W>X>Y>Z>`> ,.,+,@,#,$,%,&,*,=,-,;,>,,,',),!,~,{,],O#^,/,(,_,",
"D+:,;$<,[,},|,1,2,3,4,5,6,7,8,9,0,a,b,n@c,d,e,f,g,h,i,j,k,l,m,n,o,p,q,r,s,t,u,v,w,x,y,z,A,B,C,D,E,F,G,H,I,J,K,L,M,N,O,P,Q,R,S,T,",
"K q U,V,W,X,Y,Z,`, '.'+'@'#'$'%'&'*'=',#-';'>',''')'!'~'{']'^'/'('_':'<'['}'|'1'2'3'4'5'6'7'8'9'0'a'b'c'|>J,d'e'f'g'h'i'j'k'l'm'",
"w+n'o'p'q'r's't'u'v'w'x'y'z'A'B'C'D'E'$%F'G'H'I'J'K'L'M'N'O'P'Q'R'S'T'U'V'W'X'Y'Z'`' ).)6$B,+)@)#)$)%)&)*)=)-);)>),)')))!)~){)])",
"^); /)()_):)<)[)})|)1)2)|)3)4)5)(&6)7)8)9)0)a)b)c)d)e)f)g)h)i)j)k)l)m)n)o)p)q)r)s)t)u)v)w)R;x)y)z)A)B)C)D)E)F)G)H)I)J)K)L)M)N)O)",
"R*P)Q)R)S)T)U)V)W)X)J*E-Y)Z)`) !.!h@+!@!#!$!%!&!*!=!-!;!>!0-,!'!)!!!~!{!]!^!/!(!_!:!<!0*[!}!|!1!2!3!4!5!6!2=7!8!9!f$0!a!b!c!d!e!",
"f!g!h!i!j!k!l!m!n!o!p!q!r!s!M&{!t!u!v!w!x!y!z!A!B!C!D!E!F!G!H!9!I!J!K>y%K!L!M!N!O!P!Q!K*R!S!T!U!V!W!X!5!Y!Z!`! ~G,.~+~@~#~$~%~&~",
"*~=~-~;~>~,~'~)~!~=-~~{~{~]~^~/~;-(~_~:~<~[~}~|~1~2~3~4~5~6~H,F-7'7~8~9~4-0~a~b~c~d~e~f~g~ ;h~i~j~k~l~m~n~o~p~q~!@r~s~t~u~v~w~x~",
"y~z~A~B~C~D~E~F~G~U&H~I~J~h~@)K~L~M~N~O~P~Q~R~S~T~U~d'V~Z)W~X~Y~Z~`~ {C;.{+{>,@{#{${%{&{*{C'={-{;{>{,{'{n~){!{%,_;~{{{]{^{/{({_{",
"=~:{<{[{}{|{1{2{3{4{/&5{a,6{7{H,8{9{0{a{b{c{d{e{f{E-;#g{h{|>i{j{k{l{m{|!n{o{p{q{r{s{t{u{v{<&w{x{y{z{A{B{C{B{D{E{F{G{H{I{e&J{K{L{",
"M{N{O{P{Q{R{S{T{U{6)V{e,y=W{X{Y{Z{`{ ].]+]@]#]$]%]&]*]q~=]>=-];]>],]']0*)]!]l*~]{]]]^]@)/](]_]:]<][]}]|]1]2]#%3]4]5]6]7]8]9]0]a]",
"b]c]d]e]f]g]h]i]j]k]l]m]V$n]o]p]q]8{r]s]t]u]v]%]w]x]y]z]A]B]C]c,D]E]J&F]G]H]I]J]K]L]M]R&N]O]P]Q]R][]S]T]U]V]W]X]Y]Z]`] ^.^+^@^#^",
"$^%^&^*^=^-^;^>^X$,^X+'^)^!^T;~^{^]^^^/^5=(^_^:^<^[^}^|^1^2^9$3^4^5^_>6^7^8^9^0^a^b^c^d^e^f^g^h^i^j^k^l^V]f>m^n^o^p^q^r^s^t^u^%+",
"v^w^;&x^y^z^A^V+%,n]r@B^C^D^E^F^G^H^I^J^K^L^^]M^N^O^E,P^Q^L>R^S^T^U^D]V^W^%'X^Y^Z^`^ /./+/@/#/$/%/&/*/$==/-/ !(&;/>/,/'/)/!/Q)_*",
"~/{/]/^///(/4-b,w%_/:/</[/}/}/|/1/2/Z{3/;-5$4/F{5/6/7/8/9/0/a/b/c/d/e/f/g/h/i/j/k/l/m/G~n/o/p/q/r/s/t/u/v/w/x/y/z/A/B/C/D/E/F/G/",
"H/G&I/J/t.K/L/t*M/o^4]N/O/5>P/Q/R/S/T///U/V/W/X/Y/Z/`/ (.(+(@(#(a/5^$(%(&(*(=(-(;(>(,('()(!(~({(j^](G]^(/(((6-_(L]A':(<([(}()-|(",
"1(2(3(,!4(5(6(7(D=S&8(9(I,0(a(b(c(d(A/e(f(g(h(i(j(6{k(l(m(9/9$n(o(p(%,q(r(s(j@`/t(u(v(w(x(y(z(A(B(C(D(E(F(D=G(H(I(J(K(L(M(N(O(P(",
"b^Q(f&R(S(T(W]6-p-U(V(W(X(Y(Z(`( _._J*+_@_#_$_$_%_q>&_*_=_-_H#;_>_,_'_8{)_!_~_{_]_^_/_(___:_<_[_}_J&|_1_F(2_3_4_5_6_7_8_9_0_a_R*",
"b_c_d_e_I#f_g_h_i_j_k_l_m_n_o_p_q_r_s_t_n]u_v_w_x_y_z_>_A_B_K&C_D_b_r.E_F_G_H_v(I_J_K_L_M_N_O_P_J&Q_=/R_S_z%T_U_V_W_X_Y_Z_`_ :.:",
"+:@:#:|=$:%:&:*:=:`--:;:>:|^,: _':):!:>^@_~:{:]:^:/:(:.(_:::<:[:}:|:1:=_2:3:4:5:6:7:8:9:0:a:b:c:u;=/d:e:f:g:h:i:j:k:l:m:n:k#9@P(",
"o:p:q:r:%=2^s:U(t:u:v:w:x:S;y:z:A:W&B:C:X~D:E:F:G:H:I:J:K:L:M:N:O:P:Q:R:S:T:U:V:W:X:Y:Z:`: <.<+<@<#<$<%<&<4(*<=<-<;<><,<'<)<i#i#",
"!<~<{<!:T&{!]<j_^</<(<_<U/:<<<[<}<|<1<y/2<3<4<5<6<7<8<9<0<a<h_m(,^b<#=c<d<e<f<g<h<i<j<k<l<m<n<c*o<p<q<r<(/s<t<u<v<w<x<y<z<I A<i#",
"B<C<D<E<F<G<H<I<J<K<L<M<N<O<P<Q<s*R<S<O&v)T<@=U<V<W<X<Y<Z<`< ['^3-X+.[+[@[#[$[%[&[*[=[-[;[C'4{>[,[M/'[)[![l]~[{[][^[/[([_[:[<[[[",
"}[|[~!1[2[3[4[5[6[7[8[9[0[ <a[b[c[d[e[H~f[g[h[i[j[: k[l[m[|&n[o[p[q[/:r[s[t[u[v[w[x[F-y[j@z[z[A[B[C[D[T_E[F[G[H[I[J[K[L[M[N[O[q ",
"P[Q[R[k/B,+)S[T[U[V[W[X[Y[Z[`[Y+ }.}+}@})^#}$}%}&}*}=}-};}>},}'})}!}~}{}]}^}/}(}_}:}<}[}H>'_}}|}1}C[2}3}4}5}6}7}8}9}0}F+a}b}c}d}",
"e}f}g}Z^h}i}$_j}k}l}m}n}o}](p}q}</|<r}s}t}u}v}w}{^_'x}y}z}d&A}B}C}D}E}F}G}H}I}M#J}K}L}M}N}O}P}Q}R}D=S}T}U}V}W}X}Y}Z}`}v+ |.|z>n'",
"+|@|#|$|%|&|*|=|-|;|0~>|,|'|2<)|~!!|~|{|]|%,^|/|(|_|:|<|[|}|||1|2|3|4|5|6|7|8|9|0|a|b|S&c|d|e|f|m^g|N!h|i|j|k|l|m|n|o|q+p|q|r|s|",
"t|u|e,.['&v|w|x|y|z|A|B|,{C|D|W=E|F|G|H|I|J|K|L|M|N|O|P|Q|R|S|T|T|U|V|W|X|Y|Z|`| 1B[L&.1+1@1#1f_$1%1&1*1=1-1;1>1,1'1)1v+!1~1{1A<",
"]1^1r:/1W-(1_1:1<1[1}1W+|11121#=n!31415161J#@171819101a1b1c1d1e1f1g1p^H_h1i1H~j1k1W]l1m1n1L>o1p12_q1J*r1s1t1u1v1w1x1x>y1z1A1B1C1",
"D1q1E1i]^]F1G1H1I1J1K1H<L1M1N1O1P1Q1R1S1T1U1V1J#W1X1Y1Z1`1 2.2+2@2#2$2%2&2*2d*=2-/l1-2;2>2a*,2'2)2p*!2}$~2{2]2^2/2(2d;_2:2<2[2f ",
"L]/1r:}26~|21222324252l~6272829202a2b2c2c'd2e2V+f2g2h2i2j2k2l2m2.[c'M]n2o2p2q2r2+1s2n@0/t2u2v2w2F~x2y2z2A2B2C2D2E2 &F2G2H2I2J2d;",
"/1K2C-L2M2N2O2P2Q2R2*,D|S2T2U2>_A^V2W2X2Y2Z2`2 3.3+3J<@3#3$3%3&3X-g[*3^<>]=3-3q2H#;3e2>3,3R_'3)3!3~3{3]3^3/3(3a@_3:3<3[3}3|313-$",
"23c=3343536373839303z,5[a3b3c3d3e3f3g3h3q<j_i3(>j3K~k3l3m3q.n3K>o3p3q3r3-=s3t3d|%:>2u3=2v3w3x3y3z3A3B3C3D3E3F3G3H3I3J3K3L3M3N3O3",
"s&P3Q3R3S3T3U3V3p]W3X3Y3Z3`3 4.4O}+4@4#4r!n<Q^$4%4&4*4=4-4;4{/>4,4'4K~)@)4!4T&~4{4]4^4C[/4&](4_4:4<4[4}4|4142434R*44546474849404",
"=$a4b4c4d4e4f4g4h4i4j4@2Z3+3k4l4u/o{m4n4o4p4q4-3n%w;r4s4t4u4z{v4w4x4}>y4z4A4B4Z/C4E=*:}&D4E4F4G4H4I4J4K4L4M4) =$N4O41!P4Q4R4S4T4",
"U4V4W4X4Y4Z4g&`4 5U$.5+5@5#5$5%5W+4$&5%2*5=5-5^4Y-2];5.)>5u:,5'5)5!5~5{5]5^5/5(5q__5:5<5[5}5|51525354555657585$ 95r.05a5b5c5d5e5",
"f5g5h5X4i5j5k5l5m5n5o5p5>=q5r5s5*{t5u5v5w5*5x5-5y5z5A5X!{&B5C5D5~&E5F5O>G51(H5c'I5J51=K5L5h,M56,N5O5P5Q5R5S5O[T5U5V5W5X5Y5Z5`5 6",
".6+6@6#6$6%6&6*6=6-6+[;6-%>6,6'6)6c'.[!6~6{6]6^6m^s3X$/6(6_6:6<6o%[6 {}6}6K*|616I<26364656#!6676869606a6b6c6o|d6e6f6g6h6i6j6k6l6",
"m6n6o6p6q6r6s6t6u6v6w6x6c<y6z6A6B6C6D6+_E6F6G6H6I6=/J6(>K6Y-L6M6N69/.;s:O6O6P6|+Q6R6S6T6U6V6W6X6Y6Z6`6 7.7+7@7#7$7%7&7*7=7-7;7>7",
",7'7)7!7~7{7]7^7/7(7_7:7<7k/[7}7|79[t%q<l@1727374757q-t36777879707a7b7e2c7n@j3d7e7L]f7g7h7i7j7k7l7m7n7o7p7q7r7s7t7u7v7w7x7y7z7A7",
"B7E$C7D7E7F7G7H7I7J7K7>[L7G_M7^+N7O7P7Q7=-R7Y (!S7T747U7o1V7M6W7=/=/X7Y7Q^Z7H5`7Q+ 8.8+8@8#8$8%8&8*8=8-8;8>8S6,8'8)8!8~8{8]8B7B7",
"H E$^8/8(8_8:8<8[8}8|81828~6o;38485868A:T+788898|<08a8b8.;c8d8e8f8t3f>g85-h8T<,]h{T'i8j8k8l8m8n8o8p8q8r8s8t8u8v8w8x8y8z8A8B8C8B7",
"D8E8F8G8H8I8J8K8L8M8N8O8P8Q8O=R8S8T8U8V8W8X8L#%%b_Y8Z8Z8`8E= 9s:4-,2='d:6(e3.9A,U/o;+9@9#9$9%9&9*9=9-9;9>9,9'9)9!9~9{9]9^9/9(9B7",
"H _99.:9<9[9}9!)|919293949596979899909a9b9c9d9h[e9f9#;M}g9t*h9r-p@^;i9E(M&j9k9l9m9n9o9p9q9[;r9s9t9u9v9w9x9y9z929A9B9C9D9E9F9G9,$"};
