/* XPM */
static char * portal_rot11_xpm[] = {
"64 64 2835 2",
"  	c #0E0720",
". 	c #0E061F",
"+ 	c #0C051E",
"@ 	c #0D071F",
"# 	c #070417",
"$ 	c #070517",
"% 	c #07051A",
"& 	c #040311",
"* 	c #030311",
"= 	c #02020E",
"- 	c #060417",
"; 	c #09051A",
"> 	c #070414",
", 	c #04030F",
"' 	c #0D061B",
") 	c #170A2C",
"! 	c #210E42",
"~ 	c #1E0846",
"{ 	c #1F044F",
"] 	c #2B0556",
"^ 	c #280647",
"/ 	c #1E0531",
"( 	c #04030E",
"_ 	c #03020B",
": 	c #050311",
"< 	c #0B061C",
"[ 	c #100823",
"} 	c #180C2C",
"| 	c #1B0B31",
"1 	c #1D0A39",
"2 	c #200944",
"3 	c #2D095C",
"4 	c #400B74",
"5 	c #530C84",
"6 	c #580A87",
"7 	c #5E0988",
"8 	c #49047D",
"9 	c #3D0575",
"0 	c #270265",
"a 	c #200351",
"b 	c #0A0519",
"c 	c #050314",
"d 	c #040314",
"e 	c #040214",
"f 	c #040312",
"g 	c #070519",
"h 	c #09061B",
"i 	c #0A071E",
"j 	c #070518",
"k 	c #070416",
"l 	c #050413",
"m 	c #040412",
"n 	c #040414",
"o 	c #040313",
"p 	c #050412",
"q 	c #040411",
"r 	c #070413",
"s 	c #0B071A",
"t 	c #0A051A",
"u 	c #0B061B",
"v 	c #0D071E",
"w 	c #0E0721",
"x 	c #0E0621",
"y 	c #0D061F",
"z 	c #08061B",
"A 	c #100925",
"B 	c #0A051C",
"C 	c #11071C",
"D 	c #150922",
"E 	c #0A051B",
"F 	c #040310",
"G 	c #02020A",
"H 	c #060314",
"I 	c #1B0A38",
"J 	c #250B53",
"K 	c #210754",
"L 	c #1A0447",
"M 	c #170433",
"N 	c #04020E",
"O 	c #03020C",
"P 	c #080513",
"Q 	c #090515",
"R 	c #0D071C",
"S 	c #170B2C",
"T 	c #1E0E35",
"U 	c #220D3D",
"V 	c #240A46",
"W 	c #2D0955",
"X 	c #380767",
"Y 	c #4E0A87",
"Z 	c #4E0788",
"` 	c #4E047F",
" .	c #4E047A",
"..	c #4A0279",
"+.	c #3D0175",
"@.	c #300173",
"#.	c #2C0177",
"$.	c #3A0284",
"%.	c #460484",
"&.	c #2E035F",
"*.	c #16092B",
"=.	c #1B0C28",
"-.	c #1B0B27",
";.	c #180A24",
">.	c #12091F",
",.	c #1A0D2A",
"'.	c #1D0C31",
").	c #1F0B35",
"!.	c #1E0B33",
"~.	c #1C0A30",
"{.	c #150826",
"].	c #110A20",
"^.	c #040410",
"/.	c #080515",
"(.	c #0A0619",
"_.	c #100722",
":.	c #0C071C",
"<.	c #070513",
"[.	c #03030E",
"}.	c #080517",
"|.	c #0E0726",
"1.	c #180638",
"2.	c #0E0529",
"3.	c #02020D",
"4.	c #03020E",
"5.	c #070418",
"6.	c #160735",
"7.	c #210756",
"8.	c #1B0446",
"9.	c #120430",
"0.	c #050411",
"a.	c #0A0515",
"b.	c #1B0E2E",
"c.	c #200E39",
"d.	c #230C41",
"e.	c #29094F",
"f.	c #2C065C",
"g.	c #430978",
"h.	c #550D8B",
"i.	c #53078F",
"j.	c #4E028B",
"k.	c #420177",
"l.	c #2C015D",
"m.	c #2A0159",
"n.	c #2A0169",
"o.	c #310281",
"p.	c #310182",
"q.	c #35027D",
"r.	c #3C0282",
"s.	c #3C0180",
"t.	c #2B016B",
"u.	c #350B59",
"v.	c #340F4D",
"w.	c #2B0B4D",
"x.	c #2E0E50",
"y.	c #280E43",
"z.	c #250C40",
"A.	c #290B4A",
"B.	c #2A0A51",
"C.	c #200846",
"D.	c #16043D",
"E.	c #0E032F",
"F.	c #160928",
"G.	c #100920",
"H.	c #090617",
"I.	c #090517",
"J.	c #0C071B",
"K.	c #0D071D",
"L.	c #0B0718",
"M.	c #0E071B",
"N.	c #030310",
"O.	c #070515",
"P.	c #0E0722",
"Q.	c #0A0429",
"R.	c #280B4E",
"S.	c #160443",
"T.	c #100724",
"U.	c #13072D",
"V.	c #130535",
"W.	c #04020F",
"X.	c #0E071C",
"Y.	c #10081C",
"Z.	c #231237",
"`.	c #2F144F",
" +	c #310E5B",
".+	c #350A64",
"++	c #39066F",
"@+	c #3D0479",
"#+	c #480587",
"$+	c #570E8C",
"%+	c #400382",
"&+	c #3D0181",
"*+	c #34016B",
"=+	c #21014E",
"-+	c #1B014B",
";+	c #240164",
">+	c #2C0277",
",+	c #2A0172",
"'+	c #1B0058",
")+	c #280169",
"!+	c #37017D",
"~+	c #300172",
"{+	c #250160",
"]+	c #280263",
"^+	c #2B045B",
"/+	c #250759",
"(+	c #1C0651",
"_+	c #1E0551",
":+	c #1D054E",
"<+	c #1E0553",
"[+	c #240657",
"}+	c #2E0E5E",
"|+	c #24055A",
"1+	c #29113A",
"2+	c #0A061E",
"3+	c #0E0820",
"4+	c #080516",
"5+	c #0A0617",
"6+	c #070514",
"7+	c #03030F",
"8+	c #0A0518",
"9+	c #05031D",
"0+	c #3A0F63",
"a+	c #240746",
"b+	c #050312",
"c+	c #02020B",
"d+	c #02020C",
"e+	c #120923",
"f+	c #110724",
"g+	c #0D0719",
"h+	c #140A20",
"i+	c #1B0E29",
"j+	c #1F1032",
"k+	c #221039",
"l+	c #331752",
"m+	c #431772",
"n+	c #470E7C",
"o+	c #460A7F",
"p+	c #420584",
"q+	c #3C0383",
"r+	c #3D0481",
"s+	c #3C057E",
"t+	c #32017A",
"u+	c #3A017E",
"v+	c #33016A",
"w+	c #20014A",
"x+	c #1A0147",
"y+	c #1B0157",
"z+	c #1C0157",
"A+	c #18014C",
"B+	c #150144",
"C+	c #1E0157",
"D+	c #1F0159",
"E+	c #200157",
"F+	c #24015C",
"G+	c #310171",
"H+	c #310272",
"I+	c #24046A",
"J+	c #360D58",
"K+	c #14023B",
"L+	c #170146",
"M+	c #170153",
"N+	c #5A1288",
"O+	c #802C99",
"P+	c #56177B",
"Q+	c #351642",
"R+	c #140A28",
"S+	c #050417",
"T+	c #0A0516",
"U+	c #070512",
"V+	c #05030E",
"W+	c #050316",
"X+	c #080422",
"Y+	c #160537",
"Z+	c #3F1166",
"`+	c #190529",
" @	c #020209",
".@	c #03020D",
"+@	c #0C061B",
"@@	c #0D071B",
"#@	c #0F091D",
"$@	c #10091D",
"%@	c #130A22",
"&@	c #1C0E2A",
"*@	c #241335",
"=@	c #2C193E",
"-@	c #311553",
";@	c #3E1B62",
">@	c #4E1F7A",
",@	c #561F87",
"'@	c #571C8B",
")@	c #53128E",
"!@	c #46078E",
"~@	c #310280",
"{@	c #28017A",
"]@	c #29017D",
"^@	c #30017C",
"/@	c #36017A",
"(@	c #2C0160",
"_@	c #200146",
":@	c #1B0142",
"<@	c #1D0148",
"[@	c #1A0145",
"}@	c #17013F",
"|@	c #1F014E",
"1@	c #1F0156",
"2@	c #160147",
"3@	c #100139",
"4@	c #180147",
"5@	c #2E026B",
"6@	c #3C0381",
"7@	c #350477",
"8@	c #24045F",
"9@	c #260659",
"0@	c #1E0642",
"a@	c #120245",
"b@	c #2C036F",
"c@	c #4A0591",
"d@	c #531A79",
"e@	c #3D194A",
"f@	c #170A2B",
"g@	c #09051C",
"h@	c #070412",
"i@	c #080514",
"j@	c #070516",
"k@	c #060418",
"l@	c #0E0528",
"m@	c #19063A",
"n@	c #310C52",
"o@	c #10091E",
"p@	c #150A27",
"q@	c #1F1033",
"r@	c #281441",
"s@	c #321753",
"t@	c #3D1865",
"u@	c #471877",
"v@	c #64318E",
"w@	c #642893",
"x@	c #692994",
"y@	c #571B8B",
"z@	c #4D108B",
"A@	c #3C0585",
"B@	c #250171",
"C@	c #1B0167",
"D@	c #1F016B",
"E@	c #1E015E",
"F@	c #210155",
"G@	c #17013E",
"H@	c #150135",
"I@	c #19013D",
"J@	c #1F0145",
"K@	c #1D0146",
"L@	c #1E0147",
"M@	c #1F014B",
"N@	c #1A0146",
"O@	c #0F0136",
"P@	c #070127",
"Q@	c #0D0135",
"R@	c #260164",
"S@	c #3D0486",
"T@	c #320478",
"U@	c #20045C",
"V@	c #160442",
"W@	c #100720",
"X@	c #10053A",
"Y@	c #46077B",
"Z@	c #5B1F70",
"`@	c #36174A",
" #	c #1B0A32",
".#	c #060412",
"+#	c #090514",
"@#	c #09051B",
"##	c #14062F",
"$#	c #1F0547",
"%#	c #15042A",
"&#	c #060416",
"*#	c #0B051E",
"=#	c #120927",
"-#	c #190C31",
";#	c #2A1549",
">#	c #431D69",
",#	c #421476",
"'#	c #410E7A",
")#	c #57198A",
"!#	c #652293",
"~#	c #652193",
"{#	c #5C198D",
"]#	c #460A80",
"^#	c #35017B",
"/#	c #2C0179",
"(#	c #1D0164",
"_#	c #19015D",
":#	c #13014E",
"<#	c #0C0137",
"[#	c #0D0132",
"}#	c #0B012C",
"|#	c #0D012D",
"1#	c #12013B",
"2#	c #160140",
"3#	c #170142",
"4#	c #170141",
"5#	c #0F0130",
"6#	c #0A0126",
"7#	c #0A0129",
"8#	c #0F0139",
"9#	c #1F015B",
"0#	c #32017D",
"a#	c #340282",
"b#	c #280469",
"c#	c #18034B",
"d#	c #16053D",
"e#	c #120727",
"f#	c #0C051A",
"g#	c #0A0418",
"h#	c #2B0C3E",
"i#	c #270A40",
"j#	c #210C3A",
"k#	c #16092C",
"l#	c #060413",
"m#	c #180A34",
"n#	c #180739",
"o#	c #1A0343",
"p#	c #09051D",
"q#	c #0D0624",
"r#	c #13072A",
"s#	c #140A29",
"t#	c #32184A",
"u#	c #4C246D",
"v#	c #572487",
"w#	c #4A128A",
"x#	c #420484",
"y#	c #5B1590",
"z#	c #5D168F",
"A#	c #5C1190",
"B#	c #520B88",
"C#	c #3C047A",
"D#	c #2F0176",
"E#	c #290172",
"F#	c #1C0160",
"G#	c #140153",
"H#	c #0D013F",
"I#	c #090134",
"J#	c #0A0132",
"K#	c #07012B",
"L#	c #0B0136",
"M#	c #0E0142",
"N#	c #0F0142",
"O#	c #0F013A",
"P#	c #0D0131",
"Q#	c #0D012C",
"R#	c #090124",
"S#	c #090125",
"T#	c #0C012F",
"U#	c #0E0135",
"V#	c #150147",
"W#	c #190153",
"X#	c #270168",
"Y#	c #2C0271",
"Z#	c #28026C",
"`#	c #1D054F",
" $	c #11062C",
".$	c #0B0519",
"+$	c #09041D",
"@$	c #0C0424",
"#$	c #0A041C",
"$$	c #0C0321",
"%$	c #14082E",
"&$	c #1B0C35",
"*$	c #0B061D",
"=$	c #090618",
"-$	c #130A24",
";$	c #200E41",
">$	c #20094C",
",$	c #0A0226",
"'$	c #0D0720",
")$	c #1B0B34",
"!$	c #200C3F",
"~$	c #280E4C",
"{$	c #2F0E53",
"]$	c #34105A",
"^$	c #4F246C",
"/$	c #5C2686",
"($	c #5A1F91",
"_$	c #521093",
":$	c #4F0E8F",
"<$	c #510E8F",
"[$	c #500C8C",
"}$	c #4B0589",
"|$	c #440481",
"1$	c #2E0171",
"2$	c #2A0171",
"3$	c #200165",
"4$	c #160151",
"5$	c #0E013E",
"6$	c #090135",
"7$	c #070131",
"8$	c #090133",
"9$	c #0A0136",
"0$	c #0D013D",
"a$	c #12014C",
"b$	c #12014B",
"c$	c #0D0138",
"d$	c #080125",
"e$	c #05011B",
"f$	c #0A0124",
"g$	c #0D012F",
"h$	c #0E0131",
"i$	c #110137",
"j$	c #14013F",
"k$	c #1D014D",
"l$	c #26015E",
"m$	c #2B0168",
"n$	c #260757",
"o$	c #180835",
"p$	c #0C051D",
"q$	c #0B0424",
"r$	c #12052E",
"s$	c #1B0A2E",
"t$	c #170A24",
"u$	c #0E061B",
"v$	c #0B061E",
"w$	c #110823",
"x$	c #0B0517",
"y$	c #090516",
"z$	c #150A28",
"A$	c #260E4B",
"B$	c #1E064E",
"C$	c #130928",
"D$	c #270F42",
"E$	c #391760",
"F$	c #3E1373",
"G$	c #45117D",
"H$	c #4F108A",
"I$	c #4A1085",
"J$	c #511888",
"K$	c #561991",
"L$	c #5F2293",
"M$	c #642891",
"N$	c #491185",
"O$	c #37047A",
"P$	c #380279",
"Q$	c #3D027E",
"R$	c #360276",
"S$	c #250166",
"T$	c #1C0159",
"U$	c #15014A",
"V$	c #0A012C",
"W$	c #080124",
"X$	c #070124",
"Y$	c #0C0130",
"Z$	c #0E0139",
"`$	c #100141",
" %	c #100140",
".%	c #05011D",
"+%	c #050118",
"@%	c #090120",
"#%	c #0E0136",
"$%	c #160141",
"%%	c #240155",
"&%	c #25015A",
"*%	c #250357",
"=%	c #270A4C",
"-%	c #180A29",
";%	c #09031C",
">%	c #0C0329",
",%	c #380E4A",
"'%	c #310F44",
")%	c #200B32",
"!%	c #140920",
"~%	c #09061C",
"{%	c #060414",
"]%	c #09061A",
"^%	c #090519",
"/%	c #020107",
"(%	c #040212",
"_%	c #170739",
":%	c #110532",
"<%	c #0E071F",
"[%	c #1A0C2F",
"}%	c #2A1346",
"|%	c #3E1867",
"1%	c #491780",
"2%	c #470C8C",
"3%	c #4A078F",
"4%	c #3F0583",
"5%	c #3E0486",
"6%	c #420786",
"7%	c #4A0D86",
"8%	c #49157E",
"9%	c #350A6D",
"0%	c #170052",
"a%	c #22015C",
"b%	c #1F0158",
"c%	c #1B0150",
"d%	c #120140",
"e%	c #100133",
"f%	c #0F012F",
"g%	c #0D0129",
"h%	c #0D012B",
"i%	c #100131",
"j%	c #130135",
"k%	c #110131",
"l%	c #10012E",
"m%	c #0F0133",
"n%	c #0A012A",
"o%	c #070123",
"p%	c #0A0128",
"q%	c #120139",
"r%	c #160149",
"s%	c #18014E",
"t%	c #240160",
"u%	c #28016A",
"v%	c #220653",
"w%	c #1E093C",
"x%	c #0C032C",
"y%	c #130433",
"z%	c #24073A",
"A%	c #41104E",
"B%	c #320B42",
"C%	c #2C0B4D",
"D%	c #280C46",
"E%	c #1B0A2F",
"F%	c #160B25",
"G%	c #120824",
"H%	c #060415",
"I%	c #08051A",
"J%	c #110728",
"K%	c #0A061B",
"L%	c #140A25",
"M%	c #1F0F32",
"N%	c #2D1448",
"O%	c #4B1D6E",
"P%	c #571B87",
"Q%	c #531090",
"R%	c #4E088F",
"S%	c #460487",
"T%	c #340275",
"U%	c #35017A",
"V%	c #3B027A",
"W%	c #390477",
"X%	c #24025C",
"Y%	c #140148",
"Z%	c #130148",
"`%	c #110145",
" &	c #100142",
".&	c #0A012F",
"+&	c #0C0131",
"@&	c #120135",
"#&	c #130136",
"$&	c #110135",
"%&	c #120136",
"&&	c #120131",
"*&	c #150137",
"=&	c #170239",
"-&	c #13013D",
";&	c #140141",
">&	c #1A0154",
",&	c #1E0162",
"'&	c #26016E",
")&	c #280172",
"!&	c #22016D",
"~&	c #1F0557",
"{&	c #1B0546",
"]&	c #11033B",
"^&	c #160538",
"/&	c #1E0739",
"(&	c #1F0735",
"_&	c #21052E",
":&	c #30093A",
"<&	c #2F0850",
"[&	c #270A52",
"}&	c #260C46",
"|&	c #240C3D",
"1&	c #220C3B",
"2&	c #150827",
"3&	c #0E071E",
"4&	c #140A26",
"5&	c #1D0E30",
"6&	c #2A143F",
"7&	c #361657",
"8&	c #471A6D",
"9&	c #63238B",
"0&	c #6D2695",
"a&	c #621890",
"b&	c #460787",
"c&	c #430583",
"d&	c #320274",
"e&	c #2F0170",
"f&	c #330172",
"g&	c #350173",
"h&	c #340170",
"i&	c #2E0169",
"j&	c #210157",
"k&	c #150146",
"l&	c #130147",
"m&	c #110146",
"n&	c #100144",
"o&	c #0C013A",
"p&	c #0C0136",
"q&	c #0D0137",
"r&	c #120137",
"s&	c #0E0138",
"t&	c #12014A",
"u&	c #14014F",
"v&	c #14014B",
"w&	c #18014A",
"x&	c #1D014B",
"y&	c #1C014B",
"z&	c #190146",
"A&	c #0C012C",
"B&	c #0F0134",
"C&	c #1B0153",
"D&	c #2A0275",
"E&	c #2B017A",
"F&	c #24016F",
"G&	c #1C0351",
"H&	c #180542",
"I&	c #150539",
"J&	c #1B0735",
"K&	c #1E0733",
"L&	c #190528",
"M&	c #0A0216",
"N&	c #42133D",
"O&	c #5D1D53",
"P&	c #40124E",
"Q&	c #1F064F",
"R&	c #21074C",
"S&	c #270A4E",
"T&	c #260A4A",
"U&	c #1E0A3B",
"V&	c #050414",
"W&	c #01020A",
"X&	c #160A28",
"Y&	c #200F33",
"Z&	c #34154D",
"`&	c #461C64",
" *	c #4E1580",
".*	c #57198B",
"+*	c #6B2893",
"@*	c #63238E",
"#*	c #461081",
"$*	c #32027A",
"%*	c #300179",
"&*	c #27016A",
"**	c #280166",
"=*	c #280164",
"-*	c #2D0169",
";*	c #270162",
">*	c #21015B",
",*	c #1D0158",
"'*	c #190152",
")*	c #16014D",
"!*	c #0E0132",
"~*	c #0F0131",
"{*	c #100135",
"]*	c #180156",
"^*	c #1B0164",
"/*	c #180161",
"(*	c #23016E",
"_*	c #230163",
":*	c #190148",
"<*	c #120138",
"[*	c #13013A",
"}*	c #1E014F",
"|*	c #280269",
"1*	c #2B0176",
"2*	c #21016D",
"3*	c #1B0160",
"4*	c #160831",
"5*	c #15072B",
"6*	c #160628",
"7*	c #140524",
"8*	c #28102F",
"9*	c #3C183B",
"0*	c #4F1C47",
"a*	c #571C4D",
"b*	c #451341",
"c*	c #0E012F",
"d*	c #1A0348",
"e*	c #1C0452",
"f*	c #230753",
"g*	c #20074A",
"h*	c #260E40",
"i*	c #391359",
"j*	c #521D74",
"k*	c #612388",
"l*	c #591492",
"m*	c #510993",
"n*	c #5D1A91",
"o*	c #420784",
"p*	c #28026A",
"q*	c #25016A",
"r*	c #230164",
"s*	c #21015F",
"t*	c #220160",
"u*	c #230162",
"v*	c #1C0158",
"w*	c #200161",
"x*	c #1B0155",
"y*	c #1B0156",
"z*	c #1A0150",
"A*	c #140144",
"B*	c #0A012B",
"C*	c #080127",
"D*	c #090128",
"E*	c #0C012E",
"F*	c #0E0134",
"G*	c #140140",
"H*	c #21015D",
"I*	c #25016D",
"J*	c #270172",
"K*	c #30027E",
"L*	c #390387",
"M*	c #31027A",
"N*	c #16013D",
"O*	c #210153",
"P*	c #290161",
"Q*	c #250173",
"R*	c #200464",
"S*	c #1B083F",
"T*	c #16092A",
"U*	c #120623",
"V*	c #0D041F",
"W*	c #150727",
"X*	c #3D1F44",
"Y*	c #4E244C",
"Z*	c #491D45",
"`*	c #381134",
" =	c #320A35",
".=	c #270442",
"+=	c #1C024C",
"@=	c #310564",
"#=	c #53137D",
"$=	c #4A176E",
"%=	c #120627",
"&=	c #36105E",
"*=	c #3E106E",
"==	c #5B1B8B",
"-=	c #5B1691",
";=	c #571192",
">=	c #540B90",
",=	c #4F098B",
"'=	c #380278",
")=	c #1C0150",
"!=	c #1D014F",
"~=	c #1F0151",
"{=	c #200153",
"]=	c #24015A",
"^=	c #220156",
"/=	c #1E0153",
"(=	c #1E0151",
"_=	c #1A0149",
":=	c #13013C",
"<=	c #0B0128",
"[=	c #080123",
"}=	c #07011F",
"|=	c #070120",
"1=	c #09012B",
"2=	c #0A0134",
"3=	c #0C0139",
"4=	c #0D013B",
"5=	c #1E0154",
"6=	c #28026B",
"7=	c #350376",
"8=	c #410783",
"9=	c #3D0684",
"0=	c #1E0159",
"a=	c #1E014C",
"b=	c #1B0147",
"c=	c #1F0152",
"d=	c #26015F",
"e=	c #270166",
"f=	c #260171",
"g=	c #230560",
"h=	c #1D0B3D",
"i=	c #140826",
"j=	c #12052B",
"k=	c #1A0937",
"l=	c #24113D",
"m=	c #311840",
"n=	c #3D1B40",
"o=	c #2A0F2C",
"p=	c #0F021E",
"q=	c #1C0429",
"r=	c #40104B",
"s=	c #27054C",
"t=	c #270266",
"u=	c #5B178B",
"v=	c #6A218B",
"w=	c #010105",
"x=	c #1C0742",
"y=	c #2C0A61",
"z=	c #380A76",
"A=	c #4D0D8B",
"B=	c #550E92",
"C=	c #580F91",
"D=	c #5C128F",
"E=	c #520989",
"F=	c #42047A",
"G=	c #2C0163",
"H=	c #1F014F",
"I=	c #1B0146",
"J=	c #180141",
"K=	c #17013D",
"L=	c #18013E",
"M=	c #18013C",
"N=	c #140137",
"O=	c #150138",
"P=	c #160138",
"Q=	c #0C0129",
"R=	c #10013E",
"S=	c #0E0145",
"T=	c #0D0143",
"U=	c #0F0143",
"V=	c #1F0157",
"W=	c #2C045D",
"X=	c #400A72",
"Y=	c #4D0E82",
"Z=	c #350476",
"`=	c #220169",
" -	c #1B014D",
".-	c #1D014E",
"+-	c #240163",
"@-	c #2B0171",
"#-	c #2B0271",
"$-	c #230558",
"%-	c #1B0A35",
"&-	c #170637",
"*-	c #1C0746",
"=-	c #220C4A",
"--	c #220E42",
";-	c #170726",
">-	c #130424",
",-	c #1B052F",
"'-	c #210738",
")-	c #2C0A42",
"!-	c #260749",
"~-	c #25026A",
"{-	c #4F0790",
"]-	c #53197A",
"^-	c #050410",
"/-	c #010107",
"(-	c #06041C",
"_-	c #1A044F",
":-	c #220369",
"<-	c #2E0379",
"[-	c #440589",
"}-	c #480787",
"|-	c #440780",
"1-	c #42077C",
"2-	c #420479",
"3-	c #350269",
"4-	c #260157",
"5-	c #1F014A",
"6-	c #17013C",
"7-	c #120134",
"8-	c #0E012B",
"9-	c #140138",
"0-	c #1B0144",
"a-	c #160144",
"b-	c #18014D",
"c-	c #19014D",
"d-	c #260165",
"e-	c #130150",
"f-	c #12014D",
"g-	c #12014E",
"h-	c #1B0154",
"i-	c #1B0149",
"j-	c #32075C",
"k-	c #420A72",
"l-	c #3F077D",
"m-	c #32027B",
"n-	c #28016F",
"o-	c #230160",
"p-	c #2B0175",
"q-	c #2C0175",
"r-	c #220554",
"s-	c #1E0455",
"t-	c #200555",
"u-	c #1D0847",
"v-	c #160732",
"w-	c #0D031F",
"x-	c #120427",
"y-	c #1B0732",
"z-	c #1D0738",
"A-	c #170535",
"B-	c #150434",
"C-	c #110331",
"D-	c #410E62",
"E-	c #57177E",
"F-	c #501C65",
"G-	c #050310",
"H-	c #020108",
"I-	c #0C0236",
"J-	c #180157",
"K-	c #1F016A",
"L-	c #2A0176",
"M-	c #310177",
"N-	c #31026E",
"O-	c #25015F",
"P-	c #23015B",
"Q-	c #1E0152",
"R-	c #190141",
"S-	c #18013D",
"T-	c #140139",
"U-	c #110138",
"V-	c #180143",
"W-	c #14013C",
"X-	c #0E0133",
"Y-	c #170145",
"Z-	c #220158",
"`-	c #2C0169",
" ;	c #310175",
".;	c #300176",
"+;	c #35017E",
"@;	c #3D0282",
"#;	c #46038A",
"$;	c #3E0286",
"%;	c #310173",
"&;	c #220163",
"*;	c #1A0157",
"=;	c #180153",
"-;	c #1F024A",
";;	c #2D0559",
">;	c #3D0771",
",;	c #450685",
"';	c #380280",
");	c #2E0175",
"!;	c #260169",
"~;	c #27016C",
"{;	c #1C0254",
"];	c #1B0257",
"^;	c #1F035C",
"/;	c #1B0549",
"(;	c #150731",
"_;	c #120728",
":;	c #160631",
"<;	c #170539",
"[;	c #140435",
"};	c #0B0328",
"|;	c #0B0325",
"1;	c #0D0327",
"2;	c #310B45",
"3;	c #4F186A",
"4;	c #3E135A",
"5;	c #110148",
"6;	c #1A015D",
"7;	c #22016A",
"8;	c #1F0155",
"9;	c #150142",
"0;	c #10013C",
"a;	c #190151",
"b;	c #1B0151",
"c;	c #17014A",
"d;	c #17014C",
"e;	c #1A0152",
"f;	c #22015F",
"g;	c #250164",
"h;	c #31016D",
"i;	c #39017A",
"j;	c #420188",
"k;	c #4F028F",
"l;	c #53048F",
"m;	c #5C0594",
"n;	c #5A0492",
"o;	c #4F028B",
"p;	c #410183",
"q;	c #22015E",
"r;	c #1B015C",
"s;	c #190160",
"t;	c #17015B",
"u;	c #140151",
"v;	c #1A014E",
"w;	c #360567",
"x;	c #4C097E",
"y;	c #460584",
"z;	c #37027E",
"A;	c #2D0171",
"B;	c #26015D",
"C;	c #22015D",
"D;	c #150141",
"E;	c #170242",
"F;	c #1C0546",
"G;	c #1C0A35",
"H;	c #1B0A31",
"I;	c #190B2F",
"J;	c #180836",
"K;	c #170542",
"L;	c #170441",
"M;	c #130437",
"N;	c #110527",
"O;	c #100522",
"P;	c #0B0418",
"Q;	c #110521",
"R;	c #1F0635",
"S;	c #290A46",
"T;	c #10033D",
"U;	c #1C015C",
"V;	c #1F0164",
"W;	c #26016D",
"X;	c #2A016D",
"Y;	c #170143",
"Z;	c #0F0135",
"`;	c #12013F",
" >	c #170149",
".>	c #1A014F",
"+>	c #19014C",
"@>	c #24016A",
"#>	c #410282",
"$>	c #490287",
"%>	c #4A0288",
"&>	c #4B0287",
"*>	c #4A0283",
"=>	c #490283",
"->	c #54038A",
";>	c #5C048F",
">>	c #5F0591",
",>	c #450287",
"'>	c #2F0175",
")>	c #280170",
"!>	c #260178",
"~>	c #200173",
"{>	c #1D016C",
"]>	c #1F0169",
"^>	c #35046C",
"/>	c #4F0C7A",
"(>	c #520A85",
"_>	c #3D0380",
":>	c #2D0170",
"<>	c #240157",
"[>	c #210151",
"}>	c #1F0154",
"|>	c #16023B",
"1>	c #1C0442",
"2>	c #1D0645",
"3>	c #1F074A",
"4>	c #2C075D",
"5>	c #2E0566",
"6>	c #25045D",
"7>	c #240653",
"8>	c #240949",
"9>	c #240E3E",
"0>	c #1F0942",
"a>	c #16082C",
"b>	c #120724",
"c>	c #0E061C",
"d>	c #190734",
"e>	c #210262",
"f>	c #280171",
"g>	c #270165",
"h>	c #230158",
"i>	c #100138",
"j>	c #11013B",
"k>	c #170144",
"l>	c #11013D",
"m>	c #130149",
"n>	c #180155",
"o>	c #21016A",
"p>	c #3D028A",
"q>	c #43028C",
"r>	c #48028A",
"s>	c #4B0289",
"t>	c #470185",
"u>	c #42017E",
"v>	c #3D017A",
"w>	c #40027E",
"x>	c #3F0180",
"y>	c #520588",
"z>	c #4E058D",
"A>	c #520791",
"B>	c #4E078E",
"C>	c #3B0383",
"D>	c #2B017B",
"E>	c #240177",
"F>	c #270179",
"G>	c #310376",
"H>	c #4D0F77",
"I>	c #621785",
"J>	c #4B0887",
"K>	c #330174",
"L>	c #240152",
"M>	c #1C014C",
"N>	c #14013E",
"O>	c #130139",
"P>	c #160142",
"Q>	c #18024B",
"R>	c #2F0273",
"S>	c #3F0286",
"T>	c #480489",
"U>	c #41057A",
"V>	c #300667",
"W>	c #290765",
"X>	c #280667",
"Y>	c #1F0655",
"Z>	c #170836",
"`>	c #140924",
" ,	c #0F0624",
".,	c #180245",
"+,	c #28016D",
"@,	c #27016D",
"#,	c #240162",
"$,	c #190145",
"%,	c #100130",
"&,	c #0F012D",
"*,	c #15013D",
"=,	c #150145",
"-,	c #120152",
";,	c #170160",
">,	c #220172",
",,	c #270176",
"',	c #2C017A",
"),	c #370184",
"!,	c #390186",
"~,	c #3E0187",
"{,	c #3A0182",
"],	c #400185",
"^,	c #450485",
"/,	c #4F0589",
"(,	c #52068C",
"_,	c #50078E",
":,	c #49058A",
"<,	c #450487",
"[,	c #4C058B",
"},	c #540991",
"|,	c #560A94",
"1,	c #44048B",
"2,	c #340284",
"3,	c #2F017D",
"4,	c #270174",
"5,	c #280177",
"6,	c #35037A",
"7,	c #4D0E76",
"8,	c #61187F",
"9,	c #550F88",
"0,	c #3A017C",
"a,	c #2C0156",
"b,	c #1F0142",
"c,	c #130140",
"d,	c #14014D",
"e,	c #18015F",
"f,	c #2E0179",
"g,	c #46028D",
"h,	c #530591",
"i,	c #48038B",
"j,	c #2C0076",
"k,	c #2F027F",
"l,	c #240560",
"m,	c #1C0844",
"n,	c #1C0B39",
"o,	c #140827",
"p,	c #31026A",
"q,	c #2E016E",
"r,	c #170147",
"s,	c #0A0127",
"t,	c #07011E",
"u,	c #0C0128",
"v,	c #160155",
"w,	c #1E016E",
"x,	c #1F0171",
"y,	c #250179",
"z,	c #280178",
"A,	c #23016D",
"B,	c #240171",
"C,	c #3D018B",
"D,	c #4E0490",
"E,	c #51058F",
"F,	c #4B048E",
"G,	c #4F0594",
"H,	c #510791",
"I,	c #5C0D92",
"J,	c #540C8E",
"K,	c #4D0889",
"L,	c #4B0686",
"M,	c #3C037B",
"N,	c #410380",
"O,	c #47048A",
"P,	c #42038A",
"Q,	c #370282",
"R,	c #32017C",
"S,	c #27026F",
"T,	c #3C077B",
"U,	c #520E7A",
"V,	c #5D127D",
"W,	c #5A0E8B",
"X,	c #490480",
"Y,	c #350160",
"Z,	c #26014E",
"`,	c #110147",
" '	c #160159",
".'	c #430289",
"+'	c #4C0490",
"@'	c #3F0285",
"#'	c #33017B",
"$'	c #35017F",
"%'	c #360580",
"&'	c #2F0C61",
"*'	c #1F0846",
"='	c #220B48",
"-'	c #210C39",
";'	c #32016E",
">'	c #270160",
",'	c #280162",
"''	c #15013B",
")'	c #0B0127",
"!'	c #0E012C",
"~'	c #110134",
"{'	c #0F013B",
"]'	c #1B0163",
"^'	c #27017C",
"/'	c #240176",
"('	c #1E016D",
"_'	c #1E016C",
":'	c #220171",
"<'	c #230170",
"['	c #46038F",
"}'	c #570693",
"|'	c #50078B",
"1'	c #3A0286",
"2'	c #39027F",
"3'	c #36027B",
"4'	c #370476",
"5'	c #310471",
"6'	c #2E0271",
"7'	c #25016C",
"8'	c #2A0170",
"9'	c #350176",
"0'	c #400283",
"a'	c #290169",
"b'	c #240168",
"c'	c #340572",
"d'	c #4A0A79",
"e'	c #4B0778",
"f'	c #520787",
"g'	c #4F0284",
"h'	c #3D0160",
"i'	c #2B0159",
"j'	c #0E0141",
"k'	c #300178",
"l'	c #3A0282",
"m'	c #33017C",
"n'	c #44028B",
"o'	c #370A6E",
"p'	c #2F0C58",
"q'	c #250A4E",
"r'	c #290D48",
"s'	c #1A014C",
"t'	c #0E013D",
"u'	c #170159",
"v'	c #1C0164",
"w'	c #1E016B",
"x'	c #200172",
"y'	c #180165",
"z'	c #200171",
"A'	c #2B0178",
"B'	c #390282",
"C'	c #430388",
"D'	c #350271",
"E'	c #23015A",
"F'	c #1F015A",
"G'	c #210164",
"H'	c #19014A",
"I'	c #23016F",
"J'	c #3C0882",
"K'	c #430777",
"L'	c #440479",
"M'	c #460385",
"N'	c #44027A",
"O'	c #370161",
"P'	c #28015B",
"Q'	c #1A0153",
"R'	c #0B012E",
"S'	c #0B0126",
"T'	c #0B0130",
"U'	c #100147",
"V'	c #13014A",
"W'	c #1C015E",
"X'	c #210169",
"Y'	c #450382",
"Z'	c #540590",
"`'	c #4D018E",
" )	c #3E047A",
".)	c #420677",
"+)	c #2F0764",
"@)	c #290A52",
"#)	c #0F0132",
"$)	c #0B012B",
"%)	c #0F013F",
"&)	c #1C0167",
"*)	c #230173",
"=)	c #1E0168",
"-)	c #1D016D",
";)	c #21027C",
">)	c #1C0170",
",)	c #1B0168",
"')	c #250176",
"))	c #290177",
"!)	c #2D0179",
"~)	c #350270",
"{)	c #23015D",
"])	c #220157",
"^)	c #1B0148",
"/)	c #1A0142",
"()	c #1A0140",
"_)	c #180146",
":)	c #1F0163",
"<)	c #1F0160",
"[)	c #160146",
"})	c #140142",
"|)	c #240268",
"1)	c #370580",
"2)	c #3A0476",
"3)	c #3B0175",
"4)	c #3C0184",
"5)	c #35016D",
"6)	c #2D0154",
"7)	c #0C0135",
"8)	c #260179",
"9)	c #210163",
"0)	c #360170",
"a)	c #5E0D8B",
"b)	c #620A91",
"c)	c #510487",
"d)	c #3E017E",
"e)	c #38017A",
"f)	c #2C036B",
"g)	c #20055A",
"h)	c #25015E",
"i)	c #0E013C",
"j)	c #0E013A",
"k)	c #18015A",
"l)	c #200270",
"m)	c #210171",
"n)	c #1F016D",
"o)	c #1D016B",
"p)	c #1F0179",
"q)	c #22027F",
"r)	c #190168",
"s)	c #1E0169",
"t)	c #260170",
"u)	c #2E0177",
"v)	c #19014E",
"w)	c #1B014F",
"x)	c #1B014A",
"y)	c #12013D",
"z)	c #0D0139",
"A)	c #11014A",
"B)	c #120153",
"C)	c #170157",
"D)	c #120147",
"E)	c #100137",
"F)	c #11013C",
"G)	c #1D0262",
"H)	c #34047E",
"I)	c #330271",
"J)	c #340172",
"K)	c #37017A",
"L)	c #34016A",
"M)	c #2B0152",
"N)	c #1B014E",
"O)	c #0A012E",
"P)	c #1A0163",
"Q)	c #460779",
"R)	c #661292",
"S)	c #600B92",
"T)	c #460282",
"U)	c #2C016F",
"V)	c #20015B",
"W)	c #19024F",
"X)	c #0F0148",
"Y)	c #130156",
"Z)	c #180162",
"`)	c #1C0168",
" !	c #1D0160",
".!	c #160154",
"+!	c #1B016A",
"@!	c #1F017A",
"#!	c #1A0161",
"$!	c #200166",
"%!	c #27016B",
"&!	c #120155",
"*!	c #110155",
"=!	c #120154",
"-!	c #1B0263",
";!	c #150154",
">!	c #0A0135",
",!	c #0E0137",
"'!	c #16014B",
")!	c #130142",
"!!	c #240169",
"~!	c #32027F",
"{!	c #2D016A",
"]!	c #360176",
"^!	c #340163",
"/!	c #25014F",
"(!	c #0D0134",
"_!	c #0B0134",
":!	c #19015E",
"<!	c #180164",
"[!	c #20015C",
"}!	c #450A7C",
"|!	c #5B1190",
"1!	c #530A8F",
"2!	c #470389",
"3!	c #3B0282",
"4!	c #120142",
"5!	c #0E0146",
"6!	c #0F014A",
"7!	c #110152",
"8!	c #170264",
"9!	c #1D0273",
"0!	c #20027A",
"a!	c #270171",
"b!	c #1E015B",
"c!	c #16014E",
"d!	c #170161",
"e!	c #150153",
"f!	c #210168",
"g!	c #1D0153",
"h!	c #10013D",
"i!	c #110140",
"j!	c #0A013D",
"k!	c #12014F",
"l!	c #190163",
"m!	c #14014A",
"n!	c #110142",
"o!	c #120145",
"p!	c #100148",
"q!	c #0F0138",
"r!	c #320178",
"s!	c #390276",
"t!	c #3C0278",
"u!	c #390173",
"v!	c #300158",
"w!	c #190143",
"x!	c #0E013B",
"y!	c #160157",
"z!	c #190165",
"A!	c #250265",
"B!	c #400A7E",
"C!	c #581792",
"D!	c #601E94",
"E!	c #581392",
"F!	c #410489",
"G!	c #28016B",
"H!	c #170148",
"I!	c #100136",
"J!	c #120149",
"K!	c #15015F",
"L!	c #1A0170",
"M!	c #200280",
"N!	c #250284",
"O!	c #23027A",
"P!	c #1D0156",
"Q!	c #13014F",
"R!	c #190164",
"S!	c #19015F",
"T!	c #0E0147",
"U!	c #150148",
"V!	c #1C014F",
"W!	c #0D0130",
"X!	c #06011E",
"Y!	c #05011C",
"Z!	c #070126",
"`!	c #390178",
" ~	c #4A037F",
".~	c #43027C",
"+~	c #390169",
"@~	c #27014F",
"#~	c #0A0131",
"$~	c #0B0131",
"%~	c #1B0169",
"&~	c #19015C",
"*~	c #2F0277",
"=~	c #3D0783",
"-~	c #51138F",
";~	c #5C1794",
">~	c #5A1591",
",~	c #3E0487",
"'~	c #28015E",
")~	c #170155",
"!~	c #1E0176",
"~~	c #260389",
"{~	c #28028B",
"]~	c #270280",
"^~	c #20016A",
"/~	c #140145",
"(~	c #140154",
"_~	c #1E015F",
":~	c #1D014A",
"<~	c #12013A",
"[~	c #0F013D",
"}~	c #110149",
"|~	c #120158",
"1~	c #14015D",
"2~	c #16015B",
"3~	c #160139",
"4~	c #040117",
"5~	c #030112",
"6~	c #030111",
"7~	c #040118",
"8~	c #070125",
"9~	c #0A0130",
"0~	c #12013C",
"a~	c #2A0264",
"b~	c #460576",
"c~	c #550580",
"d~	c #490276",
"e~	c #32015E",
"f~	c #1B0162",
"g~	c #1A016C",
"h~	c #17015E",
"i~	c #2A0175",
"j~	c #48078C",
"k~	c #530F93",
"l~	c #490B8B",
"m~	c #390281",
"n~	c #310172",
"o~	c #2F0169",
"p~	c #1C0166",
"q~	c #23027E",
"r~	c #28038A",
"s~	c #28028C",
"t~	c #260281",
"u~	c #240170",
"v~	c #160148",
"w~	c #120144",
"x~	c #0F0145",
"y~	c #1B0159",
"z~	c #23015E",
"A~	c #280159",
"B~	c #25014C",
"C~	c #19013E",
"D~	c #0E013F",
"E~	c #170164",
"F~	c #1E0172",
"G~	c #1D016E",
"H~	c #1E015C",
"I~	c #1C0147",
"J~	c #0C012B",
"K~	c #030110",
"L~	c #01010A",
"M~	c #02010A",
"N~	c #030114",
"O~	c #06011F",
"P~	c #080129",
"Q~	c #090131",
"R~	c #0C0133",
"S~	c #2F045E",
"T~	c #530A7A",
"U~	c #530579",
"V~	c #41026A",
"W~	c #1B016C",
"X~	c #0F0149",
"Y~	c #13014C",
"Z~	c #170156",
"`~	c #1A015C",
" {	c #420586",
".{	c #4A0890",
"+{	c #390287",
"@{	c #35017D",
"#{	c #2C0166",
"${	c #250165",
"%{	c #290387",
"&{	c #340590",
"*{	c #2F0386",
"={	c #1E025B",
"-{	c #170249",
";{	c #10023F",
">{	c #190155",
",{	c #2A0155",
"'{	c #220147",
"){	c #15013C",
"!{	c #21017C",
"~{	c #280184",
"{{	c #2B0177",
"]{	c #260158",
"^{	c #14013A",
"/{	c #05011A",
"({	c #02010E",
"_{	c #02010C",
":{	c #040116",
"<{	c #220153",
"[{	c #2F0265",
"}{	c #3F0570",
"|{	c #4F0777",
"1{	c #3B0264",
"2{	c #2C0159",
"3{	c #180148",
"4{	c #130141",
"5{	c #150143",
"6{	c #20026D",
"7{	c #1A026D",
"8{	c #0E014A",
"9{	c #1A015A",
"0{	c #32027C",
"a{	c #3A0287",
"b{	c #340182",
"c{	c #2C0172",
"d{	c #270163",
"e{	c #2C0286",
"f{	c #38058E",
"g{	c #440892",
"h{	c #420588",
"i{	c #250262",
"j{	c #140146",
"k{	c #200151",
"l{	c #2C015C",
"m{	c #280151",
"n{	c #0F0137",
"o{	c #25017A",
"p{	c #2F0287",
"q{	c #330284",
"r{	c #300170",
"s{	c #24014F",
"t{	c #170140",
"u{	c #13013F",
"v{	c #1D0152",
"w{	c #2C026D",
"x{	c #3E0473",
"y{	c #340264",
"z{	c #260155",
"A{	c #1A014A",
"B{	c #14013B",
"C{	c #2B0279",
"D{	c #240373",
"E{	c #160255",
"F{	c #0A013A",
"G{	c #0B013B",
"H{	c #13014D",
"I{	c #170151",
"J{	c #310274",
"K{	c #3D0287",
"L{	c #33027A",
"M{	c #53108B",
"N{	c #360292",
"O{	c #3D0493",
"P{	c #450590",
"Q{	c #39037A",
"R{	c #210253",
"S{	c #0B013A",
"T{	c #16014C",
"U{	c #230153",
"V{	c #290156",
"W{	c #200148",
"X{	c #130146",
"Y{	c #23016B",
"Z{	c #31028B",
"`{	c #3D038F",
" ]	c #2C0161",
".]	c #190142",
"+]	c #17013A",
"@]	c #22014E",
"#]	c #120133",
"$]	c #070121",
"%]	c #17014E",
"&]	c #300278",
"*]	c #350278",
"=]	c #310268",
"-]	c #16004F",
";]	c #160145",
">]	c #14013D",
",]	c #1E0150",
"']	c #23026D",
")]	c #17025A",
"!]	c #0C013D",
"~]	c #090132",
"{]	c #0B013D",
"]]	c #120151",
"^]	c #210162",
"/]	c #4D048E",
"(]	c #440385",
"_]	c #2F017F",
":]	c #360288",
"<]	c #570E92",
"[]	c #360291",
"}]	c #35028C",
"|]	c #350184",
"1]	c #21015A",
"2]	c #1F0153",
"3]	c #260154",
"4]	c #210145",
"5]	c #140134",
"6]	c #17014D",
"7]	c #39028C",
"8]	c #40028B",
"9]	c #3A0174",
"0]	c #250157",
"a]	c #1A013D",
"b]	c #290157",
"c]	c #240151",
"d]	c #11013E",
"e]	c #1B015A",
"f]	c #250169",
"g]	c #380281",
"h]	c #240263",
"i]	c #21015C",
"j]	c #2C016C",
"k]	c #2F017B",
"l]	c #170158",
"m]	c #0E0140",
"n]	c #0A013B",
"o]	c #0E014C",
"p]	c #14015E",
"q]	c #230169",
"r]	c #28016E",
"s]	c #380179",
"t]	c #4B028B",
"u]	c #540591",
"v]	c #4F0491",
"w]	c #46048F",
"x]	c #4A0987",
"y]	c #2D0186",
"z]	c #280179",
"A]	c #200164",
"B]	c #0E0144",
"C]	c #130253",
"D]	c #190264",
"E]	c #250163",
"F]	c #2C015F",
"G]	c #25014B",
"H]	c #1A0137",
"I]	c #3C0287",
"J]	c #330286",
"K]	c #450388",
"L]	c #410277",
"M]	c #28015A",
"N]	c #1E0142",
"O]	c #1F0146",
"P]	c #1E0148",
"Q]	c #1C0148",
"R]	c #1F015F",
"S]	c #23015F",
"T]	c #220159",
"U]	c #1A014B",
"V]	c #210152",
"W]	c #240158",
"X]	c #20014F",
"Y]	c #190144",
"Z]	c #2D025C",
"`]	c #370271",
" ^	c #270275",
".^	c #0E0150",
"+^	c #150163",
"@^	c #160160",
"#^	c #360179",
"$^	c #4A0287",
"%^	c #590590",
"&^	c #5F0794",
"*^	c #570592",
"=^	c #480A79",
"-^	c #26017A",
";^	c #150152",
">^	c #130255",
",^	c #170261",
"'^	c #120252",
")^	c #0B0139",
"!^	c #290167",
"~^	c #2D0158",
"{^	c #21013D",
"]^	c #0F0129",
"^^	c #230166",
"/^	c #280176",
"(^	c #32017F",
"_^	c #4D048B",
":^	c #500483",
"<^	c #2C0164",
"[^	c #160143",
"}^	c #210154",
"|^	c #23014E",
"1^	c #270152",
"2^	c #280155",
"3^	c #270155",
"4^	c #240153",
"5^	c #270158",
"6^	c #310167",
"7^	c #3D0286",
"8^	c #30027B",
"9^	c #1E0167",
"0^	c #140157",
"a^	c #0C0140",
"b^	c #0B013E",
"c^	c #0B0144",
"d^	c #0D014A",
"e^	c #0E014D",
"f^	c #1C0162",
"g^	c #5B078F",
"h^	c #610894",
"i^	c #5B088F",
"j^	c #420771",
"k^	c #1E0161",
"l^	c #18015C",
"m^	c #180160",
"n^	c #1B0268",
"o^	c #0F0244",
"p^	c #0A012D",
"q^	c #1F013D",
"r^	c #2E017B",
"s^	c #4B0387",
"t^	c #250153",
"u^	c #25014E",
"v^	c #15013F",
"w^	c #1C014E",
"x^	c #2C015A",
"y^	c #2E015F",
"z^	c #2B0163",
"A^	c #34016F",
"B^	c #3D027D",
"C^	c #35027E",
"D^	c #2F027A",
"E^	c #24026B",
"F^	c #11014B",
"G^	c #0D0141",
"H^	c #0A0137",
"I^	c #0A0139",
"J^	c #0A013C",
"K^	c #170154",
"L^	c #34017E",
"M^	c #460286",
"N^	c #55068D",
"O^	c #650D93",
"P^	c #64108F",
"Q^	c #560E82",
"R^	c #320652",
"S^	c #1A0164",
"T^	c #1A025E",
"U^	c #130248",
"V^	c #230150",
"W^	c #370166",
"X^	c #2C014F",
"Y^	c #1A013F",
"Z^	c #0B012D",
"`^	c #0C012D",
" /	c #240174",
"./	c #42018B",
"+/	c #46028A",
"@/	c #36027A",
"#/	c #2B016A",
"$/	c #310164",
"%/	c #2D015B",
"&/	c #130143",
"*/	c #17014F",
"=/	c #1C015B",
"-/	c #2C0171",
";/	c #320176",
">/	c #35016F",
",/	c #39026F",
"'/	c #3D0274",
")/	c #43047A",
"!/	c #420282",
"~/	c #41048A",
"{/	c #390284",
"]/	c #2C0276",
"^/	c #220164",
"//	c #160150",
"(/	c #0B013C",
"_/	c #08012F",
":/	c #09012D",
"</	c #09012C",
"[/	c #2D017A",
"}/	c #460588",
"|/	c #600D90",
"1/	c #670F93",
"2/	c #64118D",
"3/	c #56127A",
"4/	c #3E105D",
"5/	c #20025E",
"6/	c #280153",
"7/	c #2D0159",
"8/	c #080120",
"9/	c #080122",
"0/	c #220176",
"a/	c #2C017C",
"b/	c #350185",
"c/	c #44048A",
"d/	c #4B0588",
"e/	c #48047E",
"f/	c #440275",
"g/	c #38016A",
"h/	c #24015B",
"i/	c #2C0174",
"j/	c #3B0180",
"k/	c #460284",
"l/	c #4E0382",
"m/	c #5C0888",
"n/	c #560889",
"o/	c #59098F",
"p/	c #4C0590",
"q/	c #41048B",
"r/	c #350381",
"s/	c #280175",
"t/	c #15014F",
"u/	c #0C013C",
"v/	c #0C012A",
"w/	c #0E012D",
"x/	c #360282",
"y/	c #4D078D",
"z/	c #5C0D8F",
"A/	c #5D0B8E",
"B/	c #4E0E76",
"C/	c #350D58",
"D/	c #24016D",
"E/	c #1D016A",
"F/	c #240165",
"G/	c #250260",
"H/	c #1F0149",
"I/	c #2E015C",
"J/	c #26014F",
"K/	c #090130",
"L/	c #1F0172",
"M/	c #2A017E",
"N/	c #43058C",
"O/	c #540A90",
"P/	c #59098C",
"Q/	c #610789",
"R/	c #52047E",
"S/	c #3C0176",
"T/	c #3A0177",
"U/	c #390175",
"V/	c #3B0275",
"W/	c #43027E",
"X/	c #480283",
"Y/	c #470386",
"Z/	c #500489",
"`/	c #5D0B8F",
" (	c #5E0A8F",
".(	c #59088E",
"+(	c #46068B",
"@(	c #48078F",
"#(	c #38048D",
"$(	c #2C0282",
"%(	c #210177",
"&(	c #150156",
"*(	c #0F0144",
"=(	c #0C0138",
"-(	c #0A0125",
";(	c #0B0125",
">(	c #0F012C",
",(	c #240161",
"'(	c #2E0178",
")(	c #390183",
"!(	c #3A0183",
"~(	c #3D047B",
"{(	c #3C0671",
"](	c #2D0954",
"^(	c #1E093F",
"/(	c #240173",
"((	c #21016C",
"_(	c #380276",
":(	c #2E0264",
"<(	c #180142",
"[(	c #11013A",
"}(	c #1E014D",
"|(	c #280157",
"1(	c #23014B",
"2(	c #04011A",
"3(	c #190166",
"4(	c #1D016F",
"5(	c #25017E",
"6(	c #34018B",
"7(	c #460592",
"8(	c #53088F",
"9(	c #5C0A90",
"0(	c #50048B",
"a(	c #460285",
"b(	c #440286",
"c(	c #4A038A",
"d(	c #53058E",
"e(	c #550690",
"f(	c #560494",
"g(	c #47038E",
"h(	c #4C058C",
"i(	c #4A098C",
"j(	c #44058B",
"k(	c #37038E",
"l(	c #2F028A",
"m(	c #2C0288",
"n(	c #280282",
"o(	c #21017A",
"p(	c #1B016D",
"q(	c #0B0135",
"r(	c #0C0127",
"s(	c #0C0124",
"t(	c #0E0128",
"u(	c #12012F",
"v(	c #150139",
"w(	c #2A016A",
"x(	c #410286",
"y(	c #370376",
"z(	c #2E0664",
"A(	c #2A0A57",
"B(	c #240A47",
"C(	c #190834",
"D(	c #0E0724",
"E(	c #37017E",
"F(	c #2C0178",
"G(	c #3D0281",
"H(	c #4A0481",
"I(	c #3D026D",
"J(	c #1E0145",
"K(	c #150136",
"L(	c #0E012E",
"M(	c #180158",
"N(	c #28017B",
"O(	c #290182",
"P(	c #2C0186",
"Q(	c #330287",
"R(	c #40048B",
"S(	c #4C0790",
"T(	c #4B058F",
"U(	c #42048F",
"V(	c #45048F",
"W(	c #4C0694",
"X(	c #4E0794",
"Y(	c #4B0792",
"Z(	c #41048F",
"`(	c #340287",
" _	c #2B0180",
"._	c #2B027E",
"+_	c #240180",
"@_	c #280183",
"#_	c #25017D",
"$_	c #220174",
"%_	c #1A0166",
"&_	c #130153",
"*_	c #10012C",
"=_	c #140135",
"-_	c #1F014C",
";_	c #2B0164",
">_	c #3A017A",
",_	c #41057D",
"'_	c #340766",
")_	c #280A4F",
"!_	c #270C46",
"~_	c #1F0C3A",
"{_	c #20083D",
"]_	c #4C0288",
"^_	c #48057D",
"/_	c #530582",
"(_	c #3C0269",
"__	c #190149",
":_	c #1A014D",
"<_	c #1C014A",
"[_	c #1B0141",
"}_	c #110130",
"|_	c #1A025C",
"1_	c #210167",
"2_	c #330281",
"3_	c #2E017F",
"4_	c #31027B",
"5_	c #420487",
"6_	c #430486",
"7_	c #420485",
"8_	c #450588",
"9_	c #42058B",
"0_	c #3C0589",
"a_	c #350389",
"b_	c #2A027E",
"c_	c #1D0169",
"d_	c #1D0165",
"e_	c #090126",
"f_	c #1C014D",
"g_	c #280165",
"h_	c #340176",
"i_	c #420285",
"j_	c #40057E",
"k_	c #3B0D6D",
"l_	c #2B0A52",
"m_	c #250D44",
"n_	c #200C3C",
"o_	c #2A0E48",
"p_	c #2C0956",
"q_	c #110729",
"r_	c #45037F",
"s_	c #220161",
"t_	c #16014A",
"u_	c #350362",
"v_	c #4A0576",
"w_	c #27015C",
"x_	c #19014B",
"y_	c #130132",
"z_	c #0D0127",
"A_	c #1B0259",
"B_	c #19025B",
"C_	c #27016E",
"D_	c #1D015C",
"E_	c #1C0165",
"F_	c #2B016F",
"G_	c #31016F",
"H_	c #2B0165",
"I_	c #34026E",
"J_	c #33026E",
"K_	c #2F026C",
"L_	c #2A0269",
"M_	c #29016D",
"N_	c #110139",
"O_	c #100134",
"P_	c #100132",
"Q_	c #16013C",
"R_	c #2B026B",
"S_	c #3B067D",
"T_	c #400F7B",
"U_	c #3F166E",
"V_	c #36175B",
"W_	c #241141",
"X_	c #1E0C37",
"Y_	c #14092A",
"Z_	c #4E1D76",
"`_	c #360B67",
" :	c #180935",
".:	c #3B0179",
"+:	c #26015C",
"@:	c #200150",
"#:	c #120143",
"$:	c #1D0149",
"%:	c #160135",
"&:	c #0F012A",
"*:	c #08012B",
"=:	c #10023E",
"-:	c #190254",
";:	c #170255",
">:	c #160153",
",:	c #1F0165",
"':	c #220154",
"):	c #280156",
"!:	c #15013A",
"~:	c #1C0153",
"{:	c #1C0155",
"]:	c #420E7D",
"^:	c #3E1B65",
"/:	c #321751",
"(:	c #2B1742",
"_:	c #1B0E2F",
"::	c #0F0724",
"<:	c #40124F",
"[:	c #62208E",
"}:	c #330966",
"|:	c #160733",
"1:	c #040413",
"2:	c #260162",
"3:	c #1B014C",
"4:	c #200152",
"5:	c #120141",
"6:	c #29015D",
"7:	c #170136",
"8:	c #14024F",
"9:	c #140150",
"0:	c #1F0168",
"a:	c #110141",
"b:	c #24014E",
"c:	c #20014B",
"d:	c #1B0143",
"e:	c #160137",
"f:	c #1B013E",
"g:	c #180152",
"h:	c #16013F",
"i:	c #2C0165",
"j:	c #34026D",
"k:	c #2F026D",
"l:	c #33046D",
"m:	c #390972",
"n:	c #371067",
"o:	c #2C134C",
"p:	c #190C2D",
"q:	c #10081F",
"r:	c #6C118A",
"s:	c #5E1688",
"t:	c #310F5D",
"u:	c #180E31",
"v:	c #220167",
"w:	c #140147",
"x:	c #240156",
"y:	c #250147",
"z:	c #140131",
"A:	c #160156",
"B:	c #1B0161",
"C:	c #190150",
"D:	c #19013F",
"E:	c #180138",
"F:	c #130131",
"G:	c #12012E",
"H:	c #13012F",
"I:	c #140133",
"J:	c #110132",
"K:	c #170135",
"L:	c #170139",
"M:	c #280163",
"N:	c #3E047C",
"O:	c #4F088B",
"P:	c #51098D",
"Q:	c #4A0E83",
"R:	c #541488",
"S:	c #3F126E",
"T:	c #311554",
"U:	c #24123E",
"V:	c #070415",
"W:	c #200344",
"X:	c #600390",
"Y:	c #642488",
"Z:	c #2A1750",
"`:	c #090522",
" <	c #20015E",
".<	c #31017E",
"+<	c #35028A",
"@<	c #1E0155",
"#<	c #2A0166",
"$<	c #2B015D",
"%<	c #200143",
"&<	c #0E012A",
"*<	c #070128",
"=<	c #0B0133",
"-<	c #0D013E",
";<	c #0E0143",
"><	c #11014F",
",<	c #17015C",
"'<	c #190159",
")<	c #0D013C",
"!<	c #0C0132",
"~<	c #0A0123",
"{<	c #0C0125",
"]<	c #0F0127",
"^<	c #12012A",
"/<	c #18013F",
"(<	c #12013E",
"_<	c #4A0788",
":<	c #621891",
"<<	c #5E168F",
"[<	c #531882",
"}<	c #491B6F",
"|<	c #301552",
"1<	c #190C2F",
"2<	c #0A051E",
"3<	c #050416",
"4<	c #39016F",
"5<	c #5C178B",
"6<	c #4A287F",
"7<	c #130940",
"8<	c #0E072B",
"9<	c #110339",
"0<	c #2A016F",
"a<	c #32017E",
"b<	c #3B028B",
"c<	c #470596",
"d<	c #42058F",
"e<	c #2D0164",
"f<	c #21014A",
"g<	c #090127",
"h<	c #0A0133",
"i<	c #0D0142",
"j<	c #15014C",
"k<	c #090123",
"l<	c #090122",
"m<	c #0D0126",
"n<	c #1B0145",
"o<	c #260161",
"p<	c #210161",
"q<	c #2C0469",
"r<	c #3B047B",
"s<	c #530F8D",
"t<	c #5D1D85",
"u<	c #4F1778",
"v<	c #39175E",
"w<	c #2C154A",
"x<	c #22123A",
"y<	c #160B2A",
"z<	c #0C051F",
"A<	c #230348",
"B<	c #32026D",
"C<	c #431579",
"D<	c #2F1369",
"E<	c #170A48",
"F<	c #0F0931",
"G<	c #13073D",
"H<	c #270567",
"I<	c #390386",
"J<	c #40038F",
"K<	c #4C0894",
"L<	c #440694",
"M<	c #1C015A",
"N<	c #290160",
"O<	c #1F0147",
"P<	c #180139",
"Q<	c #090129",
"R<	c #070129",
"S<	c #0F0146",
"T<	c #11014C",
"U<	c #1A0151",
"V<	c #050119",
"W<	c #2F0163",
"X<	c #460281",
"Y<	c #450284",
"Z<	c #420385",
"`<	c #541586",
" [	c #54138A",
".[	c #570C8F",
"+[	c #531480",
"@[	c #421760",
"#[	c #30124B",
"$[	c #25123F",
"%[	c #1E0F35",
"&[	c #170C2B",
"*[	c #0A061D",
"=[	c #290263",
"-[	c #360C6C",
";[	c #2E135B",
">[	c #180B48",
",[	c #0F0933",
"'[	c #08051B",
")[	c #0E0733",
"![	c #311454",
"~[	c #3C0C7C",
"{[	c #3F0491",
"][	c #390394",
"^[	c #2D018B",
"/[	c #200160",
"([	c #1E0158",
"_[	c #1B013D",
":[	c #160235",
"<[	c #04011F",
"[[	c #05011E",
"}[	c #07012A",
"|[	c #100145",
"1[	c #120150",
"2[	c #130151",
"3[	c #06011A",
"4[	c #07011B",
"5[	c #07011D",
"6[	c #090121",
"7[	c #42027F",
"8[	c #4F048E",
"9[	c #5F0F95",
"0[	c #651994",
"a[	c #641A95",
"b[	c #59118D",
"c[	c #400F67",
"d[	c #1A0A30",
"e[	c #170A2F",
"f[	c #170B29",
"g[	c #160B28",
"h[	c #0F0822",
"i[	c #050415",
"j[	c #1C0444",
"k[	c #1A0058",
"l[	c #3D1169",
"m[	c #2F1256",
"n[	c #1B0D50",
"o[	c #0E0731",
"p[	c #0A061F",
"q[	c #0A0520",
"r[	c #1A0D46",
"s[	c #311451",
"t[	c #411764",
"u[	c #3A0371",
"v[	c #310183",
"w[	c #2C0188",
"x[	c #290179",
"y[	c #1C015D",
"z[	c #04011B",
"A[	c #040119",
"B[	c #190158",
"C[	c #1B015B",
"D[	c #0D0128",
"E[	c #0E0126",
"F[	c #0E0127",
"G[	c #29016C",
"H[	c #4F068F",
"I[	c #580A95",
"J[	c #570F93",
"K[	c #4C0F8B",
"L[	c #411075",
"M[	c #2A0C4E",
"N[	c #0F0726",
"O[	c #0E0723",
"P[	c #11091F",
"Q[	c #100A1F",
"R[	c #0E051F",
"S[	c #380370",
"T[	c #12023C",
"U[	c #411269",
"V[	c #2E1252",
"W[	c #190B4A",
"X[	c #0D0633",
"Y[	c #0B0724",
"Z[	c #0A0525",
"`[	c #0D0631",
" }	c #180B43",
".}	c #48077E",
"+}	c #3F018C",
"@}	c #3D018C",
"#}	c #290176",
"$}	c #210166",
"%}	c #080121",
"&}	c #130145",
"*}	c #15014E",
"=}	c #110133",
"-}	c #1D0242",
";}	c #260253",
">}	c #2D0266",
",}	c #270164",
"'}	c #31017A",
")}	c #350182",
"!}	c #400388",
"~}	c #4E0791",
"{}	c #530C94",
"]}	c #450E87",
"^}	c #391476",
"/}	c #311754",
"(}	c #170B31",
"_}	c #0D0621",
":}	c #1D0A32",
"<}	c #190831",
"[}	c #170731",
"}}	c #0C0621",
"|}	c #2C0541",
"1}	c #41027E",
"2}	c #170243",
"3}	c #3D1166",
"4}	c #301252",
"5}	c #160A40",
"6}	c #0B0531",
"7}	c #0D072A",
"8}	c #0B052B",
"9}	c #0B0533",
"0}	c #1D0C4D",
"a}	c #321456",
"b}	c #3A1460",
"c}	c #4E0988",
"d}	c #600A98",
"e}	c #5C0595",
"f}	c #340186",
"g}	c #20015D",
"h}	c #200159",
"i}	c #1D0150",
"j}	c #10013F",
"k}	c #210150",
"l}	c #2B0262",
"m}	c #350274",
"n}	c #3C0281",
"o}	c #38027E",
"p}	c #36027D",
"q}	c #42048B",
"r}	c #38027F",
"s}	c #330182",
"t}	c #4C0A8F",
"u}	c #431182",
"v}	c #3B186D",
"w}	c #331957",
"x}	c #24123C",
"y}	c #080519",
"z}	c #12041C",
"A}	c #1C062E",
"B}	c #421765",
"C}	c #2D0A55",
"D}	c #170733",
"E}	c #44046D",
"F}	c #600A8E",
"G}	c #2B006B",
"H}	c #280261",
"I}	c #391160",
"J}	c #2E114E",
"K}	c #190A44",
"L}	c #0D0534",
"M}	c #0C072B",
"N}	c #0B052E",
"O}	c #09042F",
"P}	c #1B0B46",
"Q}	c #35185C",
"R}	c #331453",
"S}	c #33076F",
"T}	c #5A0A95",
"U}	c #6A1195",
"V}	c #5E0495",
"W}	c #1B015E",
"X}	c #1F014D",
"Y}	c #0D012E",
"Z}	c #17014B",
"`}	c #1C0151",
" |	c #280168",
".|	c #33027D",
"+|	c #3B0286",
"@|	c #380282",
"#|	c #350276",
"$|	c #2E036E",
"%|	c #2A046D",
"&|	c #3D0B7F",
"*|	c #45137E",
"=|	c #3A1B60",
"-|	c #301946",
";|	c #1C0D34",
">|	c #110825",
",|	c #16052C",
"'|	c #4E155F",
")|	c #591C77",
"!|	c #4D1A78",
"~|	c #2F0A5A",
"{|	c #12072C",
"]|	c #0A0420",
"^|	c #500386",
"/|	c #630793",
"(|	c #420183",
"_|	c #37105C",
":|	c #331653",
"<|	c #1C0B4B",
"[|	c #0B052C",
"}|	c #090524",
"||	c #0B0624",
"1|	c #0C0727",
"2|	c #2B1846",
"3|	c #4B2969",
"4|	c #481B6F",
"5|	c #4E0492",
"6|	c #550795",
"7|	c #7A1597",
"8|	c #570788",
"9|	c #2E0079",
"0|	c #0F012E",
"a|	c #120148",
"b|	c #3B0187",
"c|	c #3D0186",
"d|	c #39017E",
"e|	c #350273",
"f|	c #37086F",
"g|	c #380E6B",
"h|	c #391562",
"i|	c #341751",
"j|	c #28153F",
"k|	c #1B0E31",
"l|	c #0F0723",
"m|	c #160431",
"n|	c #360460",
"o|	c #741296",
"p|	c #611A8B",
"q|	c #3F106E",
"r|	c #220847",
"s|	c #0E0524",
"t|	c #160244",
"u|	c #390176",
"v|	c #4E0388",
"w|	c #4F0488",
"x|	c #461B6D",
"y|	c #2B184A",
"z|	c #0B0726",
"A|	c #0B0526",
"B|	c #0A0524",
"C|	c #0C0724",
"D|	c #1F123A",
"E|	c #311B4B",
"F|	c #481B6B",
"G|	c #631398",
"H|	c #530893",
"I|	c #832694",
"J|	c #710E94",
"K|	c #370076",
"L|	c #230154",
"M|	c #280180",
"N|	c #1C0152",
"O|	c #1D0157",
"P|	c #30016D",
"Q|	c #370178",
"R|	c #350179",
"S|	c #28016C",
"T|	c #430182",
"U|	c #51028C",
"V|	c #460283",
"W|	c #45067F",
"X|	c #4B0C81",
"Y|	c #4D147A",
"Z|	c #3F1762",
"`|	c #331748",
" 1	c #200F36",
".1	c #110826",
"+1	c #0C071E",
"@1	c #080518",
"#1	c #2F0455",
"$1	c #39026C",
"%1	c #4F0782",
"&1	c #62168D",
"*1	c #551B7B",
"=1	c #2C0F55",
"-1	c #160A2F",
";1	c #050419",
">1	c #280069",
",1	c #4E0483",
"'1	c #350B68",
")1	c #37185A",
"!1	c #1A0E39",
"~1	c #0B0723",
"{1	c #24153B",
"]1	c #1F1137",
"^1	c #502665",
"/1	c #7F2E99",
"(1	c #7D2794",
"_1	c #8A3195",
":1	c #5D0A90",
"<1	c #260069",
"[1	c #350188",
"}1	c #450597",
"|1	c #460694",
"11	c #300286",
"21	c #10013B",
"31	c #110143",
"41	c #28015F",
"51	c #420276",
"61	c #570489",
"71	c #55038C",
"81	c #53028D",
"91	c #4C0185",
"01	c #410179",
"a1	c #45017B",
"b1	c #4A017F",
"c1	c #4F0487",
"d1	c #4F0C87",
"e1	c #6D2493",
"f1	c #551982",
"g1	c #431965",
"h1	c #301449",
"i1	c #220F37",
"j1	c #0E0521",
"k1	c #120438",
"l1	c #200355",
"m1	c #41037F",
"n1	c #380273",
"o1	c #541685",
"p1	c #522582",
"q1	c #38195E",
"r1	c #1A0E38",
"s1	c #0B071F",
"t1	c #0A0327",
"u1	c #28025B",
"v1	c #3B0281",
"w1	c #430286",
"x1	c #39017C",
"y1	c #340965",
"z1	c #271343",
"A1	c #1F123B",
"B1	c #0B0722",
"C1	c #080618",
"D1	c #080619",
"E1	c #09071A",
"F1	c #1F1336",
"G1	c #1F1334",
"H1	c #4C2363",
"I1	c #7A1E99",
"J1	c #7E2095",
"K1	c #731897",
"L1	c #4C0587",
"M1	c #220062",
"N1	c #2F0178",
"O1	c #350189",
"P1	c #4A0794",
"Q1	c #520B95",
"R1	c #350295",
"S1	c #2B0187",
"T1	c #23016C",
"U1	c #1B0158",
"V1	c #210159",
"W1	c #3F0274",
"X1	c #61088B",
"Y1	c #6C0B94",
"Z1	c #6A0A95",
"`1	c #690994",
" 2	c #5F0291",
".2	c #560289",
"+2	c #570287",
"@2	c #560589",
"#2	c #570D8B",
"$2	c #591A88",
"%2	c #591F81",
"&2	c #441969",
"*2	c #2B1247",
"=2	c #170A2D",
"-2	c #070419",
";2	c #300549",
">2	c #350374",
",2	c #270167",
"'2	c #34096C",
")2	c #3C1371",
"!2	c #311766",
"~2	c #140940",
"{2	c #0D0729",
"]2	c #330176",
"^2	c #310178",
"/2	c #400188",
"(2	c #360965",
"_2	c #22133A",
":2	c #1E123B",
"<2	c #090718",
"[2	c #060514",
"}2	c #1F1333",
"|2	c #1B122C",
"12	c #471A5E",
"22	c #730E99",
"32	c #5F0892",
"42	c #5E0895",
"52	c #54078B",
"62	c #240166",
"72	c #33017E",
"82	c #3C028A",
"92	c #3D0290",
"02	c #400494",
"a2	c #2B018C",
"b2	c #2C017F",
"c2	c #24016E",
"d2	c #4D0385",
"e2	c #53058F",
"f2	c #5D0A93",
"g2	c #670E94",
"h2	c #640A94",
"i2	c #5B038F",
"j2	c #58048B",
"k2	c #640C8F",
"l2	c #6E1B93",
"m2	c #5E188C",
"n2	c #531B81",
"o2	c #411567",
"p2	c #2B0E49",
"q2	c #17092F",
"r2	c #0D0620",
"s2	c #180434",
"t2	c #41055F",
"u2	c #570781",
"v2	c #1E005D",
"w2	c #370D68",
"x2	c #31125F",
"y2	c #210E51",
"z2	c #130A3C",
"A2	c #0B0727",
"B2	c #1B034D",
"C2	c #29016B",
"D2	c #320170",
"E2	c #200162",
"F2	c #4A0190",
"G2	c #3D0A67",
"H2	c #180F2F",
"I2	c #1E1139",
"J2	c #0A071C",
"  . + @ # $ % & * = = - ; > , ' ) ! ~ { ] ^ / ( _ : < [ } | 1 2 3 4 5 6 7 8 9 0 a b c d e f g h i j k l l m n o & p q r s t u v ",
"w x y t q m z A B C D g E F G H I J K L M N O P Q R S T U V W X Y Z `  ...+.@.#.$.%.&.*.=.-.;.>.>.,.'.).!.~.{.E ].$ ^., /.(.b u ",
"  _.:.<.p [.}.|.1.2.y $ k 3.4.5.6.7.8.9.k p 0.a.>.b.c.d.e.f.g.h.i.j.k.l.m.n.o.p.q.r.s.t.u.v.w.x.y.z.A.B.C.D.E.F.G.H.= ( 0.I.J.K.",
"L.M.0.q N.O.P.Q.R.S.g p 3.4.b T.U.V.W.p 0.Q X.Y.Z.`. +.+++@+#+$+%+&+*+=+-+;+>+,+'+)+!+~+{+]+^+/+(+_+:+<+[+}+|+1+2+3+4+[.( 0.L.5+",
"6+Q 0.7+^.8+9+V.0+a+b+c+d+l e+f+u t I.g+h+i+j+k+l+m+n+o+p+q+r+s+t+u+v+w+x+y+z+A+B+C+D+E+F+G+H+I+J+K+L+M+N+O+P+Q+R+S+T+0.[.^.<.<.",
"/.U+p q V+W+X+Y+Z+`+ @.@l I.+@@@#@$@%@&@*@=@-@;@>@,@'@)@!@~@{@]@^@/@(@_@:@<@[@}@|@1@2@3@4@5@6@7@8@9@0@a@b@c@d@e@f@g@b+V+( 0.h@i@",
"/.<.j@4.& k@l@m@n@( G q 4+: ( (.o@p@q@r@s@t@u@v@w@x@y@z@A@B@C@D@E@F@G@H@I@J@K@L@M@N@O@P@Q@R@S@T@U@V@6.W@X@Y@Z@`@ #  $ 0.G p .#+#",
"<.O.O.& $ @###$#%#G , p > l &#*#=#-#;#>#,#'#)#!#~#{#]#^#/#(#_#:#<#[#}#|#1#2#3#N@4#5#6#7#8#9#0#a#b#c#d#e#f#g#h#i#j#k#@#$ F p l#U+",
".#j@l p u m#n#o#4..@p r E p#q#r#s#t#u#v#w#x#y#z#A#B#C#D#E#F#G#H#I#J#K#L#M#N#O#P#Q#R#S#T#U#V#W#X#Y#Z#`# $.$+$@$#$$$%$&$*$p 0.j@0.",
"6+=$F P -$;$>$,$& &#t '$)$!$~${$]$^$/$($_$:$<$[$}$|$1$2$3$4$5$6$7$8$9$0$a$b$c$d$e$e$f$g$h$i$j$k$l$m$n$o$p$q$r$s$t$u$v$w$x$( H..#",
"4+y$N T+z$A$B$& $ *$C$D$E$F$G$H$I$J$K$L$M$N$O$P$Q$R$S$T$U$Q@V$W$X$V$Y$Z$`$ %c$P@.%+%@%g$#%$%|@%%&%*%=%-%;%>%M ,%'%)%!%K.~%{%]%O.",
"]%^%4./%(%_%:%^%<%[%}%|%1%2%3%p+4%5%6%7%8%9%0%9#a%b%c%d%#%e%f%g%h%i%j%k%l%e%m%P#n%o%p%q%r%s%t%n.u%v%w%##x%y%z%A%B%C%D%E%F%G%k H%",
"I%E = d+k J%K%L%M%N%O%P%Q%R%S%T%@.U%U%V%W%X%Y%Z%`% &<#.&+&@&j%#&@&$&%&%&&&*&=&G@-&U#g$;&>&,&'&)&!&~&{&]&^&/&(&_&:&<&[&}&|&1&!.2&",
"$ ; d+, 3&4&5&6&7&8&9&0&a&b&c&d&e&f&g&h&i&j&k&l&m&n&o&p&q&8#%&r&r&s&t&u&v&w&x&y&z&q%A&B&C&D&E&F&,&G&H&I&J&K&L&M&N&O&P&Q&R&S&T&U&",
"$ V&W&F X&Y&Z&`& *.*+*@*#*$*%*&***=*-*;*>*,*'*W#>&)* &c$<#P#!*~*{*d%]*^*/*(#(*_*:*<*e%[*}*|*1*2*3*D.4*5*6*7*8*9*0*a*b*c*d*e*f*g*",
"j .@G l h*i*j*k*l*m*n*o*p*q*r*s*t*t%;+u*v*w*x*y*z*A*#%B*C*D*B*E*F*G*H*I*J*K*L*M*t*:*N*}@O*P*u%Q*R*S*T*U*V*W*X*Y*Z*`* =.=+=@=#=$=",
"{% @4.%=&=*===-=;=>=,='=t*a%)=!=~={=]=^=/=(=_=$%:=<=[=}=|=1=2=3=4= %5=t%6=7=8=9=I*0=a=b=c=d=e=f=g=h=i=j=k=l=m=n=o=p=q=r=s=t=u=v=",
", w=, x=y=z=A=B=C=D=E=F=G=H=I=J=K=L=M=I@j%N=O=P=&&Q=p%n%P#R=t&a$S=T=U=)*V=W=X=Y=Z=`=z+ -.-+-@-#-$-%-&-*-=---E%;->-,-'-)-!-~-{-]-",
"^-/-(-_-:-<-[-}-|-1-2-3-4-5-6-i%7-N=j%&&8-i%9-K=0-a-b-c-T$d-`=3*e-f-g-M+h-i-j-k-l-m-n-o-V=u*p-q-r-<+s-t-u-v-w-x-y-z-A-B-C-D-E-F-",
"G-H-I-J-K-L-M-N-O-P-Q-R-S-T-U-:=3#V-W-{*X-Y--+Z-`- ;.;+;@;#;$;%;&;o-*;M+=;2@-;;;>;,;';);)+t%!;~;{;];^;/;(;e#_;:;<;[;};|;1;2;3;4;",
"4..@5;6;7;n-d-8;9;1#!*D*g$0;A*a;b;c-c;d;e;f;g;h;i;&+j;k;l;m;n;o;p;i;q;r;s;t;u;v;w;x;y;z;A;B;=*C;D;E;F;G;H;I;J;K;L;M;N;O;P;Q;R;S;",
"c+T;U;V;W;X;F+Y;Z;E*V$Q@`; >w&.>+>c;x*E@@>D##>$>%>%>&>*>=>->;>>>l;,>'>)>!>~>{>]>^>/>(>_>:><>[>}>Z;|>1>2>3>4>5>6>7>8>9>0>a>b>c>d>",
"N e>f>2$g>h>[@<*h$i>j>`;3#k>j$l>m>n>o>F&E&p>q>r>s>t>u>v>w>x>&>y>z>A>B>C>D>!>E>F>G>H>I>J>K>L>5-M>N>O>P>Q>F#R>S>T>U>V>W>X>Y>Z>`> ,",
".,+,@,#,$,%,&,i%r&:=*,2#3#=,t&-,;,>,{@,,',),!,~,{,],^,/,(,_,:,<,[,},|,1,2,3,4,5,6,7,8,9,0,a,b,|@*,7-c,d,e,f,g,h,i,j,L-k,l,m,n,o,",
"p,q,t%r,s,t,u,i%T-r&[*c,m>v,C@w,x,y,z,A,B,D>C,D,E,F,G,H,I,J,K,L,M,N,O,P,Q,R,q-S,T,U,V,W,X,Y,Z,M>1#&,Z;`, 'q-.'+'@'#'$'%'&'*'='-'",
";'>',''')')'!'i%~'B&{'m&g-]'^'/'('_':'<'<'',['}'|'x#1'2'3'4'5'6'7'8'9'0'e&a'b'2*c'd'e'f'g'h'i'z*U#u,P#j'd,;+k'l'm'#'n'q+o'p'q'r'",
"/=s'-+T-Q#Q=h$X-X-t'b$u'3*v'w'x'y'C@z'z'A'B'C'w>D'!;!;t%>*E'F'H*G'V;t*e=_*H' >I'J'K'L'M'N'O'P'Q'R'S'T'U'V'W'X'+,K>Y'Z'`' ).)+)@)",
"}>P>$&#)$)T#!*U#%)G#&)*)=)-);)>),)K-')))!):>~)C&t%{)])^)G@/)()_)a;]*M+:)<)[)})|)1)2)3)4)5)6)^=U$+&p%7)M#`%(#8)9)0)a)b)c)d)e)f)g)",
"h)D;+&Q@c$i)j)m&k)l)m)n)o)p)q)r)s)t)u)S$C+v)w)c%Z-{=x)y)z)A)B)C)V'D)%)Y%y+E)F)G)H)I)J)K)L)M)N)m&T#O)9$L#t&P)D@=*Q)R)S)T)u+U)V)W)",
"C&%)0$M#X)Y)Z)`)*)B, !.!+!@!+!#!$!%!C;[)l>k&b; >k&m&&!*!=!;,;,-!3*;!>!,!'!A*)!!!~!{!]!e)^!/!9;Z$(!_!L#t&:!<!s;[!}!|!1!2!3!+,4!+&",
"V'5!6!7!8!9!0!/'a!b!c! '+!d!e!f!S$g!;&h!i!U$)*j'j!k!l!t;u&m!i!n!o!f-p!7)o!q!;&!!r!s!t!u!v!w!i)Y$c$z)x!y!z!/*3*A!B!C!D!E!F!G!H!I!",
"J!-,K!L!M!N!O!$!P!`;Q!R!Z)S!:)&*F+3#q!4!g-k!6!T!U!V!N)W-W!f$X!Y!Z!<#5$3=c$Z;s'~;`! ~.~+~@~q%#~$~x! &c!%~y'&~3$*~=~-~;~>~,~u%'~c=",
")~C@!~~~{~]~^~W#/~n&(~l!u'_~t%&%:~<~[~}~B)|~1~2~.-L@3~Q#}=4~5~6~7~8~9~>!#~0~C&a~b~c~d~e~k>L#2=z)x!U$f~g~h~M+:)i~1*j~k~l~m~n~o~P-",
"p~q~r~s~t~u~z+v~w~x~G#C)y~z~A~B~C~0~D~k!E~F~G~H~I~6-$&J~e$K~L~M~N~O~P~Q~R~4#}>S~T~U~V~i'r,[~x!x!R=*;W~K!X~Y~Z~`~+, {.{+{@{#{m$${",
">)%{&{*{B@={-{;{D~t'm!M+>{<>,{'{){i)t&l!!{~{{{]{M=^{q%J~/{({L~_{:{O~C*Y$J=<{[{}{|{1{2{w)3{4{F)5{={6{7{8{>!f-e!9{!!0{a{b{c{V)d{O$",
"e{f{g{h{i{x)l>z)9$x!j{c;k{l{m{M=n{t'6;o{p{q{r{s{Q#t{:~Q=e$:{N~:{Y!o%Y$u{v{w{Z=x{y{z{A{B+$%B{_)>*C{D{E{F{G{A)H{I{_*J{K{$'A;X'L{M{",
"N{O{P{Q{R{y)o&G{S{ &T{c;U{V{W{T-q!X{Y{Z{`{Q$ ].]+]@]=+#]W$W$$]$]d$s&%]s*6=&]*]=]-]d;;]-&>],]e=n-'])]!]~]{]-,]])~^]Y#0'/](]_]:]<]",
"[]}]|]1]8#0$k!5!0$`%Q'2]3]4]5]!*.&6]f,7]8]9]0]s&a]b]c]t{3@l>d]4!o!e]f]g]h]${i]V=.>A{Y;.]|@j]k]:'l]m]>!n]o]p]d!k)q]r]s]t]u]v]w]x]",
"y]z]A]V'B]C]D]B]_!w~E]F]G]H]%,T'#%C+I]J]K]L]M]0-N]O]P]Q] -5=A]r*_~R]S]T]U]N)V]W]X]b=Y]Z]`]L{ ^^*f-0$F{j!.^+^@^v, !@,#^$^%^&^*^=^",
"-^:);^e->^,^'^)^$~c;!^~^{^]^,!+&/~^^/^(^_^:^<^[^_@H@'':@5-}^F+{+8;N)a-:~|^1^2^3^4^5^6^s!7^8^9^0^X~a^b^c^d^e^5!D)f^f>x>s>g^h^i^j^",
"B@k^l^h~m^n^o^p^P#w)F]M)q^%&s&!*+>)&:'r^t]s^;'C+t^u^t{3@v^q%[^w^x)2]O*z{x^y^(@z^A^B^@;C^D^E^C)F^G^H^I^j!J^9$j)K^B@L^M^N^O^P^Q^R^",
"f] !s)S^S^T^U^!*%&V^W^X^Y^s&Z^`^e;!& /3,./+/@/#/$/%/|@V#&/w~*/=/b'-/;/>/,/'/)/!/K]~/{/]/^///D~(/~]_/Q~:/</R'd]F#[/}/|/1/2/3/4/f ",
")+,&n)%~v'5/L+F*K=6/7/|^=,L#8/9/y*0//'a/b/c/d/e/f/g/P'h/j&x*+-X;i/j/k/l/m/n/o/p/q/r/s/V;t/j'u/>!1=V$B*v/w/I!c%+,x/y/z/A/B/C/4*q ",
"-/D/E/;,F/G/_)B&H/I/J/N@`%K/X!Y$n>L/x'B,M/N/O/P/Q/R/S/T/U/V/W/X/Y/Z/`/ (.(+(@(#($(%(_'&(*(!]=($~$)-(;(>(#]3#,('()(!(~({(](^(g@p ",
"1*'&/(((_(:(<([(}(|(1(K=s&o%2($~Z~3(W~4(5(6(7(8(9(0(a(b(c(d(e(f(g(h(i(j(k(l(m(n(o(p(h~X~)^q(Z^J~r(s(t(u(v(.-w(^#x(y(z(A(B(C(D(V&",
"E(U)F(G(H(I(;&i!w)X]J(K(L(6#p%R=M(d!S^N(O(P(Q(R(S(T(U(V(W(X(Y(Z(`( _._+_@_#_$_%_m^&_B]>!p^V$v/8-*_>(=_3~-_;_>_!/,_'_)_!_~_{_|.k ",
"]_<)g;^_/_(___w~:_<_[_}_S'S#O)4!|_e,1_2_3_{@z,4_5_6_7_8_3%9_0_a_b_/(_'c_d_`~:#*(i)Z$B*D*e_)'g%@&9-T-4#f_g_h_i_j_k_l_m_n_o_p_q_# ",
"r_s_t_u_v_w_X{X{x_k$:@y_z_S#V$h!A_B_F#{{C_D_F#E_F_G_H_I_J_K_L_)+M_;+y+m!j{y)N_<*O_P_h%u,Q=8-k%Q_4#L+.>C&R_S_T_U_V_W_X_Y_Z_`_ :l ",
".:+:.-@:M]{=#:`;:*,]$:%:&:p%*:=:-:;:>:F&,:Y%X{Z%=;P!F@':k$:~L=5-|()::~_)L+A{f_I=<(!:l%~*%&:=>]t{M>~:y+{:w{]:^:/:(:_:::<:[:}:|:1:",
"2:3:4:3:+>%]5:u{X]6:c]7:>(Z^K/<#8:f-9:(#0:Q'})q&a:3:b:c:d:+]e:f:_@O].]H' >g:x)M>x+h:-&-&r,x_-+i:j:e&k:l:m:n:o:p:q:v k r:s:t:u:g ",
"C&w&.-A{[!v:w:k>x:i&m.y:z:A&:/K/5$x~!]A:B:F#C:l>Z$l>D:E:F:G:H:I:*&#]~'r&r&J:I:K:L:N=:=u{-&3{M:N:O:P:Q:R:S:T:U:s#^%V:W:X:Y:Z:`:l#",
"w&r%i] <.<+</^@<V=#<$<%<&<6#C**<=<4=-<;<><,<'<c;l>)<!<C*-(~<~<~<~<|=[=<=~<{<]<^<5]/<z&L+(<)!;+_<:<<<[<}<|<U:1<2<3<F 4<5<6<7<8<$ ",
"9<0=0<a<b<c<d<+,C&=*e<f<&&Q=g<*<O)p^h<9$i<><&_j<4@3#!*X$9/W$k<}=t,e$Y!$]l<f$m<!'n<w_=*o<p<q<r<s<t<u<v<w<x<y<z<# l A<B<C<D<E<F<g ",
"I%G<H<I<J<K<L<$(M<a%N<O<P<k%6#Q<*<P@R<Q~!]S<T<a$U< -N*!'-(}=|=|=t,V</{}=8/-(%,I=W<X<Y<Z<`< [.[+[@[#[$[%[&[*[H%o & D_=[-[;[>[,['[",
"@#)[>[![~[{[][^[u~/[([i-_[:[-(.%<[2([[}[<#|[1[2[Z~U;w)^{Q#8/3[4[5[5[6[!'@&^{.]H=5)7[8[9[0[a[b[c[d[e[f[g[h[- i[m j[k[r,l[m[n[o[p[",
"q[o[r[s[t[u[v[w[x[X'y[__L=N=<=.%z[A[e$}=Z^x!J!b$Y~B[C[6]O@D[@%E[&:F[H@n<k$Q-V=q;G[U%H[I[J[K[L[M[N[O[P[Q[:.R[2<i[S[!;T[U[V[W[X[Y[",
"Z[`[ }s[t[.}+}@}#}$}y+v;V-$%W!W$O~|=%}6[6#A&s&i!&}j<>:*}4!F*=}L:a]-};}>},}g;:>'})}!}~}{}]}^}/}(}_}I.5+:}<}[}}}|}1}R]2}3}4}5}6}7}",
"8}9}0}a}b}c}d}e}f}U%g}h}i}4@E)p%W$R#)'k<}=5[S#T#U#{'j}D)m&[~N>$:k}l}m}n}o}p}q}r}s}U(t}u}v}w}x}}}y}z}A}B}C}D}B E}F}G}H}I}J}K}L}M}",
"N}O}P}Q}R}S}T}U}V}o;W}t_w&X}!*`^Y}A&s,f$l<t,9/V$Q@%)m&t/t/Z}`}{+ |.|1'+|@|L{#|$|%|&|*|=|-|;|>|K%,|'|)|!|~|{|]|^|/|(|o;_|:|<|6}[|",
"}|||1|2|3|4|5|6|7|8|9|]{x)N)v~i!{*Q#D[D[0|P_I!4!a|u&u&]*Q'o-u%0<q-b{b|c|d|n.e|f|g|h|i|j|k|l|O;m|n|o|p|q|r|s|t|u|b)v|w|x|y|z|A|B|",
"O.=$C|D|E|F|G|H|I|J|K|-+L|x)B+f,M|N|S'D[5#!*(<a|b$W#O|>'P|Q|^#R|S|/@T|U|V|W|X|Y|Z|`| 1.1+1@1#1$1%1&1*1=1-1;19#>1i^,1'1)1!1~1O.O.",
"@1=$i {1]1^1/1(1_1:1<1j{ -!=y*[1}1|111r%{*i$215$31H'41516171819101a1b1c1d1e1f1g1h1i1C$j1k1l1m1n1o1p1q1r1s1t1u1v1w1x1y1z1A1B1C1O.",
"D1j@E1F1G1H1I1J1K1L1M1C&&}+-N1O1P1Q1R1S1T1U1})l>U!V1W1X1Y1Z1`1 2.2+2@2#2$2%2&2*2=2@ -2;2>2%!,2'2)2!2~2{2j@z&=]]2^2/2(2_2:2s1<2O.",
"j [2$ }2|21222324252>*[^v~6272829202][a2b2c2y+C:z+J)d2e2f2g2h2i2j2k2l2m2n2o2p2q2r2s2t2u2i_v2H'w2x2y2z2A2B2C2D2>*E2F2G2H2I2J26+j@"};
