/* XPM */
static char * portal_rot18_xpm[] = {
"64 64 93 2",
"  	c #000000",
". 	c #000002",
"+ 	c #000009",
"@ 	c #00001C",
"# 	c #000003",
"$ 	c #000017",
"% 	c #00001E",
"& 	c #000038",
"* 	c #000043",
"= 	c #000048",
"- 	c #000044",
"; 	c #000042",
"> 	c #00004B",
", 	c #000049",
"' 	c #000046",
") 	c #000033",
"! 	c #000010",
"~ 	c #000047",
"{ 	c #3D0059",
"] 	c #000036",
"^ 	c #00000C",
"/ 	c #000037",
"( 	c #000023",
"_ 	c #000050",
": 	c #000052",
"< 	c #140053",
"[ 	c #0C004F",
"} 	c #00004E",
"| 	c #00004C",
"1 	c #000034",
"2 	c #00003B",
"3 	c #00003F",
"4 	c #000029",
"5 	c #000027",
"6 	c #000025",
"7 	c #000008",
"8 	c #000014",
"9 	c #00001B",
"0 	c #00002E",
"a 	c #00003D",
"b 	c #00004F",
"c 	c #00004D",
"d 	c #00003E",
"e 	c #00001A",
"f 	c #000015",
"g 	c #000011",
"h 	c #000021",
"i 	c #00002F",
"j 	c #000031",
"k 	c #00002C",
"l 	c #000041",
"m 	c #030052",
"n 	c #0C0053",
"o 	c #00003A",
"p 	c #000030",
"q 	c #00002A",
"r 	c #000013",
"s 	c #00000D",
"t 	c #00003C",
"u 	c #000020",
"v 	c #000053",
"w 	c #2E0057",
"x 	c #000054",
"y 	c #000032",
"z 	c #000055",
"A 	c #000045",
"B 	c #00002D",
"C 	c #000016",
"D 	c #00002B",
"E 	c #140055",
"F 	c #0C0054",
"G 	c #030050",
"H 	c #00001D",
"I 	c #030053",
"J 	c #230056",
"K 	c #000057",
"L 	c #00001F",
"M 	c #170055",
"N 	c #000028",
"O 	c #340057",
"P 	c #110037",
"Q 	c #00004A",
"R 	c #410054",
"S 	c #270054",
"T 	c #3B0059",
"U 	c #380054",
"V 	c #480055",
"W 	c #08004C",
"X 	c #360059",
"Y 	c #3B0055",
"Z 	c #2A0057",
"` 	c #2A0059",
" .	c #000007",
"                                                                                .                                               ",
"                                                                                    +                                           ",
"                                                                                        @                                       ",
"                                        # #         $ @ @                                                                       ",
"                                    % & * = * - ; = > , ' * ) !                                         ~ { ]                   ",
"                ^ /               ( / , _ : : _ < [ } } | ' ' ; ) 1 2 3 ) 4 5 6 7   ^                   ( _ )                   ",
"                8 9             @ 0 a , } _ b c = 3 a * 3 ] ] 3 = c _ } - ; , > ~ ' d / 4 e   #       f g b 6                   ",
"                #     # ( h @ e h h 6 i a - > ; 4 % 6 i j 6 k & l , _ } c } } m n } c , * a o d = * d o 2 p j                   ",
"                    % @ 7 7 #   7         q / k 7     # 8 e 5 i ] d d d ; = | } > ; - > ' 3 3 - = > ' a l d 0 f                 ",
"                                                            8 ( 5 k @   ! ] - ; 2 1 / 2 i 0 o / o a j $ ( & ) !                 ",
"              ^                                             # #   #       7 k 0 5 q k e 7 8 4 ) 2 0       h k q                 ",
"                                                                                  ^             e #       4 / 1 k               ",
"                                                                                                          6 ] / * j             ",
"                                                                                                              ^ / /             ",
"                                                                                                                4 ] ^           ",
"        r ( j j ) i k % ^                                                                                         $ #           ",
"      s 2 - , = , - ; ] k 5 ( % 5 e ^   7 5 4 8 $ $ $ #                                                             #           ",
"      t } } c - 2 / k % ^ $ 7 7 ^ $ % @ h 0 4 5 0 1 0 0 ) ) q e 8 #                                                 $ (         ",
"    u b _ _ ; k !                 ! k / i ( $ 8 6 q 5 ] ; > - d o & k                                               ) & 8     ' ",
"    p d a & @                   7 e 4 i h 8 ^ @ 6 6 5 ) ; ' ~ = - - - ; i $                                       $ d ]       l ",
"  7 e 7                                 # @ h q 0 q k a = > - ; ; l ~ | | * 5           8 $                       ^ / 6       } ",
"  7                                 # 7 # e h 5 0 i d , } b , ~ a o 2 - _ b /           @ 0 ) e                     q @       5 ",
"                                                    q 2 l * | c c ' 3 ; | b ' 5           i * ]                       8         ",
"8 $ $                                                     ( ] - c } } ' ~ c c o 7         5 l 1                       $         ",
"% $ 7                                                       7 ( 1 - , = ~ > c l $         $ & 0           e 5 6 @               ",
"i $ ^                                                             % ) l ; , _ = ) h #     7 ] 0           5 0 5 e               ",
") ) 6                                                               # 6 i 3 c b d ] 5       ) / ^         % 6 #                 ",
"2 d (                                 6 j ] j $                       7 @ ) = = 3 ] i h   ^ o d (       7 @ @                   ",
"0 i                               ! 2 ~ ~ l ) ^                           @ 2 3 a / i j 5 0 a 3 0 #   @ 6 % #                   ",
"#                               h 2 | , ; j 8                               @ e 4 q k ) i 1 l a 0 ^   6 k                       ",
"                              e i 3 ~ l (                                         e 6 j j o ; o @   # e ^                       ",
"                            @ 4 i 3 ' ]                                           % 0 1 1 d * i                                 ",
"                          e k i o ' = q                                           ] / i & - l %                                 ",
"                          h q 1 * , 3 e                                         6 / 1 j a ~ ]                                   ",
"7                         $ 6 j * ~ a $                                       8 / j 5 ] a / @                                   ",
"    #                     % i o , c ; q                                     7 0 0 6 q 1 k                                       ",
"                        e / a ; c _ , o @                                   h ) ) i j 5                     @ k @               ",
"                        % ] / a ' } } * k                                   0 o o k %                       / ' * @             ",
"                        h ! 7 4 2 , b , o 5                 7 @ ( ( k 5 5 4 ] ) q 7                       8 l b c /             ",
"                        ^       4 ; | c ~ 3 j !                   @ 6 ( @ 8 ^ 7                           e 2 | ~ o %           ",
"                                  0 2 = } c = d ) 5 ( h #                                               # e i a & 1 ] j       # ",
"                                    @ / , v : : > * a a ) 8                                             5 e @ i a l 3 k         ",
"e                                     ^ 1 ' c _ b > , , ; / 6 ^                                   #     # 8 4 3 > | o 7     !   ",
"                                          @ 2 ~ * - > c | = l 2 q @                         ! ^ 7         5 - c } , / ^         ",
"                                              k j ) a ~ | > } | = ; 2 ) 5 ( 6 6 5 5 6 6 k $         # e 5 l b b ' d & h         ",
"                                                # ^ 5 o ' ' | c , ' ' 3 o o o j q % #               $ j l } : c ; / i h         ",
"                                                      ! 5 ] d 3 a / j 0 6 6 h 8                       0 - _ v b ' k             ",
"                                                            # ( 6 @ 7                                 i | : b > /       j ^     ",
"      1 7                                                                                           ! & = | ' 2 %       c ^     ",
"  4 2 b d                                                                                           ( 2 - l / k 8     w ~       ",
"5 d , x x i                                                                                       e j * 3 0 8   ^     b ~       ",
"  y c v z -                                                                                       h ) ' ; 5   $ e . o , 2       ",
"      } x > h                                                                                 ^ h i a > } d ] a a y % ) 8       ",
"        1 A )     7 6 k q h !                                                               5 1 & d ' b : > > | o %   @         ",
"        7 k B C k a ~ c > ; ] 4 5 k ) ) k #           8                                 % ) l ~ , , c _ v } ~ d -     8         ",
"        # 5 0 ) D , b E F b - 0 k d ; * d j h 7     k ; & 8       ^ %             7 % k & l ' c _ G b _ _ l @ C ~ 8   8         ",
"          o | | 0 H 2 _ F I = / ) 3 ' l o d o a ) i & > | * k ^ @ o ' 3 (       k / 2 l 2 2 & d ~ ; a 2 j     J o     ^         ",
"          ~ K z * 1   L * } > * d l ' 3 0 4 1 1 3 ~ , : z : > ' - | } c a q @ 6 1 & ] ) 5 8   7 7             | c e             ",
"          ( z M z >       N - c = ~ ~ * / j @ 6 3 b : : : _ b ' o ] d 3 3 ) 5 @ !   #                         * v l ,           ",
"        8 ( : z O ~ )         P Q ~ , - ; & h 8 0 2 3 2 2 & 0 ^                                 # #           0 _ ~ ~ %         ",
"          e K v R S 0         ) ; p j q e                                                     2 > $           $ } l !           ",
"          7 T U V b $         ~ K x )                                                     ! ~ W 0             d * / 7           ",
"            X Y Z -         j ~ v z z -                                               ^ ( d = 2             ! 0 j ~ 7           ",
"            ` : z ,       ^ o = b v x | 2 h ^  .                                    $ $ 8 j i         & k e 6     b ^           "};
