/* XPM */
static char * portal_rot10_xpm[] = {
"64 64 2921 2",
"  	c #0F0823",
". 	c #0F0722",
"+ 	c #0D0620",
"@ 	c #0E0822",
"# 	c #080518",
"$ 	c #080519",
"% 	c #08051C",
"& 	c #040312",
"* 	c #030312",
"= 	c #060414",
"- 	c #090618",
"; 	c #080517",
"> 	c #0A0519",
", 	c #110825",
"' 	c #150830",
") 	c #18073A",
"! 	c #24064E",
"~ 	c #410F6C",
"{ 	c #58177D",
"] 	c #1C0532",
"^ 	c #050315",
"/ 	c #03020C",
"( 	c #070416",
"_ 	c #0B061B",
": 	c #120924",
"< 	c #180B2C",
"[ 	c #1C0B35",
"} 	c #200B41",
"| 	c #2B0A58",
"1 	c #3D0C74",
"2 	c #560D8B",
"3 	c #600B8F",
"4 	c #61098D",
"5 	c #53038A",
"6 	c #3C0379",
"7 	c #2E0179",
"8 	c #370187",
"9 	c #42067E",
"0 	c #2E075A",
"a 	c #0A0516",
"b 	c #0C051B",
"c 	c #050316",
"d 	c #040316",
"e 	c #040314",
"f 	c #08051B",
"g 	c #0A071E",
"h 	c #0B0820",
"i 	c #08051A",
"j 	c #060515",
"k 	c #050515",
"l 	c #040414",
"m 	c #040416",
"n 	c #040315",
"o 	c #050414",
"p 	c #050412",
"q 	c #080515",
"r 	c #0C081C",
"s 	c #0B061C",
"t 	c #0C071E",
"u 	c #0E0820",
"v 	c #0F0824",
"w 	c #0F0724",
"x 	c #0E0722",
"y 	c #040412",
"z 	c #050413",
"A 	c #09071D",
"B 	c #120A28",
"C 	c #0C051E",
"D 	c #0B061A",
"E 	c #0A0618",
"F 	c #050312",
"G 	c #120923",
"H 	c #1D0C3A",
"I 	c #1E0B43",
"J 	c #20064D",
"K 	c #2A0559",
"L 	c #300755",
"M 	c #24063B",
"N 	c #050311",
"O 	c #050310",
"P 	c #0D071E",
"Q 	c #180C2C",
"R 	c #211139",
"S 	c #240D3F",
"T 	c #260B4B",
"U 	c #2F085B",
"V 	c #4B0A83",
"W 	c #50088D",
"X 	c #4F0587",
"Y 	c #4D037E",
"Z 	c #480378",
"` 	c #3E0179",
" .	c #33017C",
"..	c #2F0181",
"+.	c #330185",
"@.	c #46038E",
"#.	c #44038C",
"$.	c #35017A",
"%.	c #1E0253",
"&.	c #17053F",
"*.	c #180A2E",
"=.	c #1D0D2A",
"-.	c #1E0C2A",
";.	c #1A0C26",
">.	c #140A21",
",.	c #130A22",
"'.	c #1C0E2D",
").	c #1F0D34",
"!.	c #210C38",
"~.	c #200C36",
"{.	c #1E0C33",
"].	c #170929",
"^.	c #0C051D",
"/.	c #120B23",
"(.	c #080618",
"_.	c #040311",
":.	c #090517",
"<.	c #0C071B",
"[.	c #0B051B",
"}.	c #100823",
"|.	c #120824",
"1.	c #0D081E",
"2.	c #030310",
"3.	c #090619",
"4.	c #0F0829",
"5.	c #160633",
"6.	c #0A061C",
"7.	c #03030F",
"8.	c #080413",
"9.	c #160A2A",
"0.	c #27104D",
"a.	c #240A58",
"b.	c #1F0554",
"c.	c #1D0441",
"d.	c #12032A",
"e.	c #03030D",
"f.	c #080513",
"g.	c #0A0517",
"h.	c #0F081F",
"i.	c #180C2D",
"j.	c #220F3B",
"k.	c #260D46",
"l.	c #2A0A53",
"m.	c #360868",
"n.	c #530E88",
"o.	c #5E0D9A",
"p.	c #530396",
"q.	c #4F018B",
"r.	c #350169",
"s.	c #280157",
"t.	c #280164",
"u.	c #30017E",
"v.	c #350289",
"w.	c #2C0179",
"x.	c #2E0174",
"y.	c #370181",
"z.	c #3A0183",
"A.	c #2C016D",
"B.	c #290265",
"C.	c #2A0366",
"D.	c #370C61",
"E.	c #361057",
"F.	c #2E0C52",
"G.	c #310F55",
"H.	c #2B0F47",
"I.	c #280D44",
"J.	c #2C0C4F",
"K.	c #2D0C56",
"L.	c #23094B",
"M.	c #180441",
"N.	c #0F0332",
"O.	c #180A2B",
"P.	c #120A23",
"Q.	c #0A0719",
"R.	c #04030F",
"S.	c #0D081D",
"T.	c #0E081F",
"U.	c #0C081A",
"V.	c #0F081E",
"W.	c #050512",
"X.	c #0C042C",
"Y.	c #190735",
"Z.	c #0A051C",
"`.	c #060417",
" +	c #03020D",
".+	c #0E0528",
"++	c #200A4D",
"@+	c #24075B",
"#+	c #220551",
"$+	c #09031B",
"%+	c #060413",
"&+	c #080414",
"*+	c #0D0719",
"=+	c #1E1230",
"-+	c #271145",
";+	c #2B0D50",
">+	c #320A5F",
",+	c #3A0670",
"'+	c #430581",
")+	c #560B93",
"!+	c #530A90",
"~+	c #43018B",
"{+	c #3D0180",
"]+	c #2D0161",
"^+	c #1B0148",
"/+	c #1B0155",
"(+	c #280171",
"_+	c #28016F",
":+	c #17014F",
"<+	c #1E0157",
"[+	c #240164",
"}+	c #250162",
"|+	c #24015F",
"1+	c #2D016E",
"2+	c #38027C",
"3+	c #34037B",
"4+	c #2A056F",
"5+	c #2D0662",
"6+	c #28085C",
"7+	c #1E0754",
"8+	c #200656",
"9+	c #1F0653",
"0+	c #200558",
"a+	c #26075C",
"b+	c #310F64",
"c+	c #26055F",
"d+	c #2C123E",
"e+	c #0C0720",
"f+	c #0F0923",
"g+	c #090518",
"h+	c #0B0719",
"i+	c #080516",
"j+	c #030311",
"k+	c #0C061A",
"l+	c #05031F",
"m+	c #140537",
"n+	c #12072A",
"o+	c #1B0842",
"p+	c #130538",
"q+	c #090516",
"r+	c #0D071B",
"s+	c #120921",
"t+	c #1D0E2F",
"u+	c #321850",
"v+	c #3D166A",
"w+	c #410C75",
"x+	c #41087D",
"y+	c #460489",
"z+	c #410389",
"A+	c #48088B",
"B+	c #3B0482",
"C+	c #3B0186",
"D+	c #3C0180",
"E+	c #2F0162",
"F+	c #20014C",
"G+	c #1E014F",
"H+	c #1E0155",
"I+	c #18014B",
"J+	c #180145",
"K+	c #1E0152",
"L+	c #1F015C",
"M+	c #170148",
"N+	c #11013B",
"O+	c #1E0154",
"P+	c #38037D",
"Q+	c #42048C",
"R+	c #2D0370",
"S+	c #21045A",
"T+	c #1F074C",
"U+	c #160830",
"V+	c #0F0626",
"W+	c #15033F",
"X+	c #180159",
"Y+	c #5F1390",
"Z+	c #8730A2",
"`+	c #5B1882",
" @	c #391847",
".@	c #160B2A",
"+@	c #050418",
"@@	c #0B0618",
"#@	c #060412",
"$@	c #080514",
"%@	c #060513",
"&@	c #05030F",
"*@	c #050318",
"=@	c #090424",
"-@	c #130530",
";@	c #070517",
">@	c #02020C",
",@	c #070415",
"'@	c #110823",
")@	c #15092B",
"!@	c #110629",
"~@	c #0C0719",
"{@	c #170C24",
"]@	c #1F1230",
"^@	c #24123A",
"/@	c #30174D",
"(@	c #41196D",
"_@	c #501984",
":@	c #54128D",
"<@	c #510C92",
"[@	c #450591",
"}@	c #340289",
"|@	c #310384",
"1@	c #2B0182",
"2@	c #380188",
"3@	c #3A017D",
"4@	c #270155",
"5@	c #1D0141",
"6@	c #1E0147",
"7@	c #1F014A",
"8@	c #20014D",
"9@	c #210153",
"0@	c #1B014C",
"a@	c #0F0137",
"b@	c #0A012D",
"c@	c #140147",
"d@	c #300275",
"e@	c #40048D",
"f@	c #300479",
"g@	c #22055E",
"h@	c #180547",
"i@	c #180835",
"j@	c #0C0519",
"k@	c #0D0521",
"l@	c #1F0450",
"m@	c #450587",
"n@	c #591C80",
"o@	c #411B4F",
"p@	c #180B2E",
"q@	c #0A061E",
"r@	c #050313",
"s@	c #07041A",
"t@	c #10062B",
"u@	c #0E0524",
"v@	c #040310",
"w@	c #0C061C",
"x@	c #110922",
"y@	c #0E081C",
"z@	c #10091E",
"A@	c #150B24",
"B@	c #1E102D",
"C@	c #28163A",
"D@	c #301C47",
"E@	c #36165E",
"F@	c #4D2374",
"G@	c #5F2592",
"H@	c #652796",
"I@	c #601F96",
"J@	c #551298",
"K@	c #3E058C",
"L@	c #280178",
"M@	c #220174",
"N@	c #230172",
"O@	c #210162",
"P@	c #220156",
"Q@	c #17013E",
"R@	c #150138",
"S@	c #1A0141",
"T@	c #1F0149",
"U@	c #1F014C",
"V@	c #1F014D",
"W@	c #1C0149",
"X@	c #100132",
"Y@	c #0B012A",
"Z@	c #0B012D",
"`@	c #130141",
" #	c #240165",
".#	c #340182",
"+#	c #370387",
"@#	c #2C0472",
"##	c #1F035B",
"$#	c #160541",
"%#	c #0B0420",
"&#	c #0C0424",
"*#	c #09051C",
"=#	c #260B35",
"-#	c #281039",
";#	c #1B0A32",
">#	c #070514",
",#	c #0A051E",
"'#	c #14062E",
")#	c #020208",
"!#	c #0B0519",
"~#	c #0E081D",
"{#	c #120A20",
"]#	c #180C28",
"^#	c #211134",
"/#	c #2B1743",
"(#	c #361A59",
"_#	c #42196F",
":#	c #541F85",
"<#	c #6C3199",
"[#	c #6C2A9D",
"}#	c #6A2799",
"|#	c #4D128B",
"1#	c #41058B",
"2#	c #1E0169",
"3#	c #1C0166",
"4#	c #140151",
"5#	c #0D0138",
"6#	c #0D0134",
"7#	c #0D0132",
"8#	c #120140",
"9#	c #140144",
"0#	c #130140",
"a#	c #14013E",
"b#	c #120136",
"c#	c #0C0129",
"d#	c #0B0128",
"e#	c #11013A",
"f#	c #17014C",
"g#	c #190155",
"h#	c #260164",
"i#	c #2C0271",
"j#	c #2E0275",
"k#	c #26075B",
"l#	c #0C061D",
"m#	c #0C0426",
"n#	c #1D0B30",
"o#	c #190B27",
"p#	c #12081F",
"q#	c #0A061D",
"r#	c #0E0823",
"s#	c #0A061F",
"t#	c #070515",
"u#	c #050415",
"v#	c #1A0B37",
"w#	c #12062C",
"x#	c #04030D",
"y#	c #120A25",
"z#	c #190C31",
"A#	c #2B1648",
"B#	c #411E67",
"C#	c #44147C",
"D#	c #450E81",
"E#	c #5F1C94",
"F#	c #6B229B",
"G#	c #6A1E9B",
"H#	c #5C1592",
"I#	c #450682",
"J#	c #34017F",
"K#	c #2C017A",
"L#	c #1E0165",
"M#	c #170159",
"N#	c #0E0143",
"O#	c #0A0137",
"P#	c #0B0136",
"Q#	c #080130",
"R#	c #0C013E",
"S#	c #12014B",
"T#	c #12014A",
"U#	c #0E013A",
"V#	c #0C012D",
"W#	c #080121",
"X#	c #07011E",
"Y#	c #0E0133",
"Z#	c #0F0135",
"`#	c #12013B",
" $	c #180144",
".$	c #2A0163",
"+$	c #2D0169",
"@$	c #2C0A59",
"#$	c #1B0B32",
"$$	c #0C051F",
"%$	c #0D032B",
"&$	c #180536",
"*$	c #3A104D",
"=$	c #36114A",
"-$	c #260D3B",
";$	c #180B27",
">$	c #0F0821",
",$	c #070516",
"'$	c #0A071A",
")$	c #090515",
"!$	c #150B27",
"~$	c #230F45",
"{$	c #0D0424",
"]$	c #03020B",
"^$	c #070418",
"/$	c #08051D",
"($	c #0E0724",
"_$	c #160B2D",
":$	c #2C1547",
"<$	c #48226A",
"[$	c #5B268C",
"}$	c #4F1491",
"|$	c #46058C",
"1$	c #611799",
"2$	c #601596",
"3$	c #5E0F97",
"4$	c #51088D",
"5$	c #3B037F",
"6$	c #30017C",
"7$	c #280174",
"8$	c #1B015E",
"9$	c #110148",
"0$	c #0B013B",
"a$	c #080135",
"b$	c #0A0135",
"c$	c #0C0138",
"d$	c #0E0141",
"e$	c #13014E",
"f$	c #0F0140",
"g$	c #080128",
"h$	c #05011C",
"i$	c #05011B",
"j$	c #090123",
"k$	c #0E0130",
"l$	c #100139",
"m$	c #170145",
"n$	c #230155",
"o$	c #29015F",
"p$	c #2A0165",
"q$	c #240555",
"r$	c #240B46",
"s$	c #190A30",
"t$	c #0B0327",
"u$	c #120435",
"v$	c #20073B",
"w$	c #471255",
"x$	c #360C44",
"y$	c #300C51",
"z$	c #300E53",
"A$	c #250D40",
"B$	c #1E0D30",
"C$	c #190A2D",
"D$	c #100722",
"E$	c #0B0518",
"F$	c #170B2B",
"G$	c #230D46",
"H$	c #03030E",
"I$	c #0C061E",
"J$	c #11082A",
"K$	c #210C3F",
"L$	c #260D44",
"M$	c #48245F",
"N$	c #5E2A85",
"O$	c #5F2498",
"P$	c #55119A",
"Q$	c #531097",
"R$	c #540E96",
"S$	c #530C94",
"T$	c #4D058F",
"U$	c #450387",
"V$	c #2E0175",
"W$	c #27016F",
"X$	c #1C015D",
"Y$	c #110141",
"Z$	c #0C0134",
"`$	c #090129",
" %	c #080126",
".%	c #0C012F",
"+%	c #100138",
"@%	c #12013F",
"#%	c #11013E",
"$%	c #0F0138",
"%%	c #0C0130",
"&%	c #080123",
"*%	c #0A0127",
"=%	c #110137",
"-%	c #18014D",
";%	c #180152",
">%	c #260166",
",%	c #2E0172",
"'%	c #2A0174",
")%	c #250562",
"!%	c #1F084A",
"~%	c #16053B",
"{%	c #1C073B",
"]%	c #22083A",
"^%	c #240734",
"/%	c #2F0837",
"(%	c #3B0D51",
"_%	c #27085A",
":%	c #240B50",
"<%	c #260C49",
"[%	c #2B0C4D",
"}%	c #280C4A",
"|%	c #210C3B",
"1%	c #110723",
"2%	c #0A071C",
"3%	c #0A061B",
"4%	c #020108",
"5%	c #050314",
"6%	c #0E0428",
"7%	c #200D3C",
"8%	c #2E1253",
"9%	c #381263",
"0%	c #471278",
"a%	c #48137C",
"b%	c #582087",
"c%	c #5D1F97",
"d%	c #65269B",
"e%	c #692A9A",
"f%	c #52178E",
"g%	c #3B0680",
"h%	c #36027A",
"i%	c #39017C",
"j%	c #360278",
"k%	c #260167",
"l%	c #100137",
"m%	c #0F0130",
"n%	c #0D012B",
"o%	c #110134",
"p%	c #150139",
"q%	c #130135",
"r%	c #120131",
"s%	c #130134",
"t%	c #150237",
"u%	c #15013B",
"v%	c #0D0131",
"w%	c #140140",
"x%	c #1F0165",
"y%	c #260175",
"z%	c #2C017B",
"A%	c #240175",
"B%	c #230364",
"C%	c #1E054C",
"D%	c #150443",
"E%	c #1B083C",
"F%	c #20083A",
"G%	c #1E0630",
"H%	c #12031F",
"I%	c #3D123A",
"J%	c #5C1D52",
"K%	c #571B53",
"L%	c #2E0C4B",
"M%	c #1E0551",
"N%	c #220753",
"O%	c #260856",
"P%	c #22084D",
"Q%	c #18053D",
"R%	c #13072D",
"S%	c #0B061E",
"T%	c #02020D",
"U%	c #0B071E",
"V%	c #140A2A",
"W%	c #2A1147",
"X%	c #3D1867",
"Y%	c #471781",
"Z%	c #4A108D",
"`%	c #4F0D91",
" &	c #4E0994",
".&	c #4B0C91",
"+&	c #4C0C92",
"@&	c #4F0C92",
"#&	c #531A8B",
"$&	c #3F0D7B",
"%&	c #160055",
"&&	c #1D0159",
"*&	c #20015C",
"=&	c #190153",
"-&	c #16014B",
";&	c #11013D",
">&	c #0E0135",
",&	c #140138",
"'&	c #15013A",
")&	c #130138",
"!&	c #130139",
"~&	c #120139",
"{&	c #13013E",
"]&	c #18013E",
"^&	c #1C0144",
"/&	c #1E014B",
"(&	c #1D014E",
"_&	c #150141",
":&	c #0E0131",
"<&	c #0E0132",
"[&	c #19014D",
"}&	c #290270",
"|&	c #29017B",
"1&	c #21016A",
"2&	c #1C0355",
"3&	c #180640",
"4&	c #170836",
"5&	c #18082E",
"6&	c #1A062E",
"7&	c #1A0728",
"8&	c #351636",
"9&	c #51204B",
"0&	c #5B1F51",
"a&	c #52184A",
"b&	c #2E093A",
"c&	c #190246",
"d&	c #1A0254",
"e&	c #3A096B",
"f&	c #380F67",
"g&	c #270959",
"h&	c #1E0841",
"i&	c #0C071D",
"j&	c #25123F",
"k&	c #3F1C64",
"l&	c #501889",
"m&	c #4D0D96",
"n&	c #510798",
"o&	c #420487",
"p&	c #37027D",
"q&	c #3A0282",
"r&	c #3B0283",
"s&	c #3C0282",
"t&	c #410581",
"u&	c #30036E",
"v&	c #180150",
"w&	c #14014A",
"x&	c #13014B",
"y&	c #0F0142",
"z&	c #0D013E",
"A&	c #0B0134",
"B&	c #0C0137",
"C&	c #14013A",
"D&	c #14013B",
"E&	c #13014D",
"F&	c #180157",
"G&	c #1E015E",
"H&	c #22015E",
"I&	c #1D014F",
"J&	c #170142",
"K&	c #110135",
"L&	c #190146",
"M&	c #280265",
"N&	c #2F0279",
"O&	c #280176",
"P&	c #21016F",
"Q&	c #1D0550",
"R&	c #190936",
"S&	c #16092A",
"T&	c #120524",
"U&	c #140626",
"V&	c #2E1637",
"W&	c #4B244C",
"X&	c #51244D",
"Y&	c #43183F",
"Z&	c #29082A",
"`&	c #2A063A",
" *	c #2A0552",
".*	c #160054",
"+*	c #500E85",
"@*	c #832DA0",
"#*	c #57187D",
"$*	c #35134D",
"%*	c #060416",
"&*	c #01020B",
"**	c #100821",
"=*	c #1B0D2F",
"-*	c #2A1343",
";*	c #461C68",
">*	c #5C2087",
",*	c #601999",
"'*	c #550B99",
")*	c #500693",
"!*	c #3C037F",
"~*	c #300176",
"{*	c #36017C",
"]*	c #38017C",
"^*	c #3B017C",
"/*	c #350175",
"(*	c #2A0166",
"_*	c #1C0153",
":*	c #16014D",
"<*	c #16014F",
"[*	c #14014E",
"}*	c #120147",
"|*	c #0F013E",
"1*	c #0E013D",
"2*	c #0E013B",
"3*	c #110138",
"4*	c #110136",
"5*	c #12013D",
"6*	c #1F0169",
"7*	c #1D016B",
"8*	c #210174",
"9*	c #2F0281",
"0*	c #300280",
"a*	c #27016C",
"b*	c #1D0153",
"c*	c #170141",
"d*	c #180140",
"e*	c #1E014D",
"f*	c #28015F",
"g*	c #2C016A",
"h*	c #290172",
"i*	c #27027A",
"j*	c #23085B",
"k*	c #1C0C31",
"l*	c #130825",
"m*	c #0F0428",
"n*	c #1E0C3A",
"o*	c #2E1742",
"p*	c #3E1E47",
"q*	c #38183A",
"r*	c #230B2A",
"s*	c #19042A",
"t*	c #330C41",
"u*	c #421253",
"v*	c #28055C",
"w*	c #39047F",
"x*	c #530F94",
"y*	c #551A7A",
"z*	c #381847",
"A*	c #02020B",
"B*	c #060517",
"C*	c #1D0F2F",
"D*	c #301847",
"E*	c #3D1863",
"F*	c #5E2189",
"G*	c #752B9A",
"H*	c #6A2099",
"I*	c #53118E",
"J*	c #410489",
"K*	c #39037F",
"L*	c #2D0173",
"M*	c #2F0170",
"N*	c #310170",
"O*	c #31016F",
"P*	c #280165",
"Q*	c #21015E",
"R*	c #1C015A",
"S*	c #1B0157",
"T*	c #1E015D",
"U*	c #1C0159",
"V*	c #150149",
"W*	c #10013B",
"X*	c #0C0132",
"Y*	c #0B012E",
"Z*	c #12013C",
"`*	c #27016A",
" =	c #2A0176",
".=	c #30027F",
"+=	c #3D048B",
"@=	c #450693",
"#=	c #310382",
"$=	c #220165",
"%=	c #200156",
"&=	c #24015D",
"*=	c #2A0169",
"==	c #2B0174",
"-=	c #27036F",
";=	c #230954",
">=	c #1B0C33",
",=	c #160731",
"'=	c #1D0844",
")=	c #250F4B",
"!=	c #251144",
"~=	c #210D30",
"{=	c #0C031E",
"]=	c #1A052C",
"^=	c #210739",
"/=	c #240840",
"(=	c #20063E",
"_=	c #1B034B",
":=	c #490B81",
"<=	c #5C1987",
"[=	c #4E1D67",
"}=	c #321443",
"|=	c #02020A",
"1=	c #140A24",
"2=	c #26123B",
"3=	c #3A1854",
"4=	c #4B1C71",
"5=	c #53178B",
"6=	c #662199",
"7=	c #772F9E",
"8=	c #51158E",
"9=	c #33037D",
"0=	c #2A0170",
"a=	c #26016A",
"b=	c #270169",
"c=	c #27016B",
"d=	c #220163",
"e=	c #1F015F",
"f=	c #200160",
"g=	c #1D0158",
"h=	c #1C0157",
"i=	c #0A012A",
"j=	c #080122",
"k=	c #080125",
"l=	c #09012E",
"m=	c #0C0136",
"n=	c #0D013C",
"o=	c #150148",
"p=	c #1F0159",
"q=	c #240163",
"r=	c #2B026A",
"s=	c #3B0578",
"t=	c #4D0C89",
"u=	c #490B88",
"v=	c #2C0374",
"w=	c #1F0164",
"x=	c #1F0158",
"y=	c #1E014E",
"z=	c #210156",
"A=	c #30017D",
"B=	c #2D0275",
"C=	c #23094D",
"D=	c #1D0848",
"E=	c #1F0652",
"F=	c #230855",
"G=	c #1F0A47",
"H=	c #170733",
"I=	c #110424",
"J=	c #17052E",
"K=	c #1D0837",
"L=	c #1D073A",
"M=	c #130435",
"N=	c #110332",
"O=	c #140331",
"P=	c #53186D",
"Q=	c #601F7F",
"R=	c #3F1759",
"S=	c #250E3C",
"T=	c #010106",
"U=	c #260F3E",
"V=	c #3C175B",
"W=	c #5D247D",
"X=	c #611F91",
"Y=	c #5A119B",
"Z=	c #590E9A",
"`=	c #591794",
" -	c #3A0380",
".-	c #240169",
"+-	c #21015B",
"@-	c #23015D",
"#-	c #260160",
"$-	c #290164",
"%-	c #24015C",
"&-	c #210159",
"*-	c #1F0153",
"=-	c #190148",
"--	c #160140",
";-	c #0C0131",
">-	c #12014D",
",-	c #0E0148",
"'-	c #170153",
")-	c #22015B",
"!-	c #2F045E",
"~-	c #440C71",
"{-	c #480C81",
"]-	c #3B0583",
"^-	c #2D017E",
"/-	c #29016F",
"(-	c #2E017B",
"_-	c #2C0177",
":-	c #200553",
"<-	c #1F0361",
"[-	c #220365",
"}-	c #1F0752",
"|-	c #150733",
"1-	c #130728",
"2-	c #15072A",
"3-	c #190736",
"4-	c #18053E",
"5-	c #130436",
"6-	c #0C0328",
"7-	c #0B0321",
"8-	c #0D0423",
"9-	c #16052B",
"0-	c #350D4D",
"a-	c #2F0D4D",
"b-	c #230C3E",
"c-	c #010108",
"d-	c #17072D",
"e-	c #38125E",
"f-	c #491677",
"g-	c #692397",
"h-	c #60189A",
"i-	c #590F9A",
"j-	c #5B0D99",
"k-	c #4F0890",
"l-	c #350276",
"m-	c #250164",
"n-	c #1D014C",
"o-	c #1D014B",
"p-	c #1C0143",
"q-	c #150137",
"r-	c #16013B",
"s-	c #18013B",
"t-	c #120133",
"u-	c #0E0134",
"v-	c #1B0160",
"w-	c #140153",
"x-	c #150153",
"y-	c #160155",
"z-	c #1A015A",
"A-	c #19014A",
"B-	c #2B0455",
"C-	c #3B086E",
"D-	c #460881",
"E-	c #47068D",
"F-	c #370284",
"G-	c #30017A",
"H-	c #2A016D",
"I-	c #260165",
"J-	c #1B0153",
"K-	c #1C0254",
"L-	c #1F0551",
"M-	c #1D093C",
"N-	c #190B2F",
"O-	c #1A0C31",
"P-	c #19093A",
"Q-	c #190547",
"R-	c #180446",
"S-	c #18053A",
"T-	c #17082B",
"U-	c #16082A",
"V-	c #120724",
"W-	c #0F071E",
"X-	c #18082B",
"Y-	c #210840",
"Z-	c #220B45",
"`-	c #020109",
" ;	c #210846",
".;	c #350E6A",
"+;	c #440E81",
"@;	c #581296",
"#;	c #5B0F9A",
"$;	c #601299",
"%;	c #5F1296",
"&;	c #53088E",
"*;	c #42037B",
"=;	c #2C0164",
"-;	c #1F014F",
";;	c #1C0147",
">;	c #16013A",
",;	c #0F012E",
"';	c #120135",
");	c #1D0148",
"!;	c #240159",
"~;	c #250161",
"{;	c #2C0173",
"];	c #34017D",
"^;	c #41038C",
"/;	c #3C0188",
"(;	c #2F0175",
"_;	c #240168",
":;	c #270168",
"<;	c #1D015D",
"[;	c #180158",
"};	c #18015A",
"|;	c #170152",
"1;	c #17014A",
"2;	c #270359",
"3;	c #3D0670",
"4;	c #500987",
"5;	c #47058C",
"6;	c #390284",
"7;	c #280161",
"8;	c #2A0168",
"9;	c #14013F",
"0;	c #18033F",
"a;	c #1E0545",
"b;	c #200942",
"c;	c #240C47",
"d;	c #2B085B",
"e;	c #2F0567",
"f;	c #280463",
"g;	c #2A075B",
"h;	c #2B0B54",
"i;	c #2A114C",
"j;	c #260A55",
"k;	c #16092C",
"l;	c #140925",
"m;	c #1E0A42",
"n;	c #29076C",
"o;	c #350581",
"p;	c #4D0893",
"q;	c #500A91",
"r;	c #4A098A",
"s;	c #470883",
"t;	c #42047B",
"u;	c #35026A",
"v;	c #250156",
"w;	c #1D0147",
"x;	c #120138",
"y;	c #16013F",
"z;	c #190142",
"A;	c #1A014B",
"B;	c #1E0153",
"C;	c #270164",
"D;	c #320176",
"E;	c #3A0182",
"F;	c #3F018C",
"G;	c #490192",
"H;	c #540396",
"I;	c #5E069C",
"J;	c #5A0499",
"K;	c #510391",
"L;	c #45018B",
"M;	c #3E0183",
"N;	c #200170",
"O;	c #1C016B",
"P;	c #1C0167",
"Q;	c #1E0164",
"R;	c #38056C",
"S;	c #520C81",
"T;	c #550B8C",
"U;	c #420387",
"V;	c #300178",
"W;	c #27015D",
"X;	c #220152",
"Y;	c #200157",
"Z;	c #15013D",
"`;	c #1A0245",
" >	c #1C034E",
".>	c #310376",
"+>	c #42038B",
"@>	c #4D0393",
"#>	c #470587",
"$>	c #360574",
"%>	c #2D0474",
"&>	c #2D0479",
"*>	c #250566",
"=>	c #1D0947",
"->	c #1C0C37",
";>	c #130826",
">>	c #0D0524",
",>	c #0B042E",
"'>	c #1B035A",
")>	c #230171",
"!>	c #2E0180",
"~>	c #3D0387",
"{>	c #39037A",
"]>	c #2A0167",
"^>	c #250160",
"/>	c #13013B",
"(>	c #12013E",
"_>	c #18014C",
":>	c #1B0151",
"<>	c #370176",
"[>	c #420187",
"}>	c #46018C",
"|>	c #4D028F",
"1>	c #530292",
"2>	c #560392",
"3>	c #5B0494",
"4>	c #640599",
"5>	c #66059A",
"6>	c #590498",
"7>	c #4C0392",
"8>	c #390281",
"9>	c #2B0181",
"0>	c #260181",
"a>	c #22017A",
"b>	c #25017A",
"c>	c #2D017A",
"d>	c #4E0D7E",
"e>	c #64178C",
"f>	c #530B8E",
"g>	c #3A027E",
"h>	c #2A015D",
"i>	c #21014C",
"j>	c #1F0151",
"k>	c #160141",
"l>	c #190161",
"m>	c #460293",
"n>	c #5A079A",
"o>	c #500495",
"p>	c #340288",
"q>	c #2D086E",
"r>	c #1D074C",
"s>	c #210C46",
"t>	c #200D3A",
"u>	c #160A25",
"v>	c #0E033D",
"w>	c #19015E",
"x>	c #230170",
"y>	c #2A0177",
"z>	c #2C0171",
"A>	c #240160",
"B>	c #18014A",
"C>	c #100135",
"D>	c #130145",
"E>	c #1C0156",
"F>	c #1D0157",
"G>	c #1B0152",
"H>	c #1F0161",
"I>	c #24016D",
"J>	c #31017C",
"K>	c #42038A",
"L>	c #520393",
"M>	c #500391",
"N>	c #500291",
"O>	c #50028C",
"P>	c #450182",
"Q>	c #400180",
"R>	c #470188",
"S>	c #530290",
"T>	c #580590",
"U>	c #540694",
"V>	c #570899",
"W>	c #58099A",
"X>	c #470591",
"Y>	c #350287",
"Z>	c #2C017F",
"`>	c #29017D",
" ,	c #2A0181",
".,	c #330283",
"+,	c #4B0C7C",
"@,	c #681C84",
"#,	c #60148F",
"$,	c #41028A",
"%,	c #350164",
"&,	c #210143",
"*,	c #14014C",
"=,	c #17015D",
"-,	c #42028D",
";,	c #510499",
">,	c #480391",
",,	c #360182",
"',	c #3B0187",
"),	c #40038E",
"!,	c #390E73",
"~,	c #301057",
"{,	c #270C53",
"],	c #2E0F4F",
"^,	c #240D3B",
"/,	c #150151",
"(,	c #250170",
"_,	c #2C0176",
":,	c #280167",
"<,	c #1C014E",
"[,	c #0E0139",
"},	c #140143",
"|,	c #1B014A",
"1,	c #15014A",
"2,	c #200169",
"3,	c #240171",
"4,	c #2B017C",
"5,	c #3E028E",
"6,	c #450393",
"7,	c #480290",
"8,	c #4A028E",
"9,	c #47018C",
"0,	c #460287",
"a,	c #470387",
"b,	c #4E038D",
"c,	c #500592",
"d,	c #4D0591",
"e,	c #45038D",
"f,	c #510693",
"g,	c #560897",
"h,	c #600C9E",
"i,	c #4D0596",
"j,	c #3C038D",
"k,	c #38028A",
"l,	c #30017F",
"m,	c #2A0178",
"n,	c #3B0581",
"o,	c #4F0C81",
"p,	c #5F1381",
"q,	c #64138F",
"r,	c #53068E",
"s,	c #410173",
"t,	c #2E0155",
"u,	c #140145",
"v,	c #0E012F",
"w,	c #0F013D",
"x,	c #12014F",
"y,	c #230165",
"z,	c #30017B",
"A,	c #3A0185",
"B,	c #47038F",
"C,	c #4B0393",
"D,	c #400583",
"E,	c #3E0A75",
"F,	c #340967",
"G,	c #2A0C54",
"H,	c #2B0E4B",
"I,	c #12043F",
"J,	c #210168",
"K,	c #290174",
"L,	c #2A0173",
"M,	c #2C016E",
"N,	c #210154",
"O,	c #100134",
"P,	c #140142",
"Q,	c #180146",
"R,	c #160147",
"S,	c #120148",
"T,	c #140155",
"U,	c #1E016A",
"V,	c #28017C",
"W,	c #2C017D",
"X,	c #3A018B",
"Y,	c #37018A",
"Z,	c #410191",
"`,	c #47038E",
" '	c #450290",
".'	c #4F0495",
"+'	c #560797",
"@'	c #640F9D",
"#'	c #5D0D99",
"$'	c #550B94",
"%'	c #530891",
"&'	c #450486",
"*'	c #410384",
"='	c #47038C",
"-'	c #470392",
";'	c #3E028A",
">'	c #350181",
",'	c #2E0176",
"''	c #240170",
")'	c #250372",
"!'	c #4E0C81",
"~'	c #50097C",
"{'	c #56098B",
"]'	c #560590",
"^'	c #480276",
"/'	c #120145",
"('	c #0C012A",
"_'	c #0D012F",
":'	c #13014F",
"<'	c #1A0159",
"['	c #21016B",
"}'	c #290177",
"|'	c #2C0170",
"1'	c #400183",
"2'	c #5D0896",
"3'	c #5D0599",
"4'	c #4A018D",
"5'	c #420383",
"6'	c #3A047A",
"7'	c #2B0569",
"8'	c #280959",
"9'	c #230363",
"0'	c #2B0175",
"a'	c #270165",
"b'	c #120134",
"c'	c #150140",
"d'	c #160148",
"e'	c #150157",
"f'	c #1A0165",
"g'	c #1C016E",
"h'	c #24017C",
"i'	c #29017C",
"j'	c #260176",
"k'	c #2A017D",
"l'	c #3B018D",
"m'	c #4E0398",
"n'	c #590899",
"o'	c #540797",
"p'	c #4B0496",
"q'	c #47058E",
"r'	c #470887",
"s'	c #3C067E",
"t'	c #35037A",
"u'	c #2D0176",
"v'	c #2F0174",
"w'	c #3A027D",
"x'	c #350279",
"y'	c #240161",
"z'	c #22015D",
"A'	c #320481",
"B'	c #460984",
"C'	c #4C077C",
"D'	c #490487",
"E'	c #4C038E",
"F'	c #400170",
"G'	c #30015C",
"H'	c #220160",
"I'	c #120141",
"J'	c #0C012B",
"K'	c #0C012E",
"L'	c #110147",
"M'	c #19015A",
"N'	c #250177",
"O'	c #30016D",
"P'	c #530886",
"Q'	c #6E129A",
"R'	c #640897",
"S'	c #440184",
"T'	c #3C0183",
"U'	c #22015F",
"V'	c #1F0553",
"W'	c #2D0175",
"X'	c #2B0173",
"Y'	c #13013D",
"Z'	c #0C0128",
"`'	c #0F012F",
" )	c #140139",
".)	c #14013C",
"+)	c #140141",
"@)	c #1E016D",
"#)	c #25017D",
"$)	c #24017B",
"%)	c #220176",
"&)	c #27017A",
"*)	c #240074",
"=)	c #27007A",
"-)	c #410390",
";)	c #530599",
">)	c #530791",
",)	c #430584",
"')	c #350280",
"))	c #2F017A",
"!)	c #2A016F",
"~)	c #2A016A",
"{)	c #240167",
"])	c #24016A",
"^)	c #280170",
"/)	c #20015E",
"()	c #330580",
"_)	c #3E0784",
":)	c #3E037B",
"<)	c #400283",
"[)	c #3D0183",
"})	c #340166",
"|)	c #2A0155",
"1)	c #0F0141",
"2)	c #0D0141",
"3)	c #0D013A",
"4)	c #210175",
"5)	c #35036F",
"6)	c #5B0E8E",
"7)	c #68119A",
"8)	c #590893",
"9)	c #440189",
"0)	c #240166",
"a)	c #130143",
"b)	c #130341",
"c)	c #370179",
"d)	c #2E016F",
"e)	c #210158",
"f)	c #0F0131",
"g)	c #090122",
"h)	c #110131",
"i)	c #110146",
"j)	c #140152",
"k)	c #1A0161",
"l)	c #210170",
"m)	c #27017D",
"n)	c #220175",
"o)	c #1C016D",
"p)	c #1F0171",
"q)	c #240178",
"r)	c #260179",
"s)	c #320182",
"t)	c #430390",
"u)	c #49038D",
"v)	c #330172",
"w)	c #250169",
"x)	c #24015E",
"y)	c #1E0150",
"z)	c #1E014C",
"A)	c #1B0150",
"B)	c #1B0158",
"C)	c #1A0158",
"D)	c #210167",
"E)	c #1E015C",
"F)	c #12013A",
"G)	c #290377",
"H)	c #3D0588",
"I)	c #350270",
"J)	c #3B0181",
"K)	c #3A017F",
"L)	c #350166",
"M)	c #270153",
"N)	c #18014E",
"O)	c #110142",
"P)	c #0D0135",
"Q)	c #0C0135",
"R)	c #0E013E",
"S)	c #1A0163",
"T)	c #1B016B",
"U)	c #1C0162",
"V)	c #540E90",
"W)	c #61149B",
"X)	c #530897",
"Y)	c #3C0289",
"Z)	c #230164",
"`)	c #2A0164",
" !	c #1F0152",
".!	c #120137",
"+!	c #0F013A",
"@!	c #20016B",
"#!	c #1E016E",
"$!	c #23017C",
"%!	c #1D0172",
"&!	c #1C016C",
"*!	c #2A017E",
"=!	c #2F017C",
"-!	c #2F0171",
";!	c #2E016A",
">!	c #1D0058",
",!	c #25015D",
"'!	c #20014F",
")!	c #100147",
"!!	c #190159",
"~!	c #14014D",
"{!	c #17014E",
"]!	c #1A0154",
"^!	c #190151",
"/!	c #2A0276",
"(!	c #360385",
"_!	c #3B017E",
":!	c #35015F",
"<!	c #1F014E",
"[!	c #100142",
"}!	c #0D013B",
"|!	c #180160",
"1!	c #1B016A",
"2!	c #1A0167",
"3!	c #1F0166",
"4!	c #2E0371",
"5!	c #4B118A",
"6!	c #5F1A9A",
"7!	c #66209D",
"8!	c #5E169A",
"9!	c #3D038D",
"0!	c #250168",
"a!	c #1A014D",
"b!	c #180143",
"c!	c #0F0139",
"d!	c #1A0162",
"e!	c #210171",
"f!	c #230176",
"g!	c #200172",
"h!	c #21017D",
"i!	c #240287",
"j!	c #1B016F",
"k!	c #20016E",
"l!	c #270176",
"m!	c #320181",
"n!	c #19014F",
"o!	c #1F0156",
"p!	c #1F0155",
"q!	c #150152",
"r!	c #110150",
"s!	c #120156",
"t!	c #180169",
"u!	c #190164",
"v!	c #1E026A",
"w!	c #1C0164",
"x!	c #160159",
"y!	c #35017F",
"z!	c #3B027C",
"A!	c #3F0280",
"B!	c #3B0175",
"C!	c #2E0159",
"D!	c #100141",
"E!	c #1E0170",
"F!	c #1A016A",
"G!	c #1B0162",
"H!	c #350281",
"I!	c #40088C",
"J!	c #61189C",
"K!	c #561296",
"L!	c #3D0388",
"M!	c #310176",
"N!	c #30016B",
"O!	c #0F013B",
"P!	c #120149",
"Q!	c #1B0161",
"R!	c #25027D",
"S!	c #240176",
"T!	c #1F016E",
"U!	c #1E0174",
"V!	c #240183",
"W!	c #20017A",
"X!	c #1D016A",
"Y!	c #130144",
"Z!	c #1E0158",
"`!	c #100143",
" ~	c #10014E",
".~	c #18016E",
"+~	c #17015F",
"@~	c #17015B",
"#~	c #180154",
"$~	c #13014A",
"%~	c #130148",
"&~	c #130147",
"*~	c #110143",
"=~	c #1B014E",
"-~	c #4C0386",
";~	c #470282",
">~	c #3B016D",
",~	c #260150",
"'~	c #0B0133",
")~	c #16014C",
"!~	c #1D0171",
"~~	c #190166",
"{~	c #22016A",
"]~	c #2B017B",
"^~	c #550D9B",
"/~	c #450692",
"(~	c #3B0287",
"_~	c #350176",
":~	c #2F016D",
"<~	c #130154",
"[~	c #180161",
"}~	c #1E016B",
"|~	c #1E0162",
"1~	c #160156",
"2~	c #20017C",
"3~	c #140158",
"4~	c #27016E",
"5~	c #20015B",
"6~	c #180148",
"7~	c #180151",
"8~	c #150150",
"9~	c #0E0145",
"0~	c #100146",
"a~	c #190156",
"b~	c #1D015E",
"c~	c #0D012E",
"d~	c #07011F",
"e~	c #0C0139",
"f~	c #2D026E",
"g~	c #47057F",
"h~	c #590587",
"i~	c #4D027E",
"j~	c #0C013A",
"k~	c #0F013F",
"l~	c #1D016F",
"m~	c #19016A",
"n~	c #120153",
"o~	c #18015B",
"p~	c #290170",
"q~	c #41058A",
"r~	c #4A0697",
"s~	c #3A018D",
"t~	c #32017C",
"u~	c #190154",
"v~	c #11014E",
"w~	c #15015E",
"x~	c #1C0270",
"y~	c #21027C",
"z~	c #26017C",
"A~	c #1F015E",
"B~	c #180163",
"C~	c #1A014A",
"D~	c #120146",
"E~	c #130153",
"F~	c #110152",
"G~	c #11014F",
"H~	c #1A0150",
"I~	c #210151",
"J~	c #090124",
"K~	c #030115",
"L~	c #030113",
"M~	c #040119",
"N~	c #0B0130",
"O~	c #0B0137",
"P~	c #0A0134",
"Q~	c #2F0464",
"R~	c #530A7C",
"S~	c #590781",
"T~	c #480274",
"U~	c #300160",
"V~	c #1B014D",
"W~	c #120142",
"X~	c #100140",
"Y~	c #110140",
"Z~	c #1E0163",
"`~	c #1F027C",
" {	c #120159",
".{	c #0A0138",
"+{	c #170158",
"@{	c #1C015E",
"#{	c #25016B",
"${	c #33027F",
"%{	c #3B028C",
"&{	c #380189",
"*{	c #230168",
"={	c #2E0274",
"-{	c #4E0C8E",
";{	c #11014D",
">{	c #170166",
",{	c #1E027C",
"'{	c #26038A",
"){	c #260285",
"!{	c #150154",
"~{	c #1A0166",
"{{	c #1D0164",
"]{	c #280168",
"^{	c #230157",
"/{	c #15013F",
"({	c #12014C",
"_{	c #130158",
":{	c #200153",
"<{	c #070120",
"[{	c #030114",
"}{	c #02010C",
"|{	c #060120",
"1{	c #08012A",
"2{	c #0A0131",
"3{	c #1B0146",
"4{	c #39046D",
"5{	c #5E0C87",
"6{	c #470371",
"7{	c #350163",
"8{	c #220157",
"9{	c #160145",
"0{	c #19014C",
"a{	c #240269",
"b{	c #28037A",
"c{	c #1E036F",
"d{	c #0D0146",
"e{	c #0C013B",
"f{	c #210163",
"g{	c #300375",
"h{	c #43038D",
"i{	c #44028E",
"j{	c #3B0281",
"k{	c #2A017C",
"l{	c #350288",
"m{	c #550C97",
"n{	c #14014F",
"o{	c #17015C",
"p{	c #19016D",
"q{	c #220282",
"r{	c #280391",
"s{	c #2A038E",
"t{	c #240277",
"u{	c #1C015C",
"v{	c #140157",
"w{	c #1A0168",
"x{	c #18015C",
"y{	c #210164",
"z{	c #290159",
"A{	c #1E0148",
"B{	c #130150",
"C{	c #180166",
"D{	c #1F0177",
"E{	c #17013C",
"F{	c #0F0132",
"G{	c #030111",
"H{	c #01010A",
"I{	c #030116",
"J{	c #06011F",
"K{	c #090128",
"L{	c #190147",
"M{	c #280261",
"N{	c #330372",
"O{	c #40047B",
"P{	c #410473",
"Q{	c #170149",
"R{	c #16013E",
"S{	c #280169",
"T{	c #2E037F",
"U{	c #240373",
"V{	c #160254",
"W{	c #0C013D",
"X{	c #120150",
"Y{	c #200164",
"Z{	c #2A0171",
"`{	c #390280",
" ]	c #4D0390",
".]	c #570599",
"+]	c #500595",
"@]	c #410294",
"#]	c #4E0699",
"$]	c #1F0170",
"%]	c #250285",
"&]	c #2B0395",
"*]	c #2A0391",
"=]	c #290281",
"-]	c #1A0153",
";]	c #140149",
">]	c #18015D",
",]	c #1B015C",
"']	c #2C015C",
")]	c #2A0153",
"!]	c #1B0141",
"~]	c #21017F",
"{]	c #2A018B",
"]]	c #300184",
"^]	c #2C0166",
"/]	c #1C0142",
"(]	c #17013D",
"_]	c #190145",
":]	c #040118",
"<]	c #040116",
"[]	c #080124",
"}]	c #140146",
"|]	c #1F015A",
"1]	c #2F027A",
"2]	c #390381",
"3]	c #2B0163",
"4]	c #160144",
"5]	c #230270",
"6]	c #0D0145",
"7]	c #13015C",
"8]	c #18015F",
"9]	c #200168",
"0]	c #270172",
"a]	c #33017B",
"b]	c #47028A",
"c]	c #5E079B",
"d]	c #59059A",
"e]	c #500890",
"f]	c #1E0168",
"g]	c #250284",
"h]	c #2E0495",
"i]	c #300495",
"j]	c #290183",
"k]	c #1D0155",
"l]	c #130242",
"m]	c #14014B",
"n]	c #24015B",
"o]	c #2B015A",
"p]	c #25014D",
"q]	c #10013E",
"r]	c #160153",
"s]	c #2F018C",
"t]	c #370291",
"u]	c #37017F",
"v]	c #2A015C",
"w]	c #180142",
"x]	c #240154",
"y]	c #070122",
"z]	c #080127",
"A]	c #260169",
"B]	c #2C0274",
"C]	c #2E0279",
"D]	c #310276",
"E]	c #1C0152",
"F]	c #1B014B",
"G]	c #21014E",
"H]	c #2E016C",
"I]	c #30027D",
"J]	c #29017A",
"K]	c #1B0165",
"L]	c #0B013C",
"M]	c #0D014A",
"N]	c #130160",
"O]	c #1A0170",
"P]	c #16015D",
"Q]	c #1A015B",
"R]	c #22016B",
"S]	c #48018A",
"T]	c #580593",
"U]	c #64089A",
"V]	c #65089C",
"W]	c #58098E",
"X]	c #2B0389",
"Y]	c #3B0797",
"Z]	c #400594",
"`]	c #180149",
" ^	c #18014F",
".^	c #36016C",
"+^	c #2C0159",
"@^	c #1D0143",
"#^	c #10013D",
"$^	c #1D015F",
"%^	c #2D0186",
"&^	c #3B0395",
"*^	c #41038D",
"=^	c #370174",
"-^	c #23014D",
";^	c #0F0136",
">^	c #130146",
",^	c #26016B",
"'^	c #300276",
")^	c #2A026A",
"!^	c #200158",
"~^	c #230159",
"{^	c #220150",
"]^	c #37036F",
"^^	c #3F0385",
"/^	c #300284",
"(^	c #1F016F",
"_^	c #16015A",
":^	c #100148",
"<^	c #0D0142",
"[^	c #0C0146",
"}^	c #0D014C",
"|^	c #0F0153",
"1^	c #0F014F",
"2^	c #240172",
"3^	c #360181",
"4^	c #4D038E",
"5^	c #560394",
"6^	c #6A0D9B",
"7^	c #680C99",
"8^	c #580E8B",
"9^	c #320290",
"0^	c #3A0497",
"a^	c #47089D",
"b^	c #4D0799",
"c^	c #340372",
"d^	c #1C014D",
"e^	c #0C013C",
"f^	c #15014D",
"g^	c #260157",
"h^	c #24014C",
"i^	c #17013B",
"j^	c #38028F",
"k^	c #410398",
"l^	c #450388",
"m^	c #33016B",
"n^	c #1D014D",
"o^	c #22014A",
"p^	c #260154",
"q^	c #1C0150",
"r^	c #210165",
"s^	c #220162",
"t^	c #22015A",
"u^	c #280158",
"v^	c #2A015A",
"w^	c #270158",
"x^	c #230154",
"y^	c #2C0161",
"z^	c #350172",
"A^	c #3E0282",
"B^	c #3B0388",
"C^	c #2A0278",
"D^	c #0E0146",
"E^	c #0C013F",
"F^	c #0C0140",
"G^	c #0C0145",
"H^	c #0C0143",
"I^	c #0B0135",
"J^	c #120143",
"K^	c #1E0167",
"L^	c #300181",
"M^	c #45038C",
"N^	c #5A0893",
"O^	c #680E99",
"P^	c #6A1295",
"Q^	c #5E1484",
"R^	c #411063",
"S^	c #3F049B",
"T^	c #3B039A",
"U^	c #410498",
"V^	c #3F0389",
"W^	c #270161",
"X^	c #0F0144",
"Y^	c #0E0147",
"Z^	c #160151",
"`^	c #21015D",
" /	c #25014E",
"./	c #1B013C",
"+/	c #100133",
"@/	c #2D0170",
"#/	c #3C028F",
"$/	c #3F0390",
"%/	c #4B038C",
"&/	c #400175",
"*/	c #210155",
"=/	c #1F0145",
"-/	c #240148",
";/	c #240157",
">/	c #260163",
",/	c #1D0150",
"'/	c #260153",
")/	c #2E015E",
"!/	c #2B0164",
"~/	c #33016F",
"{/	c #450288",
"]/	c #3F0289",
"^/	c #360285",
"//	c #2E027B",
"(/	c #0F0147",
"_/	c #24016F",
":/	c #360187",
"</	c #530894",
"[/	c #70139C",
"}/	c #6E119D",
"|/	c #5C1284",
"1/	c #3C1060",
"2/	c #1C0835",
"3/	c #3F039B",
"4/	c #360295",
"5/	c #330189",
"6/	c #26016C",
"7/	c #17025C",
"8/	c #180261",
"9/	c #0F013C",
"0/	c #1C0155",
"a/	c #21013E",
"b/	c #12012F",
"c/	c #0C0133",
"d/	c #280173",
"e/	c #2D0181",
"f/	c #3E038B",
"g/	c #580594",
"h/	c #4C0383",
"i/	c #1C014C",
"j/	c #24014D",
"k/	c #1B0147",
"l/	c #2A0162",
"m/	c #2D0162",
"n/	c #33016A",
"o/	c #380170",
"p/	c #3B0178",
"q/	c #410283",
"r/	c #46038D",
"s/	c #440390",
"t/	c #3A0389",
"u/	c #2B0279",
"v/	c #0B0138",
"w/	c #09012F",
"x/	c #0A0133",
"y/	c #0B012F",
"z/	c #0C012C",
"A/	c #3E028C",
"B/	c #4F0793",
"C/	c #580A92",
"D/	c #520887",
"E/	c #3C0C64",
"F/	c #220C45",
"G/	c #330195",
"H/	c #2A0184",
"I/	c #180156",
"J/	c #150259",
"K/	c #190365",
"L/	c #120252",
"M/	c #1E0159",
"N/	c #2E0169",
"O/	c #2D0155",
"P/	c #1F013E",
"Q/	c #340185",
"R/	c #570397",
"S/	c #4A038B",
"T/	c #300170",
"U/	c #2D015F",
"V/	c #290157",
"W/	c #140148",
"X/	c #200163",
"Y/	c #3D017C",
"Z/	c #4F0582",
"`/	c #510689",
" (	c #5C0894",
".(	c #4F0596",
"+(	c #480595",
"@(	c #380388",
"#(	c #140150",
"$(	c #0C0236",
"%(	c #10012F",
"&(	c #180147",
"*(	c #320180",
"=(	c #3D018B",
"-(	c #3C0287",
";(	c #340377",
">(	c #350868",
",(	c #290B51",
"'(	c #1A0737",
")(	c #040313",
"!(	c #2E018A",
"~(	c #270179",
"{(	c #17015A",
"](	c #18015E",
"^(	c #190264",
"/(	c #1C036D",
"((	c #100246",
"_(	c #0A012C",
":(	c #100136",
"<(	c #200159",
"[(	c #2C0151",
"}(	c #1D013F",
"|(	c #250175",
"1(	c #27017B",
"2(	c #350186",
"3(	c #470294",
"4(	c #490391",
"5(	c #3C0381",
"6(	c #300173",
"7(	c #3B0170",
"8(	c #350167",
"9(	c #240156",
"0(	c #1A0157",
"a(	c #2D0174",
"b(	c #440289",
"c(	c #53048E",
"d(	c #5F0691",
"e(	c #640A94",
"f(	c #5A0A96",
"g(	c #560A99",
"h(	c #410597",
"i(	c #31028B",
"j(	c #25017E",
"k(	c #200171",
"l(	c #100247",
"m(	c #0D013F",
"n(	c #0D0139",
"o(	c #0C0125",
"p(	c #0E0129",
"q(	c #390182",
"r(	c #47038D",
"s(	c #3B047A",
"t(	c #2F0860",
"u(	c #2B0C53",
"v(	c #240C45",
"w(	c #0F0625",
"x(	c #260173",
"y(	c #1B0167",
"z(	c #1C016A",
"A(	c #1A0264",
"B(	c #140249",
"C(	c #16013C",
"D(	c #380168",
"E(	c #2D0153",
"F(	c #300185",
"G(	c #39018D",
"H(	c #490592",
"I(	c #530892",
"J(	c #56068C",
"K(	c #550484",
"L(	c #47027A",
"M(	c #360170",
"N(	c #360174",
"O(	c #350174",
"P(	c #390276",
"Q(	c #440382",
"R(	c #4D038B",
"S(	c #4E0390",
"T(	c #570593",
"U(	c #640D98",
"V(	c #5E0B98",
"W(	c #4F0695",
"X(	c #380392",
"Y(	c #390493",
"Z(	c #30038E",
"`(	c #250185",
" _	c #1F0176",
"._	c #190165",
"+_	c #0E012C",
"@_	c #0F012C",
"#_	c #0F012A",
"$_	c #130133",
"%_	c #160139",
"&_	c #2B0166",
"*_	c #47038B",
"=_	c #450683",
"-_	c #37096A",
";_	c #2A0C50",
">_	c #280E47",
",_	c #1E0C37",
"'_	c #32017A",
")_	c #28016D",
"!_	c #230178",
"~_	c #1D016E",
"{_	c #200263",
"]_	c #190141",
"^_	c #2B0159",
"/_	c #230153",
"(_	c #1B0159",
"__	c #23017B",
":_	c #23017A",
"<_	c #2C0184",
"[_	c #440594",
"}_	c #570B99",
"|_	c #600C97",
"1_	c #660A94",
"2_	c #5D058E",
"3_	c #490287",
"4_	c #460188",
"5_	c #4D038D",
"6_	c #550592",
"7_	c #590697",
"8_	c #5D059D",
"9_	c #4B0397",
"0_	c #4B0593",
"a_	c #440792",
"b_	c #38038F",
"c_	c #320393",
"d_	c #2C0290",
"e_	c #2A0286",
"f_	c #11014C",
"g_	c #0D012D",
"h_	c #110130",
"i_	c #140135",
"j_	c #18013F",
"k_	c #34017A",
"l_	c #44028A",
"m_	c #430685",
"n_	c #401075",
"o_	c #2F0E58",
"p_	c #260E46",
"q_	c #200D3B",
"r_	c #180A2F",
"s_	c #0F0827",
"t_	c #060516",
"u_	c #33017E",
"v_	c #24016C",
"w_	c #210169",
"x_	c #270266",
"y_	c #310162",
"z_	c #290154",
"A_	c #05011E",
"B_	c #170154",
"C_	c #1D016D",
"D_	c #1E0173",
"E_	c #250182",
"F_	c #340192",
"G_	c #450499",
"H_	c #4E0698",
"I_	c #5A0A99",
"J_	c #540699",
"K_	c #490395",
"L_	c #480394",
"M_	c #4E0599",
"N_	c #53079B",
"O_	c #53089B",
"P_	c #470598",
"Q_	c #39028F",
"R_	c #280181",
"S_	c #240180",
"T_	c #1C0165",
"U_	c #0A012B",
"V_	c #0E012B",
"W_	c #180141",
"X_	c #29016A",
"Y_	c #3A0481",
"Z_	c #440C86",
"`_	c #451878",
" :	c #3D1B64",
".:	c #281546",
"+:	c #1C0C35",
"@:	c #130929",
"#:	c #21093E",
"$:	c #100829",
"%:	c #400193",
"&:	c #280175",
"*:	c #2F0173",
"=:	c #30026D",
"-:	c #10013A",
";:	c #250152",
">:	c #0A0129",
",:	c #29017E",
"':	c #2C0187",
"):	c #30018C",
"!:	c #3B038D",
"~:	c #4A0693",
"{:	c #4F0798",
"]:	c #480592",
"^:	c #470594",
"/:	c #560C9D",
"(:	c #4B0698",
"_:	c #420693",
"::	c #3B0493",
"<:	c #300287",
"[:	c #20016D",
"}:	c #1D0165",
"|:	c #170151",
"1:	c #11013C",
"2:	c #0D012C",
"3:	c #17013F",
"4:	c #1C0151",
"5:	c #28016A",
"6:	c #3F0B7F",
"7:	c #451876",
"8:	c #371959",
"9:	c #2D1746",
"0:	c #1F1231",
"a:	c #1D0935",
"b:	c #300A5B",
"c:	c #12082C",
"d:	c #570499",
"e:	c #320184",
"f:	c #300180",
"g:	c #470386",
"h:	c #44037A",
"i:	c #1A014F",
"j:	c #18013C",
"k:	c #0B012B",
"l:	c #1B015A",
"m:	c #1C0269",
"n:	c #190160",
"o:	c #360288",
"p:	c #35018A",
"q:	c #2A017F",
"r:	c #3B0384",
"s:	c #410386",
"t:	c #3B037D",
"u:	c #3C037E",
"v:	c #3E037E",
"w:	c #39037C",
"x:	c #310274",
"y:	c #2B016F",
"z:	c #2A016B",
"A:	c #19014E",
"B:	c #170144",
"C:	c #1A0144",
"D:	c #130136",
"E:	c #220154",
"F:	c #360477",
"G:	c #410E79",
"H:	c #33145C",
"I:	c #24113E",
"J:	c #140A26",
"K:	c #0B051A",
"L:	c #451967",
"M:	c #3A0C6D",
"N:	c #1A0A39",
"O:	c #640A9C",
"P:	c #4B028F",
"Q:	c #340177",
"R:	c #5A0790",
"S:	c #4F047F",
"T:	c #1E0151",
"U:	c #0A0126",
"V:	c #190254",
"W:	c #1D0262",
"X:	c #290176",
"Y:	c #2F017D",
"Z:	c #210166",
"`:	c #1B015B",
" <	c #270160",
".<	c #25015B",
"+<	c #1E0149",
"@<	c #1E014A",
"#<	c #270156",
"$<	c #2C015B",
"%<	c #250153",
"&<	c #200155",
"*<	c #160146",
"=<	c #2D016A",
"-<	c #430284",
";<	c #4A048A",
"><	c #470787",
",<	c #4B0C87",
"'<	c #4C1281",
")<	c #3F146E",
"!<	c #2D174D",
"~<	c #1E0F36",
"{<	c #070414",
"]<	c #642291",
"^<	c #360A6C",
"/<	c #180836",
"(<	c #040415",
"_<	c #77129F",
":<	c #5D0694",
"<<	c #310172",
"[<	c #38036D",
"}<	c #540884",
"|<	c #450476",
"1<	c #130149",
"2<	c #19013E",
"3<	c #0C0126",
"4<	c #09012C",
"5<	c #190354",
"6<	c #1C025E",
"7<	c #160154",
"8<	c #260174",
"9<	c #250155",
"0<	c #220151",
"a<	c #1B0144",
"b<	c #19013C",
"c<	c #200147",
"d<	c #220149",
"e<	c #1B0143",
"f<	c #170146",
"g<	c #150142",
"h<	c #150143",
"i<	c #1C014F",
"j<	c #550C93",
"k<	c #65179A",
"l<	c #5D1496",
"m<	c #5C1D8B",
"n<	c #44196E",
"o<	c #301653",
"p<	c #23113D",
"q<	c #150B2B",
"r<	c #0A051D",
"s<	c #490A60",
"t<	c #641890",
"u<	c #341163",
"v<	c #1A0F34",
"w<	c #82209D",
"x<	c #600991",
"y<	c #30007C",
"z<	c #300261",
"A<	c #2E0264",
"B<	c #140133",
"C<	c #180259",
"D<	c #1A015F",
"E<	c #220172",
"F<	c #230147",
"G<	c #1C013F",
"H<	c #170137",
"I<	c #150134",
"J<	c #160137",
"K<	c #140137",
"L<	c #110133",
"M<	c #100131",
"N<	c #10012A",
"O<	c #12012B",
"P<	c #150131",
"Q<	c #180139",
"R<	c #1A0145",
"S<	c #1A014C",
"T<	c #21015C",
"U<	c #3C047F",
"V<	c #5A1296",
"W<	c #671E93",
"X<	c #571888",
"Y<	c #411A68",
"Z<	c #2B164B",
"`<	c #24123B",
" [	c #120927",
".[	c #070518",
"+[	c #530380",
"@[	c #6A2790",
"#[	c #2D1955",
"$[	c #0A0624",
"%[	c #7C219C",
"&[	c #5A088C",
"*[	c #30016C",
"=[	c #230156",
"-[	c #17014D",
";[	c #28015D",
">[	c #2F0166",
",[	c #24014E",
"'[	c #180137",
")[	c #100130",
"![	c #0A0132",
"~[	c #100149",
"{[	c #19015F",
"][	c #0F0134",
"^[	c #0C0124",
"/[	c #0A0128",
"([	c #0A0124",
"_[	c #0D0128",
":[	c #270170",
"<[	c #3F097E",
"[[	c #5C1A8D",
"}[	c #511B75",
"|[	c #3E185E",
"1[	c #21123A",
"2[	c #110329",
"3[	c #611993",
"4[	c #4F2B87",
"5[	c #150A44",
"6[	c #0F082E",
"7[	c #5E0D94",
"8[	c #210160",
"9[	c #150147",
"0[	c #31016D",
"a[	c #250147",
"b[	c #08012B",
"c[	c #090130",
"d[	c #0F0143",
"e[	c #10014A",
"f[	c #130157",
"g[	c #19015B",
"h[	c #190150",
"i[	c #0A012F",
"j[	c #06011E",
"k[	c #0C0127",
"l[	c #35016C",
"m[	c #480287",
"n[	c #48038C",
"o[	c #4F0B8F",
"p[	c #621A93",
"q[	c #631998",
"r[	c #620E9B",
"s[	c #501577",
"t[	c #2A1143",
"u[	c #1D0D37",
"v[	c #1C0E31",
"w[	c #180D2D",
"x[	c #100824",
"y[	c #060418",
"z[	c #21034E",
"A[	c #471780",
"B[	c #32156F",
"C[	c #190B4D",
"D[	c #110A35",
"E[	c #08061B",
"F[	c #4C0587",
"G[	c #230064",
"H[	c #30018E",
"I[	c #260171",
"J[	c #1E0156",
"K[	c #230160",
"L[	c #2E016D",
"M[	c #2D0160",
"N[	c #1E0141",
"O[	c #10012E",
"P[	c #09012B",
"Q[	c #0B0132",
"R[	c #140154",
"S[	c #170150",
"T[	c #1A0149",
"U[	c #0A0125",
"V[	c #08011F",
"W[	c #06011C",
"X[	c #3B0276",
"Y[	c #480288",
"Z[	c #550597",
"`[	c #66129E",
" }	c #6A199E",
".}	c #64189B",
"+}	c #57138B",
"@}	c #380E5F",
"#}	c #13092A",
"$}	c #120829",
"%}	c #140B24",
"&}	c #120B24",
"*}	c #0C081E",
"=}	c #0F0522",
"-}	c #0C0621",
";}	c #26025D",
">}	c #3A0D72",
",}	c #311560",
"'}	c #1A0C4D",
")}	c #110A36",
"!}	c #09061E",
"~}	c #31045F",
"{}	c #1D0252",
"]}	c #2B0171",
"^}	c #31017E",
"/}	c #3E0293",
"(}	c #49059F",
"_}	c #400590",
":}	c #2B016B",
"<}	c #300168",
"[}	c #20014A",
"}}	c #09012D",
"|}	c #08012E",
"1}	c #0E0142",
"2}	c #120152",
"3}	c #130152",
"4}	c #0E012D",
"5}	c #07011C",
"6}	c #08011E",
"7}	c #090121",
"8}	c #130137",
"9}	c #2A016C",
"0}	c #3A0181",
"a}	c #530797",
"b}	c #5D0B9E",
"c}	c #4C118E",
"d}	c #3B1272",
"e}	c #250D47",
"f}	c #100826",
"g}	c #0D081C",
"h}	c #180B2B",
"i}	c #18092D",
"j}	c #1A0835",
"k}	c #0D0724",
"l}	c #0B042B",
"m}	c #41126F",
"n}	c #32145B",
"o}	c #1E0E55",
"p}	c #100835",
"q}	c #0B0722",
"r}	c #0B0623",
"s}	c #0F0834",
"t}	c #1B0A4B",
"u}	c #2A0960",
"v}	c #32017E",
"w}	c #450497",
"x}	c #530A9D",
"y}	c #47079B",
"z}	c #300288",
"A}	c #1E015F",
"B}	c #22014D",
"C}	c #1B013E",
"D}	c #150136",
"E}	c #0B0127",
"F}	c #050124",
"G}	c #05011F",
"H}	c #050122",
"I}	c #08012D",
"J}	c #0D012A",
"K}	c #120130",
"L}	c #1B023F",
"M}	c #240255",
"N}	c #25015E",
"O}	c #23015F",
"P}	c #380187",
"Q}	c #510899",
"R}	c #5A0D9D",
"S}	c #47108D",
"T}	c #3D1877",
"U}	c #351D51",
"V}	c #12092B",
"W}	c #070413",
"X}	c #140523",
"Y}	c #3A135B",
"Z}	c #310C59",
"`}	c #1E083C",
" |	c #1D0352",
".|	c #140240",
"+|	c #45146F",
"@|	c #311357",
"#|	c #1B0C4F",
"$|	c #0E0736",
"%|	c #0C0827",
"&|	c #0C0628",
"*|	c #0E0735",
"=|	c #1A0C47",
"-|	c #351656",
";|	c #44186C",
">|	c #48068B",
",|	c #410397",
"'|	c #46059C",
")|	c #3F049D",
"!|	c #310193",
"~|	c #230169",
"{|	c #18023B",
"]|	c #04011C",
"^|	c #04011B",
"/|	c #080120",
"(|	c #180155",
"_|	c #1D0142",
":|	c #21024A",
"<|	c #2D035E",
"[|	c #330178",
"}|	c #3C0388",
"||	c #38018A",
"1|	c #440395",
"2|	c #4F0B99",
"3|	c #49128B",
"4|	c #3E1972",
"5|	c #351B59",
"6|	c #24123E",
"7|	c #0D0723",
"8|	c #2D0C39",
"9|	c #521867",
"0|	c #592185",
"a|	c #380C6A",
"b|	c #180935",
"c|	c #1E025D",
"d|	c #180247",
"e|	c #41126C",
"f|	c #331357",
"g|	c #180B44",
"h|	c #0C0634",
"i|	c #0E082D",
"j|	c #0C062E",
"k|	c #0C0536",
"l|	c #1F0D52",
"m|	c #35165B",
"n|	c #3E1665",
"o|	c #660BA0",
"p|	c #5E059E",
"q|	c #390295",
"r|	c #300190",
"s|	c #2E0183",
"t|	c #250171",
"u|	c #070121",
"v|	c #2D026A",
"w|	c #39037E",
"x|	c #40038A",
"y|	c #3F028C",
"z|	c #3E0388",
"A|	c #260170",
"B|	c #3D0889",
"C|	c #4A128A",
"D|	c #411E69",
"E|	c #321A4E",
"F|	c #1E0F35",
"G|	c #0A051B",
"H|	c #210540",
"I|	c #5E117B",
"J|	c #6C1D90",
"K|	c #571A86",
"L|	c #2F0A5D",
"M|	c #140830",
"N|	c #330650",
"O|	c #2E0071",
"P|	c #2B0267",
"Q|	c #3C1266",
"R|	c #311253",
"S|	c #1B0C48",
"T|	c #0E0637",
"U|	c #0D082E",
"V|	c #0C0531",
"W|	c #0A0532",
"X|	c #1E0C4A",
"Y|	c #391A61",
"Z|	c #361659",
"`|	c #360876",
" 1	c #5F0C9E",
".1	c #70129E",
"+1	c #64059E",
"@1	c #540393",
"#1	c #22016C",
"$1	c #1D015C",
"%1	c #090125",
"&1	c #0B0126",
"*1	c #170155",
"=1	c #340281",
"-1	c #3B028D",
";1	c #3F028E",
">1	c #3B0188",
",1	c #340277",
"'1	c #350574",
")1	c #340B6F",
"!1	c #3C136F",
"~1	c #3B185F",
"{1	c #301846",
"]1	c #1E1034",
"^1	c #120926",
"/1	c #100522",
"(1	c #250441",
"_1	c #3B0174",
":1	c #680896",
"<1	c #691D93",
"[1	c #42136F",
"}1	c #240D47",
"|1	c #0E0725",
"11	c #51067A",
"21	c #46018B",
"31	c #3B1261",
"41	c #361859",
"51	c #1E0C50",
"61	c #0C0534",
"71	c #0C0630",
"81	c #0A0526",
"91	c #0C0726",
"01	c #0D082A",
"a1	c #2E1A4B",
"b1	c #502C6F",
"c1	c #4D1E76",
"d1	c #53049A",
"e1	c #5A089E",
"f1	c #81179F",
"g1	c #5D0890",
"h1	c #310080",
"i1	c #29015E",
"j1	c #2C0174",
"k1	c #2D0178",
"l1	c #330183",
"m1	c #3E018E",
"n1	c #45018D",
"o1	c #47018D",
"p1	c #3C027E",
"q1	c #521089",
"r1	c #491875",
"s1	c #3C195A",
"t1	c #2C1542",
"u1	c #1C0D30",
"v1	c #2C0556",
"w1	c #400376",
"x1	c #4E0989",
"y1	c #601A93",
"z1	c #5B2685",
"A1	c #2A1852",
"B1	c #11092A",
"C1	c #650B94",
"D1	c #530390",
"E1	c #530590",
"F1	c #4A1E74",
"G1	c #2E1A4F",
"H1	c #0C0829",
"I1	c #0C0629",
"J1	c #0B0527",
"K1	c #0D0826",
"L1	c #22133E",
"M1	c #341E50",
"N1	c #4D1D71",
"O1	c #6915A0",
"P1	c #58099B",
"Q1	c #8B299D",
"R1	c #77109D",
"S1	c #3B007C",
"T1	c #250159",
"U1	c #0E012E",
"V1	c #190158",
"W1	c #380180",
"X1	c #350178",
"Y1	c #430184",
"Z1	c #51018D",
"`1	c #580493",
" 2	c #56128E",
".2	c #5F1A90",
"+2	c #571887",
"@2	c #411B60",
"#2	c #2D1445",
"$2	c #0D0721",
"%2	c #110525",
"&2	c #1F035D",
"*2	c #380277",
"=2	c #43117C",
"-2	c #481D7F",
";2	c #351C68",
">2	c #140A3B",
",2	c #0B0624",
"'2	c #180345",
")2	c #600997",
"!2	c #53048B",
"~2	c #390C6E",
"{2	c #3B1A5F",
"]2	c #1C103C",
"^2	c #0C0825",
"/2	c #09061A",
"(2	c #0C0820",
"_2	c #26173F",
":2	c #22123B",
"<2	c #55296B",
"[2	c #8731A2",
"}2	c #842A9D",
"|2	c #92349E",
"12	c #630C99",
"22	c #290070",
"32	c #16014A",
"42	c #1D0152",
"52	c #1E015B",
"62	c #390190",
"72	c #4A079D",
"82	c #16014E",
"92	c #20015A",
"02	c #31016A",
"a2	c #470280",
"b2	c #570390",
"c2	c #580396",
"d2	c #590293",
"e2	c #4E0188",
"f2	c #490182",
"g2	c #500187",
"h2	c #53028C",
"i2	c #58108F",
"j2	c #641F93",
"k2	c #612289",
"l2	c #461A6A",
"m2	c #2D1347",
"n2	c #180B2D",
"o2	c #0D0720",
"p2	c #28053D",
"q2	c #3A0564",
"r2	c #3D0288",
"s2	c #210066",
"t2	c #2A0264",
"u2	c #3B0E74",
"v2	c #331569",
"w2	c #1E0D52",
"x2	c #120A3A",
"y2	c #370A6B",
"z2	c #2A1547",
"A2	c #21133F",
"B2	c #0C0824",
"C2	c #09071A",
"D2	c #09071B",
"E2	c #0A081C",
"F2	c #21153A",
"G2	c #211537",
"H2	c #512569",
"I2	c #8120A2",
"J2	c #86239E",
"K2	c #7A1A9F",
"L2	c #51058E",
"M2	c #240068",
"N2	c #32017F",
"O2	c #390191",
"P2	c #4F089C",
"Q2	c #570C9E",
"R2	c #39029E",
"S2	c #2E018E",
"T2	c #250172",
"U2	c #1F0162",
"V2	c #11013F",
"W2	c #500481",
"X2	c #680994",
"Y2	c #700B9D",
"Z2	c #710B9E",
"`2	c #6B089B",
" 3	c #610398",
".3	c #5E0392",
"+3	c #630893",
"@3	c #640F96",
"#3	c #601595",
"$3	c #5D1F8C",
"%3	c #481A70",
"&3	c #2B1049",
"*3	c #180B30",
"=3	c #1F043E",
"-3	c #57087A",
";3	c #56058B",
">3	c #1E015A",
",3	c #2D095A",
"'3	c #3B126A",
")3	c #2D135B",
"!3	c #190C4A",
"~3	c #100934",
"{3	c #0F0629",
"]3	c #440190",
"^3	c #3A0A6B",
"/3	c #24153E",
"(3	c #20143F",
"_3	c #0C0821",
":3	c #0A081A",
"<3	c #08061A",
"[3	c #211536",
"}3	c #1D1330",
"|3	c #4C1C64",
"13	c #7A0FA2",
"23	c #64099A",
"33	c #64099E",
"43	c #360185",
"53	c #400292",
"63	c #410399",
"73	c #44059C",
"83	c #3C039D",
"93	c #2E0194",
"03	c #300187",
"a3	c #270175",
"b3	c #150145",
"c3	c #300171",
"d3	c #51038D",
"e3	c #6A0E9C",
"f3	c #70119E",
"g3	c #67089C",
"h3	c #5C0395",
"i3	c #610794",
"j3	c #71189A",
"k3	c #701F99",
"l3	c #5D1C8B",
"m3	c #491876",
"n3	c #180933",
"o3	c #0D0624",
"p3	c #0E042A",
"q3	c #2D0261",
"r3	c #6A0898",
"s3	c #50048A",
"t3	c #1A024E",
"u3	c #3B1064",
"v3	c #391360",
"w3	c #261055",
"x3	c #170B46",
"y3	c #0D082D",
"z3	c #230451",
"A3	c #4E0199",
"B3	c #410B6D",
"C3	c #1A1132",
"D3	c #20123C",
"  . + @ # $ % & * = - ; = > , ' ) ! ~ { ] ^ / ( _ : < [ } | 1 2 3 4 5 6 7 8 9 0 a b c d d e f g h i # j k l m n & o p q r s t u ",
"v w x s y z A B C D E F q G H I J K L M N O F P Q R S T U V W X Y Z `  ...+.@.#.$.%.&.*.=.-.;.>.,.'.).!.~.{.].^./.(.p _.:.<.[.t ",
"}.|.1.q z 2.3.4.5.6.$ 7.8.9.0.a.b.c.d.e.f.g.h.i.j.k.l.m.n.o.p.q.r.s.t.u.v.w.x.y.z.A.B.C.D.E.F.G.H.I.J.K.L.M.N.O.P.Q.7.R.p E S.T.",
"U.V.W.y * ; v X.Y.Z.`. +2..+++@+#+$+%+p &+*+=+-+;+>+,+'+)+!+~+{+]+^+/+(+_+:+<+[+}+|+1+2+3+4+5+6+7+8+9+0+a+b+c+d+e+f+g+7.R.p U.h+",
"i+g.p j+p k+l+m+$ i 7.7.# n+o+p+^ p q+r+s+t+u+v+w+x+y+z+A+B+C+D+E+F+G+H+I+J+K+L+M+N+O+P+Q+R+S+T+U+V+W+X+Y+Z+`+ @.@+@@@#@2.p q q ",
":.$@%@y &@*@=@-@;@& >@,@'@)@!@# ; ~@{@]@^@/@(@_@:@<@[@}@|@1@2@3@4@5@6@7@6@8@9@0@a@b@c@d@e@f@g@h@i@|.j@k@l@m@n@o@p@q@r@&@R.p $@q+",
":.q # 7.& s@t@u@v@/ _.w@'@x@y@z@A@B@C@D@E@F@G@H@I@J@K@L@M@N@O@P@Q@R@S@T@U@V@W@X@Y@Z@`@ #.#+#@###$#n+b %#&#*#=#-#;#  $ p / = >#a ",
"q ; ; & # ,#'#N )#7.# !#a ~#{#]#^#/#(#_#:#<#[#}#|#1#..2#3#4#5#6#Z@7#8#9#0#a#b#c#d#7#e#f#g#h#i#j#k#i@l#m#-@n#o#p#q#r#s## & z t#$@",
">## u#= t v#w#x#/ z ; F &@t y#z#A#B#C#D#E#F#G#H#I#J#K#L#M#N#O#P#Q#R#S#T#U#V#W#X#d#Y#Z#`# $V@.$+$@$#$$$%$&$*$=$-$;$s+>$i ,$z # #@",
"i+'$F )$!$~${$]$F z i+^$/$($_$:$<$[$}$|$1$2$3$4$5$6$7$8$9$0$a$b$c$d$e$e$f$g$h$i$j$k$l$m$n$o$p$q$r$s$t$u$v$w$x$y$z$A$).B$C$D$k o ",
"g+E R.E$F$G$7.H$z i+I$J$J$K$L$M$N$O$P$Q$R$S$T$U$V$W$X$Y$Z$`$ %.%Y#+%@%#%$%%%g$&%*%=%-%;%>%,%'%)%!%~%p+{%]%^%/%(%_%:%<%[%}%|%n#1%",
"2%3%7.4%5%6%& ;@s r#7%8%9%0%a%b%c%d%e%f%g%h%i%j%k%/+8#l%m%n%n%o%p%q%r%s%t%u%`#Z#v%w%/+x%y%z%A%B%C%D%E%F%G%H%I%J%K%L%M%N%O%P%Q%R%",
"*#S%7.T%# ^ ;@U%V%W%X%Y%Z%`% &.&+&@&#&$&%&&&*&=&-&;&>&b#,&'&)&!&~&{&{&]&^&/&(&_&:&<&[&}&..|&1&2&3&4&5&6&7&8&9&0&a&b&c&d&e&f&g&h&",
"$ Z. +_.i&`.I$.@j&k&l&m&n&o&p&q&r&s&t&u&v&w&x&y&z&A&B&N+C&u%D&`#E&M#M#F&G&H&I&J&b#K&L&M&N&O&P&Q&R&S&T&U&V&W&X&Y&Z&`& *.*+*@*#*$*",
"$ %*&*& i&**=*-*;*>*,*'*)*!*~*{*]*^*/*(*_*:*<*[*}*|*1*2*3*b#4*5*f#6*7*8*9*0*a*b*c*d*e*f*g*h*i*j*k*l*m*n*o*p*q*r*s*t*u*v*w*x*y*z*",
"i H$A*B*x@C*D*E*F*G*H*I*J*K*L*M*N*O*P*Q*R*S*T*U*V*W*X*Y*V#%%Z#Z*b*`* =.=+=@=#=$=%=e*e*&=*===-=;=>=,='=)=!=~={=]=^=/=(=_=:=<=[=}=",
"( |=7.1=2=3=4=5=6=7=8=9=6$0=a=k%b=c=d=e=f=g=h=I++%i=j=k=l=m=n=d$o=p=q=r=s=t=u=v=w=x=y=z=0=A=B=C=D=E=F=G=H=I=J=K=L=M=N=O=P=Q=R=S=",
"N T=_.U=V=W=X=Y=Z=`= -.-a=Q*+-@-#-$-%-&-*-=---K&c#&%k=;-|*>->-,-,-T#'-)-!-~-{-]-^-/-q=Q*a=(-_-:-<-[-}-|-1-2-3-4-5-6-7-8-9-0-a-b-",
"#@c-d-e-f-g-h-i-j-k-l-m-&-y=n-o-6@6@p-q-r-p%s-t-4*u-@%=&f=1&v-w-x-y-z-g=A-B-C-D-E-F-G-H-I-0=a=J-K-L-M-N-O-P-Q-R-S-T-U-V-W-X-Y-Z-",
"F `- ;.;+;@;#;$;%;&;*;=;-;;;'&'&R@>;t-,;';Q@);!;~;.-{;];^;/;(;_;:;<;[;};|;1;2;3;4;5;6;~*7;8;|+9;0;a;b;c;d;e;f;g;h;i;j;D=k;l;n+m;",
"7.H$}-n;o;p;q;r;s;t;u;v;w;u%x;y;z;y;K&Z#A;B;C;D;E;F;G;H;I;J;K;L;M;k%w=N;O;P;Q;R;S;T;U;V;W;X;Y;9;Z;`; >w=.>+>@>#>$>%>&>*>=>->;>>>",
"/ ,>'>)>!>~>{>]>^>O+D&'&/>(>_>:>:>_>-%/+ #H-<>[>}>|>1>2>3>4>5>6>7>8>6$9>0>a>b>c>d>e>f>g>h>i>j>J+C&k><*l>K#m>n>o>J#z%p>q>r>s>t>u>",
"v@v>w>x>y>z>A>B>0#C>i=Z#D>-%E>F>G>h=H>I>J>K>L>M>N>O>P>Q>R>S>T>U>V>W>X>Y>Z>`> ,.,+,@,#,$,%,&,9@J+';`#*,=, =-,;,>,,,',),!,~,{,],^,",
"& /,Q;(,_,:,<,`#Y#%%[,},[&|,M+M+1,2,3,4,5,6,7,8,9,0,a,b,c,d,e,f,g,h,i,j,k,l,m,n,o,p,q,r,s,t,n$u,v,k$w,x,y,z,',A,,,B,C,D,E,F,G,H,",
"I,J,K,L,M,N,k>O,`#(>P,Q,L&R,S,T,U,V, ,W,X,Y,Z,`, '.'+'@'#'$'%'&'*'='-';'>',''')'!'~'{']'^'%,%-/'('_'f$:'<'['}'|'1'2'3'4'5'6'7'8'",
"9' =0'a'e*p%b'x;c'k>J&Q,d'e'f'g'h' ,i'j'k'l'm'n'o'i,p'q'r's't'u''%v'w'x'y'z'I>A'B'C'D'E'F'G'H'I'J'K'y&L'M'N'j'O'P'Q'R'S'T'~*U'V'",
"W'X'[+Y'Z'Z'`' )D&.)+)w&X+@)#)$)%)A%&)*)=)-);)>),)')))!)~)[+q={)])x%[+^)/)_&U*()_):)<)[)})|)g=1)V#;-2)3)y-4)1&5)6)7)8)9)y.0)a)b)",
"c)d)e)f)g)('h))&';l$i)j)k)l)m)n)o)p)q)r)s)t)u)v)w)b=x)y)z)T@W@A)B)F&C)D)E)F)-&G)H)I)J)K)L)M)N)O)P)Q)R)[*S)T)U)t.V)W)R$X)Y)Z)8#3*",
"`)^> !.!n%m%K&4*+!L'M#2#@!#!$!%!&!4)*!^-=!-!;!>!C;,!'!D&`#)!e'!!~!L'|*{!]!@%^!/!(!N*_!_!:!<![!P)U#3)}!|!1!2!3!4!5!6!7!8!9!0!!;(&",
"c@a!b!';J'<&Z#c!}*d!e!f!g!h!i!j!k!l!m!`*E>n!H+o!p!A)q!r!s!t!u!v!w!x!c$$%:+5*R, =y!z!A!B!C! $}!P)|*D!:*E!F!G!I>H!I!J@J!K!L!M!N!x)",
"Y;k>O,>&Q)O![,P!Q!R!S!T!U!V!W!X!(,==>%I+Y!-%Z!D>`! ~.~+~@~#~$~%~&~:'9$}!*~e#=~ =D+-~;~>~,~`#'~5#D!)~U)!~~~M'{~]~]~p;^~/~(~_~:~>%",
"x)I'3)1))!<~[~}~q)A%|~1~U!2~3~2,4~5~6~I'/'7~8~9~0~a~b~-%N+c~&%d~g$e~R)n=c$Z*F>f~g~h~i~%,6~j~j~|*k~F&l~m~n~/,o~v-p~q~r~s~>'x)h#t~",
"u~d$)!v~w~x~y~z~m,A~|;B~g'u!Q;^):,C~W*D~E~T,F~G~H~I~w;K&J~h$K~L~M~ %N~O~P~k>Z!Q~R~S~T~U~V~W~X~Y~-&Z~`~ {.{x,+{@{#{${%{&{z,*{={-{",
"~!;{s!>{,{'{){''/)u,!{1!~{{{*{]{^{/{@%({_{w~t!f':{6@u%v,<{[{}{}{[{|{1{2{+%3{f*4{5{6{7{8{V~9{+)0{a{b{c{d{e{>-x-|;f{g{h{i{j{k{l{m{",
"n{o{p{q{r{s{t{u{-&}*v{w{x{y{$-z{A{c'Y$B{C{D{a>y{V@E{.)F{X#G{H{}{I{J{K{u-L{M{N{O{P{U~K+Q{J+R{L{S{T{U{V{e{W{X{v{X+Y{Z{`{ ].]+]@]#]",
"!!$]%]&]*]=]D)-];]9$w->],]m-'])]!]@%`!>]~]{]]]^]/](]_]b#<{:][{<]h$[]V#}]|]1]2]6 3]H+-%4]_& !~)(-5]x!e{O#6]7]t!8]9]0]a]b]6>c]d]e]",
"f]g]h]i]j]I>k]l]L'z&m]g#g#n]o]p]Q@q]r]f!s]t]u]v]V#w]x]r-[][]y]y]z]c!7~A]B]C]D]$-u~E]F]J&G]H]I]J]K]S#e{L]M]N]O]P]Q]R]G-S]T]U]V]W]",
"$)X]Y]Z]1]H&`]Y~W{e~&~ ^-%.^+^@^9;#^$^%^&^*^=^X;u%-^v]A{;^l$c!W~>^!!,^'^)^|]+-!^~^j>/&{^]^^^/^(^_^:^<^[^}^|^1^>-M'2^3^4^5^6^7^8^",
"9^0^a^b^c^d^#%e^R#1)f^^!:{g^h^i^;^+!f{j^k^l^m^n^]&o^p^{^n-q^T*]){)r^s^t^F] !u^v^w^x^y^z^A^B^C^[~n~D^E^F^G^H^I^J^K^L^M^N^O^P^Q^R^",
"S^T^U^V^W^O!X^G~Y^f$Z^`^h> /./+/;-9#@/#/$/%/&/*/=/-/S@w;U@;/W^P*>/%=,/n^'/+^)/v]!/~/{/]/^///Z~w-(/0$b$b$b$2{>&-&_/:/</[/}/|/1/2/",
"3/4/5/6/1,0~7/8/N#9/0/1+U~a/b/>&c/N)d/e/f/g/h/.$i/j/!]`#c*k/3*d^B;G+|+l/m/n/o/p/q/r/s/t/u/H>T#R#v/w/x/y/z/k$Z*L+7 A/B/C/D/E/F/2.",
"G/H/''I/>-J/K/L/P#[,M/N/O/P/C>#^l$F>^-q)Q/R/S/T/y'U/V/A;c@a)W/g#X/L,];J)Y/Z/`/ (.(+(@(]~L##(X^z&$(Y*Y@c#%(q-&(`**(=(-(;(>(,('()(",
"!(~(Q;{(](^(/(((_(:(<(})[(}(N+P)=%E)|(1(2(3(4(5(6(7(8(9(&-b*0(0!a(6$b(c(d(e(f(g(h(i(j(k(x!l(m(n(;-n%o(p(r%p%K+@/q(r(s(t(u(v(w(y ",
"..x(x%2#y(z(A(B(u-C(s.D(E(J+e^*%('T*h'm)F(G(H(I(J(K(L(M(N(O(P(Q(R(S(T(U(V(W(X(Y(Z(`( _._;{e{Q)V#+_@_#_$_%_/&&_D+*_=_-_;_>_,_q@o ",
"'_)_w=!_~_}~{_I++%]_^_G'/_1,c$j=.%(___:_r)<_[_}_|_1_2_3_4_5_6_7_8_9_0_a_b_c_d_e_:_E!+~f_j~N~K'g_h_i_q%j_k/C;k_l_m_n_o_p_q_r_s_t_",
"u_x.v_$]1!w_x_d^u-F+y_z_k//'2{A_;-B_C_D_D_E_F_G_H_I_J_K_L_M_N_O_P_Q_%^R_S_0>S!T_E~L'1);-U_i=('V_,&W_ $a!k]X_Y_Z_`_ :.:+:@:#:$:# ",
"%:6$&:n)T!*:=:<!-:n^h>;:!]l$>:d~Q)[;~~O;,:':s]):!:~:{:]:^:/:(:_:::<:|&[:}:8$|:>^1:l%4*m%n%2:%(b#3:L{4:g=]!5:6:7:8:9:0:v a:b:c:$ ",
"d:e:_,f:k'g:h:{^W~i:9@i>j:m%z/k:#%l:m:n:o:p:q:k']~r:s:t:u:v:w:x:y:0=z:+-A:},B:C~3{C:d*D:';/>k>m$n^E:$-z::,F:G:H:I:J:h.K:L:M:N:u#",
"O:P:Q:0=5(R:S:9@J^^!T:A{%_@_U:b@W*V:W:U)X:Y:Z:`:8$f]a=^> <.<;/+<@<#<$<%<i/a!G><+&<T:L{_&+)*<A)p!=<-<;<><,<'<)<!<~<e+5%{<]<^</<(<",
"_<:<<<T*[<}<|<^{1<-%K+-;2<b/3<4<c/5<6<7<['8<u{c@&~$~-]N,9<0<a<s-b<c<d<e<L{`]f<B:2<S@j_u%g<h<_&i<~*j<k<l<m<n<o<p<q<r<5%s<t<u<v<f ",
"w<x<y<~^[&z<A<H~Y!R,*-:{^&B<,;y/x/}*C<x,D<E<Q;_*9#2*9#/&F<G<H<I<B<J<K<m%L<M<n%N<O<P<Q<R<S<I+}]T<U<V<W<X<Y<Z<`< [Z..[F +[@[#[$[t#",
"%[&[*[=[K+B;!^-[I'B:;[>[,['[)[;-![n=S#~[>-{[2#Q;=&N+q]Y$][+_Z'^[o(o(j$W#J~/[([_[N<$_w;$-~)~):[<[q;[[}[|[A#1[Q S%`.5%2[3[4[5[6[# ",
"7[_~k]*-:{S<8[z-9[n^.$0[^_a[n%K'b[c[n=d[N#e[f[|!g[h[*<8#i[k=k=/[J~W#d~h$j[W#j$k[h_+<l[m[n[o[p[q[r[s[t[u[v[w[x[.[y[o z[A[B[C[D[E[",
"F[G[_*i:%=h=s)H[I[J[K[L[M[N[O[('K{P[X*Q[c$e{Y^n~R[S[A)T[.!n%U[j=&%j=V[W[X#U[2:M<j_=[X[Y[Z[`[ }.}+}@}#}$}%}&}*}=}-}B*;}>},}'})}!}",
"~}{}_>M/]}^}/}(}_}a*&&:}<}[}J<)[>:4<}}b[|}b$1}f_2}3}B)p=d^C&4}j$5}6}V[7}c#8}R<(&Y;z'9}0}a}b}Z=c}d}e}f}I$g}h}i}j}k}l}0{m}n}o}p}q}",
"r}s}t}u}v}l'w}x}y}z}A}y'`)B}C}D}E} %F}G}H}I}3)L'!{e'X+Q;G&-%C>J}7}#_K}b/L}M}N}O}z:V;P}*^Q}R}S}T}U}V}e+W}X}Y}Z}`}-} |.|+|@|#|$|%|",
"&|*|=|-|;|>|,|'|)|!|~(~|e=<,/]{|('j[]|^|h$/|.%O!%~~!f^I/Q](|W/l%';j:_|:|<|{>[|V;^;}|||1|2|3|4|5|6|7|C 8|9|0|a|b|*#c|d|e|f|g|h|i|",
"j|k|l|m|n|!+o|p|q|r|s|t|Q;:>R<3:F{ %|{u|&%([d#z/u-1:I'W~%~~!$~W~_&e*9(v|w|x|y|(~z|P+A|B|C|D|E|F|, G|H|I|J|K|L|M|N|O|P|Q|R|S|T|U|",
"V|W|X|Y|Z|`| 1.1+1@1#1X/$1Z!n^V~{&z/ %%1c#&1j=V[X#k:6#U#*~E&*1:*[&t.9}=1-1;1>1V;,1'1)1!1~1{1]1^1/1(1_1:1<1[1}1|11121@13141516171",
"819101a1b1c1d1e1f1g1h1i1I&H+H+b*w%.%K'_'J'E}&1([J~u-w,x&#(F&<'/)`*j1k1l1m1n1o1p1'+q1r1s1t1u1r#S%v1w1x1y1z1A1B1$ C1D1E1F1G1H1I1J1",
"; '$K1L1M1N1O1P1Q1R1S1y)T1y=M+A=A%B>:(+/U1V_`'';`#9#n{I/V1&&:,_~W1E;k_X1Y1Z1`1 2.2+2@2#2O-$2%2&2x:*2=2-2;2>2,2'2)2!2~2{2]2^2; ; ",
"/2'$(2_2:2<2[2}2|212223242*-5262(}72<:N)+/c#%(+/N+/'S#829202a2b2c2d2e2f2g2h2i2j2k2l2m2n2o2p2q2r2s2t2u2v2w2x2q}c^r(T'y2z2A2B2C2; ",
"D2# E2F2G2H2I2J2K2L2M2Z!V*A]N2O2P2Q2R2S2T2U232)&{&V21))~W^W2X2Y2Z2`2 3.3+3@3#3$3%3&3*3$2=3-3;3j{>3,3'3)3!3~3{3{*J#]3^3/3(3_3:3; ",
"<3,$$ [3}3|31323338)A>&(-%6/43536373839303a3<;T*I&`]b3>3c3d323e3f3g3h3i3j3k3l3m3z$n3o3p3q3r3s3H-t3u3v3w3x3y3z3A>*{A3B3C3D3*}i+(."};
