/* XPM */
static char * portal_rot13_xpm[] = {
"64 64 1838 2",
"  	c #000012",
". 	c #000010",
"+ 	c #00000C",
"@ 	c #00000B",
"# 	c #000001",
"$ 	c #000000",
"% 	c #00000D",
"& 	c #000020",
"* 	c #000026",
"= 	c #00001A",
"- 	c #01001A",
"; 	c #010019",
"> 	c #000004",
", 	c #000024",
"' 	c #09003B",
") 	c #0D0041",
"! 	c #040032",
"~ 	c #000003",
"{ 	c #00000F",
"] 	c #040021",
"^ 	c #0A0028",
"/ 	c #100033",
"( 	c #1D0044",
"_ 	c #2B0055",
": 	c #390066",
"< 	c #3D006A",
"[ 	c #3B006A",
"} 	c #300059",
"| 	c #1A0030",
"1 	c #0C001F",
"2 	c #010005",
"3 	c #000006",
"4 	c #000009",
"5 	c #000008",
"6 	c #000019",
"7 	c #080031",
"8 	c #12003E",
"9 	c #000030",
"0 	c #00001F",
"a 	c #000016",
"b 	c #000021",
"c 	c #01001B",
"d 	c #080025",
"e 	c #10002D",
"f 	c #150032",
"g 	c #160038",
"h 	c #1B0042",
"i 	c #26004E",
"j 	c #2E005D",
"k 	c #350068",
"l 	c #400070",
"m 	c #480074",
"n 	c #3F006B",
"o 	c #31005F",
"p 	c #19003F",
"q 	c #010002",
"r 	c #010004",
"s 	c #000005",
"t 	c #030013",
"u 	c #07001B",
"v 	c #090020",
"w 	c #09001F",
"x 	c #08001F",
"y 	c #000007",
"z 	c #000013",
"A 	c #1F0045",
"B 	c #290052",
"C 	c #1B0047",
"D 	c #000029",
"E 	c #100028",
"F 	c #1B0038",
"G 	c #1C003F",
"H 	c #1C0042",
"I 	c #1F0048",
"J 	c #240051",
"K 	c #320061",
"L 	c #410071",
"M 	c #440079",
"N 	c #420079",
"O 	c #420073",
"P 	c #44006E",
"Q 	c #3D006E",
"R 	c #310068",
"S 	c #260065",
"T 	c #1B0057",
"U 	c #100039",
"V 	c #030016",
"W 	c #27004B",
"X 	c #400065",
"Y 	c #2A004B",
"Z 	c #010016",
"` 	c #08001C",
" .	c #100022",
"..	c #16002A",
"+.	c #170030",
"@.	c #1E0038",
"#.	c #29014B",
"$.	c #32005A",
"%.	c #320060",
"&.	c #300062",
"*.	c #310067",
"=.	c #33006C",
"-.	c #3D0074",
";.	c #45007B",
">.	c #42007C",
",.	c #3D0077",
"'.	c #340068",
").	c #290058",
"!.	c #280059",
"~.	c #270061",
"{.	c #210068",
"].	c #20006C",
"^.	c #2E0073",
"/.	c #36006F",
"(.	c #2F0057",
"_.	c #20003E",
":.	c #170035",
"<.	c #13002F",
"[.	c #0D0027",
"}.	c #10002A",
"|.	c #12002F",
"1.	c #06001F",
"2.	c #000017",
"3.	c #03002A",
"4.	c #2B0051",
"5.	c #3F0060",
"6.	c #210039",
"7.	c #000015",
"8.	c #080020",
"9.	c #13002A",
"0.	c #1B0034",
"a.	c #240340",
"b.	c #29034B",
"c.	c #330956",
"d.	c #3C0F5E",
"e.	c #410D6A",
"f.	c #450873",
"g.	c #440077",
"h.	c #3F0078",
"i.	c #360077",
"j.	c #310075",
"k.	c #350075",
"l.	c #350072",
"m.	c #320072",
"n.	c #30006F",
"o.	c #26005C",
"p.	c #160046",
"q.	c #120048",
"r.	c #1A005D",
"s.	c #24006F",
"t.	c #250071",
"u.	c #290070",
"v.	c #310073",
"w.	c #2F006C",
"x.	c #250057",
"y.	c #1E0049",
"z.	c #190044",
"A.	c #15003E",
"B.	c #17003E",
"C.	c #1A0043",
"D.	c #170042",
"E.	c #0B0038",
"F.	c #00002A",
"G.	c #00001E",
"H.	c #0B0037",
"I.	c #290053",
"J.	c #1B0037",
"K.	c #030022",
"L.	c #190036",
"M.	c #2D064E",
"N.	c #300459",
"O.	c #3B0169",
"P.	c #4B1575",
"Q.	c #531A7B",
"R.	c #551980",
"S.	c #52137F",
"T.	c #4D097F",
"U.	c #430080",
"V.	c #320078",
"W.	c #240070",
"X.	c #24006E",
"Y.	c #2B006A",
"Z.	c #200053",
"`.	c #100040",
" +	c #080042",
".+	c #120055",
"++	c #19005F",
"@+	c #130054",
"#+	c #210064",
"$+	c #2A006C",
"%+	c #220060",
"&+	c #1C0051",
"*+	c #20004A",
"=+	c #120040",
"-+	c #08003F",
";+	c #0B0045",
">+	c #1C004F",
",+	c #260053",
"'+	c #1B004F",
")+	c #17003B",
"!+	c #06001E",
"~+	c #060029",
"{+	c #060030",
"]+	c #120044",
"^+	c #13003B",
"/+	c #10002E",
"(+	c #130036",
"_+	c #120035",
":+	c #160037",
"<+	c #0D002B",
"[+	c #26033C",
"}+	c #3C1359",
"|+	c #481670",
"1+	c #400374",
"2+	c #360071",
"3+	c #460078",
"4+	c #531080",
"5+	c #581584",
"6+	c #571283",
"7+	c #4A067A",
"8+	c #3D0076",
"9+	c #330076",
"0+	c #21006B",
"a+	c #10005F",
"b+	c #130063",
"c+	c #160061",
"d+	c #1F0061",
"e+	c #21005A",
"f+	c #170045",
"g+	c #0B003E",
"h+	c #090042",
"i+	c #040040",
"j+	c #010039",
"k+	c #060042",
"l+	c #130051",
"m+	c #1A0057",
"n+	c #190055",
"o+	c #1E0057",
"p+	c #270055",
"q+	c #160043",
"r+	c #08003E",
"s+	c #030044",
"t+	c #3E006B",
"u+	c #671785",
"v+	c #570F76",
"w+	c #34004B",
"x+	c #120025",
"y+	c #130037",
"z+	c #120043",
"A+	c #00001C",
"B+	c #12002E",
"C+	c #210043",
"D+	c #2E0056",
"E+	c #2F005F",
"F+	c #320063",
"G+	c #350064",
"H+	c #330060",
"I+	c #441565",
"J+	c #4E1975",
"K+	c #4E137F",
"L+	c #450081",
"M+	c #3F007C",
"N+	c #49007F",
"O+	c #4E0080",
"P+	c #500081",
"Q+	c #4B007D",
"R+	c #3B0071",
"S+	c #29006B",
"T+	c #21006A",
"U+	c #13005D",
"V+	c #080054",
"W+	c #04004E",
"X+	c #000043",
"Y+	c #080041",
"Z+	c #08003B",
"`+	c #030030",
" @	c #040030",
".@	c #0B0039",
"+@	c #080036",
"@@	c #0D003E",
"#@	c #0F0045",
"$@	c #090044",
"%@	c #04003E",
"&@	c #1A0055",
"*@	c #210060",
"=@	c #1A0052",
"-@	c #0B0047",
";@	c #1A005B",
">@	c #39007C",
",@	c #470371",
"'@	c #37064B",
")@	c #150028",
"!@	c #15004E",
"~@	c #03001C",
"{@	c #0F0027",
"]@	c #1C0037",
"^@	c #330652",
"/@	c #3C0368",
"(@	c #3E0073",
"_@	c #3C007B",
":@	c #3D007A",
"<@	c #3E007B",
"[@	c #3E007A",
"}@	c #43007B",
"|@	c #4A0481",
"1@	c #521383",
"2@	c #521582",
"3@	c #40007C",
"4@	c #3F0079",
"5@	c #410079",
"6@	c #42007B",
"7@	c #3C0074",
"8@	c #2B0069",
"9@	c #220066",
"0@	c #1B0064",
"a@	c #0B0054",
"b@	c #000049",
"c@	c #00003B",
"d@	c #00002D",
"e@	c #000028",
"f@	c #000022",
"g@	c #00002E",
"h@	c #040036",
"i@	c #090039",
"j@	c #0B003B",
"k@	c #0F003F",
"l@	c #09003E",
"m@	c #000033",
"n@	c #000025",
"o@	c #00002B",
"p@	c #160051",
"q@	c #2E006F",
"r@	c #2B006E",
"s@	c #1A005A",
"t@	c #1B004E",
"u@	c #0B004F",
"v@	c #42007A",
"w@	c #4E0D68",
"x@	c #320446",
"y@	c #03002F",
"z@	c #100042",
"A@	c #060020",
"B@	c #15002B",
"C@	c #2B014C",
"D@	c #3E095F",
"E@	c #4E1272",
"F@	c #50087E",
"G@	c #47007F",
"H@	c #40007F",
"I@	c #380077",
"J@	c #2E006D",
"K@	c #300074",
"L@	c #430079",
"M@	c #450875",
"N@	c #320069",
"O@	c #260062",
"P@	c #2B0068",
"Q@	c #31006E",
"R@	c #1B005E",
"S@	c #16005B",
"T@	c #0B0051",
"U@	c #000041",
"V@	c #000034",
"W@	c #000027",
"X@	c #000035",
"Y@	c #000036",
"Z@	c #000031",
"`@	c #010033",
" #	c #00001B",
".#	c #10004F",
"+#	c #2B0070",
"@#	c #080032",
"##	c #300046",
"$#	c #2A0045",
"%#	c #000002",
"&#	c #080028",
"*#	c #1A0036",
"=#	c #290043",
"-#	c #380855",
";#	c #3D0663",
">#	c #430171",
",#	c #52107B",
"'#	c #5E1A82",
")#	c #540B80",
"!#	c #45007C",
"~#	c #3C0078",
"{#	c #240064",
"]#	c #260067",
"^#	c #32006E",
"/#	c #2E0066",
"(#	c #190050",
"_#	c #080048",
":#	c #10004E",
"<#	c #1B0056",
"[#	c #170053",
"}#	c #0D004B",
"|#	c #01003F",
"1#	c #00003E",
"2#	c #000039",
"3#	c #090049",
"4#	c #220068",
"5#	c #26006E",
"6#	c #01002D",
"7#	c #150030",
"8#	c #150038",
"9#	c #06002A",
"0#	c #2F0053",
"a#	c #440866",
"b#	c #531378",
"c#	c #4D067E",
"d#	c #4A0081",
"e#	c #510982",
"f#	c #53127F",
"g#	c #400074",
"h#	c #30006D",
"i#	c #29006D",
"j#	c #220062",
"k#	c #280064",
"l#	c #2A0065",
"m#	c #1F0059",
"n#	c #090045",
"o#	c #00003C",
"p#	c #000037",
"q#	c #1E0060",
"r#	c #12004F",
"s#	c #010035",
"t#	c #08002F",
"u#	c #0D002F",
"v#	c #0F0035",
"w#	c #240052",
"x#	c #350066",
"y#	c #480178",
"z#	c #500382",
"A#	c #4B0083",
"B#	c #490082",
"C#	c #48007F",
"D#	c #3B0073",
"E#	c #250064",
"F#	c #19005D",
"G#	c #170058",
"H#	c #170057",
"I#	c #190057",
"J#	c #1C005A",
"K#	c #1E0059",
"L#	c #190054",
"M#	c #12004E",
"N#	c #060045",
"O#	c #00003F",
"P#	c #13004B",
"Q#	c #1B005A",
"R#	c #1C005B",
"S#	c #0F0042",
"T#	c #010022",
"U#	c #0B0046",
"V#	c #2D006C",
"W#	c #41007D",
"X#	c #4A0083",
"Y#	c #4C0082",
"Z#	c #4C0080",
"`#	c #44007A",
" $	c #31006B",
".$	c #1B0058",
"+$	c #0F004B",
"@$	c #0F004A",
"#$	c #10004D",
"$$	c #130052",
"%$	c #160056",
"&$	c #150055",
"*$	c #100050",
"=$	c #0D004D",
"-$	c #09004A",
";$	c #060048",
">$	c #040047",
",$	c #000040",
"'$	c #00002F",
")$	c #000032",
"!$	c #000038",
"~$	c #090041",
"{$	c #130048",
"]$	c #16004C",
"^$	c #1C004E",
"/$	c #15003C",
"($	c #090051",
"_$	c #170062",
":$	c #28006E",
"<$	c #360076",
"[$	c #3C0077",
"}$	c #410075",
"|$	c #3C0070",
"1$	c #2D0062",
"2$	c #1B0051",
"3$	c #0F0044",
"4$	c #08003C",
"5$	c #100043",
"6$	c #15004A",
"7$	c #13004C",
"8$	c #10004B",
"9$	c #0D0049",
"0$	c #060044",
"a$	c #040042",
"b$	c #000046",
"c$	c #03003C",
"d$	c #080039",
"e$	c #080049",
"f$	c #130053",
"g$	c #1A0059",
"h$	c #16004E",
"i$	c #13003D",
"j$	c #0B002D",
"k$	c #16002F",
"l$	c #1F0031",
"m$	c #09001E",
"n$	c #010047",
"o$	c #0D0057",
"p$	c #170063",
"q$	c #1F0066",
"r$	c #21005B",
"s$	c #200058",
"t$	c #220059",
"u$	c #220055",
"v$	c #1C004D",
"w$	c #130044",
"x$	c #010031",
"y$	c #01002F",
"z$	c #040031",
"A$	c #040033",
"B$	c #040034",
"C$	c #040037",
"D$	c #030036",
"E$	c #09004D",
"F$	c #0B0056",
"G$	c #080055",
"H$	c #0F0054",
"I$	c #120051",
"J$	c #0F0048",
"K$	c #06003C",
"L$	c #15005B",
"M$	c #1A0063",
"N$	c #17005E",
"O$	c #130050",
"P$	c #0D003B",
"Q$	c #13002E",
"R$	c #280038",
"S$	c #2B003D",
"T$	c #1C0033",
"U$	c #090025",
"V$	c #08004C",
"W$	c #0F0056",
"X$	c #13005C",
"Y$	c #1A0060",
"Z$	c #190059",
"`$	c #12004D",
" %	c #060040",
".%	c #030039",
"+%	c #030037",
"@%	c #010032",
"#%	c #010030",
"$%	c #04003F",
"%%	c #16005C",
"&%	c #190064",
"*%	c #22006C",
"=%	c #19005C",
"-%	c #0F0049",
";%	c #1C0068",
">%	c #160063",
",%	c #100058",
"'%	c #03002E",
")%	c #0B002E",
"!%	c #13002B",
"~%	c #1C002B",
"{%	c #250036",
"]%	c #21003F",
"^%	c #190039",
"/%	c #0D0028",
"(%	c #100051",
"_%	c #17005F",
":%	c #1A005F",
"<%	c #15004F",
"[%	c #04003C",
"}%	c #01003C",
"|%	c #06003D",
"1%	c #060039",
"2%	c #0D0042",
"3%	c #04003D",
"4%	c #090048",
"5%	c #150056",
"6%	c #200062",
"7%	c #2E0070",
"8%	c #330077",
"9%	c #25006A",
"0%	c #15004B",
"a%	c #1C005D",
"b%	c #13005F",
"c%	c #0B004D",
"d%	c #040039",
"e%	c #010028",
"f%	c #090028",
"g%	c #0B0026",
"h%	c #04001C",
"i%	c #16001E",
"j%	c #300032",
"k%	c #340044",
"l%	c #240045",
"m%	c #15003B",
"n%	c #19004F",
"o%	c #1B005F",
"p%	c #19005E",
"q%	c #120049",
"r%	c #030034",
"s%	c #080046",
"t%	c #030041",
"u%	c #0D004A",
"v%	c #190051",
"w%	c #1E005B",
"x%	c #1F0060",
"y%	c #20005F",
"z%	c #1E005E",
"A%	c #210061",
"B%	c #0F0058",
"C%	c #000047",
"D%	c #00003D",
"E%	c #000042",
"F%	c #0B004A",
"G%	c #2E0063",
"H%	c #3B0072",
"I%	c #2D006D",
"J%	c #160059",
"K%	c #0D0048",
"L%	c #0B003D",
"M%	c #0B0040",
"N%	c #16004D",
"O%	c #15005F",
"P%	c #04002E",
"Q%	c #040019",
"R%	c #1A0020",
"S%	c #30002E",
"T%	c #42063B",
"U%	c #450443",
"V%	c #2B0041",
"W%	c #13003F",
"X%	c #16003E",
"Y%	c #0F003C",
"Z%	c #250060",
"`%	c #1F005E",
" &	c #150052",
".&	c #01003E",
"+&	c #030042",
"@&	c #0D0052",
"#&	c #15005A",
"$&	c #1E0061",
"%&	c #290066",
"&&	c #2F0069",
"*&	c #310072",
"=&	c #380079",
"-&	c #3D007B",
";&	c #42007E",
">&	c #36007A",
",&	c #270069",
"'&	c #260050",
")&	c #390067",
"!&	c #33006D",
"~&	c #1E0065",
"{&	c #0F0052",
"]&	c #0B0044",
"^&	c #1C0062",
"/&	c #17005C",
"(&	c #100044",
"_&	c #060026",
":&	c #200029",
"<&	c #350D37",
"[&	c #3E0F3C",
"}&	c #42093C",
"|&	c #410338",
"1&	c #2A0032",
"2&	c #04001A",
"3&	c #190052",
"4&	c #1A0053",
"5&	c #100046",
"6&	c #01004C",
"7&	c #0D0058",
"8&	c #130062",
"9&	c #160064",
"0&	c #21006C",
"a&	c #2F0077",
"b&	c #3E0079",
"c&	c #3D0078",
"d&	c #47007D",
"e&	c #4D0082",
"f&	c #500084",
"g&	c #250063",
"h&	c #0F004F",
"i&	c #03004A",
"j&	c #04004A",
"k&	c #010040",
"l&	c #120041",
"m&	c #2A0058",
"n&	c #36006D",
"o&	c #2D0070",
"p&	c #150053",
"q&	c #1F0067",
"r&	c #170054",
"s&	c #0F0037",
"t&	c #030026",
"u&	c #04002B",
"v&	c #130032",
"w&	c #210034",
"x&	c #350F3B",
"y&	c #320832",
"z&	c #2A0029",
"A&	c #250024",
"B&	c #20002E",
"C&	c #10003B",
"D&	c #090046",
"E&	c #040022",
"F&	c #060037",
"G&	c #000044",
"H&	c #040051",
"I&	c #0B005B",
"J&	c #08005B",
"K&	c #0D0061",
"L&	c #17006B",
"M&	c #1C006D",
"N&	c #1B0068",
"O&	c #260070",
"P&	c #2F0079",
"Q&	c #35007A",
"R&	c #390079",
"S&	c #3B0076",
"T&	c #390072",
"U&	c #380070",
"V&	c #47007A",
"W&	c #500080",
"X&	c #42007D",
"Y&	c #310071",
"Z&	c #0D0055",
"`&	c #090057",
" *	c #03004D",
".*	c #040043",
"+*	c #1A004A",
"@*	c #2F0060",
"#*	c #3B0075",
"$*	c #2D0073",
"%*	c #200064",
"&*	c #190058",
"**	c #1B0062",
"=*	c #12003F",
"-*	c #120037",
";*	c #0F0029",
">*	c #190025",
",*	c #12001B",
"'*	c #0B001B",
")*	c #280037",
"!*	c #1F0041",
"~*	c #13004F",
"{*	c #19004C",
"]*	c #170052",
"^*	c #03003B",
"/*	c #000048",
"(*	c #060051",
"_*	c #0F005E",
":*	c #150069",
"<*	c #120065",
"[*	c #120064",
"}*	c #160067",
"|*	c #170066",
"1*	c #1C006A",
"2*	c #280075",
"3*	c #34007C",
"4*	c #3B007B",
"5*	c #370077",
"6*	c #390075",
"7*	c #3D0075",
"8*	c #3C0076",
"9*	c #370076",
"0*	c #47007C",
"a*	c #2F006F",
"b*	c #1C0067",
"c*	c #0D0060",
"d*	c #080056",
"e*	c #30005E",
"f*	c #400072",
"g*	c #380075",
"h*	c #28006C",
"i*	c #1E005F",
"j*	c #160053",
"k*	c #1A005C",
"l*	c #0F004D",
"m*	c #090038",
"n*	c #04001F",
"o*	c #090026",
"p*	c #0F002B",
"q*	c #220036",
"r*	c #1F003D",
"s*	c #1A0056",
"t*	c #040050",
"u*	c #090056",
"v*	c #0B0057",
"w*	c #0B0059",
"x*	c #0F0061",
"y*	c #130067",
"z*	c #0B005C",
"A*	c #100060",
"B*	c #150064",
"C*	c #1E006A",
"D*	c #300078",
"E*	c #400080",
"F*	c #460080",
"G*	c #40007D",
"H*	c #3E007F",
"I*	c #42007F",
"J*	c #490080",
"K*	c #44007F",
"L*	c #40007B",
"M*	c #450080",
"N*	c #480082",
"O*	c #3E007D",
"P*	c #2A0073",
"Q*	c #16006A",
"R*	c #130066",
"S*	c #320066",
"T*	c #460071",
"U*	c #410076",
"V*	c #2A006E",
"W*	c #1F005D",
"X*	c #17004E",
"Y*	c #10004C",
"Z*	c #080040",
"`*	c #0B0042",
" =	c #060032",
".=	c #010024",
"+=	c #040029",
"@=	c #010027",
"#=	c #030028",
"$=	c #0B0033",
"%=	c #2D005B",
"&=	c #0E004B",
"*=	c #030043",
"==	c #060050",
"-=	c #0D005F",
";=	c #0F0064",
">=	c #0F0067",
",=	c #0D0065",
"'=	c #08005C",
")=	c #100063",
"!=	c #150066",
"~=	c #1B0069",
"{=	c #290072",
"]=	c #37007C",
"^=	c #3E0077",
"/=	c #350077",
"(=	c #370079",
"_=	c #3E0078",
":=	c #400078",
"<=	c #390073",
"[=	c #3E007E",
"}=	c #300077",
"|=	c #1C006B",
"1=	c #1A006A",
"2=	c #37006A",
"3=	c #4C006F",
"4=	c #4B0076",
"5=	c #32006F",
"6=	c #100047",
"7=	c #0B0034",
"8=	c #0D002E",
"9=	c #060028",
"0=	c #03002D",
"a=	c #0B0027",
"b=	c #35004D",
"c=	c #13004E",
"d=	c #00004C",
"e=	c #010054",
"f=	c #06005B",
"g=	c #0B005E",
"h=	c #120062",
"i=	c #150065",
"j=	c #120061",
"k=	c #0F005B",
"l=	c #090058",
"m=	c #0B0060",
"n=	c #10006B",
"o=	c #0F006A",
"p=	c #0D005C",
"q=	c #130060",
"r=	c #1A0068",
"s=	c #1F006B",
"t=	c #1F0069",
"u=	c #260069",
"v=	c #2D006B",
"w=	c #2B0066",
"x=	c #25005F",
"y=	c #200060",
"z=	c #1F005F",
"A=	c #210063",
"B=	c #360078",
"C=	c #2F0074",
"D=	c #1F0068",
"E=	c #1C0066",
"F=	c #3C006A",
"G=	c #4F006E",
"H=	c #4E0076",
"I=	c #220058",
"J=	c #130040",
"K=	c #0D0040",
"L=	c #04003B",
"M=	c #0D0043",
"N=	c #19004D",
"O=	c #210058",
"P=	c #1B0052",
"Q=	c #16002D",
"R=	c #0A0049",
"S=	c #000052",
"T=	c #04005C",
"U=	c #0B0066",
"V=	c #12006E",
"W=	c #13006E",
"X=	c #130069",
"Y=	c #040054",
"Z=	c #09005F",
"`=	c #0B0063",
" -	c #09005D",
".-	c #0B0058",
"+-	c #15005E",
"@-	c #1B0061",
"#-	c #0D004C",
"$-	c #13004D",
"%-	c #16004F",
"&-	c #150050",
"*-	c #12004B",
"=-	c #0D0045",
"--	c #0F0043",
";-	c #10004A",
">-	c #120052",
",-	c #270067",
"'-	c #240063",
")-	c #1A005E",
"!-	c #1A0061",
"~-	c #2E0068",
"{-	c #42006C",
"]-	c #4E006F",
"^-	c #4D0078",
"/-	c #2A0059",
"(-	c #09004F",
"_-	c #1E0063",
":-	c #300072",
"<-	c #350074",
"[-	c #300067",
"}-	c #240054",
"|-	c #190045",
"1-	c #06004E",
"2-	c #0B005D",
"3-	c #100069",
"4-	c #150073",
"5-	c #170078",
"6-	c #190077",
"7-	c #16006D",
"8-	c #12005C",
"9-	c #0D004E",
"0-	c #060057",
"a-	c #060058",
"b-	c #060054",
"c-	c #0D0056",
"d-	c #120057",
"e-	c #150057",
"f-	c #080043",
"g-	c #0D0046",
"h-	c #09004E",
"i-	c #170059",
"j-	c #0F0050",
"k-	c #1A0062",
"l-	c #2E006B",
"m-	c #41006E",
"n-	c #450077",
"o-	c #30005A",
"p-	c #1C0048",
"q-	c #38007B",
"r-	c #1B005D",
"s-	c #12004C",
"t-	c #04002F",
"u-	c #090059",
"v-	c #160071",
"w-	c #1C007A",
"x-	c #1C007C",
"y-	c #1A0077",
"z-	c #17006C",
"A-	c #12005B",
"B-	c #060055",
"C-	c #060053",
"D-	c #0B0053",
"E-	c #150059",
"F-	c #160057",
"G-	c #000045",
"H-	c #010046",
"I-	c #010043",
"J-	c #0D0050",
"K-	c #060046",
"L-	c #200065",
"M-	c #36006A",
"N-	c #38006E",
"O-	c #390069",
"P-	c #2D0057",
"Q-	c #060041",
"R-	c #08004E",
"S-	c #210066",
"T-	c #400081",
"U-	c #28006D",
"V-	c #170056",
"W-	c #040026",
"X-	c #18006D",
"Y-	c #24007B",
"Z-	c #2D0081",
"`-	c #260078",
" ;	c #120058",
".;	c #080047",
"+;	c #03004F",
"@;	c #06004F",
"#;	c #170051",
"$;	c #01004E",
"%;	c #01004D",
"&;	c #01004F",
"*;	c #060052",
"=;	c #090055",
"-;	c #03004B",
";;	c #040045",
">;	c #060047",
",;	c #30006E",
"';	c #2B005C",
");	c #21004E",
"!;	c #030047",
"~;	c #19005B",
"{;	c #2D0071",
"];	c #2A0070",
"^;	c #2E0075",
"/;	c #2A006D",
"(;	c #1F0055",
"_;	c #28007E",
":;	c #320082",
"<;	c #380082",
"[;	c #2E0071",
"};	c #160055",
"|;	c #090043",
"1;	c #08004D",
"2;	c #1B004D",
"3;	c #170044",
"4;	c #080037",
"5;	c #030040",
"6;	c #0B004E",
"7;	c #270062",
"8;	c #2A006B",
"9;	c #2A0067",
"0;	c #250051",
"a;	c #170047",
"b;	c #080044",
"c;	c #030048",
"d;	c #190062",
"e;	c #3B007C",
"f;	c #320070",
"g;	c #29005B",
"h;	c #1A003F",
"i;	c #2A0082",
"j;	c #310081",
"k;	c #34007A",
"l;	c #0B0041",
"m;	c #1A004B",
"n;	c #1C0047",
"o;	c #100038",
"p;	c #040058",
"q;	c #09005C",
"r;	c #25006E",
"s;	c #2A0066",
"t;	c #29005F",
"u;	c #0D003F",
"v;	c #20005C",
"w;	c #3C006F",
"x;	c #4C007D",
"y;	c #380074",
"z;	c #260059",
"A;	c #250079",
"B;	c #240071",
"C;	c #200061",
"D;	c #0F0047",
"E;	c #1C004B",
"F;	c #160040",
"G;	c #0D0062",
"H;	c #15006F",
"I;	c #1A0072",
"J;	c #190061",
"K;	c #2A006A",
"L;	c #33006B",
"M;	c #32006A",
"N;	c #2F0067",
"O;	c #270051",
"P;	c #040052",
"Q;	c #130057",
"R;	c #2F0062",
"S;	c #51007A",
"T;	c #570082",
"U;	c #370072",
"V;	c #280063",
"W;	c #1A0051",
"X;	c #12005A",
"Y;	c #040048",
"Z;	c #120045",
"`;	c #190047",
" >	c #150041",
".>	c #060033",
"+>	c #1F0075",
"@>	c #26007A",
"#>	c #250070",
"$>	c #1F005B",
"%>	c #10003E",
"&>	c #21005C",
"*>	c #37006B",
"=>	c #420071",
"->	c #37006C",
";>	c #1B0045",
">>	c #040057",
",>	c #360069",
"'>	c #510080",
")>	c #510082",
"!>	c #300071",
"~>	c #260068",
"{>	c #1B0059",
"]>	c #00004F",
"^>	c #00004E",
"/>	c #1B0049",
"(>	c #06002F",
"_>	c #150058",
":>	c #240074",
"<>	c #2D007D",
"[>	c #290064",
"}>	c #170049",
"|>	c #030032",
"1>	c #0B003F",
"2>	c #2E005A",
"3>	c #44006C",
"4>	c #46006E",
"5>	c #370062",
"6>	c #20004D",
"7>	c #040055",
"8>	c #060059",
"9>	c #380071",
"0>	c #4D0083",
"a>	c #1C0060",
"b>	c #060043",
"c>	c #02003B",
"d>	c #030052",
"e>	c #030054",
"f>	c #030053",
"g>	c #040041",
"h>	c #1A0054",
"i>	c #1F0050",
"j>	c #04002A",
"k>	c #210067",
"l>	c #2E007C",
"m>	c #33007C",
"n>	c #31006C",
"o>	c #210055",
"p>	c #09003C",
"q>	c #030031",
"r>	c #10003F",
"s>	c #150044",
"t>	c #28005B",
"u>	c #390062",
"v>	c #45006A",
"w>	c #3D0062",
"x>	c #2A0054",
"y>	c #090052",
"z>	c #27006C",
"A>	c #390077",
"B>	c #4B0382",
"C>	c #500484",
"D>	c #490081",
"E>	c #080058",
"F>	c #080057",
"G>	c #04004F",
"H>	c #100045",
"I>	c #1E0050",
"J>	c #1E0046",
"K>	c #100032",
"L>	c #22006D",
"M>	c #2E0077",
"N>	c #33006A",
"O>	c #1F004F",
"P>	c #090035",
"Q>	c #1C005C",
"R>	c #260064",
"S>	c #2F0065",
"T>	c #330061",
"U>	c #2E0057",
"V>	c #21004D",
"W>	c #150047",
"X>	c #030046",
"Y>	c #000051",
"Z>	c #16005E",
"`>	c #460082",
" ,	c #43007E",
".,	c #0B0043",
"+,	c #10005C",
"@,	c #08004A",
"#,	c #060036",
"$,	c #1F004C",
"%,	c #250050",
"&,	c #16005F",
"*,	c #2D0072",
"=,	c #41007A",
"-,	c #3E006F",
";,	c #210053",
">,	c #0D0036",
",,	c #0D003D",
"',	c #210065",
"),	c #26005E",
"!,	c #130047",
"~,	c #06003F",
"{,	c #010036",
"],	c #12005D",
"^,	c #2F0070",
"/,	c #340077",
"(,	c #29006C",
"_,	c #21005D",
":,	c #26005B",
"<,	c #120060",
"[,	c #13005A",
"},	c #0D0047",
"|,	c #150040",
"1,	c #20004C",
"2,	c #1E0048",
"3,	c #0F0053",
"4,	c #150062",
"5,	c #390071",
"6,	c #080035",
"7,	c #030033",
"8,	c #130056",
"9,	c #08003D",
"0,	c #17005A",
"a,	c #170061",
"b,	c #06004D",
"c,	c #320079",
"d,	c #28006F",
"e,	c #20005A",
"f,	c #3C026B",
"g,	c #280066",
"h,	c #25005C",
"i,	c #1E004C",
"j,	c #03003D",
"k,	c #0F005A",
"l,	c #2D0076",
"m,	c #38007C",
"n,	c #340073",
"o,	c #240061",
"p,	c #1C0053",
"q,	c #060038",
"r,	c #0D0044",
"s,	c #150049",
"t,	c #120047",
"u,	c #09003F",
"v,	c #100059",
"w,	c #04004D",
"x,	c #250069",
"y,	c #2D0074",
"z,	c #240062",
"A,	c #3E0070",
"B,	c #1B0063",
"C,	c #330070",
"D,	c #3D0071",
"E,	c #090040",
"F,	c #19004A",
"G,	c #160042",
"H,	c #060035",
"I,	c #010041",
"J,	c #0F005F",
"K,	c #250074",
"L,	c #340079",
"M,	c #3D0079",
"N,	c #36006E",
"O,	c #2E0062",
"P,	c #280058",
"Q,	c #190049",
"R,	c #1A0048",
"S,	c #1B004B",
"T,	c #130045",
"U,	c #130046",
"V,	c #240057",
"W,	c #24006B",
"X,	c #1A0066",
"Y,	c #0D0059",
"Z,	c #04004B",
"`,	c #340076",
" '	c #330075",
".'	c #240067",
"+'	c #280069",
"@'	c #3F006D",
"#'	c #3D006D",
"$'	c #450072",
"%'	c #2B0059",
"&'	c #0D0039",
"*'	c #010048",
"='	c #09005B",
"-'	c #1B006F",
";'	c #35007C",
">'	c #49007B",
",'	c #4A0073",
"''	c #3C0067",
")'	c #260058",
"!'	c #0F0051",
"~'	c #16005A",
"{'	c #1C005F",
"]'	c #240056",
"^'	c #220056",
"/'	c #220057",
"('	c #22005A",
"_'	c #290061",
":'	c #1E0068",
"<'	c #0D005A",
"['	c #000055",
"}'	c #010050",
"|'	c #090054",
"1'	c #16005D",
"2'	c #3F007B",
"3'	c #350079",
"4'	c #4D007F",
"5'	c #37015C",
"6'	c #2D005A",
"7'	c #380064",
"8'	c #080033",
"9'	c #030056",
"0'	c #190071",
"a'	c #29007D",
"b'	c #3E0083",
"c'	c #52007D",
"d'	c #460074",
"e'	c #34006A",
"f'	c #2E0067",
"g'	c #2A0063",
"h'	c #27005E",
"i'	c #260060",
"j'	c #270065",
"k'	c #3F006C",
"l'	c #39006C",
"m'	c #3B006E",
"n'	c #35006E",
"o'	c #340072",
"p'	c #330074",
"q'	c #2B0071",
"r'	c #01004B",
"s'	c #350073",
"t'	c #45007F",
"u'	c #470081",
"v'	c #3C007E",
"w'	c #3D007E",
"x'	c #470077",
"y'	c #1F0036",
"z'	c #160049",
"A'	c #1F0051",
"B'	c #080052",
"C'	c #13005E",
"D'	c #210071",
"E'	c #1E0073",
"F'	c #210078",
"G'	c #2D007B",
"H'	c #3C007F",
"I'	c #480081",
"J'	c #380078",
"K'	c #400076",
"L'	c #410078",
"M'	c #4F007C",
"N'	c #50007C",
"O'	c #46007A",
"P'	c #48007E",
"Q'	c #310078",
"R'	c #290073",
"S'	c #28006A",
"T'	c #0F001F",
"U'	c #080050",
"V'	c #1E006B",
"W'	c #1B006C",
"X'	c #20006E",
"Y'	c #310076",
"Z'	c #3D007D",
"`'	c #37007D",
" )	c #3E0080",
".)	c #420082",
"+)	c #460083",
"@)	c #430083",
"#)	c #3B007D",
"$)	c #43007F",
"%)	c #36007C",
"&)	c #3B0080",
"*)	c #31007E",
"=)	c #280076",
"-)	c #010044",
";)	c #12005F",
">)	c #330073",
",)	c #550083",
"')	c #520083",
"))	c #1C003C",
"!)	c #040049",
"~)	c #010038",
"{)	c #1B0050",
"])	c #1B004C",
"^)	c #090034",
"/)	c #04004C",
"()	c #1B0066",
"_)	c #100057",
":)	c #0D0053",
"<)	c #39007F",
"[)	c #360080",
"})	c #2E007D",
"|)	c #250075",
"1)	c #210073",
"2)	c #260075",
"3)	c #260079",
"4)	c #25007A",
"5)	c #240077",
"6)	c #1C0073",
"7)	c #16006C",
"8)	c #0F0055",
"9)	c #49007D",
"0)	c #520080",
"a)	c #580083",
"b)	c #55007E",
"c)	c #33005B",
"d)	c #1C0061",
"e)	c #280074",
"f)	c #1F0056",
"g)	c #15003D",
"h)	c #030029",
"i)	c #06004A",
"j)	c #0B0050",
"k)	c #25005E",
"l)	c #2B0065",
"m)	c #2D006A",
"n)	c #270070",
"o)	c #220071",
"p)	c #130064",
"q)	c #150068",
"r)	c #160069",
"s)	c #100061",
"t)	c #010051",
"u)	c #1F0065",
"v)	c #300076",
"w)	c #45007E",
"x)	c #540081",
"y)	c #590082",
"z)	c #520078",
"A)	c #470069",
"B)	c #350056",
"C)	c #160033",
"D)	c #2A0074",
"E)	c #33007E",
"F)	c #370082",
"G)	c #130049",
"H)	c #16004A",
"I)	c #17004B",
"J)	c #19005A",
"K)	c #0D0051",
"L)	c #2F0076",
"M)	c #420076",
"N)	c #43006F",
"O)	c #38005C",
"P)	c #28004A",
"Q)	c #170036",
"R)	c #010011",
"S)	c #2B0075",
"T)	c #3C0085",
"U)	c #1B0065",
"V)	c #1E0051",
"W)	c #0F0039",
"X)	c #10003D",
"Y)	c #170046",
"Z)	c #1A0049",
"`)	c #120046",
" !	c #1F005A",
".!	c #290069",
"+!	c #2F0072",
"@!	c #290067",
"#!	c #28005D",
"$!	c #270053",
"%!	c #200045",
"&!	c #1B0040",
"*!	c #120036",
"=!	c #2E0074",
"-!	c #350083",
";!	c #2A0080",
">!	c #100054",
",!	c #16004B",
"'!	c #03004E",
")!	c #03002B",
"!!	c #060031",
"~!	c #0F0038",
"{!	c #0F003B",
"]!	c #0B003C",
"^!	c #030035",
"/!	c #15004D",
"(!	c #360073",
"_!	c #220053",
":!	c #19003E",
"<!	c #29004A",
"[!	c #310057",
"}!	c #1B0043",
"|!	c #020015",
"1!	c #1C006F",
"2!	c #15005D",
"3!	c #090036",
"4!	c #040038",
"5!	c #1E005C",
"6!	c #2B006B",
"7!	c #330071",
"8!	c #24004E",
"9!	c #2B0042",
"0!	c #450864",
"a!	c #3F0369",
"b!	c #1F0044",
"c!	c #2D005D",
"d!	c #06003E",
"e!	c #250061",
"f!	c #32006C",
"g!	c #32035C",
"h!	c #28004E",
"i!	c #1A003D",
"j!	c #120032",
"k!	c #0F002D",
"l!	c #4B0064",
"m!	c #57047A",
"n!	c #3E0067",
"o!	c #17003F",
"p!	c #240044",
"q!	c #320057",
"r!	c #240068",
"s!	c #1F005C",
"t!	c #34006D",
"u!	c #2D0067",
"v!	c #280060",
"w!	c #270060",
"x!	c #2D0063",
"y!	c #2F005D",
"z!	c #29014E",
"A!	c #250341",
"B!	c #1A0032",
"C!	c #190043",
"D!	c #4D0075",
"E!	c #57087D",
"F!	c #37035D",
"G!	c #0F0032",
"H!	c #260046",
"I!	c #350357",
"J!	c #350069",
"K!	c #29006F",
"L!	c #280070",
"M!	c #060034",
"N!	c #150045",
"O!	c #48007C",
"P!	c #4C007F",
"Q!	c #45007A",
"R!	c #410072",
"S!	c #360067",
"T!	c #240048",
"U!	c #130031",
"V!	c #080026",
"W!	c #2E0061",
"X!	c #4B0079",
"Y!	c #4B1577",
"Z!	c #27034F",
"`!	c #0F0040",
" ~	c #270049",
".~	c #330058",
"+~	c #400075",
"@~	c #38007F",
"#~	c #1F006A",
"$~	c #030049",
"%~	c #06004B",
"&~	c #1E004E",
"*~	c #2D0064",
"=~	c #2D0068",
"-~	c #22005C",
";~	c #51047E",
">~	c #4F037C",
",~	c #450073",
"'~	c #400469",
")~	c #2F0156",
"!~	c #240046",
"~~	c #2D005F",
"{~	c #2B0063",
"]~	c #3F006F",
"^~	c #330B67",
"/~	c #000023",
"(~	c #130041",
"_~	c #29014D",
":~	c #2E0054",
"<~	c #3F0075",
"[~	c #530087",
"}~	c #4F0084",
"|~	c #29006A",
"1~	c #09003D",
"2~	c #41007C",
"3~	c #4B007A",
"4~	c #470079",
"5~	c #47007E",
"6~	c #480079",
"7~	c #48086B",
"8~	c #3D0360",
"9~	c #2F0154",
"0~	c #280149",
"a~	c #190037",
"b~	c #01001F",
"c~	c #1B0060",
"d~	c #240055",
"e~	c #0B0031",
"f~	c #290849",
"g~	c #340D56",
"h~	c #38006C",
"i~	c #4E0085",
"j~	c #590086",
"k~	c #520084",
"l~	c #160052",
"m~	c #330072",
"n~	c #520086",
"o~	c #570485",
"p~	c #570685",
"q~	c #4D007E",
"r~	c #3C0060",
"s~	c #280043",
"t~	c #1C0038",
"u~	c #10002B",
"v~	c #080024",
"w~	c #2F005C",
"x~	c #21004C",
"y~	c #030024",
"z~	c #24083F",
"A~	c #371256",
"B~	c #42036E",
"C~	c #490085",
"D~	c #570086",
"E~	c #650084",
"F~	c #430076",
"G~	c #1F0062",
"H~	c #24005F",
"I~	c #2B006C",
"J~	c #250066",
"K~	c #28006B",
"L~	c #27006D",
"M~	c #290071",
"N~	c #360079",
"O~	c #4A0085",
"P~	c #470080",
"Q~	c #210044",
"R~	c #03001E",
"S~	c #090021",
"T~	c #3C005B",
"U~	c #200047",
"V~	c #170032",
"W~	c #300949",
"X~	c #501071",
"Y~	c #5B0887",
"Z~	c #620D85",
"`~	c #6E1085",
" {	c #52007A",
".{	c #0F004E",
"+{	c #120050",
"@{	c #160054",
"#{	c #240069",
"${	c #2B0073",
"%{	c #2F0078",
"&{	c #3D0081",
"*{	c #34006E",
"={	c #2B005E",
"-{	c #1E0043",
";{	c #2D0049",
">{	c #5A0082",
",{	c #30006B",
"'{	c #0D004F",
"){	c #300057",
"!{	c #020024",
"~{	c #040020",
"{{	c #310B46",
"]{	c #5D1A74",
"^{	c #701B88",
"/{	c #731C86",
"({	c #671383",
"_{	c #2A0079",
":{	c #280062",
"<{	c #280068",
"[{	c #250067",
"}{	c #220064",
"|{	c #380076",
"1{	c #2F015F",
"2{	c #290450",
"3{	c #1E003E",
"4{	c #4F007E",
"5{	c #460075",
"6{	c #200051",
"7{	c #1C0041",
"8{	c #00001D",
"9{	c #0D0026",
"0{	c #310846",
"a{	c #5C0978",
"b{	c #6A0987",
"c{	c #660687",
"d{	c #52007F",
"e{	c #2D0066",
"f{	c #25006F",
"g{	c #350081",
"h{	c #3E0086",
"i{	c #32007E",
"j{	c #190063",
"k{	c #300060",
"l{	c #440070",
"m{	c #4A0078",
"n{	c #47007B",
"o{	c #350070",
"p{	c #2E006C",
"q{	c #370074",
"r{	c #2B005D",
"s{	c #2D005C",
"t{	c #300159",
"u{	c #2A044D",
"v{	c #20013D",
"w{	c #15002D",
"x{	c #1A0027",
"y{	c #2D0041",
"z{	c #2D004C",
"A{	c #250048",
"B{	c #0D0031",
"C{	c #4C007C",
"D{	c #4B007E",
"E{	c #370068",
"F{	c #29004D",
"G{	c #020012",
"H{	c #040016",
"I{	c #230235",
"J{	c #4A0067",
"K{	c #4D0074",
"L{	c #50067E",
"M{	c #510680",
"N{	c #300162",
"O{	c #2B0076",
"P{	c #350080",
"Q{	c #3E0084",
"R{	c #340086",
"S{	c #24007E",
"T{	c #280061",
"U{	c #55007F",
"V{	c #5B0084",
"W{	c #590084",
"X{	c #530082",
"Y{	c #48007A",
"Z{	c #3F0072",
"`{	c #3E0071",
" ]	c #430078",
".]	c #490077",
"+]	c #450074",
"@]	c #3D0066",
"#]	c #310153",
"$]	c #270045",
"%]	c #120029",
"&]	c #030020",
"*]	c #490061",
"=]	c #500970",
"-]	c #3F0367",
";]	c #26004F",
">]	c #09002F",
",]	c #0B004C",
"']	c #450076",
")]	c #3E006D",
"!]	c #2E0450",
"~]	c #170039",
"{]	c #0F002A",
"]]	c #0F0028",
"^]	c #411556",
"/]	c #6D0D8A",
"(]	c #711286",
"_]	c #630485",
":]	c #3C0071",
"<]	c #26006D",
"[]	c #2E007A",
"}]	c #2E0082",
"|]	c #2C0081",
"1]	c #280078",
"2]	c #45007D",
"3]	c #590085",
"4]	c #560083",
"5]	c #4E007F",
"6]	c #4D007C",
"7]	c #4E007B",
"8]	c #4A007B",
"9]	c #520B7D",
"0]	c #4F0D75",
"a]	c #410465",
"b]	c #310151",
"c]	c #24003D",
"d]	c #16002E",
"e]	c #08002E",
"f]	c #1F0042",
"g]	c #2A005A",
"h]	c #55007A",
"i]	c #4E0374",
"j]	c #35005F",
"k]	c #170040",
"l]	c #0B004B",
"m]	c #3F0073",
"n]	c #49007A",
"o]	c #38006B",
"p]	c #31005B",
"q]	c #240145",
"r]	c #040027",
"s]	c #3C0852",
"t]	c #66008A",
"u]	c #530083",
"v]	c #49007C",
"w]	c #01003D",
"x]	c #31007B",
"y]	c #350084",
"z]	c #2E0085",
"A]	c #1F007D",
"B]	c #260071",
"C]	c #250068",
"D]	c #49007E",
"E]	c #4A0082",
"F]	c #4B007F",
"G]	c #530080",
"H]	c #5B0183",
"I]	c #550380",
"J]	c #4D047A",
"K]	c #46086F",
"L]	c #3B045F",
"M]	c #280048",
"N]	c #080022",
"O]	c #0D0032",
"P]	c #24005B",
"Q]	c #4F0F76",
"R]	c #39045F",
"S]	c #030027",
"T]	c #160048",
"U]	c #2A0068",
"V]	c #350076",
"W]	c #2B0062",
"X]	c #220049",
"Y]	c #160036",
"  . + @ @ # $ $ $ % & * = - ; > $ $ $ $ @ , ' ) ! =   $ $ $ ~ { = ] ^ / ( _ : < [ } | 1 2 $ 3 4 % > # $ $ $ $ $ $ $ $ $ 5 5 4 % ",
"    4 ~ $ $ $ $ 4 6 7 8 9 0 @ $ $ $ $ 4 a 0 b 6 % $ $ $ $ % c d e f g h i j k l m m n o p q r > s t u v w x a y   # $ $ $ 3 3 4 ",
"  z s $ $ $ $ $ 4 & A B C D $ $ $ $ > % { 4 > ~ ~ 5 .   a E F G H I J K L M N O P P Q R S T U V z { % . . { 5 # $ $ $ $ $ $ > @ ",
"> 4 $ $ $ $ $ $ { , W X Y a $ $ $ $ $ $ 5 % . Z `  ...+.@.#.$.%.&.*.=.-.;.>.,.'.).!.~.{.].^./.(._.:.<.[.}.|.e [.1.  4 5 $ $ $ 3 ",
"$ $ $ $ $ $ $ ~ 2.3.4.5.6.$ $ $ $ $ $ # % 7.8.9.0.a.b.c.d.e.f.g.h.i.j.k.l.m.n.o.p.q.r.s.t.u.v.w.x.y.z.A.B.C.D.E.F.G.7.@ $ $ $ # ",
"$ $ $ $ $ $ ~   b H.I.J.  $ $ ~ 4   . a = K.L.M.N.o O.P.Q.R.S.T.U.V.s.W.X.u.Y.Z.`. +.+++.+@+#+$+%+&+*+=+-+;+>+,+'+)+!+{ > $ $ $ ",
"$ $ $ ~ $ $ % ~+{+]+^+z $ 3 . G./+(+_+:+<+[+}+|+1+2+3+4+5+6+7+8+9+0+a+b+c+d+e+f+E.g+h+i+j+k+l+m+n+o+p+q+r+s+t+u+v+w+x+% > $ $ $ ",
"$ $ $ ~ $ $ 2.y+z+h+. 5 { A+B+C+D+E+F+G+H+I+J+K+L+M+N+O+P+Q+R+S+T+U+V+W+X+Y+Z+`+ @E..@+@@@#@$@%@Y+&@S *@=@-@;@>@,@'@)@. $ $ $ $ ",
"$ # 3 ~ $ $ 2.A.!@{+. ~@{@]@^@/@(@_@:@<@[@}@|@1@2@3@4@5@6@7@8@9@0@a@b@c@d@e@& f@g@h@i@j@k@l@m@n@o@p@q@r@s@t@u@v@w@x@}.7.~ $ $ $ ",
"$ s 5 3 $ $ 4 y@z@A@B@6.C@D@E@F@G@H@I@J@q@K@I@L@M@N@O@P@Q@P@R@S@T@U@V@d@W@e@, F.X@Y@Z@V@`@e@G. #e@.#^.+#@+#@@###w@$#|.G.4 $ $ $ ",
"# %#3 > $ $ . &#*#=#-#;#>#,#'#)#!#~#Q@{#]#S+J@^#/#(#_#:#<#[#}#|#X@e@b  #G.* e@m@1#2#o@b  #a 6 b d@3#4#5#;@Y+6#a ` 7#8#9#b 5 $ $ ",
"5 s ~ $ $ # K.G 0#a#b#c#d#e#f#g#h#i#]#d+j#k#l#~.m#n#o#1#1#p#m@e@W@* & = G., e@9 p#p#D z 5 % = , F.2#.#q#q#r#s# #5 . b t#u#7.$ $ ",
"5 y $ $ $ . v#w#x#y#z#A#B#C#D#E#F#F#G#H#I#J#K#L#M#N#O#O#2#Z@D W@D F.D W@W@W@W@W@o@F.n@6 @ @ = n@F.V@r+P#Q#R#S#G.4 { 7.= T#2.# $ ",
"~ > $ $ $ W@U#Q#V#W#X#Y#Z#`# $.$.#+$@$#$$$%$&$*$=$-$;$>$,$Y@'$d@d@o@F.o@d@9 Z@d@F.F.F.* A+6 n@)$!$~${$]$=@^$/$A+{ = G.a { 4 $ $ ",
"~ $ $ $ a !$($_$:$<$[$-.}$|$1$2$3$4$4$g+5$6$7$8$9$n#0$a$c@'$e@* * * W@F.m@,$b$U@c$Z+d$s#d@* '$|#e$f$g$g$h$i$j$2.2.f@k$l$m$4 ~ # ",
"> $ $ 4 Z@n$o$p$q$j#r$s$t$u$v$w$d$x$g@g@y$z$A$B$C$D$V@'$* G.2.a  #& n@F.!$E$F$G$H$I$J$K$'$, '$3#L$M$M$N$O$P$D f@* Q$R$S$T$U$7.% ",
"$ $ $ Z@V$W$X$Y$Z$`$ %.%+%@%#%x$'$g@'$'$d@e@f@, D g@d@* 0 6 6 A+, D d@9 $%I$%%&%0+*%=%h+g@W@9 -%Y$;%>%,%9$K$)$'%)%!%~%{%]%^%/%6 ",
"$ $ n@(%_%:%=%g$<%[%g@W@, f@e@Z@X@}%$%|%s#g@W@'$m@1%) 2%3%p#X@!$O#,$c@Y@2#4%5%6%7%8%9%$$K$x$1%0%a%0@b%c%d%g@e%f%g%h%i%j%k%l%m%|.",
"$ $ n%o%p%G#q%l@r%o@e@F.F.g@V@2#}%a$s%k+a$t%a$u%8$v%w%%+x%y%z%A%++B%C%O#D%E%F%=@G%H%I%J%K%L%M%N%T :%O%9$P%0 = 6 Q%R%S%T%U%V%W%X%",
"2 Y%Z%`% &[%n@= G.W@g@9 Z@V@+%.%p#2#.&+&V$@&#&$&%&&&Q@*&9+=&-&;&>&,&.+E$n$C%_##@'&)&!&~&{&]&M%!@g$^&/&(&_&= z = :&<&[&}&|&1&U 2%",
"2&3&4&3&5&W@7.a 0 W@d@'$Z@X@2#O#E%E%6&7&8&9&0&a&=&4@b&~#c&6@d&e&f&v@n.g&h&i&j&k&l&m&n&o&~& &-%p&^&q&r&s&t&e%u&v&w&x&y&z&A&B&C&D&",
"E&M#Y+-+F&n@ #& n@W@e@d@m@c@G&H&I&J&K&L&M&N&O&P&Q&R&~#S&T&U&T&V&W&P+X&Y&;@Z&`& *.*+*@*#*$*%*&*f$**q&!@@@r+2%=*-*;*>*,*'*w )*!*~*",
"{*]*^*9 F.f@0 n@W@e@g@Y@O#/*(*_*:*<*[*}*|*>%1*2*3*4*=&5*6*7*8*9*5@0*U.M+a*b*}*c*d*I$e*f*g*h*i*j*k*=%-@F%l*#@m*n@  6 n*o*p*q*r*.$",
"s*~*!$F.F.D F.o@o@)$E%t*u*v*w*x*y*c*z*A*B*8&C*D*E*F*G*H*I*J*J*K*:@L*M*N*O*P*M&Q*R*0@S*T*U*V*W*X*]*Y*j+Z*`* =b = A+.=+=+=@=#=$=%=",
"&=*=!$V@p#c@,$U@G&==_*[*A*-=;=>=,='=z*)=!=~={=]=M+^=g*/=(=_=N :=^=<=6*W#[=}=W.|=1=*%2=3=4=5=K#w$6=Y+g@! 7=8=j$9=0=x$x$*  #6 a=b=",
"c=O#,$G&d=e=f=g=h=i=j=k=l=m=n=o=m=p=q=r=s=t=u=v=w=x=y=d+i*z=y%y=A=#+]#m.B=C=5#D=E=,&F=G=H=U&I=J=K=L='$@%4$M=N=O=P=5&j@9#G.z z Q=",
"R=b@S=T=U=V=W=X=9&%%c%n$Y=Z=`= -.-+-@-o%%$#-@$$-%-&-O$*-=---5&;->-#&S@z=,-'-a%)-!-~-{-]-^-(@/-D.@@D$o@Z@O#(-_-:-<-[-}-|-i${+ #6 ",
"1-2-3-4-5-6-7-8-9-i+O#d=0-a-b-c-d-e-I$f-p#2#$%f-n#g-=-Z*X@)$s#+%$%-$h-{&i-f$U#j-k-l-F=m-n-L o-p-M%)$* '$O#t*D=q-I*~#P@i*r-s-t-= ",
"u-v-w-x-y-z-A-e$D%!$G&Y=B-C-D-E-F-K%p#)$m@c@*=1#!$D%G-C%,$G&/*d=H-E%O#I-J-F%p#K-L-a*M-N-8+O-P-t@Q-F.& e@c@R-S-q-T-B=U-*%0+V-j@W-",
"X-Y-Z-`-|* ;.;c@!$2#C%+;@;{&j*#;q%+%'$X@,$E%U@c@X@O# *$;b@%;&;*;=;-;X@Z@;;t%Z@>;q&I%/#,;h#';);7$2#f@G.o@2#!;~;U-j.{;];^;/;(;=*/ ",
"_;:;<;[;};|;p#V@)$X@X+i&1;%-2;3;4;Z@)$1#b$b@d=b$5;~$n#.&X@m@o@)$c@G-O#g@c@2#'$6;T+,&7;8;9;0;a;b;Z@& b )$2#c;B%d;#+$+9*e;f;g;y.h;",
"i;j;k;~.l;X@'$g@D m@O#+&;-m;n;o;Z@Z@2#b@p;`=q;R-l;j@@%n@6 . 5 @  #Z@p#d@V@'$m@.+r;g&s;v=t;*+u;c@F., * )$V@-;B*O%v;w;x;J*y;R z;C ",
"A;B;C;D;Z@p#!$)$)$c@|#Z*t@E;F;! '$p# *G;H;I;J;q%+@x$e@ #4 $ $ $ 5 G.F.o@o@o@$%F#K;L;M;N;O;8 Y@g@e@e@e@V@E%P;A*Q;R;S;T;Q+U;h#V;W;",
"|*X;Y;o#O#/*G&Y@V@,$n#Z;`; >.>g@Z@Y;b++>@>#>$>%>d@)$d@2.~ $ $ $ > 7.b e@e@X@u%&>*>=>->%=;>Z@o@W@o@g@Z@G-B->>b-I$,>'>)>:=!>~>{>u%",
"B%W+/*/*]>^>D%g@!$Y*P=/>U (>e@D !$_>:><>}=[>}>`+|>' '$z ~ $ $ $ 3 7.G.W@Z@1>n%2>3>4>5>6>+%F.W@D Z@!$G&7>8>b-a@{>9>e&0>3@j.a>b>c>",
"c-C-d>e>f>G&F.* g>h>i>X%j>n@, o@-@k>l>m>n>o>p>q>r>s>q>= . 5 > 3 .  #W@V@3$P=t>u>v>w>x>p.Y@'$d@'$Y@n$B-J&Y=y>N$z>A>B>C>D>j.~;2#q>",
"B%z*E>F>G>2#* '$H>I>J>K>D e@D c@e-L>M>B=N>O>F&P>J=s>4;F.* b A+ #n@m@g>:#Q>R>S>T>U>V>W>Q-!$)$9 p#X>G$f=Y>/*1;Z>T+K@`>0> ,+#Q#5&.,",
"+,z*u-W$@,X@D #,$,%,h 7 o@e@'$F%&,~=*,=,-,;,L%>,E.,,L%|%$%5;o#1#;$5%R@a>',S ),Z.!,~,2#{,m@X@~,j-],2-]>1#2#C%@;/&^,H@H@/,(,_,P=:,",
"<,z*[,H#},Z@x$|,1,2,r>m@W@& m@3,4,r=^.L*5,o+3$8 6,7,d$--s-5%8,3,.+Z$I#p&V-n+!@D&i+j+V@m@9,M#0,a,4,C-c@)$o#b$b,E-U-k;c,d,j#e,s*f,",
"N&E=g,h,S#'$.@i,p-=+j,Z@A+6 c@k,!=1*l,m,n,o,p,E;r>V@V@q,`*7$$-J$$@]&--r,{$s,t,M=u,q,' {$g$_-d;v,w,c@g@m@O#E%Y;e-x,y,P*S-H#J#z,A,",
"B,C,D,E+@@m@E,F,G,H,m@, . G.I,J,y*1=K,L,M,N,O,P,Q,Z*p#X@p#k+$@M=M=5$f+R,/>S,}>T,U,+*V,s;W,X,Y,/*X@d@Z@O#b@/*Z,e-,&`, '.'+++'-.@'",
"L##'$'%'[%!$f-5$&'6#* 6 z e@*'='G;[*-';'M*>',''')'P=;-n#-$!'~'{'C;e+o>]'^'/'t$('_'s;a*+#:'<'d=o#Z@9 !$b@['}'|'1'9@<-2'5*{=3'4'5'",
"#@6'7'2;2#o# +L%8'f@A+6 0 X@G>9'2-y*0'a'b'Z#c'd'e'f'g'h'i'j'4#+#n,n&k'l'm'n'o'p'9+q'5#q&B%r'U@Y@)$V@D%b@S=d=1-X;L-s't'u'v'w'x'y'",
"`*z'A'f-p#c@~$K=q>& 6  #W@D%B'd>C'D'E'F'G'H'I' ,J'I@[$K'L'5@~#`#x;M'N'O'P'O*m,Q'R'D=~'E$,$c@V@o@d@Z@Y@c@Y@1#1-+-S'#*C#f&A#6@5>T'",
"l; +-@o#V@.%3$S#.>b 6 A+D k&U'(*d;t.V'W'X'Y'[=Z'`' ).)+)+)@)#)$)G@t'[=%)&)*)=)X'p$Z&G&p#)$d@* f@* W@e@e@d@-);)s=>)=,O+,)')L ))2 ",
"},I$#&!)~)S#{)])^)f@G.& F.,$Z,/)X$()_):)A-S-a*f;p'e;H'<)[)})|)1)2)3)4)F'5)6)7)G;F>b$p#)$g@W@0 G.0 0 & e@c@8)0+i.9)0)a)b)4=c)%## ",
"d)r;e)J;n#6$f)i>g)h)& f@F.D%G-C%o$8-i)D%X+j)&*m#k)l)m)(,n)o)1=p)[*q)r)<*s)2-8>t)G-p#d@D , &  #6  #b e@Y@:#u)v)w)x)y)z)A)B)C)3 ~ ",
"D)E)F)D)F-M#T >+o;n@A+0 n@V@o#,$G>o$V$2#)$o#n#G)H)I)H)0%p@g$J)K)Z,/)j&G-U@O#D%V@F., b & G.G. # #& W@r%J${'5#L)i.M)N)O)P)Q)z R)$ ",
"S)F)T)*)U)I$<#V)W)f@ # #0 D Z@X@X+t*($.*)$Z@d%%>X)m*A$! &'Y)Z)z@c$2#2#X@9 d@D f@ #= = A+b * n@W@g@#,`) !.!+!!>@!#!$!%!&!*!7.z $ ",
"<%=!-!;!1=>!]*,!E.e@0 = A+b W@g@Y@G-'!!)!$9 Z@#%)!D W@e@!!~!{!]!|%$%Q-Z*1%`@F.f@G.G.G., F.9 Z@^!r+/!_,l-(!2+G%_!n;:!<![!}!6 |!3 ",
"X@t$$*4)1!2!!'r,3!0=0 2.= = A+n@'$c@G-G-.&p#g@, A+=  #G., W@e@d@m@p#.%4$9,4!Z@o@o@d@'$'$`@d%~,Q-9$5!6!7!n'&.8!h;g 9!0!a!C  #@ $ ",
"~)b!c!U-].&,:)f-#,0=0   . {   A+o@p#1#U@+&~,Z@b a 7.7.  z z 7.A+& f@n@D `+|>Z@)$X@c$d!3$6$N%~*#-l+e!f!k g!h!i!j!k!l!m!n!o!a a # ",
"1%p!q!S>r!)-j-f-C$x$b z @ 5 5 a * X@E%G-n$3#d!F. #z z   { 4 4   a 2.6 G.* '%7,X@m@p#J$s! $t!u!v!w!x!y!z!A!B!d A+C!D!E!F!G!. 0 3 ",
"1%H!I!J!K!L!k*+$.,~)W@6 . . .   G.d@D%X+G-R--$s#& 7.% % % 4 5 { . 7.= b M!N!q%g-c$2#u%&&O!P!Q!R!S!y!T!U! #7.% V!W!X!Y!Z!* 3 b 4 ",
"`! ~.~+~T-@~#~:%Z$~)n@A+2.a 2.z a 0 '$!$D%$~%~I,F.= {     {   6 0 & W@H,&~*~=~7;-~m#E#3@;~>~,~'~)~!~:.E&{ ~ $ ~~{~]~^~S#* 4 /~. ",
"(~_~:~<~[~}~D*|~@+&-X%f@b  #6 7.{ { A+e@Z@!$U@,$)$, b , , 0 D 7,1%1%1~3$o.U;2~>.3~4~5~6~7~8~9~0~a~}.b~. > $ Y@c~m#R;d~~,e@@ * a ",
"e~f~g~h~i~j~k~7*R-g>u;j@D A+=  #6 a  #f@o@m@c@O#p#9 @%4;E.=*Q,W;~*#$l~&*E#m~F*n~o~p~q~r~s~t~C)u~v~a 4 $ $ G.K@(-3$w~x~Q-* % n@G.",
"y~z~A~B~C~D~E~F~G~{$Z*`*p#e@A+& * D Z@p#o#O#E%G-,$i+#@P#W;H~m)I~J~]#K~L~M~N~+)O~P~h.G+Q~] 0 R~c 7.3 $ $ S~T~9*5%P$$.U~ %n@; e@0 ",
"] V~W~X~Y~Z~`~ {r$3$3$~,u%Q;;$d@e@Z@c@U@H-!;e$.{+{@{g${'#{${}=v)$*[;7%L!%{&{U.b&*{={-{y~  { {   . 5 > % ;{>{,{'{ >){b!{,, !{n@& ",
"~{u~{{]{^{/{({D,.#$%.,|;)-_{R'm+c$Z@V@2#b>!@O=:{@!<{.'k>n)a&}=+#[{S g&}{7%|{N-1{2{3{o*  5 5 1.e K.a % W@w~4{5{{>6{4.7{m@, 8{6 a ",
"n*9{0{a{b{c{d{e{.{5;9$J)f{g{h{i{j{t%X@c@*-k{l{m{n{:=o{P@p{g*b&q{,{L;S*r{s{t{u{v{w{b~{ 5 x{y{z{A{B{2.A+s#s{C{D{y;E{F{-{s#n@A+$ $ ",
"G{H{I{J{K{L{M{N{ +}%*$k>O{P{Q{R{S{|*u@j*T{f*U{V{W{X{Y{Z{`{g# ]Y{.]+]@]#]$]y'%]&]6 . .=$#*]=]-];]>]2.V@,]&>']q~v@)]!]~]D 0 6 > $ ",
"3 # 5 {]]]^]/](]_]:]8,&$J#<][]}]|]1]N&a%D,2]D>')3]4]5]6]7]8]8]9]0]a]b]c]d]~{7.= e]f]g]l{h]i]j]k]& F.c@l]s@m]n]o]p]q]r]z . { > $ ",
"> $ ~ {@8.s]t]u]n~v]r#~)w]~'n)x]j;y]z]A]B]C]P@D]Y#E]F]G]H]I]J]K]L]M]V~N]2.{@O]M=P]S>w;m{Q]R]-{S]n@D%p#T]U]V]o'W]X]Y]& 4 $ y $ # "};
