/* XPM */
static char * portal_rot6_xpm[] = {
"64 64 3398 2",
"  	c #140B2B",
". 	c #140A2A",
"+ 	c #120928",
"@ 	c #130B2A",
"# 	c #0C071F",
"$ 	c #0B0820",
"% 	c #0B0823",
"& 	c #060518",
"* 	c #050518",
"= 	c #040314",
"- 	c #07051B",
"; 	c #08051F",
"> 	c #0A071F",
", 	c #0D0822",
"' 	c #0A061D",
") 	c #040413",
"! 	c #040312",
"~ 	c #0B0520",
"{ 	c #291153",
"] 	c #300E70",
"^ 	c #340B7A",
"/ 	c #3E087D",
"( 	c #540A93",
"_ 	c #530B94",
": 	c #38008F",
"< 	c #4402A3",
"[ 	c #6308B4",
"} 	c #5905AA",
"| 	c #440197",
"1 	c #2F017C",
"2 	c #2F0473",
"3 	c #380482",
"4 	c #2E047F",
"5 	c #2E0686",
"6 	c #34087D",
"7 	c #360A78",
"8 	c #230B4E",
"9 	c #170C28",
"0 	c #140B26",
"a 	c #0E071C",
"b 	c #100822",
"c 	c #08051C",
"d 	c #06051C",
"e 	c #06041C",
"f 	c #06051A",
"g 	c #0B0822",
"h 	c #0E0A25",
"i 	c #0F0B28",
"j 	c #0B0821",
"k 	c #0B071E",
"l 	c #09071B",
"m 	c #08071B",
"n 	c #06061A",
"o 	c #06061C",
"p 	c #06051B",
"q 	c #08061A",
"r 	c #070618",
"s 	c #0B071B",
"t 	c #110B23",
"u 	c #0F0923",
"v 	c #110A25",
"w 	c #130B28",
"x 	c #140B2C",
"y 	c #140A2C",
"z 	c #130A2A",
"A 	c #060618",
"B 	c #070619",
"C 	c #0D0A24",
"D 	c #170E31",
"E 	c #100826",
"F 	c #180C26",
"G 	c #1E102E",
"H 	c #20112F",
"I 	c #1B0F2D",
"J 	c #09061C",
"K 	c #050415",
"L 	c #160932",
"M 	c #280D5D",
"N 	c #49108C",
"O 	c #6111A4",
"P 	c #7D11AE",
"Q 	c #6704A6",
"R 	c #45028E",
"S 	c #350192",
"T 	c #38019B",
"U 	c #4C04A4",
"V 	c #43029E",
"W 	c #4D01A6",
"X 	c #3F0191",
"Y 	c #31017B",
"Z 	c #3E028E",
"` 	c #4E04A1",
" .	c #4F06A4",
"..	c #2C057B",
"+.	c #1E055C",
"@.	c #1E094F",
"#.	c #1E0C41",
"$.	c #180B2D",
"%.	c #110821",
"&.	c #0E0627",
"*.	c #150737",
"=.	c #1E0E38",
"-.	c #241234",
";.	c #251133",
">.	c #21102F",
",.	c #1A0E29",
"'.	c #190E2A",
").	c #231337",
"!.	c #27123F",
"~.	c #291144",
"{.	c #281142",
"].	c #26103E",
"^.	c #1D0D32",
"/.	c #100824",
"(.	c #180F2B",
"_.	c #0C091F",
":.	c #070617",
"<.	c #060516",
"[.	c #0D081D",
"}.	c #100A22",
"|.	c #0F0822",
"1.	c #150C2B",
"2.	c #170C2D",
"3.	c #120B26",
"4.	c #0B081B",
"5.	c #080619",
"6.	c #050515",
"7.	c #0D0920",
"8.	c #140B32",
"9.	c #210A48",
"0.	c #150836",
"a.	c #1A0B32",
"b.	c #25113B",
"c.	c #110924",
"d.	c #070517",
"e.	c #040414",
"f.	c #0E081F",
"g.	c #180C2F",
"h.	c #200D40",
"i.	c #33116D",
"j.	c #6014A1",
"k.	c #790FAE",
"l.	c #6D08A1",
"m.	c #540293",
"n.	c #3C018B",
"o.	c #3F03A4",
"p.	c #4503AB",
"q.	c #230072",
"r.	c #2B0175",
"s.	c #2E017A",
"t.	c #250165",
"u.	c #1B0153",
"v.	c #280168",
"w.	c #430494",
"x.	c #5508AF",
"y.	c #3C0693",
"z.	c #30087C",
"A.	c #210562",
"B.	c #1D0757",
"C.	c #1A0A3F",
"D.	c #130B23",
"E.	c #0D0621",
"F.	c #14053B",
"G.	c #210845",
"H.	c #521967",
"I.	c #451761",
"J.	c #381162",
"K.	c #3C1466",
"L.	c #351456",
"M.	c #311252",
"N.	c #36115F",
"O.	c #371067",
"P.	c #2B0D5A",
"Q.	c #1E064F",
"R.	c #14053D",
"S.	c #1E0E35",
"T.	c #170E2B",
"U.	c #0E0A20",
"V.	c #060514",
"W.	c #080618",
"X.	c #0E091F",
"Y.	c #120B24",
"Z.	c #130B27",
"`.	c #110B21",
" +	c #140B25",
".+	c #080718",
"++	c #050517",
"@+	c #0C081D",
"#+	c #140B2D",
"$+	c #100636",
"%+	c #351163",
"&+	c #200658",
"*+	c #1B0A45",
"=+	c #130A29",
"-+	c #060414",
";+	c #04030F",
">+	c #050414",
",+	c #08061B",
"'+	c #180E2C",
")+	c #220F3F",
"!+	c #2B0E59",
"~+	c #480E8B",
"{+	c #620DA9",
"]+	c #5D039B",
"^+	c #3E017D",
"/+	c #320169",
"(+	c #2F0179",
"_+	c #3B0399",
":+	c #34028A",
"<+	c #180153",
"[+	c #200159",
"}+	c #290173",
"|+	c #1B0155",
"1+	c #0C0133",
"2+	c #110142",
"3+	c #280175",
"4+	c #4403A1",
"5+	c #4802AD",
"6+	c #3E0596",
"7+	c #3A0495",
"8+	c #38038A",
"9+	c #2D0E60",
"0+	c #1C0D35",
"a+	c #0E0623",
"b+	c #120538",
"c+	c #210843",
"d+	c #561866",
"e+	c #3E0C47",
"f+	c #3E0C61",
"g+	c #310B6E",
"h+	c #260A67",
"i+	c #280967",
"j+	c #270963",
"k+	c #280869",
"l+	c #2F0A6E",
"m+	c #3C1477",
"n+	c #2F0872",
"o+	c #36184B",
"p+	c #100A28",
"q+	c #140D2B",
"r+	c #0D081E",
"s+	c #050514",
"t+	c #0F0A20",
"u+	c #0C081C",
"v+	c #0E081D",
"w+	c #050516",
"x+	c #100921",
"y+	c #080527",
"z+	c #1B0845",
"A+	c #4B167D",
"B+	c #420F77",
"C+	c #2F0369",
"D+	c #090618",
"E+	c #03020C",
"F+	c #050413",
"G+	c #1A0E30",
"H+	c #251140",
"I+	c #2C1053",
"J+	c #3A0B71",
"K+	c #6E10B7",
"L+	c #6906B5",
"M+	c #5E02A4",
"N+	c #380174",
"O+	c #200253",
"P+	c #1F0160",
"Q+	c #250175",
"R+	c #200161",
"S+	c #1B014B",
"T+	c #2B0164",
"U+	c #2A0168",
"V+	c #18014B",
"W+	c #0B012E",
"X+	c #100239",
"Y+	c #1C0257",
"Z+	c #250170",
"`+	c #21016A",
" @	c #2D0173",
".@	c #320178",
"+@	c #390280",
"@@	c #380E6C",
"#@	c #241238",
"$@	c #0D042A",
"%@	c #140541",
"&@	c #280B49",
"*@	c #2D0B44",
"=@	c #20062C",
"-@	c #54184F",
";@	c #802B6F",
">@	c #5A1D54",
",@	c #13023C",
"'@	c #200259",
")@	c #1F016A",
"!@	c #7219AB",
"~@	c #A13AC0",
"{@	c #6D1F9B",
"]@	c #451E55",
"^@	c #1C0F34",
"/@	c #08061F",
"(@	c #0F091E",
"_@	c #0C081B",
":@	c #0B081A",
"<@	c #090719",
"[@	c #080514",
"}@	c #08051E",
"|@	c #0D062D",
"1@	c #1E0847",
"2@	c #511881",
"3@	c #6D219C",
"4@	c #230453",
"5@	c #050412",
"6@	c #040311",
"7@	c #0D0821",
"8@	c #160D2D",
"9@	c #291645",
"0@	c #2F1252",
"a@	c #350C6B",
"b@	c #62139F",
"c@	c #7314B8",
"d@	c #5803AC",
"e@	c #4C01A0",
"f@	c #3E017F",
"g@	c #2B015E",
"h@	c #250159",
"i@	c #280160",
"j@	c #240156",
"k@	c #250155",
"l@	c #2B0160",
"m@	c #25015C",
"n@	c #100132",
"o@	c #0E0130",
"p@	c #11013C",
"q@	c #150143",
"r@	c #160146",
"s@	c #1B0150",
"t@	c #210150",
"u@	c #350173",
"v@	c #2A016D",
"w@	c #2E1053",
"x@	c #240E45",
"y@	c #13053F",
"z@	c #1E0849",
"A@	c #2D0D4C",
"B@	c #240837",
"C@	c #080218",
"D@	c #5F2356",
"E@	c #702763",
"F@	c #601E57",
"G@	c #370947",
"H@	c #320662",
"I@	c #190062",
"J@	c #3A058C",
"K@	c #5F08B6",
"L@	c #6A2398",
"M@	c #4E225F",
"N@	c #1F0F38",
"O@	c #0E0926",
"P@	c #080519",
"Q@	c #0B071A",
"R@	c #0D081C",
"S@	c #0C081E",
"T@	c #0A0621",
"U@	c #150935",
"V@	c #220A4B",
"W@	c #531884",
"X@	c #70209F",
"Y@	c #03030E",
"Z@	c #100A24",
"`@	c #261440",
" #	c #2E144E",
".#	c #320E5F",
"+#	c #5E09AD",
"@#	c #6F14AF",
"##	c #410394",
"$#	c #4B01A3",
"%#	c #4A0294",
"&#	c #320266",
"*#	c #22024B",
"=#	c #270254",
"-#	c #2B015B",
";#	c #27015B",
">#	c #25015B",
",#	c #1C014C",
"'#	c #0E012F",
")#	c #14013F",
"!#	c #13013F",
"~#	c #14013E",
"{#	c #23015A",
"]#	c #30016D",
"^#	c #370180",
"/#	c #340289",
"(#	c #2B0A6B",
"_#	c #250959",
":#	c #190553",
"<#	c #240C48",
"[#	c #270B41",
"}#	c #1B062F",
"|#	c #441F46",
"1#	c #642D60",
"2#	c #5F2658",
"3#	c #0A021A",
"4#	c #260632",
"5#	c #5B1B65",
"6#	c #3E0F5F",
"7#	c #21017D",
"8#	c #690EB5",
"9#	c #732A8D",
"0#	c #461F5E",
"a#	c #240F41",
"b#	c #040310",
"c#	c #09061A",
"d#	c #0A071A",
"e#	c #0E081C",
"f#	c #0B081D",
"g#	c #0B081F",
"h#	c #0E0825",
"i#	c #1C0A3D",
"j#	c #29085B",
"k#	c #490E7F",
"l#	c #3A0C59",
"m#	c #070515",
"n#	c #0C081A",
"o#	c #0E081E",
"p#	c #190E2E",
"q#	c #291445",
"r#	c #2F1157",
"s#	c #450C80",
"t#	c #52069D",
"u#	c #5105A2",
"v#	c #530BA3",
"w#	c #340197",
"x#	c #4602A6",
"y#	c #450294",
"z#	c #240256",
"A#	c #1B0242",
"B#	c #1E014C",
"C#	c #1E0152",
"D#	c #19014F",
"E#	c #140145",
"F#	c #110136",
"G#	c #07011E",
"H#	c #0B0128",
"I#	c #10012F",
"J#	c #16014B",
"K#	c #20025D",
"L#	c #31017D",
"M#	c #3A018F",
"N#	c #2D0190",
"O#	c #2B0579",
"P#	c #25075C",
"Q#	c #1C0949",
"R#	c #1E0D36",
"S#	c #1D0932",
"T#	c #120623",
"U#	c #532B5A",
"V#	c #693365",
"W#	c #3E1A3E",
"X#	c #18042B",
"Y#	c #290941",
"Z#	c #320D53",
"`#	c #1F0745",
" $	c #15043E",
".$	c #6E228E",
"+$	c #742799",
"@$	c #401563",
"#$	c #2C124B",
"$$	c #1E0E3A",
"%$	c #060517",
"&$	c #0A071B",
"*$	c #210F43",
"=$	c #210B49",
"-$	c #2D0669",
";$	c #38086A",
">$	c #050411",
",$	c #0F091D",
"'$	c #110920",
")$	c #2A1A3E",
"!$	c #381863",
"~$	c #481182",
"{$	c #500B98",
"]$	c #5606AA",
"^$	c #4203A7",
"/$	c #36029B",
"($	c #3402A0",
"_$	c #2D0182",
":$	c #22015F",
"<$	c #0E0132",
"[$	c #140154",
"}$	c #170156",
"|$	c #10013D",
"1$	c #0B012C",
"2$	c #06011F",
"3$	c #080121",
"4$	c #0C0128",
"5$	c #150140",
"6$	c #210262",
"7$	c #1F026B",
"8$	c #2D0288",
"9$	c #360196",
"0$	c #2B0186",
"a$	c #250273",
"b$	c #1C0649",
"c$	c #1E0F3A",
"d$	c #1B0B30",
"e$	c #0E0424",
"f$	c #25113F",
"g$	c #3D2054",
"h$	c #3E1F4D",
"i$	c #0E0321",
"j$	c #220837",
"k$	c #2B0C4A",
"l$	c #1C0744",
"m$	c #14053C",
"n$	c #140535",
"o$	c #140630",
"p$	c #2A0943",
"q$	c #340E58",
"r$	c #2F0E5B",
"s$	c #25114B",
"t$	c #241245",
"u$	c #110A27",
"v$	c #0B081E",
"w$	c #0B081C",
"x$	c #0E0A21",
"y$	c #0D081B",
"z$	c #1B0F30",
"A$	c #2B1453",
"B$	c #2B0E61",
"C$	c #250765",
"D$	c #170534",
"E$	c #090518",
"F$	c #150C23",
"G$	c #391F57",
"H$	c #53218B",
"I$	c #5E13A1",
"J$	c #6714AE",
"K$	c #5C0CB5",
"L$	c #3E039D",
"M$	c #240182",
"N$	c #250183",
"O$	c #180158",
"P$	c #0E0138",
"Q$	c #0D0236",
"R$	c #0B0235",
"S$	c #12014E",
"T$	c #1A0164",
"U$	c #1A0162",
"V$	c #150251",
"W$	c #0D0235",
"X$	c #0B0230",
"Y$	c #0B022C",
"Z$	c #0E0232",
"`$	c #160142",
" %	c #1E0259",
".%	c #2A027B",
"+%	c #380396",
"@%	c #3A029F",
"#%	c #2C028B",
"$%	c #26027E",
"%%	c #240B56",
"&%	c #21103A",
"*%	c #190B2E",
"=%	c #150635",
"-%	c #2F1559",
";%	c #301756",
">%	c #17082C",
",%	c #18062F",
"'%	c #250B42",
")%	c #230A47",
"!%	c #110536",
"~%	c #0E0428",
"{%	c #0E061E",
"]%	c #130821",
"^%	c #140A24",
"/%	c #140A25",
"(%	c #18093B",
"_%	c #280F54",
":%	c #2D1651",
"<%	c #1E1036",
"[%	c #060515",
"}%	c #0A0719",
"|%	c #0E091E",
"1%	c #0F081E",
"2%	c #1D0F35",
"3%	c #321560",
"4%	c #2F0B75",
"5%	c #2F096B",
"6%	c #0A0618",
"7%	c #0C071B",
"8%	c #1B102D",
"9%	c #211335",
"0%	c #412066",
"a%	c #5C1F9B",
"b%	c #722AAE",
"c%	c #7426B5",
"d%	c #6211B5",
"e%	c #35009A",
"f%	c #230179",
"g%	c #210174",
"h%	c #140152",
"i%	c #0E0143",
"j%	c #100149",
"k%	c #0F0245",
"l%	c #110149",
"m%	c #180258",
"n%	c #170252",
"o%	c #140245",
"p%	c #140240",
"q%	c #160244",
"r%	c #170249",
"s%	c #160248",
"t%	c #0F0135",
"u%	c #1E024F",
"v%	c #32037C",
"w%	c #3A038E",
"x%	c #32028B",
"y%	c #300296",
"z%	c #2D0A77",
"A%	c #26133F",
"B%	c #170A2B",
"C%	c #250B56",
"D%	c #2D1161",
"E%	c #240E4C",
"F%	c #0E0325",
"G%	c #1B0936",
"H%	c #220B45",
"I%	c #1B0550",
"J%	c #1B0C2F",
"K%	c #210E3B",
"L%	c #1E0D3A",
"M%	c #1C0D36",
"N%	c #1D0E31",
"O%	c #0B0620",
"P%	c #1C0B3B",
"Q%	c #190D33",
"R%	c #110A21",
"S%	c #0E0A23",
"T%	c #0E0922",
"U%	c #03020B",
"V%	c #07041A",
"W%	c #1F0C49",
"X%	c #2D0C70",
"Y%	c #070516",
"Z%	c #1D102D",
"`%	c #2D1B42",
" &	c #381B5C",
".&	c #582887",
"+&	c #7C32B9",
"@&	c #8839BB",
"#&	c #5F18A6",
"$&	c #46029E",
"%&	c #390197",
"&&	c #28017D",
"*&	c #1E016D",
"=&	c #120253",
"-&	c #0C0142",
";&	c #0B0139",
">&	c #0F023C",
",&	c #14023E",
"'&	c #160241",
")&	c #17023C",
"!&	c #19023F",
"~&	c #1F0346",
"{&	c #240255",
"]&	c #25015F",
"^&	c #1D024F",
"/&	c #160242",
"(&	c #15023F",
"_&	c #200255",
":&	c #2F0270",
"<&	c #37027A",
"[&	c #32027E",
"}&	c #32028E",
"|&	c #2E0877",
"1&	c #261142",
"2&	c #210A4F",
"3&	c #2B086D",
"4&	c #2B0B6B",
"5&	c #160834",
"6&	c #1B0C31",
"7&	c #1D0D38",
"8&	c #1E0850",
"9&	c #200656",
"0&	c #270C4F",
"a&	c #341853",
"b&	c #350E72",
"c&	c #2E087C",
"d&	c #230B5A",
"e&	c #28114F",
"f&	c #271149",
"g&	c #211133",
"h&	c #190C29",
"i&	c #070518",
"j&	c #040412",
"k&	c #0E0822",
"l&	c #0C0821",
"m&	c #0D0823",
"n&	c #0F0925",
"o&	c #030312",
"p&	c #1B0B3A",
"q&	c #1E0A45",
"r&	c #190E28",
"s&	c #2E1A40",
"t&	c #3D2556",
"u&	c #4C1C85",
"v&	c #803FB2",
"w&	c #8437BB",
"x&	c #7C27B6",
"y&	c #5E0EA1",
"z&	c #3E0192",
"A&	c #3D0298",
"B&	c #2B0287",
"C&	c #18015B",
"D&	c #0E013F",
"E&	c #0C012B",
"F&	c #14023B",
"G&	c #1C0246",
"H&	c #1A023F",
"I&	c #17023B",
"J&	c #1D024A",
"K&	c #240257",
"L&	c #290266",
"M&	c #250162",
"N&	c #200257",
"O&	c #190243",
"P&	c #1D024C",
"Q&	c #200250",
"R&	c #290165",
"S&	c #300175",
"T&	c #340282",
"U&	c #3C0297",
"V&	c #360389",
"W&	c #2A0D53",
"X&	c #280577",
"Y&	c #2A057A",
"Z&	c #220957",
"`&	c #1D0E33",
" *	c #22113B",
".*	c #230E4C",
"+*	c #2D0474",
"@*	c #2F0A6F",
"#*	c #470E82",
"$*	c #34097B",
"%*	c #390398",
"&*	c #3C04A1",
"**	c #2E0A71",
"=*	c #1E0951",
"-*	c #2F1160",
";*	c #3A155F",
">*	c #2F1348",
",*	c #210F2F",
"'*	c #140B27",
")*	c #0D0924",
"!*	c #0F0A26",
"~*	c #0C0822",
"{*	c #0E0823",
"]*	c #140B28",
"^*	c #1B0D35",
"/*	c #180E29",
"(*	c #2A173B",
"_*	c #382152",
":*	c #4B217C",
"<*	c #611DA1",
"[*	c #7E2CB9",
"}*	c #8128B7",
"|*	c #7A18B8",
"1*	c #5D0BA4",
"2*	c #3F0292",
"3*	c #36018F",
"4*	c #250173",
"5*	c #130147",
"6*	c #100236",
"7*	c #110232",
"8*	c #130236",
"9*	c #190244",
"0*	c #180242",
"a*	c #18024C",
"b*	c #1A025E",
"c*	c #1C0266",
"d*	c #20016E",
"e*	c #2F018F",
"f*	c #370294",
"g*	c #2F027F",
"h*	c #28026D",
"i*	c #280263",
"j*	c #28025F",
"k*	c #230257",
"l*	c #290167",
"m*	c #330188",
"n*	c #3A0197",
"o*	c #390195",
"p*	c #27036D",
"q*	c #23026B",
"r*	c #280569",
"s*	c #240E3E",
"t*	c #2C1349",
"u*	c #2C0E5A",
"v*	c #45088F",
"w*	c #5304A8",
"x*	c #6006B0",
"y*	c #5F05AE",
"z*	c #3A0094",
"A*	c #4503A8",
"B*	c #451586",
"C*	c #3F176C",
"D*	c #310E66",
"E*	c #2F1061",
"F*	c #391363",
"G*	c #331158",
"H*	c #25103E",
"I*	c #170E29",
"J*	c #0C0820",
"K*	c #02030F",
"L*	c #160C2B",
"M*	c #150E26",
"N*	c #180E28",
"O*	c #301A4B",
"P*	c #40206B",
"Q*	c #56189D",
"R*	c #4C069A",
"S*	c #771FB5",
"T*	c #721AB2",
"U*	c #670CB0",
"V*	c #5906A4",
"W*	c #38028C",
"X*	c #2A017A",
"Y*	c #180252",
"Z*	c #150244",
"`*	c #180241",
" =	c #1B0245",
".=	c #1B0246",
"+=	c #1B0249",
"@=	c #140246",
"#=	c #1B0167",
"$=	c #23017F",
"%=	c #1F017D",
"&=	c #2D0292",
"*=	c #4905AE",
"==	c #5308B0",
"-=	c #3E04A1",
";=	c #2A0182",
">=	c #270177",
",=	c #26016F",
"'=	c #270268",
")=	c #29016F",
"!=	c #290170",
"~=	c #2F0180",
"{=	c #36018E",
"]=	c #250169",
"^=	c #14023D",
"/=	c #230551",
"(=	c #280756",
"_=	c #260660",
":=	c #27027A",
"<=	c #3C0293",
"[=	c #5402B0",
"}=	c #6D0BB8",
"|=	c #6006B3",
"1=	c #400199",
"2=	c #47029E",
"3=	c #5503B1",
"4=	c #49059F",
"5=	c #4C0D91",
"6=	c #550A96",
"7=	c #40088A",
"8=	c #2B0873",
"9=	c #310D6C",
"0=	c #381361",
"a=	c #2B1248",
"b=	c #25133C",
"c=	c #1E0E34",
"d=	c #03030F",
"e=	c #140D25",
"f=	c #20113C",
"g=	c #391E5F",
"h=	c #6A2F9E",
"i=	c #601CAC",
"j=	c #5506AB",
"k=	c #6B16B8",
"l=	c #6713B2",
"m=	c #5403A8",
"n=	c #5204A2",
"o=	c #350284",
"p=	c #240168",
"q=	c #12023D",
"r=	c #190245",
"s=	c #1B0248",
"t=	c #180245",
"u=	c #18024B",
"v=	c #1D025A",
"w=	c #2C027F",
"x=	c #33028E",
"y=	c #3B0397",
"z=	c #480698",
"A=	c #560EA1",
"B=	c #6916AB",
"C=	c #4C0A9B",
"D=	c #35019A",
"E=	c #390294",
"F=	c #35028C",
"G=	c #38018D",
"H=	c #340180",
"I=	c #300274",
"J=	c #360181",
"K=	c #2B0170",
"L=	c #1B0149",
"M=	c #1D015B",
"N=	c #1D016D",
"O=	c #250185",
"P=	c #4901A9",
"Q=	c #6006B4",
"R=	c #6006B5",
"S=	c #42019E",
"T=	c #41019A",
"U=	c #6306B5",
"V=	c #6602B6",
"W=	c #5501A3",
"X=	c #4C019E",
"Y=	c #3D028F",
"Z=	c #280270",
"`=	c #270B67",
" -	c #2E0F5C",
".-	c #341159",
"+-	c #2F1153",
"@-	c #0A061C",
"#-	c #0D0820",
"$-	c #05040F",
"%-	c #180D33",
"&-	c #231242",
"*-	c #522975",
"=-	c #7C3AAE",
"--	c #5F0DB8",
";-	c #6F1DB9",
">-	c #5C11AE",
",-	c #420494",
"'-	c #350185",
")-	c #2F0177",
"!-	c #1E0162",
"~-	c #14014B",
"{-	c #0D0238",
"]-	c #110243",
"^-	c #14024A",
"/-	c #170242",
"(-	c #15023E",
"_-	c #1C0253",
":-	c #32027A",
"<-	c #2F0279",
"[-	c #2E0277",
"}-	c #320373",
"|-	c #460B7D",
"1-	c #56138A",
"2-	c #560E99",
"3-	c #590DA3",
"4-	c #5709AB",
"5-	c #4903A6",
"6-	c #43029D",
"7-	c #3D0191",
"8-	c #320272",
"9-	c #2A0260",
"0-	c #2A026B",
"a-	c #1E0258",
"b-	c #1A0246",
"c-	c #1A0145",
"d-	c #1B0157",
"e-	c #1B0165",
"f-	c #1E0173",
"g-	c #37018B",
"h-	c #3F019C",
"i-	c #3C0191",
"j-	c #4E029D",
"k-	c #770FB4",
"l-	c #7D0CB6",
"m-	c #53029D",
"n-	c #49019D",
"o-	c #320184",
"p-	c #190153",
"q-	c #160342",
"r-	c #23065D",
"s-	c #2A0B63",
"t-	c #320E67",
"u-	c #020209",
"v-	c #08051B",
"w-	c #10082B",
"x-	c #180C31",
"y-	c #1E1138",
"z-	c #6A3687",
"A-	c #7730B2",
"B-	c #7F34BB",
"C-	c #8038B5",
"D-	c #57189A",
"E-	c #1B0066",
"F-	c #1D0160",
"G-	c #1B015E",
"H-	c #140151",
"I-	c #12024C",
"J-	c #120249",
"K-	c #13024B",
"L-	c #110239",
"M-	c #11023B",
"N-	c #120246",
"O-	c #14024F",
"P-	c #180255",
"Q-	c #1E0266",
"R-	c #28026A",
"S-	c #1F0156",
"T-	c #310562",
"U-	c #3B0971",
"V-	c #450980",
"W-	c #610E9D",
"X-	c #640CA8",
"Y-	c #5406A3",
"Z-	c #35017C",
"`-	c #280157",
" ;	c #2A025E",
".;	c #1B024D",
"+;	c #15013F",
"@;	c #14014C",
"#;	c #17015C",
"$;	c #210169",
"%;	c #2E018B",
"&;	c #290172",
"*;	c #4B0193",
"=;	c #8B1CB8",
"-;	c #7C11B7",
";;	c #5902A4",
">;	c #4A01A4",
",;	c #3B0196",
"';	c #1B015C",
");	c #160145",
"!;	c #1A014C",
"~;	c #1F0258",
"{;	c #220365",
"];	c #370B74",
"^;	c #090617",
"/;	c #02020B",
"(;	c #09071C",
"_;	c #0E0820",
":;	c #0D0828",
"<;	c #180D37",
"[;	c #361460",
"};	c #511A87",
"|;	c #6926A5",
"1;	c #691BB8",
"2;	c #6310B2",
"3;	c #611BA5",
"4;	c #440B8E",
"5;	c #210266",
"6;	c #190254",
"7;	c #190159",
"8;	c #1C0262",
"9;	c #180256",
"0;	c #0E0235",
"a;	c #0B012F",
"b;	c #0D0138",
"c;	c #110246",
"d;	c #130252",
"e;	c #120156",
"f;	c #14015B",
"g;	c #180160",
"h;	c #20016C",
"i;	c #23016D",
"j;	c #1E025D",
"k;	c #180156",
"l;	c #25026B",
"m;	c #540D8A",
"n;	c #6B14A0",
"o;	c #7516AE",
"p;	c #5C0BA8",
"q;	c #420197",
"r;	c #38016D",
"s;	c #28024E",
"t;	c #2A0266",
"u;	c #1B0253",
"v;	c #130139",
"w;	c #120234",
"x;	c #120144",
"y;	c #1B015D",
"z;	c #2A0184",
"A;	c #320199",
"B;	c #2F0183",
"C;	c #4E078E",
"D;	c #7A18B5",
"E;	c #7614B9",
"F;	c #5904AE",
"G;	c #690EB7",
"H;	c #4501A6",
"I;	c #2C0179",
"J;	c #310173",
"K;	c #2E0170",
"L;	c #220167",
"M;	c #2C0370",
"N;	c #711AAB",
"O;	c #080517",
"P;	c #03020D",
"Q;	c #0B071C",
"R;	c #110A2A",
"S;	c #261149",
"T;	c #3E186F",
"U;	c #661CA6",
"V;	c #6510B6",
"W;	c #5A0BB0",
"X;	c #4C05A5",
"Y;	c #45039C",
"Z;	c #4D049B",
"`;	c #490197",
" >	c #2E0271",
".>	c #1E025C",
"+>	c #1E0260",
"@>	c #23026A",
"#>	c #0F0236",
"$>	c #0A0127",
"%>	c #10023F",
"&>	c #1A025F",
"*>	c #1D016C",
"=>	c #1A0165",
"->	c #1B0264",
";>	c #21016D",
">>	c #1E0169",
",>	c #1D0168",
"'>	c #200178",
")>	c #21017C",
"!>	c #260184",
"~>	c #2B018A",
"{>	c #370290",
"]>	c #5C1393",
"^>	c #84299D",
"/>	c #771CAA",
"(>	c #5604AE",
"_>	c #4F028E",
":>	c #3C0267",
"<>	c #31026B",
"[>	c #1E0164",
"}>	c #0E0134",
"|>	c #110132",
"1>	c #11023C",
"2>	c #160159",
"3>	c #14014F",
"4>	c #1B0166",
"5>	c #2B0191",
"6>	c #220171",
"7>	c #2F0174",
"8>	c #6313AB",
"9>	c #731EB9",
"0>	c #7D2BBB",
"a>	c #7821B9",
"b>	c #5308AD",
"c>	c #38018E",
"d>	c #420189",
"e>	c #34017A",
"f>	c #21016B",
"g>	c #2B027E",
"h>	c #560DA5",
"i>	c #0A071D",
"j>	c #1B0E38",
"k>	c #4F237D",
"l>	c #5718A4",
"m>	c #5C0EB2",
"n>	c #5005A2",
"o>	c #3E0291",
"p>	c #440299",
"q>	c #450297",
"r>	c #480294",
"s>	c #3A0181",
"t>	c #23026D",
"u>	c #24026D",
"v>	c #21015F",
"w>	c #110236",
"x>	c #0A0128",
"y>	c #11013B",
"z>	c #1C015A",
"A>	c #2D0280",
"B>	c #300191",
"C>	c #270178",
"D>	c #300280",
"E>	c #3C028A",
"F>	c #2A0174",
"G>	c #28017C",
"H>	c #310196",
"I>	c #2F019A",
"J>	c #2B0294",
"K>	c #32029B",
"L>	c #3902A0",
"M>	c #490694",
"N>	c #6C1794",
"O>	c #7F1FA3",
"P>	c #7112B1",
"Q>	c #6604A8",
"R>	c #4F027B",
"S>	c #3B0278",
"T>	c #270273",
"U>	c #130245",
"V>	c #100231",
"W>	c #12024F",
"X>	c #100140",
"Y>	c #200170",
"Z>	c #210180",
"`>	c #220178",
" ,	c #290177",
".,	c #490C98",
"+,	c #6D22B4",
"@,	c #6F1DB8",
"#,	c #7A20BA",
"$,	c #4D08A8",
"%,	c #47019E",
"&,	c #3E0185",
"*,	c #360182",
"=,	c #380190",
"-,	c #420897",
";,	c #670EB5",
">,	c #0E0923",
",,	c #1B0E34",
"',	c #3F1B65",
"),	c #5A2299",
"!,	c #5C10B4",
"~,	c #6406B5",
"{,	c #430491",
"],	c #3B018D",
"^,	c #410291",
"/,	c #41028C",
"(,	c #3F0287",
"_,	c #2D0177",
":,	c #20016A",
"<,	c #2B017B",
"[,	c #260169",
"},	c #1F0158",
"|,	c #190246",
"1,	c #120233",
"2,	c #0F0132",
"3,	c #12013F",
"4,	c #1E025B",
"5,	c #2F0189",
"6,	c #5204AA",
"7,	c #5603AE",
"8,	c #5603A8",
"9,	c #5702A9",
"0,	c #5702AC",
"a,	c #3E0195",
"b,	c #3E0294",
"c,	c #3C019F",
"d,	c #350197",
"e,	c #350296",
"f,	c #320290",
"g,	c #350391",
"h,	c #4F0B9D",
"i,	c #68149B",
"j,	c #5F0C91",
"k,	c #660BA8",
"l,	c #6505AC",
"m,	c #4F0286",
"n,	c #38026A",
"o,	c #280172",
"p,	c #150252",
"q,	c #110238",
"r,	c #0F0141",
"s,	c #19015A",
"t,	c #23017C",
"u,	c #20017E",
"v,	c #220177",
"w,	c #2F0283",
"x,	c #4704A3",
"y,	c #4402A5",
"z,	c #630FB6",
"A,	c #6713B8",
"B,	c #4B03AB",
"C,	c #43029C",
"D,	c #2B016E",
"E,	c #2A0170",
"F,	c #4C05A1",
"G,	c #8125B7",
"H,	c #8028A9",
"I,	c #060415",
"J,	c #120B29",
"K,	c #241340",
"L,	c #4E2579",
"M,	c #681CB1",
"N,	c #660FB8",
"O,	c #630BB0",
"P,	c #5608A3",
"Q,	c #350183",
"R,	c #31027A",
"S,	c #300181",
"T,	c #2F017F",
"U,	c #2B0177",
"V,	c #25025B",
"W,	c #1F0248",
"X,	c #190240",
"Y,	c #2B017A",
"Z,	c #3E019A",
"`,	c #5903AE",
" '	c #730ABA",
".'	c #7808BB",
"+'	c #8409BC",
"@'	c #7407B5",
"#'	c #6808B8",
"$'	c #660CB5",
"%'	c #690DB8",
"&'	c #5608AE",
"*'	c #4403A7",
"='	c #4403A4",
"-'	c #3C0197",
";'	c #2D0187",
">'	c #280385",
",'	c #580F9B",
"''	c #5F0C92",
")'	c #55059B",
"!'	c #5203AB",
"~'	c #420185",
"{'	c #380162",
"]'	c #270266",
"^'	c #19015E",
"/'	c #140142",
"('	c #110144",
"_'	c #110145",
":'	c #250287",
"<'	c #20017D",
"['	c #220173",
"}'	c #2E0187",
"|'	c #2D0189",
"1'	c #5308A6",
"2'	c #5E0BB6",
"3'	c #4502A8",
"4'	c #41029E",
"5'	c #2D017B",
"6'	c #280182",
"7'	c #4E06A9",
"8'	c #7617B9",
"9'	c #7421A3",
"0'	c #1B0E32",
"a'	c #391C5A",
"b'	c #6A2A98",
"c'	c #842BBB",
"d'	c #7D22B5",
"e'	c #4D07A1",
"f'	c #42019F",
"g'	c #310184",
"h'	c #2E017D",
"i'	c #2C0177",
"j'	c #300177",
"k'	c #330176",
"l'	c #2A015F",
"m'	c #1C0245",
"n'	c #1B0243",
"o'	c #1E024B",
"p'	c #2E016D",
"q'	c #410192",
"r'	c #4501A0",
"s'	c #5601B2",
"t'	c #7005B6",
"u'	c #6805AE",
"v'	c #6D05AE",
"w'	c #6B08AB",
"x'	c #600AAE",
"y'	c #6D0FB9",
"z'	c #7311BB",
"A'	c #5D07B4",
"B'	c #4C03A8",
"C'	c #42029B",
"D'	c #380288",
"E'	c #2B017D",
"F'	c #320297",
"G'	c #4F0EA7",
"H'	c #4C0793",
"I'	c #4C0291",
"J'	c #4A02A2",
"K'	c #450191",
"L'	c #3F026E",
"M'	c #28025E",
"N'	c #12013C",
"O'	c #14014A",
"P'	c #13014B",
"Q'	c #1D025F",
"R'	c #250286",
"S'	c #210281",
"T'	c #1E0166",
"U'	c #200172",
"V'	c #240173",
"W'	c #36028E",
"X'	c #4504A2",
"Y'	c #4802A7",
"Z'	c #43019E",
"`'	c #3F0291",
" )	c #32019A",
".)	c #3F01AB",
"+)	c #5F0AB5",
"@)	c #5D1496",
"#)	c #0A071E",
"$)	c #180E2D",
"%)	c #2D1846",
"&)	c #46216A",
"*)	c #792BAF",
"=)	c #983EBD",
"-)	c #6720AA",
";)	c #380292",
">)	c #320189",
",)	c #2B0176",
"')	c #28016A",
"))	c #28025C",
"!)	c #22024F",
"~)	c #1D0245",
"{)	c #150237",
"])	c #140139",
"^)	c #1B014A",
"/)	c #250163",
"()	c #360183",
"_)	c #45019A",
":)	c #5302A6",
"<)	c #6003AA",
"[)	c #5D03A2",
"})	c #4B0297",
"|)	c #4E019E",
"1)	c #5301A7",
"2)	c #4F04A6",
"3)	c #6108AF",
"4)	c #5806A5",
"5)	c #5305A2",
"6)	c #5403AB",
"7)	c #5604AA",
"8)	c #31027D",
"9)	c #22025D",
"0)	c #1A024B",
"a)	c #270277",
"b)	c #4208A1",
"c)	c #4D0A9F",
"d)	c #3E0281",
"e)	c #460299",
"f)	c #47029A",
"g)	c #420273",
"h)	c #26025D",
"i)	c #14024D",
"j)	c #11013D",
"k)	c #130149",
"l)	c #170155",
"m)	c #270293",
"n)	c #1D0277",
"o)	c #150254",
"p)	c #1B0163",
"q)	c #240172",
"r)	c #3C048D",
"s)	c #5405AB",
"t)	c #6005B2",
"u)	c #6808B5",
"v)	c #6A09B7",
"w)	c #5F05B6",
"x)	c #6307B5",
"y)	c #59128E",
"z)	c #231438",
"A)	c #42215F",
"B)	c #591D95",
"C)	c #7826B5",
"D)	c #8B38BB",
"E)	c #5006A6",
"F)	c #29027A",
"G)	c #1A0242",
"H)	c #1C0247",
"I)	c #120135",
"J)	c #140144",
"K)	c #28016C",
"L)	c #2F017A",
"M)	c #45028F",
"N)	c #5B03A8",
"O)	c #6003AE",
"P)	c #6403A8",
"Q)	c #450193",
"R)	c #5804A1",
"S)	c #6306B0",
"T)	c #6C0FB6",
"U)	c #6A0EB4",
"V)	c #5E09A5",
"W)	c #2F0284",
"X)	c #37018E",
"Y)	c #320280",
"Z)	c #35027F",
"`)	c #310187",
" !	c #270170",
".!	c #160243",
"+!	c #290384",
"@!	c #4606A8",
"#!	c #380281",
"$!	c #470294",
"%!	c #4B0298",
"&!	c #430277",
"*!	c #20024F",
"=!	c #0F0143",
"-!	c #21026E",
";!	c #25028A",
">!	c #18026F",
",!	c #0D023F",
"'!	c #180161",
")!	c #1B0164",
"!!	c #320284",
"~!	c #38028E",
"{!	c #4F039C",
"]!	c #6304B2",
"^!	c #7309B7",
"/!	c #7A0DBA",
"(!	c #770AB9",
"_!	c #600EA0",
":!	c #1D1132",
"<!	c #391B55",
"[!	c #5C2783",
"}!	c #7019B7",
"|!	c #670EB9",
"1!	c #6A0FB5",
"2!	c #4F04A2",
"3!	c #2F017D",
"4!	c #2D0171",
"5!	c #230159",
"6!	c #230255",
"7!	c #140239",
"8!	c #1A0245",
"9!	c #200150",
"0!	c #1C024E",
"a!	c #1A0253",
"b!	c #200163",
"c!	c #2F017E",
"d!	c #3D0295",
"e!	c #6606B5",
"f!	c #6605B1",
"g!	c #5F03AB",
"h!	c #4F01A1",
"i!	c #5606A4",
"j!	c #6D0DB4",
"k!	c #7C16BC",
"l!	c #6D14B2",
"m!	c #4C0B9A",
"n!	c #38038C",
"o!	c #31018C",
"p!	c #2E0284",
"q!	c #240177",
"r!	c #230170",
"s!	c #2B0180",
"t!	c #280177",
"u!	c #170247",
"v!	c #2B027D",
"w!	c #3F03A1",
"x!	c #420291",
"y!	c #4E0395",
"z!	c #45027A",
"A!	c #15014C",
"B!	c #250270",
"C!	c #29049B",
"D!	c #14025D",
"E!	c #0E0242",
"F!	c #130253",
"G!	c #1A0166",
"H!	c #1A0265",
"I!	c #220273",
"J!	c #2F0187",
"K!	c #32018A",
"L!	c #3F0194",
"M!	c #5902A5",
"N!	c #6C08B1",
"O!	c #7B0EB8",
"P!	c #7D0DBA",
"Q!	c #6A14A5",
"R!	c #28163E",
"S!	c #4E2071",
"T!	c #8033A8",
"U!	c #7825B8",
"V!	c #650EB6",
"W!	c #7014B5",
"X!	c #630CAB",
"Y!	c #510494",
"Z!	c #370279",
"`!	c #1F0157",
" ~	c #240163",
".~	c #20025F",
"+~	c #230169",
"@~	c #330191",
"#~	c #4F03AD",
"$~	c #5604B0",
"%~	c #4F02A5",
"&~	c #4901A2",
"*~	c #5403AC",
"=~	c #6608BA",
"-~	c #6308B9",
";~	c #5306A9",
">~	c #3E0394",
",~	c #2E017F",
"'~	c #280269",
")~	c #24016B",
"!~	c #17014E",
"~~	c #210268",
"{~	c #140241",
"]~	c #1D0257",
"^~	c #350294",
"/~	c #490199",
"(~	c #5F05A1",
"_~	c #5A039B",
":~	c #44027A",
"<~	c #1F0259",
"[~	c #13014A",
"}~	c #16024F",
"|~	c #140149",
"1~	c #32048E",
"2~	c #310697",
"3~	c #140355",
"4~	c #0E023F",
"5~	c #11024F",
"6~	c #1B016F",
"7~	c #1F017E",
"8~	c #1D026F",
"9~	c #240274",
"0~	c #2A0180",
"a~	c #390191",
"b~	c #5A03A8",
"c~	c #6002AE",
"d~	c #8113B9",
"e~	c #7E1BAE",
"f~	c #5D1B88",
"g~	c #3C185E",
"h~	c #591D8B",
"i~	c #7D2AB5",
"j~	c #6D14B7",
"k~	c #7518B9",
"l~	c #751BB2",
"m~	c #6A0EAC",
"n~	c #49038A",
"o~	c #2F0269",
"p~	c #21024F",
"q~	c #1B0154",
"r~	c #25016F",
"s~	c #25016A",
"t~	c #20025E",
"u~	c #250171",
"v~	c #2C0186",
"w~	c #370199",
"x~	c #5003AF",
"y~	c #4301A3",
"z~	c #4D01AF",
"A~	c #6A0AB6",
"B~	c #690BB5",
"C~	c #5B07AF",
"D~	c #4301A4",
"E~	c #320185",
"F~	c #2C0173",
"G~	c #2D0263",
"H~	c #250252",
"I~	c #1D014F",
"J~	c #1A0154",
"K~	c #19015D",
"L~	c #11014B",
"M~	c #0B0132",
"N~	c #140243",
"O~	c #1B025C",
"P~	c #150144",
"Q~	c #300285",
"R~	c #490494",
"S~	c #6E0BA4",
"T~	c #69049C",
"U~	c #47027D",
"V~	c #280266",
"W~	c #1A0251",
"X~	c #29026D",
"Y~	c #3C04A0",
"Z~	c #250480",
"`~	c #13024E",
" {	c #120255",
".{	c #190172",
"+{	c #22018B",
"@{	c #1C0171",
"#{	c #1A015B",
"${	c #270180",
"%{	c #360095",
"&{	c #5603A6",
"*{	c #730EB3",
"={	c #8618B9",
"-{	c #7319A1",
";{	c #31145D",
">{	c #471777",
",{	c #4C148E",
"'{	c #6214AD",
"){	c #6D14B8",
"!{	c #640EB0",
"~{	c #530D9C",
"{{	c #38018B",
"]{	c #260163",
"^{	c #110234",
"/{	c #180151",
"({	c #200160",
"_{	c #230166",
":{	c #190255",
"<{	c #2C018B",
"[{	c #35019B",
"}{	c #320191",
"|{	c #350194",
"1{	c #3B019E",
"2{	c #5603B4",
"3{	c #720BBA",
"4{	c #650DAB",
"5{	c #36028D",
"6{	c #2F0181",
"7{	c #2C016D",
"8{	c #210151",
"9{	c #1B0144",
"0{	c #140153",
"a{	c #1B0173",
"b{	c #2A038A",
"c{	c #240279",
"d{	c #210279",
"e{	c #1E0153",
"f{	c #290179",
"g{	c #3E087A",
"h{	c #71119E",
"i{	c #650794",
"j{	c #420277",
"k{	c #220264",
"l{	c #23025B",
"m{	c #210157",
"n{	c #38028D",
"o{	c #2F038A",
"p{	c #1B026A",
"q{	c #0F0242",
"r{	c #10024F",
"s{	c #150167",
"t{	c #150168",
"u{	c #130153",
"v{	c #2A0185",
"w{	c #4102A3",
"x{	c #6309AF",
"y{	c #8D1BBB",
"z{	c #8114BA",
"A{	c #561484",
"B{	c #2B1055",
"C{	c #391172",
"D{	c #370D84",
"E{	c #4405A1",
"F{	c #5F0BB2",
"G{	c #4C0797",
"H{	c #21015E",
"I{	c #180146",
"J{	c #0D0132",
"K{	c #1E0160",
"L{	c #24015C",
"M{	c #170145",
"N{	c #150150",
"O{	c #1F0177",
"P{	c #310198",
"Q{	c #38029E",
"R{	c #2E018A",
"S{	c #2C018A",
"T{	c #2D0092",
"U{	c #5605B2",
"V{	c #6006B2",
"W{	c #42028D",
"X{	c #2B0162",
"Y{	c #180144",
"Z{	c #0F014C",
"`{	c #1E017D",
" ]	c #21027C",
".]	c #1E0269",
"+]	c #1B0259",
"@]	c #160157",
"#]	c #13024A",
"$]	c #110148",
"%]	c #0E013E",
"&]	c #1E0252",
"*]	c #27026A",
"=]	c #3E0676",
"-]	c #7010A1",
";]	c #47027C",
">]	c #2B0266",
",]	c #1D0259",
"']	c #19024D",
")]	c #1E0250",
"!]	c #2F0274",
"~]	c #3F029C",
"{]	c #2A028D",
"]]	c #1A0264",
"^]	c #13024F",
"/]	c #110256",
"(]	c #12015A",
"_]	c #110156",
":]	c #0E023A",
"<]	c #280181",
"[]	c #4002A0",
"}]	c #660EB2",
"|]	c #7011B2",
"1]	c #5C08A3",
"2]	c #3A0D6D",
"3]	c #2A0E53",
"4]	c #250866",
"5]	c #2C0388",
"6]	c #380298",
"7]	c #3F0297",
"8]	c #33027F",
"9]	c #20015C",
"0]	c #0D012F",
"a]	c #11013F",
"b]	c #180250",
"c]	c #210156",
"d]	c #1F0153",
"e]	c #180159",
"f]	c #240188",
"g]	c #31019A",
"h]	c #2E018E",
"i]	c #2B0089",
"j]	c #390196",
"k]	c #5004AB",
"l]	c #5205A0",
"m]	c #1B0060",
"n]	c #33017C",
"o]	c #2E016C",
"p]	c #150166",
"q]	c #18016D",
"r]	c #210277",
"s]	c #1C0255",
"t]	c #0A012B",
"u]	c #0D0135",
"v]	c #0F0142",
"w]	c #4A0690",
"x]	c #550791",
"y]	c #3B0275",
"z]	c #210162",
"A]	c #3D028B",
"B]	c #39039B",
"C]	c #280286",
"D]	c #1A0268",
"E]	c #140255",
"F]	c #110250",
"G]	c #10024C",
"H]	c #10024E",
"I]	c #0D023E",
"J]	c #190154",
"K]	c #2E0180",
"L]	c #4302A2",
"M]	c #5203AD",
"N]	c #44019E",
"O]	c #3C0882",
"P]	c #361069",
"Q]	c #29114F",
"R]	c #200466",
"S]	c #24017E",
"T]	c #320190",
"U]	c #36018B",
"V]	c #2B0171",
"W]	c #1C0151",
"X]	c #140242",
"Y]	c #18014C",
"Z]	c #1C0153",
"`]	c #210253",
" ^	c #1C0156",
".^	c #1C0170",
"+^	c #2D0194",
"@^	c #260186",
"#^	c #2C0190",
"$^	c #2B018E",
"%^	c #3F01A3",
"&^	c #37028A",
"*^	c #29016D",
"=^	c #230163",
"-^	c #29016A",
";^	c #1E0159",
">^	c #11015B",
",^	c #21018B",
"'^	c #20016D",
")^	c #18014E",
"!^	c #070120",
"~^	c #05011A",
"{^	c #080124",
"]^	c #0C0131",
"^^	c #0C0238",
"/^	c #12023F",
"(^	c #390384",
"_^	c #450697",
":^	c #4F0690",
"<^	c #1D0065",
"[^	c #210259",
"}^	c #1C014F",
"|^	c #3A0373",
"1^	c #4D059D",
"2^	c #3C039E",
"3^	c #21027B",
"4^	c #190268",
"5^	c #140257",
"6^	c #0F0244",
"7^	c #0E0230",
"8^	c #1B024F",
"9^	c #350189",
"0^	c #3F019D",
"a^	c #4C02A6",
"b^	c #460593",
"c^	c #380D6F",
"d^	c #34125C",
"e^	c #2A124A",
"f^	c #25017B",
"g^	c #2F0173",
"h^	c #1A024F",
"i^	c #1E024E",
"j^	c #1C0154",
"k^	c #1B0162",
"l^	c #24017D",
"m^	c #35029F",
"n^	c #300293",
"o^	c #230180",
"p^	c #39019B",
"q^	c #36018A",
"r^	c #180152",
"s^	c #29016C",
"t^	c #0E014C",
"u^	c #260172",
"v^	c #1E0251",
"w^	c #0F0130",
"x^	c #040118",
"y^	c #02010E",
"z^	c #030111",
"A^	c #06011E",
"B^	c #0A012A",
"C^	c #0E0133",
"D^	c #170146",
"E^	c #250266",
"F^	c #3C0398",
"G^	c #4804A0",
"H^	c #36027D",
"I^	c #200165",
"J^	c #260264",
"K^	c #25025A",
"L^	c #4C048E",
"M^	c #4F04A8",
"N^	c #210275",
"O^	c #180260",
"P^	c #10024A",
"Q^	c #0F0235",
"R^	c #150239",
"S^	c #1B0244",
"T^	c #30017E",
"U^	c #420199",
"V^	c #5A04AA",
"W^	c #490A8D",
"X^	c #340F61",
"Y^	c #321458",
"Z^	c #251142",
"`^	c #1C0164",
" /	c #27017A",
"./	c #370285",
"+/	c #240258",
"@/	c #18013F",
"#/	c #1B024A",
"$/	c #1A024A",
"%/	c #170154",
"&/	c #25017D",
"*/	c #25017E",
"=/	c #2B0293",
"-/	c #220186",
";/	c #250180",
">/	c #2F018B",
",/	c #3F019A",
"'/	c #18014F",
")/	c #1F015D",
"!/	c #210166",
"~/	c #140155",
"{/	c #11014E",
"]/	c #230263",
"^/	c #2D0161",
"//	c #180140",
"(/	c #080122",
"_/	c #040114",
":/	c #01010A",
"</	c #030110",
"[/	c #0A0129",
"}/	c #100135",
"|/	c #1C015D",
"1/	c #310383",
"2/	c #380391",
"3/	c #330282",
"4/	c #1E0061",
"5/	c #2F0172",
"6/	c #2C0263",
"7/	c #210158",
"8/	c #400282",
"9/	c #470299",
"0/	c #4303A0",
"a/	c #32038C",
"b/	c #18025C",
"c/	c #11024A",
"d/	c #0E0237",
"e/	c #100230",
"f/	c #160238",
"g/	c #390285",
"h/	c #5301A4",
"i/	c #5907A6",
"j/	c #491086",
"k/	c #2F1158",
"l/	c #2D144F",
"m/	c #1B0E35",
"n/	c #240174",
"o/	c #380295",
"p/	c #290166",
"q/	c #140137",
"r/	c #16023D",
"s/	c #1C0249",
"t/	c #170240",
"u/	c #220176",
"v/	c #260287",
"w/	c #2E03A6",
"x/	c #210184",
"y/	c #290184",
"z/	c #380293",
"A/	c #30017B",
"B/	c #15014B",
"C/	c #1B0159",
"D/	c #110159",
"E/	c #190165",
"F/	c #260156",
"G/	c #13013B",
"H/	c #040117",
"I/	c #030112",
"J/	c #080123",
"K/	c #0C012E",
"L/	c #4804A2",
"M/	c #31016A",
"N/	c #35016D",
"O/	c #2F0168",
"P/	c #350277",
"Q/	c #4E04AB",
"R/	c #3A0397",
"S/	c #160256",
"T/	c #12024E",
"U/	c #110345",
"V/	c #110230",
"W/	c #10022C",
"X/	c #170239",
"Y/	c #1C0244",
"Z/	c #2B0265",
"`/	c #41018E",
" (	c #5502A8",
".(	c #4F0B9A",
"+(	c #4B1E7E",
"@(	c #321B56",
"#(	c #1E0F3B",
"$(	c #0F0927",
"%(	c #32018B",
"&(	c #34018F",
"*(	c #12013A",
"=(	c #080120",
"-(	c #100130",
";(	c #16013C",
">(	c #1E0170",
",(	c #2E0291",
"'(	c #270283",
")(	c #290296",
"!(	c #2F03A4",
"~(	c #230281",
"{(	c #240178",
"](	c #320187",
"^(	c #190166",
"/(	c #170166",
"((	c #1B0176",
"_(	c #22017D",
":(	c #290163",
"<(	c #1E0148",
"[(	c #1B014C",
"}(	c #180145",
"|(	c #070121",
"1(	c #080126",
"2(	c #0C012F",
"3(	c #10013A",
"4(	c #220170",
"5(	c #350289",
"6(	c #200258",
"7(	c #2B0163",
"8(	c #37026B",
"9(	c #32016C",
"0(	c #37017E",
"a(	c #4F039F",
"b(	c #5506AE",
"c(	c #4704A5",
"d(	c #2F028A",
"e(	c #1D0266",
"f(	c #120251",
"g(	c #110240",
"h(	c #120237",
"i(	c #130232",
"j(	c #140235",
"k(	c #210251",
"l(	c #31017A",
"m(	c #400197",
"n(	c #5007A3",
"o(	c #552191",
"p(	c #4D2874",
"q(	c #2F1C45",
"r(	c #35018A",
"s(	c #350187",
"t(	c #27016A",
"u(	c #0E012B",
"v(	c #130137",
"w(	c #160240",
"x(	c #150242",
"y(	c #130241",
"z(	c #18025E",
"A(	c #2D0290",
"B(	c #260181",
"C(	c #25018B",
"D(	c #2D02A1",
"E(	c #16015E",
"F(	c #2D0185",
"G(	c #32017F",
"H(	c #210159",
"I(	c #160148",
"J(	c #180157",
"K(	c #180168",
"L(	c #1B006F",
"M(	c #290299",
"N(	c #2E0166",
"O(	c #1C0142",
"P(	c #27025E",
"Q(	c #0B012B",
"R(	c #1A0157",
"S(	c #29017C",
"T(	c #2A0160",
"U(	c #3C0178",
"V(	c #400286",
"W(	c #51039C",
"X(	c #6005B4",
"Y(	c #5608B1",
"Z(	c #320295",
"`(	c #280284",
" _	c #1A0266",
"._	c #13034F",
"+_	c #110245",
"@_	c #110237",
"#_	c #130235",
"$_	c #18023C",
"%_	c #1D024D",
"&_	c #230160",
"*_	c #280170",
"=_	c #3F0492",
"-_	c #5C16A6",
";_	c #4D2677",
">_	c #170D2A",
",_	c #130B25",
"'_	c #0C071D",
")_	c #470195",
"!_	c #3C0189",
"~_	c #35017E",
"{_	c #1D024B",
"]_	c #14013B",
"^_	c #100232",
"/_	c #14023F",
"(_	c #14024C",
"__	c #210273",
":_	c #32039E",
"<_	c #290280",
"[_	c #25018A",
"}_	c #1F017A",
"|_	c #220172",
"1_	c #34017D",
"2_	c #1C024B",
"3_	c #18014A",
"4_	c #1B0168",
"5_	c #25018D",
"6_	c #3302A4",
"7_	c #3C029A",
"8_	c #380171",
"9_	c #0D0130",
"0_	c #1F0152",
"a_	c #33016E",
"b_	c #1F0163",
"c_	c #2C0182",
"d_	c #2B0270",
"e_	c #25015E",
"f_	c #2F016A",
"g_	c #3C017C",
"h_	c #43028B",
"i_	c #5F08A2",
"j_	c #770FB8",
"k_	c #5908B5",
"l_	c #3D03A5",
"m_	c #2B0295",
"n_	c #170262",
"o_	c #100245",
"p_	c #140238",
"q_	c #1D0249",
"r_	c #240169",
"s_	c #1E0261",
"t_	c #350287",
"u_	c #4B128E",
"v_	c #3C1B69",
"w_	c #251442",
"x_	c #120A29",
"y_	c #070519",
"z_	c #280169",
"A_	c #15023D",
"B_	c #0E0135",
"C_	c #120245",
"D_	c #2C0290",
"E_	c #2E028B",
"F_	c #250189",
"G_	c #1E0274",
"H_	c #26017C",
"I_	c #2E017C",
"J_	c #31026D",
"K_	c #220251",
"L_	c #19014D",
"M_	c #150153",
"N_	c #1E016F",
"O_	c #2C01A0",
"P_	c #3C03AF",
"Q_	c #45029B",
"R_	c #330170",
"S_	c #170142",
"T_	c #250153",
"U_	c #3A0175",
"V_	c #2E0267",
"W_	c #27025C",
"X_	c #260263",
"Y_	c #310274",
"Z_	c #310277",
"`_	c #2F026D",
" :	c #25015D",
".:	c #250160",
"+:	c #350184",
"@:	c #430197",
"#:	c #4C0197",
"$:	c #730CA9",
"%:	c #730FB2",
"&:	c #680FB5",
"*:	c #4606B2",
"=:	c #3202A5",
"-:	c #280294",
";:	c #1E0276",
">:	c #0E0238",
",:	c #110233",
"':	c #1E024C",
"):	c #200256",
"!:	c #250265",
"~:	c #460890",
"{:	c #541595",
"]:	c #3B1F61",
"^:	c #291748",
"/:	c #120A2B",
"(:	c #09061E",
"_:	c #33017D",
"::	c #16013F",
"<:	c #130247",
"[:	c #140253",
"}:	c #27028A",
"|:	c #34029A",
"1:	c #330287",
"2:	c #160245",
"3:	c #1C026C",
"4:	c #240284",
"5:	c #200273",
"6:	c #340177",
"7:	c #340163",
"8:	c #23024F",
"9:	c #16014C",
"0:	c #14014D",
"a:	c #3702A5",
"b:	c #4C05B1",
"c:	c #4E039C",
"d:	c #340170",
"e:	c #110146",
"f:	c #21014A",
"g:	c #2B015C",
"h:	c #260259",
"i:	c #250257",
"j:	c #280259",
"k:	c #27025B",
"l:	c #160144",
"m:	c #24016C",
"n:	c #5502A5",
"o:	c #6D06AB",
"p:	c #8711B8",
"q:	c #4B06AB",
"r:	c #3F05AE",
"s:	c #3804AC",
"t:	c #2C0297",
"u:	c #16025A",
"v:	c #0E0239",
"w:	c #0E0233",
"x:	c #0F0232",
"y:	c #130234",
"z:	c #1C024C",
"A:	c #210257",
"B:	c #330277",
"C:	c #410294",
"D:	c #6B1CAB",
"E:	c #4C1E7F",
"F:	c #341B56",
"G:	c #21113C",
"H:	c #0B0621",
"I:	c #150156",
"J:	c #180266",
"K:	c #25038D",
"L:	c #2D039F",
"M:	c #2F028B",
"N:	c #27026C",
"O:	c #17024F",
"P:	c #1E0168",
"Q:	c #2B017C",
"R:	c #35016E",
"S:	c #39016B",
"T:	c #240250",
"U:	c #160152",
"V:	c #290180",
"W:	c #3E03AE",
"X:	c #5205B8",
"Y:	c #52039C",
"Z:	c #380178",
"`:	c #21015B",
" <	c #280153",
".<	c #2C0156",
"+<	c #14013C",
"@<	c #160147",
"#<	c #17014C",
"$<	c #17014F",
"%<	c #1F0166",
"&<	c #35018E",
"*<	c #3F009A",
"=<	c #7009AF",
"-<	c #7D16B7",
";<	c #630CB2",
"><	c #3F04B2",
",<	c #3503AA",
"'<	c #2E0295",
")<	c #1B016D",
"!<	c #150152",
"~<	c #130244",
"{<	c #13023A",
"]<	c #120235",
"^<	c #140237",
"/<	c #1E0256",
"(<	c #3F028A",
"_<	c #5B04A8",
":<	c #6A0BB5",
"<<	c #6E1BB1",
"[<	c #6F28A1",
"}<	c #381E62",
"|<	c #2D1949",
"1<	c #110A29",
"2<	c #0A061E",
"3<	c #07051A",
"4<	c #060519",
"5<	c #3E0190",
"6<	c #40018E",
"7<	c #250168",
"8<	c #160162",
"9<	c #210386",
"0<	c #2F04A5",
"a<	c #30039F",
"b<	c #260277",
"c<	c #170253",
"d<	c #16015D",
"e<	c #1F016E",
"f<	c #22016C",
"g<	c #31016D",
"h<	c #36016A",
"i<	c #20024C",
"j<	c #130145",
"k<	c #4C04B2",
"l<	c #5905A8",
"m<	c #550394",
"n<	c #320275",
"o<	c #1C0155",
"p<	c #2C0160",
"q<	c #340166",
"r<	c #27015C",
"s<	c #1E015D",
"t<	c #1B0258",
"u<	c #240170",
"v<	c #3C018C",
"w<	c #5A04A3",
"x<	c #6607B1",
"y<	c #6A0BB4",
"z<	c #550BAE",
"A<	c #3101A6",
"B<	c #3302A8",
"C<	c #300294",
"D<	c #1F016D",
"E<	c #13014D",
"F<	c #140141",
"G<	c #180243",
"H<	c #180247",
"I<	c #2C026F",
"J<	c #6911B1",
"K<	c #8626BB",
"L<	c #701CB0",
"M<	c #4A2179",
"N<	c #321B53",
"O<	c #23143C",
"P<	c #07061B",
"Q<	c #2D017A",
"R<	c #2C017C",
"S<	c #1F0165",
"T<	c #150158",
"U<	c #15015F",
"V<	c #1B0177",
"W<	c #28039E",
"X<	c #3604B6",
"Y<	c #320399",
"Z<	c #270274",
"`<	c #180257",
" [	c #140252",
".[	c #210165",
"+[	c #1B0158",
"@[	c #420181",
"#[	c #35026A",
"$[	c #21024D",
"%[	c #0F013C",
"&[	c #240167",
"*[	c #4F04AC",
"=[	c #3B02A3",
"-[	c #6007B0",
";[	c #7108B0",
">[	c #4C0394",
",[	c #3F027A",
"'[	c #3B0274",
")[	c #2B0166",
"![	c #320177",
"~[	c #390184",
"{[	c #490391",
"][	c #6507AB",
"^[	c #7609BB",
"/[	c #5903B6",
"([	c #3D02A6",
"_[	c #34029E",
":[	c #2B0194",
"<[	c #280185",
"[[	c #17014D",
"}[	c #190247",
"|[	c #230251",
"1[	c #230256",
"2[	c #1B0251",
"3[	c #1B0250",
"4[	c #1B024E",
"5[	c #310183",
"6[	c #650DB3",
"7[	c #7A28AD",
"8[	c #5F218B",
"9[	c #391E5C",
"0[	c #281642",
"a[	c #1F1238",
"b[	c #0D0825",
"c[	c #23016F",
"d[	c #150159",
"e[	c #23028D",
"f[	c #3405B0",
"g[	c #3504AD",
"h[	c #310292",
"i[	c #190350",
"j[	c #150255",
"k[	c #0E013C",
"l[	c #180154",
"m[	c #2E016B",
"n[	c #2E025C",
"o[	c #1A0240",
"p[	c #0F013B",
"q[	c #350193",
"r[	c #320197",
"s[	c #4302A0",
"t[	c #6C06B6",
"u[	c #5804A7",
"v[	c #400294",
"w[	c #3B018A",
"x[	c #4E018E",
"y[	c #4C018B",
"z[	c #430187",
"A[	c #4C0198",
"B[	c #5502A1",
"C[	c #6706AF",
"D[	c #700CB8",
"E[	c #630BB8",
"F[	c #4B05B2",
"G[	c #3703A0",
"H[	c #2F0291",
"I[	c #24017A",
"J[	c #1D0162",
"K[	c #18024E",
"L[	c #290168",
"M[	c #260265",
"N[	c #210256",
"O[	c #1B015B",
"P[	c #3D038E",
"Q[	c #6710B5",
"R[	c #70289C",
"S[	c #30184C",
"T[	c #231143",
"U[	c #1E1133",
"V[	c #1A102E",
"W[	c #110B26",
"X[	c #190A30",
"Y[	c #140B30",
"Z[	c #310271",
"`[	c #1E015C",
" }	c #250282",
".}	c #2F03A1",
"+}	c #3705B6",
"@}	c #3102A1",
"#}	c #2C0282",
"$}	c #250363",
"%}	c #18024F",
"&}	c #110249",
"*}	c #1E0165",
"=}	c #220163",
"-}	c #350170",
";}	c #2B0253",
">}	c #1A013D",
",}	c #110140",
"'}	c #210163",
")}	c #380197",
"!}	c #2A018C",
"~}	c #3B019C",
"{}	c #5202AF",
"]}	c #5904B1",
"^}	c #5C08AB",
"/}	c #670BAA",
"(}	c #720AA9",
"_}	c #820BAC",
":}	c #6204A4",
"<}	c #5602A4",
"[}	c #5F08B8",
"}}	c #600BBA",
"|}	c #540BB6",
"1}	c #4706AE",
"2}	c #39029E",
"3}	c #340187",
"4}	c #22015A",
"5}	c #20025A",
"6}	c #210246",
"7}	c #1E0242",
"8}	c #1E0246",
"9}	c #23025A",
"0}	c #2A0274",
"a}	c #340190",
"b}	c #6518AB",
"c}	c #7511B9",
"d}	c #591787",
"e}	c #1C0E36",
"f}	c #180C34",
"g}	c #160E28",
"h}	c #150D26",
"i}	c #2B0D4F",
"j}	c #150C32",
"k}	c #270163",
"l}	c #230162",
"m}	c #2A028F",
"n}	c #3505B2",
"o}	c #4108B6",
"p}	c #3F04A3",
"q}	c #2F027D",
"r}	c #24025B",
"s}	c #11024B",
"t}	c #14014E",
"u}	c #1D0163",
"v}	c #32017B",
"w}	c #3C0176",
"x}	c #290249",
"y}	c #110131",
"z}	c #16014E",
"A}	c #12013D",
"B}	c #21015D",
"C}	c #2C0191",
"D}	c #340194",
"E}	c #4301A8",
"F}	c #4202A4",
"G}	c #650FB5",
"H}	c #6D11B6",
"I}	c #7711B5",
"J}	c #7510B5",
"K}	c #6408B5",
"L}	c #5606B5",
"M}	c #5307B5",
"N}	c #6911BB",
"O}	c #5708B1",
"P}	c #45049B",
"Q}	c #340283",
"R}	c #2F0171",
"S}	c #23025F",
"T}	c #160233",
"U}	c #180235",
"V}	c #190239",
"W}	c #34017B",
"X}	c #3D0192",
"Y}	c #5104A4",
"Z}	c #7D25B3",
"`}	c #8728BD",
" |	c #761BB7",
".|	c #4B1480",
"+|	c #180D34",
"@|	c #11092B",
"#|	c #100A1F",
"$|	c #461870",
"%|	c #3A0E6D",
"&|	c #180B36",
"*|	c #0B0720",
"=|	c #270165",
"-|	c #270161",
";|	c #21015C",
">|	c #3805AA",
",|	c #530EB7",
"'|	c #600BB6",
")|	c #390480",
"!|	c #1A024C",
"~|	c #170261",
"{|	c #140259",
"]|	c #130146",
"^|	c #39018E",
"/|	c #3C0172",
"(|	c #2F0252",
"_|	c #110138",
":|	c #2B027C",
"<|	c #2E029B",
"[|	c #2F0193",
"}|	c #310192",
"||	c #33019D",
"1|	c #4201AF",
"2|	c #5506B8",
"3|	c #5305B3",
"4|	c #5E0AB4",
"5|	c #620BB7",
"6|	c #5908AB",
"7|	c #5206A4",
"8|	c #4E069A",
"9|	c #41038A",
"0|	c #2E026D",
"a|	c #210250",
"b|	c #2E015E",
"c|	c #2A0259",
"d|	c #15023C",
"e|	c #0E012A",
"f|	c #120232",
"g|	c #140232",
"h|	c #2E016A",
"i|	c #56039E",
"j|	c #6605B3",
"k|	c #6C08B9",
"l|	c #8622BD",
"m|	c #7319BB",
"n|	c #5914A9",
"o|	c #3F1877",
"p|	c #1B1037",
"q|	c #100928",
"r|	c #080515",
"s|	c #230737",
"t|	c #6A2A9C",
"u|	c #461182",
"v|	c #210E45",
"w|	c #250167",
"x|	c #270169",
"y|	c #3C029B",
"z|	c #3001A1",
"A|	c #4506B2",
"B|	c #570BBB",
"C|	c #5908B3",
"D|	c #36027F",
"E|	c #250486",
"F|	c #0D0137",
"G|	c #3D0177",
"H|	c #330258",
"I|	c #1C0149",
"J|	c #0E012D",
"K|	c #0D012D",
"L|	c #220268",
"M|	c #2B0291",
"N|	c #280290",
"O|	c #240183",
"P|	c #280194",
"Q|	c #3301A7",
"R|	c #3E02AB",
"S|	c #3702A1",
"T|	c #4705A1",
"U|	c #5407A7",
"V|	c #480398",
"W|	c #33017A",
"X|	c #310275",
"Y|	c #270263",
"Z|	c #220256",
"`|	c #1E0248",
" 1	c #0E012E",
".1	c #110130",
"+1	c #330273",
"@1	c #520399",
"#1	c #5403A2",
"$1	c #6A0BB7",
"%1	c #700FBC",
"&1	c #600FB3",
"*1	c #4B1B98",
"=1	c #412561",
"-1	c #130A30",
";1	c #09071A",
">1	c #7D2893",
",1	c #7C2BB2",
"'1	c #420E81",
")1	c #1E0B42",
"!1	c #06061B",
"~1	c #390290",
"{1	c #3F01A1",
"]1	c #4F05B4",
"^1	c #4A05B6",
"/1	c #4604B8",
"(1	c #4905B6",
"_1	c #4502AA",
":1	c #210264",
"<1	c #1B0369",
"[1	c #20047A",
"}1	c #140256",
"|1	c #0C0132",
"11	c #2A016A",
"21	c #490183",
"31	c #390166",
"41	c #12014B",
"51	c #0C0129",
"61	c #0B012A",
"71	c #23027A",
"81	c #210283",
"91	c #270289",
"01	c #37029D",
"a1	c #3A01A4",
"b1	c #35019D",
"c1	c #320192",
"d1	c #270184",
"e1	c #280184",
"f1	c #260268",
"g1	c #2E0268",
"h1	c #1D0242",
"i1	c #1A023C",
"j1	c #10022F",
"k1	c #0A0125",
"l1	c #0C0229",
"m1	c #130138",
"n1	c #280166",
"o1	c #3F0296",
"p1	c #5A08B0",
"q1	c #7212BF",
"r1	c #5112A9",
"s1	c #4C2780",
"t1	c #361D56",
"u1	c #130B2D",
"v1	c #0E0921",
"w1	c #300755",
"x1	c #941BBD",
"y1	c #771EAB",
"z1	c #3F1676",
"A1	c #21143F",
"B1	c #31037D",
"C1	c #4502A2",
"D1	c #4C03AE",
"E1	c #5E0BBA",
"F1	c #5D0CBA",
"G1	c #4904B9",
"H1	c #3F02AD",
"I1	c #1D0265",
"J1	c #18025F",
"K1	c #1C0371",
"L1	c #250488",
"M1	c #160356",
"N1	c #11023A",
"O1	c #2A015C",
"P1	c #42027A",
"Q1	c #330265",
"R1	c #1E0161",
"S1	c #140156",
"T1	c #090129",
"U1	c #060120",
"V1	c #110242",
"W1	c #210270",
"X1	c #1F027A",
"Y1	c #1E0270",
"Z1	c #4203A2",
"`1	c #4302A4",
" 2	c #2C0180",
".2	c #320260",
"+2	c #26024E",
"@2	c #1A023D",
"#2	c #11012F",
"$2	c #0F022C",
"%2	c #0C0228",
"&2	c #0A0227",
"*2	c #090123",
"=2	c #0E022F",
"-2	c #2B016D",
";2	c #40019E",
">2	c #5F08B9",
",2	c #6311B5",
"'2	c #4D1D93",
")2	c #42255D",
"!2	c #1C0E39",
"~2	c #090619",
"{2	c #48028C",
"]2	c #7905B5",
"^2	c #7E30AB",
"/2	c #372066",
"(2	c #0E092D",
"_2	c #0A071C",
":2	c #310972",
"<2	c #4905A9",
"[2	c #5809B8",
"}2	c #590BBB",
"|2	c #4102B5",
"12	c #32019D",
"22	c #29017D",
"32	c #1E0172",
"42	c #21027A",
"52	c #240381",
"62	c #1E0369",
"72	c #180249",
"82	c #250256",
"92	c #3B0173",
"02	c #300261",
"a2	c #1D0250",
"b2	c #15024B",
"c2	c #0E0131",
"d2	c #0B0228",
"e2	c #260381",
"f2	c #2B0284",
"g2	c #390298",
"h2	c #28017A",
"i2	c #120147",
"j2	c #13013D",
"k2	c #0A012D",
"l2	c #0A0124",
"m2	c #2B016C",
"n2	c #2A0175",
"o2	c #410395",
"p2	c #4903A5",
"q2	c #5006B4",
"r2	c #5C16AB",
"s2	c #4D2971",
"t2	c #301B4C",
"u2	c #190E32",
"v2	c #450672",
"w2	c #54009E",
"x2	c #7420AE",
"y2	c #5F35A0",
"z2	c #1B0E52",
"A2	c #140B38",
"B2	c #160E3C",
"C2	c #1B0F55",
"D2	c #4915A0",
"E2	c #4905BA",
"F2	c #3B02AF",
"G2	c #34019B",
"H2	c #230274",
"I2	c #250281",
"J2	c #290374",
"K2	c #13023F",
"L2	c #29025C",
"M2	c #3F017A",
"N2	c #310266",
"O2	c #250250",
"P2	c #120138",
"Q2	c #250372",
"R2	c #230373",
"S2	c #1A0261",
"T2	c #2C0188",
"U2	c #2F0191",
"V2	c #250174",
"W2	c #1F025C",
"X2	c #150245",
"Y2	c #140249",
"Z2	c #0E023B",
"`2	c #0B0129",
" 3	c #0A0122",
".3	c #0C0226",
"+3	c #0D0228",
"@3	c #11022F",
"#3	c #250351",
"$3	c #350377",
"%3	c #3C0291",
"&3	c #5906B5",
"*3	c #4A069C",
"=3	c #28017E",
"-3	c #440E92",
";3	c #4C1E80",
">3	c #3C2154",
",3	c #180E34",
"'3	c #561D98",
")3	c #3D1B84",
"!3	c #200F5C",
"~3	c #160E40",
"{3	c #0C0922",
"]3	c #160D43",
"^3	c #1E1059",
"/3	c #3D1E6D",
"(3	c #4A188E",
"_3	c #38029B",
":3	c #2D0184",
"<3	c #2B028F",
"[3	c #250187",
"}3	c #27027D",
"|3	c #32037E",
"13	c #280265",
"23	c #0F0239",
"33	c #1D0154",
"43	c #2D0264",
"53	c #260253",
"63	c #220468",
"73	c #220370",
"83	c #1E026C",
"93	c #25027E",
"03	c #230273",
"a3	c #210265",
"b3	c #230259",
"c3	c #16023C",
"d3	c #08021E",
"e3	c #1C0241",
"f3	c #210349",
"g3	c #34046A",
"h3	c #4C059D",
"i3	c #4A03A6",
"j3	c #420497",
"k3	c #3F048A",
"l3	c #380982",
"m3	c #4C1886",
"n3	c #482461",
"o3	c #2A1545",
"p3	c #2B047A",
"q3	c #300089",
"r3	c #36037D",
"s3	c #461288",
"t3	c #3C1B73",
"u3	c #21115C",
"v3	c #160E42",
"w3	c #0D0925",
"x3	c #0E0925",
"y3	c #150B42",
"z3	c #3E1D64",
"A3	c #4D1B80",
"B3	c #4B0492",
"C3	c #340183",
"D3	c #270275",
"E3	c #2A0189",
"F3	c #21017E",
"G3	c #1E0176",
"H3	c #420391",
"I3	c #380377",
"J3	c #160149",
"K3	c #230164",
"L3	c #27025F",
"M3	c #160237",
"N3	c #1D0367",
"O3	c #11024C",
"P3	c #16025C",
"Q3	c #1A026C",
"R3	c #1C0173",
"S3	c #1A0263",
"T3	c #250268",
"U3	c #270267",
"V3	c #250260",
"W3	c #1D024E",
"X3	c #14023C",
"Y3	c #250253",
"Z3	c #2B0260",
"`3	c #3F038A",
" 4	c #4D04A5",
".4	c #31017F",
"+4	c #460294",
"@4	c #6617A5",
"#4	c #592284",
"$4	c #401E5C",
"%4	c #0D0824",
"&4	c #240644",
"*4	c #5104AC",
"=4	c #230070",
"-4	c #20025B",
";4	c #4E1884",
">4	c #3D1A6D",
",4	c #251366",
"'4	c #150C40",
")4	c #0F0A2A",
"!4	c #0F092B",
"~4	c #140B3F",
"{4	c #231359",
"]4	c #401C67",
"^4	c #53207F",
"/4	c #4B058E",
"(4	c #3C0094",
"_4	c #400198",
":4	c #380189",
"<4	c #2D028B",
"[4	c #29018D",
"}4	c #56059F",
"|4	c #580594",
"14	c #21025C",
"24	c #160150",
"34	c #250263",
"44	c #280262",
"54	c #240254",
"64	c #1C0240",
"74	c #0E023D",
"84	c #110247",
"94	c #140251",
"04	c #130256",
"a4	c #140258",
"b4	c #180261",
"c4	c #180262",
"d4	c #1E026A",
"e4	c #25027B",
"f4	c #23026F",
"g4	c #1D0261",
"h4	c #17024A",
"i4	c #150243",
"j4	c #290263",
"k4	c #310276",
"l4	c #42039E",
"m4	c #4903AC",
"n4	c #4D02A9",
"o4	c #5102A6",
"p4	c #4E039B",
"q4	c #600FA4",
"r4	c #6D1CAA",
"s4	c #4E2470",
"t4	c #251341",
"u4	c #6F0C98",
"v4	c #5A05AC",
"w4	c #1A034D",
"x4	c #531A84",
"y4	c #3C1968",
"z4	c #22115F",
"A4	c #130A42",
"B4	c #110B30",
"C4	c #100931",
"D4	c #130A40",
"E4	c #211156",
"F4	c #53207E",
"G4	c #5C0B9E",
"H4	c #5101B0",
"I4	c #4E01B0",
"J4	c #370194",
"K4	c #320188",
"L4	c #3E029A",
"M4	c #3701A0",
"N4	c #6E0BAF",
"O4	c #6A08A2",
"P4	c #370273",
"Q4	c #21025E",
"R4	c #21024A",
"S4	c #180239",
"T4	c #14023A",
"U4	c #10023C",
"V4	c #0C0135",
"W4	c #0C0236",
"X4	c #11023F",
"Y4	c #0E0140",
"Z4	c #17025A",
"`4	c #190262",
" 5	c #1D026D",
".5	c #190261",
"+5	c #1B0260",
"@5	c #1B015F",
"#5	c #170254",
"$5	c #32017A",
"%5	c #3C029C",
"&5	c #4902A9",
"*5	c #5802A7",
"=5	c #7004B5",
"-5	c #5C07A6",
";5	c #8E32BB",
">5	c #662697",
",5	c #3C1B60",
"'5	c #1E0F38",
")5	c #0E0824",
"!5	c #31055B",
"~5	c #8C0FBC",
"{5	c #53039E",
"]5	c #290178",
"^5	c #1F0356",
"/5	c #4F1881",
"(5	c #3E1968",
"_5	c #1E0F52",
":5	c #11093F",
"<5	c #130B37",
"[5	c #110938",
"}5	c #110842",
"|5	c #271262",
"15	c #411C6D",
"25	c #4B1C79",
"35	c #630EAB",
"45	c #7A0FBE",
"55	c #7508BB",
"65	c #450299",
"75	c #5D0A99",
"85	c #6A0BA0",
"95	c #330276",
"05	c #1A0259",
"a5	c #320170",
"b5	c #3D017F",
"c5	c #340167",
"d5	c #310159",
"e5	c #0D0231",
"f5	c #0C0232",
"g5	c #0D0237",
"h5	c #0B0231",
"i5	c #0A0231",
"j5	c #0E023E",
"k5	c #160251",
"l5	c #1A025B",
"m5	c #1B0257",
"n5	c #180150",
"o5	c #16024C",
"p5	c #170255",
"q5	c #380191",
"r5	c #300186",
"s5	c #470194",
"t5	c #5B029D",
"u5	c #6001A5",
"v5	c #6C1BAC",
"w5	c #782BAB",
"x5	c #592388",
"y5	c #291049",
"z5	c #130B2E",
"A5	c #09071D",
"B5	c #360276",
"C5	c #7106B0",
"D5	c #790FB2",
"E5	c #380087",
"F5	c #35037B",
"G5	c #49187A",
"H5	c #3C1863",
"I5	c #221057",
"J5	c #130943",
"K5	c #120B38",
"L5	c #11083C",
"M5	c #0E073D",
"N5	c #251159",
"O5	c #452174",
"P5	c #421C6A",
"Q5	c #420B8C",
"R5	c #7210BB",
"S5	c #8618BB",
"T5	c #7707BB",
"U5	c #6504AF",
"V5	c #1E015F",
"W5	c #1E015B",
"X5	c #370372",
"Y5	c #340275",
"Z5	c #1E0253",
"`5	c #32016F",
" 6	c #3D0188",
".6	c #390177",
"+6	c #2D025A",
"@6	c #19023C",
"#6	c #0D022F",
"$6	c #08012C",
"%6	c #060122",
"&6	c #060121",
"*6	c #100235",
"=6	c #12023B",
"-6	c #120240",
";6	c #15024E",
">6	c #1A015F",
",6	c #24016A",
"'6	c #370187",
")6	c #42019B",
"!6	c #4D01A0",
"~6	c #4C0195",
"{6	c #59029B",
"]6	c #6602A4",
"^6	c #6D06AF",
"/6	c #741AB2",
"(6	c #6925A2",
"_6	c #431670",
":6	c #210D41",
"<6	c #1A0548",
"[6	c #6605A8",
"}6	c #7D0CB8",
"|6	c #5401A5",
"16	c #6504AE",
"26	c #471774",
"36	c #421E6A",
"46	c #261160",
"56	c #11083F",
"66	c #11093A",
"76	c #0E082F",
"86	c #110A2F",
"96	c #120B33",
"06	c #38215A",
"a6	c #603684",
"b6	c #5C258C",
"c6	c #6306B7",
"d6	c #6C0BBB",
"e6	c #991DBD",
"f6	c #6F0BAB",
"g6	c #3C0098",
"h6	c #320270",
"i6	c #24015F",
"j6	c #210161",
"k6	c #1D0167",
"l6	c #190256",
"m6	c #1E0255",
"n6	c #2F017B",
"o6	c #3C0188",
"p6	c #3C027A",
"q6	c #1F0247",
"r6	c #18023F",
"s6	c #0F0230",
"t6	c #060123",
"u6	c #080224",
"v6	c #0D0229",
"w6	c #0D022B",
"x6	c #0B0126",
"y6	c #090124",
"z6	c #1C0163",
"A6	c #23016A",
"B6	c #5101A0",
"C6	c #6603B1",
"D6	c #7304B5",
"E6	c #7503B5",
"F6	c #6D03AC",
"G6	c #7B07B4",
"H6	c #8D25B9",
"I6	c #7926AE",
"J6	c #5C2093",
"K6	c #340E63",
"L6	c #150B32",
"M6	c #0B071F",
"N6	c #220271",
"O6	c #4A0194",
"P6	c #7C0FB6",
"Q6	c #6305AB",
"R6	c #6407AB",
"S6	c #59258A",
"T6	c #38215F",
"U6	c #110B32",
"V6	c #110932",
"W6	c #0F0830",
"X6	c #120B2F",
"Y6	c #2A194B",
"Z6	c #3F2560",
"`6	c #5C2487",
" 7	c #7D1BBE",
".7	c #A532BA",
"+7	c #8E15BA",
"@7	c #470094",
"#7	c #1D0157",
"$7	c #3C0298",
"%7	c #3701AA",
"&7	c #33038C",
"*7	c #32017D",
"=7	c #38017D",
"-7	c #2C0261",
";7	c #24024F",
">7	c #24034D",
",7	c #090228",
"'7	c #0D022E",
")7	c #0E022D",
"!7	c #0A0225",
"~7	c #1A015E",
"{7	c #24016D",
"]7	c #530396",
"^7	c #800AB8",
"/7	c #850DBB",
"(7	c #8A11BB",
"_7	c #7C06B9",
":7	c #6B03AE",
"<7	c #7A0FB2",
"[7	c #972BBB",
"}7	c #7A2BAF",
"|7	c #4B1486",
"17	c #2C0E57",
"27	c #12082C",
"37	c #1E045F",
"47	c #350085",
"57	c #730DB3",
"67	c #6306A5",
"77	c #451183",
"87	c #472172",
"97	c #231549",
"07	c #110B2E",
"a7	c #0D0921",
"b7	c #100B28",
"c7	c #2F1D4C",
"d7	c #2A1847",
"e7	c #663280",
"f7	c #A03CC0",
"g7	c #9D33BA",
"h7	c #AD3FBB",
"i7	c #7610B5",
"j7	c #320085",
"k7	c #1C0259",
"l7	c #240162",
"m7	c #270164",
"n7	c #25016D",
"o7	c #4502AB",
"p7	c #5808BD",
"q7	c #590ABA",
"r7	c #3F03AC",
"s7	c #260276",
"t7	c #250269",
"u7	c #2C0178",
"v7	c #230167",
"w7	c #220255",
"x7	c #21024E",
"y7	c #12023C",
"z7	c #100233",
"A7	c #17023F",
"B7	c #1B0254",
"C7	c #170158",
"D7	c #1F015C",
"E7	c #7309A9",
"F7	c #8E14BB",
"G7	c #8817BC",
"H7	c #8316BB",
"I7	c #7206B7",
"J7	c #5801A4",
"K7	c #790AB3",
"L7	c #8020B1",
"M7	c #5F1B94",
"N7	c #36106A",
"O7	c #1A0B3B",
"P7	c #11053A",
"Q7	c #350373",
"R7	c #4C03A2",
"S7	c #5604A8",
"T7	c #49019C",
"U7	c #430E80",
"V7	c #331B56",
"W7	c #29194C",
"X7	c #110B2D",
"Y7	c #0D0A21",
"Z7	c #0D0A22",
"`7	c #0E0B23",
" 8	c #291B46",
".8	c #291B43",
"+8	c #612E7D",
"@8	c #9A28C0",
"#8	c #9F2BBB",
"$8	c #9121BD",
"%8	c #6108A9",
"&8	c #2D007C",
"*8	c #3D0297",
"=8	c #4501AC",
"-8	c #5F0BB9",
";8	c #6811BB",
">8	c #4503BB",
",8	c #3802A9",
"'8	c #2E0188",
")8	c #2B0183",
"!8	c #260177",
"~8	c #210255",
"{8	c #110137",
"]8	c #140236",
"^8	c #1F015F",
"/8	c #350181",
"(8	c #6305AA",
"_8	c #6908B7",
":8	c #5906B2",
"<8	c #5E06B1",
"[8	c #5704A1",
"}8	c #6012A2",
"|8	c #7324AD",
"18	c #712E9F",
"28	c #381C6A",
"38	c #221344",
"48	c #27036F",
"58	c #1E0163",
"68	c #25025E",
"78	c #400383",
"88	c #420294",
"98	c #3F0197",
"08	c #5201AB",
"a8	c #460E80",
"b8	c #2D1B4B",
"c8	c #281A4C",
"d8	c #110C29",
"e8	c #0E0B21",
"f8	c #0C0921",
"g8	c #0A081C",
"h8	c #291B42",
"i8	c #24193A",
"j8	c #5B2377",
"k8	c #9114C0",
"l8	c #780DB7",
"m8	c #770DBB",
"n8	c #6B0BAE",
"o8	c #1E0156",
"p8	c #42029E",
"q8	c #4D03AD",
"r8	c #4E04B5",
"s8	c #5207B9",
"t8	c #3801B0",
"u8	c #3A01A0",
"v8	c #30018B",
"w8	c #24026F",
"x8	c #130238",
"y8	c #19024C",
"z8	c #490196",
"A8	c #6F07B1",
"B8	c #6205B3",
"C8	c #41019E",
"D8	c #310186",
"E8	c #3D0584",
"F8	c #551B97",
"G8	c #542896",
"H8	c #3B1F73",
"I8	c #1F1149",
"J8	c #0D0827",
"K8	c #2A065C",
"L8	c #45019D",
"M8	c #3A0193",
"N8	c #360287",
"O8	c #41018D",
"P8	c #5E01B5",
"Q8	c #4F0F82",
"R8	c #21163D",
"S8	c #281849",
"T8	c #100B26",
"U8	c #0C091E",
"  . + @ # $ % & * = = - ; > , ' ) ! ~ { ] ^ / ( _ : < [ } | 1 2 3 4 5 6 7 8 9 0 a b c d e f g h i j k l m n o p & q r s t u v w ",
"x y z u A B C D E F G H I k J ! K k L M N O P Q R S T U V W X Y Z `  ...+.@.#.$.%.&.*.=.-.;.>.,.'.).!.~.{.].^./.(._.:.<.[.}.|.v ",
"1.2.3.4.5.6.7.8.9.0.a.b.c.d.! e.f.g.h.i.j.k.l.m.n.o.p.q.r.s.t.u.v.w.x.y.z.A.B.C.D.E.F.G.H.I.J.K.L.M.N.O.P.Q.R.S.T.U.e.V.W.X.Y.Z.",
"`. +.+A ++@+#+$+%+&+*+=+-+;+>+,+'+)+!+~+{+]+^+/+(+_+:+<+[+}+|+1+2+3+4+5+6+7+8+9+0+a+b+c+d+e+f+g+h+i+j+k+l+m+n+o+p+q+r+s+V.W.`.t+",
"u+v+W.w+:.x+y+z+A+B+C+D+E+F+k G+H+I+J+K+L+M+N+O+P+Q+R+S+T+U+V+W+X+Y+Z+`+ @.@+@@@#@$@%@&@*@=@-@;@>@,@'@)@!@~@{@]@^@/@(@D+6.:._@4.",
"[.:@<@A [@}@|@1@2@3@4@5@6@7@8@9@0@a@b@c@d@e@f@g@h@i@j@k@l@m@n@o@p@q@r@s@t@u@v@w@x@y@z@A@B@C@D@E@F@G@H@I@J@K@L@M@N@O@P@[@V.W.Q@R@",
"[.4.S@>+& T@U@V@W@X@>+Y@5@Z@`@ #.#/ +#@###$#%#&#*#=#-#;#>#,#n@'#)#!#~#{#]#^#/#(#_#:#<#[#}#|#1#2#3#4#5#6#7#8#9#0#a#  $ W.b#c#d#e#",
"_@f#f#& g#h#i#j#k#l#m#n#o#p#q#r#s#t#u#v#w#x#y#z#A#B#C#D#E#F#G#H#I#)#J#K#L#M#N#O#P#Q#R#S#T#U#V#W#X#Y#Z#`# $.$+$@$#$$$h#g#%$5.&$:@",
"d#S@,+c#v *$=$-$;$! >$,$'$)$!$~${$]$^$/$($_$:$)#<$E#[$}$|$1$2$3$4$5$6$7$8$9$0$a$b$c$d$e$f$g$h$i$j$k$l$m$n$o$p$q$r$s$t$u$c#W.v$D+",
"w$x$d.y$z$A$B$C$D$c#W.E$F$G$H$I$J$K$L$M$N$O$P$Q$R$S$T$U$V$W$X$Y$Z$`$ %.%+%@%#%$%%%&%*%=%-%;%>%,%'%)%!%~%{%]%^%/%(%_%:%<%'$[%U.}%",
"r+|%-+1%2%3%4%5%d.6%7%8%9%0%a%b%c%d%e%f%g%h%i%j%k%l%m%n%o%p%q%r%s%t%,@u%v%w%x%y%z%A%B%C%D%E%F%G%H%I%m$J%K%L%M%N% +O%P%Q%R%V.S%f#",
"S%T%>+U%V%W%X%! c#Y%Z%`% &.&+&@&#&$&%&&&*&=&-&;&>&,&'&)&!&~&{&]&^&/&(&_&:&<&[&}&|&1&2&3&4&5&6&7&8&9&0&a&b&c&d&e&f&g&h&- i&j&k&l&",
"m&n&e.o&k p&q&%$r+r&s&t&u&v&w&x&y&z&A&B&C&D&W+E&F&G&H&I&J&K&L&M&N&O&P&Q&R&S&T&U&V&W&X&Y&Z&`& *.*+*@*#*$*%*&***=*-*;*>*,*'*)*!*~*",
"$ {*! <.]*^*o#`./*(*_*:*<*[*}*|*1*2*3*4*5*6*7*8*9*0*a*b*c*d*e*f*g*h*i*j*k*l*m*n*o*p*q*r*s*t*u*v*w*x*y*z*S A*B*C*D*E*F*G*H*I*w J*",
"$ J K*%$p#L*M*N*9%O*P*Q*R*S*T*U*V*W*X*Y*Z*`* =.=+=@=#=$=%=&=*===-=;=>=,='=)=!=~={=]=^=/=(=_=:=<=[=}=|=1=2=3=4=5=6=7=8=9=0=a=b=c=",
"l&F+d=,+'*y$e=/*f=g=h=i=j=k=l=m=n=o=p=o%q=r= =s=t=u=v=w=x=y=z=A=B=C=D=E=F=G=H=I=J=K=q%L=C#M=N=O=P=Q=R=S=T=U=V=W=X=Y=Z=+.`= -.-+-",
"@-Y@>+#-E$$-{*%-&-*-=---;->-,-'-)-!-~-{-]-^-r%/-(-/-_-:-<-[-}-|-1-2-3-4-5-6-7-8-9-0-a-b-c-d-e-f-g-1=h-i-j-k-l-m-n-o-p-p@q-r-s-t-",
"Y%u-<.r+D+v-w-x-y-z-A-B-C-D-E-F-G-H-I-J-K-J-L-6*M-N-O-I-P-Q-R-S-T-U-V-W-X-Y-h-Z-`- ;i*.;)&+;@;#;$;&&%;&;*;=;-;;;>;,;';);!;~;{;];",
"^;/;(;W._;:;<;[;};|;1;2;3;4;5;6;7;C&8;9;o%0;a;b;c;d;e;f;g;h;i;j;k;O$l;m;n;o;p;q;r;s;t;u;v;w;x;g;y;z;A;B;C;D;E;F;G;H;I;J;K;L;M;N;",
"O;P;Y%Q;R;S;T;U;V;W;X;Y;Z;`; >.>+>Z+@>u;#>$>1$%>&>*>=>->;>>>,>'>)>!>~>{>]>^>/>(>_>:><>[>}>|>1>2>3>4>5>6>7>8>9>0>a>b>c>d>e>f>g>h>",
">+F+i>u j>k>l>m>n>o>p>q>r>s> @t>u>Z+v>w>E&x>y>z>A>B>C>D>E>F>G>H>I>J>K>L>M>N>O>P>Q>R>S>T>U>V>X+W>X>Y>Z>`> ,.,+,@,#,$,%,&,*,=,-,;,",
"6@,+>,,,',),!,~,{,],^,/,(,_,:,<,[,},|,1,2,3,4,5,6,7,8,9,0,a,b,c,d,e,f,g,h,i,j,k,l,m,n,o,p,q,|$r,s,t,u,v,w,x,y,z,A,B,C,D,E,F,G,H,",
"I,v$J,K,L,M,N,O,P,G=Q,R,S,T,U,v@V,.=W,X,a-Y,Z,`, '.'+'@'#'$'%'&'*'='-';'>',''')'!'~'{']'^'/'('_'N-:'<'['}'f*|'1'2'3'4'5'6'7'8'9'",
"& , 0'a'b'c'd'e'f'g'h'i'j'k'l'm'!&n'o'p'q'r's't'u'v'v'w'x'y'z'A'B'C'D'E'F'G'H'I'J'K'L'M'W>N'O'P'Q'R'S'T';>U'V'W'X'Y'Z'`' ).)+)@)",
"#)$)%)&)*)=)-);)>),)')l*))!)~){)])^)/)()_):)<)[)})|)1)2)3)4)5)6)7)8)9)0)a)b)c)d)e)f)g)h)i)j)k)l)6$m)n)o)p)*&q)~=r)s)t)u)v)w)x)y)",
"T%z)A)B)C)D)E)F)1 /)m@Q&.=G)H)I)J)K)L)M)N)O)P)Q)R)S)T)U)V)W)X)Y)Z)`) !.!d-+!@!#!$!%!&!*!=!P$@;@;-!;!>!,!'!)!G-`+!!~!{!]!^!/!(!_!",
":!<![!}!|!1!2!3!4!5!6!7!8!9!0!a!b!c!d!e!f!g!h!i!j!k!l!m!n!o!p!q!r!s!t!u!);v!w!x!y!{!z!z#=!_'@;A!B!C!D!E!F!G!H!I!J!K!L!M!N!O!P!Q!",
"R!S!T!U!V!W!X!Y!Z!9-H)t=`! ~.~+~t!@~#~$~%~&~*~=~-~;~>~,~F>'~)~:,O$!~~~5;{~]~^~/~(~_~:~<~[~}~|~~;1~2~3~4~5~6~7~8~9~0~a~b~c~d~e~f~",
"g~h~i~j~k~l~m~n~o~p~{~q~r~s~t~u~v~w~x~y~z~A~B~C~D~E~F~G~H~I~J~K~L~M~N~O~P~'@Q~R~S~T~U~V~4,W~!;X~Y~Z~`~E! {.{+{@{#{${%{&{*{={-{;{",
">{,{'{){!{~{{{]{^{v;/{({_{},:{<{[{}{|{1{2{3{4{5{6{7{8{9{0{a{b{c{d{g;_'3>p@e{f{g{h{i{j{k{l{s=m{n{o{p{q{k%r{s{t{u{s,v{w{x{y{z{A{B{",
"C{D{E{F{G{)-H{I{J{E#K{L{M{N{O{P{Q{R{S{T{U{V{W{t!j'X{Y{Z{`{ ].]+]k)@]#]$]%]&]*]=]-];]>],]'])]!]~]{]]]^]5~/](]_]:]!~<][]}]|]1]2]3]",
"4]5]6]7]8]9]r@0]a]b]c]d]e]6~f]g]h]B>i]j]k]l]m]n]o]9]p]q]r]s]o@x>t]u]>&v]D&o':&w]x]y]z]]~.;s@A]B]C]D]E]F]G]H]I]p@J]K]L]M]N]O]P]Q]",
"R]S]T]U]V]W],&X]Y]Z]`] ^.^5>+^@^N$#^$^%^&^*^=^-^;^>^,^'^)^n@!^~^~^{^]^^^/^j*(^_^:^<^({[^}^|^1^2^3^4^5^6^E!:]7^)#8^9^0^a^b^c^d^e^",
"#;f^J!G=g^}^^=h^0!i^j^k^l^m^n^Z>o^5>p^q^P+r^s^p-t^4>u^v^w^{^x^y^z^A^B^C^D^E^F^G^H^I^J^K^c]L^M^F^N^O^P^R$q{Q^R^S^[^T^U^V^W^X^Y^Z^",
"`^ /K!./+/@//-#/+=$/%/g;&/*/=/-/;/>/,/=^'/)/!/~/{/]/^///2,(/_/:/</A^[/}/|/1/2/3/4/5/6/7/8/9/0/a/b/c/E!d/Q^e/f/H&&]g/h/i/j/k/l/m/",
"n/o/G=p/q/|>r/s/t/@=2>u/<]v/w/x/y/z/A/u.B/C/,>D/E/i*F/Y{G/$>H/I/~^J/K/'/E'L/E^K{M/N/O/P/&{Q/R/T>S/T/U/M-V/W/X/Y/Z/`/ (.(+(@(#($(",
"%(&(3!*(=(-(;(0*X]V$>(,('()(!(~({(](:$J)J]^(/(((_(:(<([(}(E&(/|(1(2(3(4(5(:-6(7(8(9(0(a(b(c(d(e(f(`~g(h(i(j(~)k(l(m(n(o(p(q(  @-",
"r(s(t(+;u(v(w(x(y(z({]A(B(C(D(E(F(G(H(I(J(K(L(M(6'N(O(I~P(w>Q(t%p@R(`+S( !u.T(n,U(V(W(X(Y(Z(`( _._+_@_#_$_!&%_&_*_=_-_;_b=>_,_'_",
")_!_~_{_]_^_/_X](___:_<_)![_}_|_K!1_2_3_3>4_5_6_7_8_9_0_a_{&q@D#b_c_~!d_L{e_f_g_h_i_j_k_l_m_v/n_o_>&F#p_q_u%<~r_s_t_u_v_w_x_y_O;",
"K'')z_`]A_B_o%C_->D_E_5;4>F_G_H_I_J_K_L_M_N_O_P_Q_R_S_T_U_V_W_X_Y_Z_`_ :.:+:@:#:$:%:&:*:=:-:;:f(>:Z$,:j(':):!:r~i'~:{:]:^:/:(:>+",
"_:<+Z]::!#<:[:G_}:|:1:2:3:4:5: ,6:7:8:9:0:;/a:b:c:d:e:f:g:h:i:j:k:l:u.m:](f'n:o:p:q:r:s:t: ]u:v:w:x:y:9*z:A:B:C:R*D:E:F:G:H:k K ",
"3+7>H(p@[~I:J:K:L:M:N:O: _ ]P:Q:R:S:T:o%U:V:W:X:Y:Z:`: <.<+<I{@<#<$<%<G>&<*<=<-<;<><,<'<)<!<~<{<]<^<r=/<~;(<_<:<<<[<}<|<1<2<3<4<",
"5<6<7<$]I:8<9<0<a<b<v=c<d<e<'^f<g<h<i<Y]j<t!p.k<l<m<n<o<p<q<r<C/s<t<u<v<w<x<y<z<A<B<C<D<E<F<G<n')&H< %=^I<`'J<K<L<M<N<O<p+J P<A ",
"Q<R<S<T<U<V<W<X<Y<Z<.>`< [';.[+[@[#[$[/'%[&[*[=[-[;[>[4*S&,['[)[![~[{[][^[/[([_[:[<[;>[[}[|[1[):8^2[3[4[s@5[6[7[8[9[0[a[b[4<O@q ",
"c[!/';d[.^e[f[g[h[l;i[j[k[l[.>9]m[n[o[j)p[L;q[r[s[t[u[v[w[x[y[z[A[B[C[D[E[F[G[H[I[J[K[e{-^L[M[N[.=4[_-h^O[P[Q[R[S[T[U[V[W[X[Y[(;",
"Z[:$`[`^ }.}+}@}#}$}%}&}o_%/*}=}-};}>},}a]'})}!}~}{}]}^}/}(}_}:}<}F;[}}}|}1}2}3}v@4}5}=}`+Q&6}7}8}9}E^0}a}b}c}d}e}f}/*g}h}i}j}k ",
"t;k}l}`+m}n}o}p}q}r}+_s}5~t}u}v}w}x}y}z}A}B}J!C}D}E}F}G}H}I}J}K}L}M}N}O}P}Q}R}N+h<h@S}/<G<T}U}V}o'W}X}Y}Z}`} |.|+|@|o##|$|%|&|*|",
"=|-|;|u<C(>|,|'|)|!|I-~|{|]|+[^|/|(|9{|~_|)#:|<|[|}|||1|2|3|4|5|6|7|8|9|0|a|H~b|c|s/r=d|e|f|g|R^h|i|j|k|l|m|n|o|p|q|r|s|t|u|v|,+",
"w|x|F>y|z|A|B|C|D|%>[:E|5^F|z},)G|H|I|$]J|K|L|M|N|O|P|Q|R|S|T|U|V|W|X|Y|Z|`|8}$[H)2,'#<$ 1 1.1.=+1@1#1$1%1&1*1=1-1T%;1>1,1'1)1!1",
"3!~1{1]1^1/1(1_1:1I-<1[1}1|1q@112131H(415161K[71819101a1b1c1d1e1Y,f1g16/!)h1i1g|j1k1{^x>H#l1m1k(n1L#o1p1q1r1s1t1u1v1w1x1y1z1A1g ",
"B1C1D1E1F1G1H1f,I1J1K1L1M1N1!#O1P1Q1R1S1T1U1V1W1X1Y1Z1`1 2`+R1#{y;X_.2+2@2#2$2%2H#&23$*2=20*N[-2 !;25->2,2'2)2!2u ~2{2]2^2/2(2&$",
"_2:2<2[2}2|212224>3242526272/^829202a2b2c2d2o%~~e2Y1f2g2h2+[[[j<i2'/K[j2k2K/c27^K|H#l24$p_K^m2n2o2p2F}q2r2s2t2u2_;v2w2x2y2z2A2g#",
"g#B2C2D2E2F2G2s!H2;/42I2J2/<K2L2M2N2O2w(P2Z$a]a!Q2R2S2T2U2V2E^W2X2Y2T/Z22(K|H#`2 3.3+3@3#3$3+:%3&3*3=3-3;3>3,3W[(;4)9|'3)3!3~3{3",
"m&]3^3/3(3_3T :3b<<3[3}3|3132333v.4353)&e/0]P$g(6373z(8393*/${03a3~;b3%_c3R^^{4$d3g|e3f3g3h32)i3j3k3l3m3n3o3x J*p3q3r3s3t3u3v3w3",
"x3y3u3z3A3B3L!C3D3E3F3G3H3I3J3r^K3L382n'M3j1W$^^(_N3O^O3P3n_Q3R3S3+>T3U3V3W3X3p_#_m'Y3Z3`3 4B'V .4+4@4#4$4G:%4&4*4=4-4;4>4,4'4)4",
"!4~4{4]4^4/4(4_4:4<4[4R{}4|41424P+34445464f/N14~748494 [I-&}04a4b4c4d4e4C>f4g4h4i4^&j4k4l4m4n4o4p4q4r4s4t4  (:u4v4o-w4x4y4z4A4B4",
"C4D4E4]4F4G4H4I4J4K4L4M4N4O4P4O$+]Q4n1j4R4S4T4U4V4W4X4>&4~Y4s}Z4`4 5.5+5'^>>@5m%#5j^$5g-%5&5*5=5-5;5>5,5'5)5!5~5{5]5^5/5(5_5:5<5",
"[5}5|51525354555E}65Q<3/75859505'/8^a5b5c5d51,x:e5f5:]g5h5i5j5U>k5l505m5n5o5p5P:J[*_q^q5r5s5t5u5v5w5x5y5z5A5B5C5D5E5F5G5H5I5J5K5",
"L5M5N5O5P5Q5R5S5T5U5q!V5W5X5Y54,O:Z5`5 6.6+6@6^<w>#6v:$6%6&6d2*6=6K2{~K2-6;6>6d*,6'6)6!6~6{6]6^6/6(6_6:6q|<6:([6}6|6162636465666",
"76869606a6b6c6d6e6f6g6h6i6/)j6k6l6m6 ~n6o6p6!)q6r6s6{^t6&6u6v6=2w6x6y6#>Y2z64>A6*,B6C6D6E6F6G6H6I6J6K6L6M6N6r.O6P6Q6R6S6T6U6V6W6",
"f#x$X6Y6Z6`6 7%'.7+7@7V3m[e_#7$7%7&7]{)~*7=7-7;7>77!`21(,7'7^{)7!7x6'#u=~7P:{7g^]7^7/7(7_7:7<7[7}7|71727374>U,47576777879707f#f#",
"a7x$b7c7d7e7f7g7h7i7j7k7l7m7n7o7p7q7r7s7t7u7v7w7x7s=y7w:W+=2z7s6]<A7}[B7^'C7D7=7E7F7G7H7I7J7K7L7M7N7O7P7P:N~Q7R7S7T7U7V7W7X7Y7f#",
"Z7v$`7 8.8+8@8#8$8%8&8t7+[3!*8=8-8;8>8,8'8)8!8v>~89)3[q,{8,&F&#_]8A7,&J#@;t}^8/8(8_8:8<8[8}8|81828381<48586878889808a8b8c8d8e8f#",
"f8g8J*h8i8j8k8l8m8n8F~o8`[6{p8q8r8s8E2t8u8v8w8,=V~')a-y7/_M{x8j17*p_G<.;y8h^Z+z8A8B8C8D8E8F8G8H8I8J8K8L8M8N8O8F~Q:P8Q8R8S8T8w$U8"};
