/* XPM */
static char * portal_rot16_xpm[] = {
"64 64 446 2",
"  	c #000000",
". 	c #00000D",
"+ 	c #00003C",
"@ 	c #05003C",
"# 	c #120035",
"$ 	c #100042",
"% 	c #00004B",
"& 	c #000026",
"* 	c #000009",
"= 	c #00001A",
"- 	c #000005",
"; 	c #000010",
"> 	c #000030",
", 	c #00003E",
"' 	c #000029",
") 	c #000022",
"! 	c #000018",
"~ 	c #000025",
"{ 	c #03003D",
"] 	c #00002A",
"^ 	c #00001F",
"/ 	c #000020",
"( 	c #00000B",
"_ 	c #000024",
": 	c #000016",
"< 	c #000013",
"[ 	c #00001D",
"} 	c #000039",
"| 	c #00003D",
"1 	c #030028",
"2 	c #000033",
"3 	c #00002E",
"4 	c #000037",
"5 	c #000041",
"6 	c #00003F",
"7 	c #000036",
"8 	c #00003B",
"9 	c #000044",
"0 	c #010041",
"a 	c #00004C",
"b 	c #000046",
"c 	c #000040",
"d 	c #00004F",
"e 	c #0D0055",
"f 	c #010057",
"g 	c #050056",
"h 	c #180058",
"i 	c #20005C",
"j 	c #180049",
"k 	c #02002C",
"l 	c #2E0061",
"m 	c #590072",
"n 	c #270054",
"o 	c #00002C",
"p 	c #1F004C",
"q 	c #220058",
"r 	c #18005E",
"s 	c #0D005F",
"t 	c #050060",
"u 	c #05005D",
"v 	c #000055",
"w 	c #000048",
"x 	c #1A0048",
"y 	c #260055",
"z 	c #2C0060",
"A 	c #0D005C",
"B 	c #1D005D",
"C 	c #320062",
"D 	c #350062",
"E 	c #350066",
"F 	c #2E0062",
"G 	c #240060",
"H 	c #10005E",
"I 	c #000059",
"J 	c #000058",
"K 	c #01005B",
"L 	c #1F0061",
"M 	c #240067",
"N 	c #1F0068",
"O 	c #16005D",
"P 	c #200058",
"Q 	c #2C005B",
"R 	c #1F0058",
"S 	c #00004E",
"T 	c #000031",
"U 	c #00002D",
"V 	c #0D005D",
"W 	c #240051",
"X 	c #00002F",
"Y 	c #1D004E",
"Z 	c #32005B",
"` 	c #24005B",
" .	c #1F005F",
"..	c #320065",
"+.	c #410068",
"@.	c #3C006B",
"#.	c #2C0069",
"$.	c #1A0068",
"%.	c #090062",
"&.	c #00005C",
"*.	c #00005E",
"=.	c #130061",
"-.	c #220062",
";.	c #2E0067",
">.	c #29006A",
",.	c #180067",
"'.	c #100061",
").	c #2C0066",
"!.	c #39006A",
"~.	c #3C006C",
"{.	c #2C0064",
"].	c #260066",
"^.	c #180069",
"/.	c #00005A",
"(.	c #00005B",
"_.	c #00005D",
":.	c #000045",
"<.	c #000047",
"[.	c #0E001A",
"}.	c #000008",
"|.	c #00002B",
"1.	c #290064",
"2.	c #300069",
"3.	c #2B006A",
"4.	c #29006B",
"5.	c #32006A",
"6.	c #3A0068",
"7.	c #2C0062",
"8.	c #13005F",
"9.	c #000057",
"0.	c #00004D",
"a.	c #000053",
"b.	c #290067",
"c.	c #37006A",
"d.	c #200066",
"e.	c #1A0065",
"f.	c #260068",
"g.	c #2C0068",
"h.	c #2F0067",
"i.	c #260061",
"j.	c #09005A",
"k.	c #000050",
"l.	c #000027",
"m.	c #24006A",
"n.	c #27006A",
"o.	c #270069",
"p.	c #1D0064",
"q.	c #130058",
"r.	c #000051",
"s.	c #130060",
"t.	c #0D005E",
"u.	c #000056",
"v.	c #00004A",
"w.	c #01005A",
"x.	c #000032",
"y.	c #000004",
"z.	c #01005F",
"A.	c #16005F",
"B.	c #260064",
"C.	c #260065",
"D.	c #000043",
"E.	c #00003A",
"F.	c #000001",
"G.	c #00000F",
"H.	c #000035",
"I.	c #00001B",
"J.	c #130057",
"K.	c #550070",
"L.	c #20004F",
"M.	c #1F004B",
"N.	c #00000A",
"O.	c #290058",
"P.	c #100037",
"Q.	c #2C004D",
"R.	c #000060",
"S.	c #000065",
"T.	c #180065",
"U.	c #0D0060",
"V.	c #010060",
"W.	c #050061",
"X.	c #00005F",
"Y.	c #09005E",
"Z.	c #09005C",
"`.	c #200065",
" +	c #1F0067",
".+	c #000064",
"++	c #000069",
"@+	c #000062",
"#+	c #100067",
"$+	c #090064",
"%+	c #09005B",
"&+	c #290065",
"*+	c #2F006A",
"=+	c #1D0062",
"-+	c #000068",
";+	c #1A0066",
">+	c #0D0066",
",+	c #130066",
"'+	c #1F0064",
")+	c #160060",
"!+	c #2B0066",
"~+	c #2B0069",
"{+	c #05005F",
"]+	c #01004E",
"^+	c #000054",
"/+	c #000067",
"(+	c #00006A",
"_+	c #0D0068",
":+	c #220069",
"<+	c #0D0061",
"[+	c #1D0061",
"}+	c #1D0067",
"|+	c #160066",
"1+	c #180061",
"2+	c #01005D",
"3+	c #100058",
"4+	c #090000",
"5+	c #1D0059",
"6+	c #01005C",
"7+	c #160001",
"8+	c #260013",
"9+	c #10001A",
"0+	c #180050",
"a+	c #2B005A",
"b+	c #010000",
"c+	c #290051",
"d+	c #36005C",
"e+	c #130053",
"f+	c #2C0056",
"g+	c #2F005D",
"h+	c #000061",
"i+	c #09004E",
"j+	c #1F0057",
"k+	c #090057",
"l+	c #050059",
"m+	c #1A0060",
"n+	c #090050",
"o+	c #050057",
"p+	c #160056",
"q+	c #0D0050",
"r+	c #1A0062",
"s+	c #010055",
"t+	c #100065",
"u+	c #180064",
"v+	c #010056",
"w+	c #1A0051",
"x+	c #010051",
"y+	c #0D0062",
"z+	c #09004A",
"A+	c #220051",
"B+	c #13004C",
"C+	c #000066",
"D+	c #1F0069",
"E+	c #270061",
"F+	c #1A0055",
"G+	c #160057",
"H+	c #260067",
"I+	c #01005E",
"J+	c #1E003D",
"K+	c #160069",
"L+	c #2E005F",
"M+	c #370067",
"N+	c #3B006A",
"O+	c #230051",
"P+	c #13005C",
"Q+	c #1A005E",
"R+	c #270066",
"S+	c #010036",
"T+	c #09004D",
"U+	c #2E006C",
"V+	c #220068",
"W+	c #0C0044",
"X+	c #0D0069",
"Y+	c #260069",
"Z+	c #1F0065",
"`+	c #32006C",
" @	c #070046",
".@	c #010064",
"+@	c #13006B",
"@@	c #16006B",
"#@	c #16006A",
"$@	c #0D0065",
"%@	c #1D0065",
"&@	c #2F0064",
"*@	c #2B005F",
"=@	c #1A005B",
"-@	c #13005A",
";@	c #1F006A",
">@	c #26006A",
",@	c #160064",
"'@	c #07001D",
")@	c #180066",
"!@	c #1F0066",
"~@	c #220067",
"{@	c #200068",
"]@	c #090065",
"^@	c #050066",
"/@	c #090067",
"(@	c #20006A",
"_@	c #17004E",
":@	c #33006C",
"<@	c #090060",
"[@	c #1D0068",
"}@	c #2B0064",
"|@	c #370066",
"1@	c #48006F",
"2@	c #290066",
"3@	c #160068",
"4@	c #3D0069",
"5@	c #330061",
"6@	c #55006D",
"7@	c #2F0062",
"8@	c #2B006B",
"9@	c #3A0061",
"0@	c #4E006C",
"a@	c #27005D",
"b@	c #1A0064",
"c@	c #300068",
"d@	c #35006A",
"e@	c #37006B",
"f@	c #300064",
"g@	c #2C0065",
"h@	c #010061",
"i@	c #300067",
"j@	c #3B006B",
"k@	c #3A0067",
"l@	c #3A0064",
"m@	c #180051",
"n@	c #090059",
"o@	c #010059",
"p@	c #1F005A",
"q@	c #1F004F",
"r@	c #090043",
"s@	c #000038",
"t@	c #00001C",
"u@	c #00006F",
"v@	c #000002",
"w@	c #18006D",
"x@	c #05005C",
"y@	c #00006C",
"z@	c #00006D",
"A@	c #10005F",
"B@	c #050054",
"C@	c #1D0060",
"D@	c #220054",
"E@	c #1A0061",
"F@	c #360070",
"G@	c #2C006E",
"H@	c #300061",
"I@	c #2E0064",
"J@	c #130064",
"K@	c #2C006C",
"L@	c #39006D",
"M@	c #350068",
"N@	c #270065",
"O@	c #24005E",
"P@	c #2E005D",
"Q@	c #29005E",
"R@	c #1D0058",
"S@	c #270048",
"T@	c #37005D",
"U@	c #200057",
"V@	c #170033",
"W@	c #2E006E",
"X@	c #41006E",
"Y@	c #33006E",
"Z@	c #1A005F",
"`@	c #43006D",
" #	c #40006E",
".#	c #39006B",
"+#	c #050067",
"@#	c #1F006B",
"##	c #29006D",
"$#	c #2E0069",
"%#	c #390064",
"&#	c #2B0054",
"*#	c #130040",
"=#	c #090047",
"-#	c #1A006B",
";#	c #26006E",
">#	c #530070",
",#	c #2B0061",
"'#	c #0F0040",
")#	c #120057",
"!#	c #200069",
"~#	c #39006C",
"{#	c #3E006D",
"]#	c #36006A",
"^#	c #20005F",
"/#	c #0D0057",
"(#	c #130065",
"_#	c #10005A",
":#	c #270057",
"<#	c #010045",
"[#	c #390070",
"}#	c #22006C",
"|#	c #5C006D",
"1#	c #4A006D",
"2#	c #050053",
"3#	c #210063",
"4#	c #2C005E",
"5#	c #200060",
"6#	c #240061",
"7#	c #26005F",
"8#	c #160059",
"9#	c #090056",
"0#	c #2F0068",
"a#	c #1A005C",
"b#	c #1F003C",
"c#	c #580072",
"d#	c #56006D",
"e#	c #62006E",
"f#	c #320069",
"g#	c #000070",
"h#	c #01006D",
"i#	c #0B0058",
"j#	c #23004B",
"k#	c #3E0063",
"l#	c #360067",
"m#	c #2B0062",
"n#	c #30005E",
"o#	c #200055",
"p#	c #10004C",
"q#	c #160039",
"r#	c #540072",
"s#	c #58006E",
"t#	c #4C0070",
"u#	c #10006C",
"v#	c #20006E",
"w#	c #00006E",
"x#	c #17003E",
"y#	c #1E0053",
"z#	c #190051",
"A#	c #050044",
"B#	c #100055",
"C#	c #00000C",
"D#	c #050033",
"E#	c #4C0072",
"F#	c #35006B",
"G#	c #240062",
"H#	c #18005A",
"I#	c #130037",
"J#	c #13003C",
"K#	c #3A0069",
"L#	c #13005B",
"M#	c #100069",
"                                  . + @                                     # $ % &                                             ",
"                                * = -                                           ; > , '                                         ",
"                            * ) !                                                     ~ { ] ! ^     ; / -                       ",
"                (           - )                                           ^ _ : ; < : [ _ & } | 1 / = ) ' 2 3                   ",
"                                        . ' 4 5 6 7 '     ' 8 6 + , 9 0 5 % a b 5 6 c d e f g h i j k _ l m n                   ",
"                            ; ^ o 2 7 c p q r s t u v w x y z A v B C D E F G H I J K L M N O P Q R S T U V W ;                 ",
"                          X c Y Z `  ...+.@.#.$.%.&.*.=.-.;.>.,.'.).!.~.~.{.].^.*./.(./._.(.d c :.d S <.)   [.}.                ",
"                        |.6 v 1.2.3.4.5.6.7.8.t 9.0.a./.t b.c.d.e.f.g.h.i.j.(.&.a.S 9.a.9.k.} ^ 3 b S k.0.l.                    ",
"                      l.6 0._.m.4.n.o.p.J S d a.d w 0.a.9.K q.r.a.&.s.t.u.k.k.v.c 6 <.v.a.b ) - _ w /.u.&.w.x.                  ",
"            y.    . ' } b d 9.z.A.B.C.(.D.} 6 6 c c b % 0.S D.> > 9 r.k.w w w E.X _ = & |./ F.- / E.D.+ S (.v.& [               ",
"          G.    H.5 6 5 b 9 5 6 b k.v % } l.& l.X 7 + c 6 + o < . _ 2 } x.x.o = .               * . - ^ E.k.0.x.l.:   * F.      ",
"            = + b <.5 6 6 > ^ * [ l.|.3 l.< F.* = |.4 E.x.o ) * * F.                            F.  . [ ' 2 8 } |.: ! [ / *     ",
"          ~ 5 9 E.3 ) = : -                       . l.o o 3 l./ [ *                               - ; : *   / 6 6 =   [ + 4 &   ",
"        I.2 o 2 l.                                      = ^ [ _ & ;                       - -               ; D.a.5 ' [ J.K.L.. ",
"        U ^ * ;                         * ; ; -                                                             / S J w 4 > k.e.M.  ",
"      N.+ !                               < / ! *                                                           l.I J 8 & [ d O.P.  ",
"      : &                           * F.  - ; ! ) ^ : = * . ;                     - =                       ^ :.r.E..   ! Q._   ",
"      . .                       . [ 3 2 3 3 2 E.8 + 6 6 } E., E.& -               |.7 o ! F.                  |.D., !           ",
"    - ! ^ ^ ) l.& l.: < ^ |.x.> > H.5 d <.b k.k.% r.I I 9.v v 9.r.b E.H.l.<     [ 4 5 :.6 > =             * ; ! 4 :.l.          ",
"    3 4 6 9 w a 0.w D.:.5 % w 5 c 6 w 0.w w S S a 9.R.S.T.U.z.V.W.%.W.9.b X ;   - X 9 k.9.d >         [ |.> H.x.x.H.=           ",
"    9 a./.*.X.X.J S a <.5 6 + 6 a S d :.c 5 w w v.a.*.R._.z.Y.Z.H `.3. +u.8 l.! : _ H.v.(.(.+ -       E.:.<.b 6 ' -             ",
"  v.I .+++@+_.u.v.8 X ' ) [ 2 D.k.a.v.c 6 b % v.a I .+#+$+X./.9.J %+&+*+=+a.6 l._ ) _ , u.u.c ^     : E.0.S b + ^               ",
"/ _.-+++.+u.b + o ! F.  : > + c c 6 + D.b 0.r.d u.@+#+f.;+>+,+'+s.&.)+!+~+{+a X l._ * |.]+^+9 ' . ; ' , w b 4 l.;           .   ",
"E./+(+-+/.c ' ! -     ; |.E.4 2 x.E.E.5 5 D.6 5 % a.u.v 9.X._+ +f.:+<+[+}+|+^+5 8 3 < ) 9 u.S H.! : > E.:.9 &               *   ",
"5 *./.a.E.;           ! ' X x.7 } + 7 ' ^ - ; : [ > 7 H.5 w S u.V 1+s U.}+m.W.a.S 9 > & 8 v u.9 o l.4 D.<.6 <                 < ",
":.9 E.& -             : _ o > x.X ' <         * ! [ l.X 3 l.o } 5 % a.v 2+}+#+&.^+k.:.} c 3+&.k., H.b a 5 )                 4+) ",
"+ > & ; : / / -     - ; ! ' ' _ :         ; < ! ; - ; < :     * ) x.5 :.k.R.@+&.v k.k.a S 5+6+^+D.H.D.0.2 F.              7+8+9+",
"} H.> X 2 x.)     * ! < & |.) ;         ! ) ) =     - & _ * F.F.  : x.+ 5 a./.v a.0.r.k.0+a+%+S 8 H.+ E._ ' / = *         b+4+  ",
"c 6 E.E.2 [       l.X _ / ^ -       . ' H., E.3 ^ . ^ X 3 ' 3 ' |.[ ^ l.2 , + 8 9 b 0.r.c+d+V w ' l.3 : ; _ ) :                 ",
"5 6 8 4 _       / 7 x./           < } % v u.v.4 / ; - - F.F.! l.H.X =   / } X ! H.b d e+f+g+%+5 : ! =                           ",
"9 , E.x..     F.X x.=           . + v X.h+J b _                   ) !     |.<   3 r.^+i+j+G k+} : . F.                        F.",
"S v., &       ) H.&             4 J .+@+/.<.X                       <     ;   - 8 v ^+d l+m+n+X [ *       ; ) o |..             ",
"/.o+c *     _ ' & <         - x.S *.S.&.b |.                                  l.% a.0.k.9.r., X _         ^ } 0.r.c /           ",
"p+q+2     = o [ ; *         X 9 d I R.u.} -   F.)                           - + J v.<.r.d 8 o |.!         & 5 (.>+2+:./         ",
"b + ^   ; [ =             < c v.d (.r+s+2 F.  ; /                         F.X <.k.0.S d D._ ^ ^           l.<.X.^.t+v , > <     ",
"x.^   - : ;               x.a d ^+h+u+k.|.;     ; -                       _ 4 a v+^+S 5 3 : -           * & D.I .+_.^+k.k.7     ",
"^ F.  F.: ;             ! 8 v.S J R.X.k.4 _ -     . = <               [ l.x., w+q x+5 |.-               * x.c S v v 9.(.k.>     ",
"2     : [ *           F.X + :.v.v h+y+J b 7 /     - ) x.E.) / |.2 > 8 5 b w z+A+B+c '                   & 5 <.9 a I R.R.w &     ",
"S * < X x.*           ) x.} b k./.C+D+E+F+9 ' ;     * |.2 X H.8 D.<.w S 0.<.6 4 2 |.:               / H.4 5 8 9 G+{.H+I+a x.< J+",
"I > ' } 2 *         F.o X 6 r.I _.S.K+h.L+n++ X ;   F.: ^ / ! ) |.& 2 , } > _ = : < -         F.[ X } 8 4 H.} k.M+N+&+&.a.c / O+",
"R.+ x.E.|.          . ' |.6 9.a.u.(..+N C.P+a.w E.X X 2 7 3 = ! : ! _ & _ ^ < F.            ; ' , 6 8 H.4 E.w Q+*+R+V v k.:.S+T+",
"X.7 > + l.          . [ l.6 w E.6 a /.#+#+S.R.&.u.d a v.a 0.:.7 3 ' l.' / : *       . ) l.7 6 c + > l.' , d I M U+V+X.r.c 2 W+^ ",
"/.D.2 > <             - & , } ^ / 4 a I *./+X+^.Y+Z+1+2+&.6+u.0.:., } x.' & / ) 3 7 c b w v.w } [ F.F.l.+ d (.m.`+3.h+v.^ -  @  ",
"v 9 2 ^                 ; 7 H.<   = 2 c % J .@X++@@@#@$@%@).&@*@=@-@^+k.S % w a d a.S v.+ x.&       : & > :._.;@>@,@9.E.- '@[   ",
"% 8 X ;                   l.2 ^     ! l.3 , S I R..+R.*.h+)@}+!@~@{@]@^@X.*.I u.^+S D.7 /         - = ^ > b X./@@+(.0.8 / ;     ",
"d 5 ' .                   = 3 )       < [ / ' x.9 ^+^+k.^+&.h+@+S.C+.+*.I v 0.:.5 7 |.[         : _ ) _ H.v.&.X./.S D.8 o (     ",
".+a 2 [                   . _ =                 / } c 8 6 v.a.9.(./.9.r.v., > _ : - -         ; o E.3 > + d &.I a + } , > l.    ",
"(@v :.E.F.                * < : *                 ) l./ [ ) X 2 4 6 D.c 4 ) *                 ; l.H.o 4 :.d R.&.% c <.d _@,     ",
":@t v.H.!                 < ^ ^ [                   - *           . : ; *                         - & } b a.<@[@_.9.R.}@|@,     ",
"1@2@9 l.)                 - = / |.<                     . : ;                                     ! E.b d /.%@>.3@S.%@4@5@x.    ",
"6@7@S _ * =                 - [ 3 )                         < !                                 [ E.S 9.(.)+b.:@8@|+J.&@9@^     ",
"0@a@+ / ! !                   - ) /                                                           l.6 r._.b@).c@d@e@h.e 2 f@3+      ",
"g@<.^ = = * ' -                 - :                                                       . o D.a.&.h@i@j@k@l@g+m@o |.r.c *     ",
"n@2 [ < ^ / v &.l.              F..                                     . - * F.- * . ^ > , % ^+I /.J o@p@q@r@7 <   T 9 X *     ",
"s@t@* _ D.k.S.u@/.&     - [ [ [ / = -                       ! 3 |.!     ! x.+ H.X ' / X v.v I /.v v.6 } H._ -     . - c l.^     ",
"    v@> k._./+w@(+k.      ; l.|.X o ' ' |.l.3 2 2 3 ) = < _ D.v k.c o [ l.v.w.6+d 6 H.5 k.J r.a , l.^ : F.& /     o   c / ;     ",
"      / | x@-+y@z@S.5 = < l.+ :.v.v.b :.D.v.k.v u.v.c } } , 0.u u+A@B@% S '.c@5.C@v 0.v.9 + H.o =     F.3 D@E.    >   , /       ",
"    ! l.H.E@F@G@S.@+a.} 8 w G+H@I@m+/.d 0.9._.*.*.J v I ^+a.v J@K@L@M@N@-.O@P@Q@R@F+b 8 ^             S@T@U@|.  V@D.4 7 =       ",
"    F.> _ <.W@X@Y@%@| 7 <.Z@R+`@ #.#2@9.S v *.X.v r.v u.u.*.+#@###K@$#).0+, 4 2 2 ' : -             7 |@%#c     &#&.p.> _ <     ",
"      - *#=#-#;#>#,#r.o ; '#)#!#~#{#]#^#/#o+H =.v S v.5 S X./@(#U.&.^+:._                       * E._#&@:#!     |@E@E@<#;       ",
"        < r@[#}#|#1#S < & ;   2#3#4#!+g@F G 5#6#7#8#9#:.5 0.S v.5 E.|.                          , b S r.}     _ 0#a#6 3         ",
"          b#c#d#e#f#5 F.! = l.h+g#h#i#j#k#l#m#C n#o#p#7 l.= ! ;                             ^ u.7 x.:.E.!     v.*.v +           ",
"          q#r#s#t#A.} )   } k.h+u#v#w#X.H.x#y#z#A#x.!                                     *#B#r.l.& E.l.F.  C#S k.h++           ",
"          D#E#F#Y@B.X   * , 9.@+++y@z@C+J b c G#H#@                   ) I#J#4 l.        = K#L#, ; H.X ^     3 X } M#,           "};
