/* XPM */
static char * portal_rot15_xpm[] = {
"64 64 743 2",
"  	c #000000",
". 	c #000030",
"+ 	c #280053",
"@ 	c #1E0049",
"# 	c #030017",
"$ 	c #18003A",
"% 	c #290052",
"& 	c #290056",
"* 	c #1B0056",
"= 	c #000036",
"- 	c #000013",
"; 	c #01003F",
"> 	c #26004E",
", 	c #00002B",
"' 	c #060023",
") 	c #00003A",
"! 	c #000047",
"~ 	c #000039",
"{ 	c #000004",
"] 	c #00002C",
"^ 	c #00003E",
"/ 	c #000010",
"( 	c #000017",
"_ 	c #00001B",
": 	c #000020",
"< 	c #000022",
"[ 	c #000028",
"} 	c #000035",
"| 	c #000040",
"1 	c #1C0058",
"2 	c #1F0051",
"3 	c #180042",
"4 	c #000031",
"5 	c #000029",
"6 	c #000033",
"7 	c #000025",
"8 	c #000015",
"9 	c #000001",
"0 	c #000007",
"a 	c #00001E",
"b 	c #0B0044",
"c 	c #040046",
"d 	c #000042",
"e 	c #000041",
"f 	c #0E004E",
"g 	c #23005A",
"h 	c #260060",
"i 	c #260064",
"j 	c #2C0064",
"k 	c #350065",
"l 	c #360066",
"m 	c #2A005A",
"n 	c #14004D",
"o 	c #000034",
"p 	c #00002A",
"q 	c #00003C",
"r 	c #00000E",
"s 	c #00002F",
"t 	c #000023",
"u 	c #00000B",
"v 	c #150043",
"w 	c #0B0046",
"x 	c #0E0047",
"y 	c #17004E",
"z 	c #2C0056",
"A 	c #2D0057",
"B 	c #2D005D",
"C 	c #2D0061",
"D 	c #290061",
"E 	c #1D005E",
"F 	c #17005E",
"G 	c #190060",
"H 	c #280065",
"I 	c #33006C",
"J 	c #340070",
"K 	c #2F006D",
"L 	c #290062",
"M 	c #2D005E",
"N 	c #330061",
"O 	c #2C0061",
"P 	c #150056",
"Q 	c #00003F",
"R 	c #00000D",
"S 	c #230042",
"T 	c #4F0063",
"U 	c #350059",
"V 	c #01001E",
"W 	c #04003E",
"X 	c #15004D",
"Y 	c #170055",
"Z 	c #130054",
"` 	c #15004F",
" .	c #0E003F",
"..	c #230048",
"+.	c #33005A",
"@.	c #330065",
"#.	c #220061",
"$.	c #220060",
"%.	c #36006A",
"&.	c #440070",
"*.	c #460070",
"=.	c #460073",
"-.	c #410070",
";.	c #38006F",
">.	c #28006D",
",.	c #150068",
"'.	c #0E0065",
").	c #220067",
"!.	c #220065",
"~.	c #1E0067",
"{.	c #1D0063",
"].	c #07004F",
"^.	c #000044",
"/.	c #01004C",
"(.	c #040055",
"_.	c #000059",
":.	c #000058",
"<.	c #00004B",
"[.	c #04000D",
"}.	c #000019",
"|.	c #000038",
"1.	c #1E0047",
"2.	c #310057",
"3.	c #2D006A",
"4.	c #28006C",
"5.	c #25006B",
"6.	c #29006C",
"7.	c #280068",
"8.	c #2C0062",
"9.	c #390067",
"0.	c #3E006F",
"a.	c #360071",
"b.	c #2B006D",
"c.	c #2D006B",
"d.	c #3E0070",
"e.	c #470074",
"f.	c #33006A",
"g.	c #29006B",
"h.	c #1B006B",
"i.	c #000061",
"j.	c #00005E",
"k.	c #000062",
"l.	c #00005D",
"m.	c #0B0062",
"n.	c #040059",
"o.	c #000056",
"p.	c #00005F",
"q.	c #190069",
"r.	c #1D005B",
"s.	c #07003B",
"t.	c #25004A",
"u.	c #310056",
"v.	c #2D005C",
"w.	c #300064",
"x.	c #3F0069",
"y.	c #4B0070",
"z.	c #480075",
"A.	c #390071",
"B.	c #2D0070",
"C.	c #220069",
"D.	c #100060",
"E.	c #150063",
"F.	c #220068",
"G.	c #30006F",
"H.	c #400074",
"I.	c #410073",
"J.	c #360070",
"K.	c #3A0070",
"L.	c #39006E",
"M.	c #2C0066",
"N.	c #15005F",
"O.	c #040060",
"P.	c #00005C",
"Q.	c #000051",
"R.	c #00004F",
"S.	c #00004D",
"T.	c #000026",
"U.	c #000053",
"V.	c #00005B",
"W.	c #040061",
"X.	c #170064",
"Y.	c #040051",
"Z.	c #000046",
"`.	c #220058",
" +	c #390066",
".+	c #41006F",
"++	c #3B0073",
"@+	c #390073",
"#+	c #430073",
"$+	c #480072",
"%+	c #3A006B",
"&+	c #10005E",
"*+	c #0B0061",
"=+	c #190065",
"-+	c #2B0068",
";+	c #330066",
">+	c #1D0060",
",+	c #13005E",
"'+	c #1E0066",
")+	c #28006A",
"!+	c #230065",
"~+	c #0E005C",
"{+	c #00004C",
"]+	c #00003B",
"^+	c #00002D",
"/+	c #000049",
"(+	c #00001D",
"_+	c #1E0064",
":+	c #380071",
"<+	c #3B0074",
"[+	c #350073",
"}+	c #380073",
"|+	c #34006E",
"1+	c #230064",
"2+	c #00005A",
"3+	c #07005C",
"4+	c #10005D",
"5+	c #070055",
"6+	c #000043",
"7+	c #000057",
"8+	c #00004A",
"9+	c #000048",
"0+	c #190066",
"a+	c #2F006F",
"b+	c #33006F",
"c+	c #3F0072",
"d+	c #380070",
"e+	c #250067",
"f+	c #000052",
"g+	c #00004E",
"h+	c #1B0054",
"i+	c #3F0063",
"j+	c #2B0054",
"k+	c #10005C",
"l+	c #19005E",
"m+	c #250062",
"n+	c #290065",
"o+	c #1B005B",
"p+	c #07005E",
"q+	c #410071",
"r+	c #410066",
"s+	c #1D003B",
"t+	c #100064",
"u+	c #300072",
"v+	c #38005A",
"w+	c #15002D",
"x+	c #000055",
"y+	c #010064",
"z+	c #2F0059",
"A+	c #35004D",
"B+	c #00001F",
"C+	c #0E0031",
"D+	c #1E003F",
"E+	c #00003D",
"F+	c #00002E",
"G+	c #01005A",
"H+	c #070059",
"I+	c #04005A",
"J+	c #01005D",
"K+	c #01005F",
"L+	c #000054",
"M+	c #13006C",
"N+	c #22006D",
"O+	c #250068",
"P+	c #26006B",
"Q+	c #2B006E",
"R+	c #190067",
"S+	c #170065",
"T+	c #070063",
"U+	c #000060",
"V+	c #0B0069",
"W+	c #17006A",
"X+	c #22006A",
"Y+	c #290069",
"Z+	c #260066",
"`+	c #290068",
" @	c #31006D",
".@	c #3C0074",
"+@	c #200065",
"@@	c #20005F",
"#@	c #130060",
"$@	c #130029",
"%@	c #040068",
"&@	c #1E006D",
"*@	c #22006B",
"=@	c #1D0068",
"-@	c #150062",
";@	c #1D0061",
">@	c #1E0062",
",@	c #250065",
"'@	c #36006D",
")@	c #36006F",
"!@	c #1D0065",
"~@	c #1E0056",
"{@	c #000065",
"]@	c #000068",
"^@	c #000063",
"/@	c #040065",
"(@	c #25006F",
"_@	c #330072",
":@	c #2D006F",
"<@	c #28006F",
"[@	c #29006F",
"}@	c #2F006C",
"|@	c #2C006A",
"1@	c #230068",
"2@	c #35006D",
"3@	c #2C006E",
"4@	c #0B005F",
"5@	c #040049",
"6@	c #0B0010",
"7@	c #13002D",
"8@	c #00006C",
"9@	c #00006D",
"0@	c #170069",
"a@	c #25006C",
"b@	c #280072",
"c@	c #300070",
"d@	c #340071",
"e@	c #2B006B",
"f@	c #310072",
"g@	c #25006A",
"h@	c #170059",
"i@	c #190064",
"j@	c #1D0015",
"k@	c #2F0025",
"l@	c #2F0030",
"m@	c #000045",
"n@	c #000069",
"o@	c #00006F",
"p@	c #0B0072",
"q@	c #260067",
"r@	c #130068",
"s@	c #250026",
"t@	c #2B0026",
"u@	c #2F0023",
"v@	c #0E0073",
"w@	c #1D0074",
"x@	c #1B006E",
"y@	c #07005B",
"z@	c #0E005D",
"A@	c #250069",
"B@	c #290070",
"C@	c #30005F",
"D@	c #2F0067",
"E@	c #100062",
"F@	c #100017",
"G@	c #010000",
"H@	c #040071",
"I@	c #13006D",
"J@	c #07005F",
"K@	c #1B0068",
"L@	c #100066",
"M@	c #17005B",
"N@	c #38005E",
"O@	c #3A0068",
"P@	c #28005B",
"Q@	c #3E005F",
"R@	c #3B0067",
"S@	c #19005C",
"T@	c #30005C",
"U@	c #3F0062",
"V@	c #38006A",
"W@	c #1E005F",
"X@	c #1D005F",
"Y@	c #280058",
"Z@	c #310063",
"`@	c #33006B",
" #	c #23005C",
".#	c #1E005B",
"+#	c #250064",
"@#	c #2B0067",
"##	c #200055",
"$#	c #00006A",
"%#	c #0E005B",
"&#	c #150060",
"*#	c #040047",
"=#	c #0B0065",
"-#	c #2B0070",
";#	c #26006A",
">#	c #130058",
",#	c #01006C",
"'#	c #10006D",
")#	c #0E0064",
"!#	c #01005B",
"~#	c #170067",
"{#	c #2C0072",
"]#	c #29006E",
"^#	c #000067",
"/#	c #13006E",
"(#	c #1B0067",
"_#	c #010054",
":#	c #010056",
"<#	c #040058",
"[#	c #1D006A",
"}#	c #19005D",
"|#	c #1E005E",
"1#	c #13005A",
"2#	c #070053",
"3#	c #070062",
"4#	c #01005E",
"5#	c #280066",
"6#	c #2D0064",
"7#	c #0B004D",
"8#	c #2D0065",
"9#	c #1E0054",
"0#	c #2F0060",
"a#	c #29005F",
"b#	c #150055",
"c#	c #1B0060",
"d#	c #2B006C",
"e#	c #26006F",
"f#	c #2B005C",
"g#	c #2C005D",
"h#	c #0B0066",
"i#	c #220063",
"j#	c #13004C",
"k#	c #35005E",
"l#	c #34005D",
"m#	c #230055",
"n#	c #20005A",
"o#	c #3A006A",
"p#	c #410072",
"q#	c #190061",
"r#	c #0B0052",
"s#	c #040069",
"t#	c #22006C",
"u#	c #0B0056",
"v#	c #1D0055",
"w#	c #200051",
"x#	c #17004A",
"y#	c #010051",
"z#	c #350067",
"A#	c #460072",
"B#	c #3F006F",
"C#	c #170060",
"D#	c #0E005A",
"E#	c #12004B",
"F#	c #000066",
"G#	c #260069",
"H#	c #15005B",
"I#	c #39006F",
"J#	c #3C0073",
"K#	c #2C006B",
"L#	c #360063",
"M#	c #260070",
"N#	c #340067",
"O#	c #28005A",
"P#	c #01004A",
"Q#	c #3E0075",
"R#	c #300071",
"S#	c #370066",
"T#	c #1B0071",
"U#	c #1D0058",
"V#	c #3F0075",
"W#	c #360072",
"X#	c #100065",
"Y#	c #0D002D",
"Z#	c #260058",
"`#	c #04006B",
" $	c #000064",
".$	c #220070",
"+$	c #34006D",
"@$	c #0E0059",
"#$	c #310073",
"$$	c #330071",
"%$	c #23006A",
"&$	c #1B0043",
"*$	c #230074",
"=$	c #130067",
"-$	c #20006E",
";$	c #290067",
">$	c #130061",
",$	c #1B0065",
"'$	c #0E0053",
")$	c #13006A",
"!$	c #1E0050",
"~$	c #230076",
"{$	c #20006F",
"]$	c #290074",
"^$	c #2D0073",
"/$	c #340074",
"($	c #350074",
"_$	c #26006C",
":$	c #30006C",
"<$	c #3C006F",
"[$	c #3B006C",
"}$	c #3A0069",
"|$	c #2F0066",
"1$	c #310068",
"2$	c #1B0063",
"3$	c #010060",
"4$	c #0E0069",
"5$	c #0B0074",
"6$	c #200069",
"7$	c #22006E",
"8$	c #230071",
"9$	c #1E0073",
"0$	c #19006F",
"a$	c #17006B",
"b$	c #330070",
"c$	c #340072",
"d$	c #0B0067",
"e$	c #010061",
"f$	c #01006B",
"g$	c #0B006E",
"h$	c #1B0066",
"i$	c #1E0061",
"j$	c #150048",
"k$	c #04005B",
"l$	c #28006E",
"m$	c #010066",
"n$	c #1D006B",
"o$	c #3F0071",
"p$	c #1F004C",
"q$	c #0B005E",
"r$	c #280069",
"s$	c #380072",
"t$	c #380074",
"u$	c #250070",
"v$	c #220066",
"w$	c #33006D",
"x$	c #3E0072",
"y$	c #410075",
"z$	c #350070",
"A$	c #280063",
"B$	c #31005F",
"C$	c #31006F",
"D$	c #3A006F",
"E$	c #400072",
"F$	c #420073",
"G$	c #340068",
"H$	c #300057",
"I$	c #3C0075",
"J$	c #420077",
"K$	c #420072",
"L$	c #490074",
"M$	c #480071",
"N$	c #46006B",
"O$	c #380063",
"P$	c #1B004D",
"Q$	c #400061",
"R$	c #380076",
"S$	c #490077",
"T$	c #3F0076",
"U$	c #040062",
"V$	c #0E0066",
"W$	c #360065",
"X$	c #300059",
"Y$	c #200049",
"Z$	c #040039",
"`$	c #110023",
" %	c #390076",
".%	c #480077",
"+%	c #530075",
"@%	c #13005F",
"#%	c #170062",
"$%	c #01004D",
"%%	c #010046",
"&%	c #100038",
"*%	c #4D0077",
"=%	c #5A0076",
"-%	c #5B0076",
";%	c #100055",
">%	c #610077",
",%	c #680077",
"'%	c #4C0073",
")%	c #17005A",
"!%	c #19005F",
"~%	c #010055",
"{%	c #1D005D",
"]%	c #10004C",
"^%	c #0E0033",
"/%	c #35005F",
"(%	c #110048",
"_%	c #570076",
":%	c #520077",
"<%	c #2C0068",
"[%	c #17005F",
"}%	c #2D0068",
"|%	c #130059",
"1%	c #0E0055",
"2%	c #040041",
"3%	c #200040",
"4%	c #430062",
"5%	c #3A0066",
"6%	c #1B004C",
"7%	c #360062",
"8%	c #3C0070",
"9%	c #250060",
"0%	c #07006D",
"a%	c #220078",
"b%	c #2F006E",
"c%	c #30006D",
"d%	c #31006E",
"e%	c #42006F",
"f%	c #3E006D",
"g%	c #330067",
"h%	c #330063",
"i%	c #390061",
"j%	c #4A0070",
"k%	c #290057",
"l%	c #15004A",
"m%	c #04002D",
"n%	c #17006F",
"o%	c #2C0076",
"p%	c #250075",
"q%	c #0B0064",
"r%	c #390074",
"s%	c #430077",
"t%	c #490076",
"u%	c #35006A",
"v%	c #30005E",
"w%	c #2D0054",
"x%	c #23004E",
"y%	c #190049",
"z%	c #0E0040",
"A%	c #3C006C",
"B%	c #40006A",
"C%	c #0E0041",
"D%	c #0B0043",
"E%	c #320070",
"F%	c #34006F",
"G%	c #210071",
"H%	c #1B0074",
"I%	c #170076",
"J%	c #000071",
"K%	c #130053",
"L%	c #310061",
"M%	c #1D0064",
"N%	c #070068",
"O%	c #100069",
"P%	c #100067",
"Q%	c #0B0063",
"R%	c #100063",
"S%	c #010065",
"T%	c #2F0073",
"U%	c #350075",
"V%	c #360074",
"W%	c #300068",
"X%	c #0E0056",
"Y%	c #2F0063",
"Z%	c #1B0059",
"`%	c #2F006B",
" &	c #04003F",
".&	c #2B004C",
"+&	c #260053",
"@&	c #2F0074",
"#&	c #360077",
"$&	c #5D0079",
"%&	c #37006C",
"&&	c #050067",
"*&	c #15005A",
"=&	c #460071",
"-&	c #4A0074",
";&	c #460074",
">&	c #3C0071",
",&	c #290066",
"'&	c #13005B",
")&	c #0B005C",
"!&	c #040064",
"~&	c #220072",
"{&	c #2C0070",
"]&	c #1E0063",
"^&	c #070049",
"/&	c #070051",
"(&	c #140036",
"_&	c #230051",
":&	c #460079",
"<&	c #340075",
"[&	c #660076",
"}&	c #550076",
"|&	c #2A0066",
"1&	c #340073",
"2&	c #440075",
"3&	c #4C0077",
"4&	c #3A006E",
"5&	c #1E0060",
"6&	c #150057",
"7&	c #1B0057",
"8&	c #010041",
"9&	c #01002D",
"0&	c #01004B",
"a&	c #04003C",
"b&	c #310049",
"c&	c #62007B",
"d&	c #600076",
"e&	c #6C0077",
"f&	c #220079",
"g&	c #2B006A",
"h&	c #3D0069",
"i&	c #38006E",
"j&	c #3E006C",
"k&	c #35006B",
"l&	c #36006B",
"m&	c #230053",
"n&	c #100043",
"o&	c #010039",
"p&	c #47006C",
"q&	c #1E0065",
"r&	c #080053",
"s&	c #2C0046",
"t&	c #5E007B",
"u&	c #620077",
"v&	c #570079",
"w&	c #2C0069",
"x&	c #290075",
"y&	c #330077",
"z&	c #010077",
"A&	c #090046",
"B&	c #1F004D",
"C&	c #480070",
"D&	c #40006E",
"E&	c #390069",
"F&	c #3E0067",
"G&	c #35005C",
"H&	c #1E004A",
"I&	c #070036",
"J&	c #400070",
"K&	c #230060",
"L&	c #130047",
"M&	c #000012",
"N&	c #010049",
"O&	c #250041",
"P&	c #57007B",
"Q&	c #420074",
"R&	c #410077",
"S&	c #130072",
"T&	c #1B0075",
"U&	c #0B0076",
"V&	c #35006C",
"W&	c #2E006D",
"X&	c #300060",
"Y&	c #110042",
"Z&	c #2C0051",
"`&	c #4A0065",
" *	c #3C0064",
".*	c #1D004F",
"+*	c #200059",
"@*	c #3F0070",
"#*	c #2C0065",
"$*	c #01003E",
"%*	c #290072",
"                              . + @                                     # $ % & * =                                             ",
"                            - ; > ,                                             ' ) ! ~                                         ",
"                          { ] ^                                       / ( _ : < [ . } | 1 2 3 4 : _ 5 6 7 8                     ",
"                        < 5 , 9                         0 8 a < < 5 ~ b c d e d f g h i j k l m n o p o ~ e q r                 ",
"                      / = s {           - 7 t u     ( s v w x y z A B C D E F G H I J K L M N O P Q   R S T U V                 ",
"                        . /       / ] W X Y Z ` x  ...+.@.#.$.%.&.*.=.-.;.>.,.'.).!.~.{.].^./.(._.:.<._       [.                ",
"                        - }.[ ] |.1.2.@.3.4.5.6.7.8.9.0.a.b.c.d.=.e.-.f.g.h.i.j.k.l.m.n.q , q o.i.p.q.r.6 {                     ",
"                      5 s.t.u.v.w.x.y.z.A.B.C.D.E.F.G.H.I.G.G.J.K.L.M.N.O.P.Q.R.o.:.P.S.. T.|.U.V.o.W.X.Y.} 4 ( 9 9             ",
"                    , Z.`. +.+++@+#+$+%+7.~.&+o.V.*+=+-+;+>+,+'+)+!+~+_.:.{+d ]+|.~ ) . a t ^+|.]+|./+P._.| |.s [ , 4 (+9       ",
"                  t | R._+:+<+[+}+|+1+_._.2+o.U.o._.3+4+5+6+| S.n.7+R.Q.8+]+6 t r 9     r a < < 7 , ~ 9+<.Z.q ] 7 s } o 5       ",
"                ( ~ {+V.0+a+b+c+d+e+f+! /+9+9+9+{+Q.Q.g+d ^+[ 4 q Q ~ 4 ] (+r {         r (+7 < 5 . s 5 6 9+S.]+5 s h+i+j+6     ",
"              : |.^.Q.:.V.k+l+m+n+o+/+~ o } ~ | ! /+6+Q = 5 7 t : _ / 0 {           { 8 a _ ( a < : r   8 ^.p+o.e 4 Q.q+r+s+    ",
"            |./+<.S.Q.<.^.^ ^ d ! 6+q s < < [ 4 q d ^ q ~ 4 4 , (+{                 u : T.}.            _ <.t+P.^.q /+u+v+w+    ",
"          ^ f+x+Q./+/+Q , _ - - ( _ (+8 u u u ( T.. } = o o |.s a r u 0 { 9           8 a /             T.f+y+7+]+, 6 z+A+t     ",
"      B+) R.{+e = , 7 _ u           0 u 8 / u 0 0 { u (+: < a ( 0         9 { 0 0 {     {               : | 2+x+]+}.{ C+D+t     ",
"      ) | Z.e [           { 0 0 r }.t T.] , 7 / 9     9 u {                 9 ( 7 7 }.u {               r 7 6+Q.6+:       a r   ",
"      E+^+s ] r         { r - ( _ < t 7 ^+. ^+[ a 8 _ _ : _                 0 7 ^ e } ] 7 a -       8 (+7 T.} 9+S..         u r ",
"    7 Z.7 8 r             0 / }.: < _ a [ ^+6 ) ]+^ ^ q e Z.| o T.( }.: ( / 8 4 9+S.g+{+| s a 9   _ ] } q e | Q ]+t             ",
"    F+~ a               9 r }.< ] |.^ ~ ^ ! S.g+U.:.G+H+I+J+K+2+L+S./+| 4 < a ^+6+L+P.i.2+^ }.    a e {+Q.Q.8+= :               ",
"    4 5 _ 8 - / / u   - 7 ] s |.Q S._.f+U.P.l.7+p.M+N+)+O+F.C.P+4.Q+R+7+e ^+[ , } ^.7+S+T+8+5 u { t ! :.2+f+/+. -         (+    ",
"  a T.5 , ] . o |.s 4 ]+! 8+<.9+8+L+:.L+L+:.7+7+U+V+W+X+)+Y+Z+`+ @.@}++@R.Q } 6 6 = 8+@@#@S.} < < o 9+o.L+! ~ [ (+{   { _ $@(+  ",
"  ! } | Z.8+f+x+L+R.x+Q.L+L+S.f+L+:.U.{+S.U.L+x+j.%@&@*@=@-@;@>@,@'@c+)@!@o.q |.|.[ |.~@l+L+Q ] , ) ! R.R.^ < u 9   9     - T.< ",
"6 S.Q.2+U+{@]@^@2+x+f+9+d e <._.p.2+{+8+f+o.7+_./@(@_@:@<@[@}@|@1@O+2@d+3@4@8+d ]+^+s 5@>+j.{+} , ^ /+f+Q.= {             6@7@4 ",
"! f+{@8@9@8@{@_.8+^ o . 4 Q g+U.x+8+{+Q.o.l.2+P.0@<@`+e+a@b@c@a.d@6.e@a+f@g@P.o.Q.d = e h@i@2+! q 9+L+o.e a             j@k@l@6 ",
"m@n@o@p@n@2+Q.e 4 7 < ^+Q 9+! ^.6+6+<.g+S.8+^./+Q.Q.g+f+:.l.#@Z+-+Y+q@)+}+f@r@p.P.U.9+/+g !+*+L+! /+o.R.} 8 { 9 9 u ( s@t@k@u@( ",
"j.v@w@x@P.^.= 5 : : t = Z.| d d <.8+Q = , t [ ^+. ~ Q | Q Q ^.<.R.7+y@z@A@B@W+i.V.2+_.x+C@D@E@o.Z./+R.d |.o s , < 8 - F@G@  { r ",
"^@H@I@4@! ^+(+( 8 ( 7 } ) q d d d ) t 8 8 ( 7 ^+^+s 6 6 , : t s ~ Z.S.f+J@K@L@i.l._.l.M@N@O@-@R.~ e e ] 4 ~ 4 T.r           { 7 ",
"U+j.f+Q < / 8 / { r t s |.]+q |.^+a - 8 t ] ] ^+: }.[ . , _ < t (+6 e ^.9+o.L+L+L+x+G+P@Q@R@;@9+^+o . { _ T.8               (+5 ",
"R.d o 7 a ^+s _ - : [ [ } |.} 5 _ 8 ( t . o } s < < 4 Q | = ) ~ ) s 4 } e <.q = 8+L+S@T@U@V@W@d , , : r ( (+8 {     9 {     { ( ",
"^.]+= } ]+^ s }.( , . ] ^ ]+] }.r - [ ~ ^.S.9+q 4 ] . 4 ^+] o ]+6+q , a . | . }.6+P.X@Y@Z@`@ #]+] [ ( 0 _ 5 o Q Q . < /       ( ",
"! Z.d ^.d 4 - { 7 ) ^ o ] 7 ( u / 5 ^.o.U+k.U.Q ^+< ( 9       u t 6 5 0 < . : t 9+p.F .#+#@###]+6 7     a 4 ! _.D.L+q a         ",
"R.S.! ! |.(   u |.6+q , - 9     < Z.l.]@$#U+{+s - /               _ T.- _ < - 6 U.l.H+%#&#h@*#Q } (     }.o {+=#-#;#>#^ s }.    ",
"S./+Z.d ]     < ^ Q , 0       - ) P.,#'#)#f+|.}.0 8                 - 0 ( r 8 e l.:.L+!#I+9+~ |.[       _ } g+~#{#]#E.U.Q.e -   ",
"Q.<.9+q : { ( 4 d |._ 9 0   { . L+^#/#(#_#) _ / t :                   9 9 / s g+P.:#<#3+Q.|.s ] /     / t 6 /+j.[#~#p.j.l.S.[   ",
"P.y@g+o - ( ^+|.~ ] _ {   9 , /+2+k.[#1+8+T.r t |.t                     u T.Q U.}#|#1#2#Q ] < _       _ (+|.8+o.V.K+3#r@4#^.T.0 ",
"5#6#7#7 8 [ ~ o , [ (     - ^ f+:.i.)+8#8+[ _ t . T.9                 r < = e 9#0#a#b#d , }.r       9 ( [ d o.g+R.c#d#e#&+6+^+: ",
"f#g#d : : . } 5 ( _       [ <.o.V.h#4.i#9+s t }.: T.t a 8 9     { _ t 6 e /+j#k#l#m#6+] -     9 u u (+6 ^ 9+S.{+n#o#p#b+q#r#) F+",
"^.9+6 t [ ^+[ }.          } x+2+l.s#t#-@S.q . }.- < . q Q } ^+} Q 6+9+f+o.u#v#w#x#d } : u   9 / (+T.]+Z.Z.^.| y#z#A#B#@#C#D#<.E#",
"~ 6 7 < 5 , : 9         < | R.x+_.F#t#G#1#<.Q 5 }._ 7 = 6+e | Z.<.S.f+o.L+g+Z.) o . , : - r / }.4 e S.9+d ^.Z.H#I#J#K#=+P.f+^.L#",
"} [ _ _ ] ^+(+        }.} d 8+f+V.]@M#J.N#O#P#o 5 _ ( (+} } 6 . |.} 6 ^ | ]+4 ] 7 a _ }.}.a [ ~ Z.<.Z.q Q S.P.'+@+Q#R#q.x+|.s S#",
"7+^ a [ ) |.(+        a Q | 8+P.k.$#T#[+B#l U#8+| o s o ]+) o s ^+^+. = = o s T._ }.}.5 |.^ g+L+8+q 5 ] ]+g+P.K@}+V#W#X#8+(+Y#Z#",
"`#Q.. ~ ^.]+_         ] ^ ^ f+{@i. $n@.$a.+$,@G @$R.8+<.R.L+L+{+e ^ ) ~ ~ 6 [ 5 ] o | <.L+L+o.{+o _ }., = | U.K@#$$$%$P.^.T.&$4 ",
"*$p.^ | ! ~ a       u ^+= ]+g+_.Q.x+l.=$B@B@-$*@P+;$5#1+>$E.,$l+U#'$S.<.8+^.^./+S.:#P._.L+Z.= [ / { (+s o Q f+q.(@)$T+x+/+]+!$  ",
"~$n@e d /+} r       u 5 ^+~ {+/+]+]+8+_.X.=@{$]$^$/$($u+_$:$<$[$}$|$1$1+2$E.S+J@J@3$2+R.6+4 _ 0 r a ^+6 4 | U.=#4$^@x+/+/+]+4   ",
"5$F#9+^ 6+.           (+: 4 /+6+s t 4 6+S.x+N.6$7$8$9$0$a$>.b$b$b+G.c$(@&@W+d$j.:.L+9+q 4 : 8 - a o | ]+) ^.7+X#=#:.9+! R.!     ",
"F#^@f+e |.7 0         { 8 7 ^ ^.6 - ( s |.]+6+R.:.e$]@{@U+i.^#f$8@8@g$f${@j.o.<.| o 5 T.: 8 - _ [ ) ! ^ d g+:.h$C.P.U._.i$j$    ",
"k$l.Q.6+4 a u           9 }.s ^ |.: 0 a , s s s } Q S.x+Q.R.7+l.U+k.k.p._.Q.^.} 7 }.- 0     0 8 < 5 s 6 Q {+:.'+$$l$m$n$o$p$    ",
"u#_./+]+] _ 0             u t } } 7 / - }.}.}.- - a = d q o ~ | e | e ! ^.^ s a 8 r 9             { a = ! L+q$r$s$t$u$[@}$P#9   ",
"G i._.d . < r             u : ] s [ a u           - T.^+, t < t (+/ _ t a r {                     u . 8+_.O.v$w$x$y$z$A$B$8+    ",
"C$b@ $Q.d . (             { t s s . [ 0             u 8 a T.5 5 t - 0                           r s 9+P.R+:$D$E$#+F$G$w H$|     ",
"I$J$a$P.{+|.0               a ^+4 = o _                 9 ( a [ ^+5 _ 9                       }.. 8+2+d$G.K$L$M$N$O$P$  Q$4     ",
"R$S$T$r$6+| 6               u t ] |.]+5                       { 8 t (+r           u r u r }.T.|./+:.U$V$0+D@W$X$Y$Z$/ `$L _     ",
" %.%+%M.9+, [ <               u a . |.s u                         9 / - ( (+: _ 8 (+t 7 5 o Z.U.@%i@#%y@f+$%%%o < u   &%{+T.    ",
"*%=%-%;+<.o ] ] 8               u }., ^+(                         r _ (+}.(+, } ]+) ~ |.o e :.>$,$>+;%^.= 4 T.} o {   ; ^ T.    ",
">%,%'%)%= 6 ^+[ } -         0 r - ( 7 [ }.                    u ] ^ Q } < _ 4 {+,+!%~%/+d g+D#{%* ]%q 7 t a ^%/%/+    (%|.4     ",
"_%:%<%9+5 ] ^+s P.{@= 9 { _ t 5 , ] . ^+t _ a < a : , ^+5 T.7 . {+>+[%L+Z.Q 9+G ;.K.}%@@|%1%7#2%= ^+(+r 0 3%4%5%|   { 6%6 5     ",
"7%8%9%]+] ^+Z.U.0%a%=$e 8 - < ] } } ) ~ = ~ ]+^ 6+S.Q.<.d ^ | Z.x+v$b%c%G$A$1+d%e%f%g%h%9#*#4 -         ^+i%j%k%]   - l%6 _     ",
"    Z$o m%]+x+ $n%o%p%^@o 8 a , q Z.g+Q.Q.Q.R.o.U+q%)#4#P.V.2+2+l.g@r%s%t%E$u%v%w%x%y%z%^+t r         ( >#A%B%C%    ~ D%s :     ",
"    t ; } f+E%F%G%H%I%J%2+) = e K%L%z#<%M%l.7+l.N%O%P%U$Q%R%U+S%{$T%U%V%$$W%m#} a : _ /             < |%X%Y%Z%}.    `% &} ,     ",
"      7 .&+&@&#&$&%&&&i.i.U.8+*&D@=&-&;&>&,&'&)&h$%$=+:.U.x+x+!&~&{&;#]&'&^&,                     6 Z.<.S./&Q (+  (&`%_&5       ",
"      r , > :&<&[&}&n., = 6 |.|&R#1&2&3&z.4&8#L n+3.@#5&E 6&S.5+o+7&7#8&} _                     9&G S.^+Z.d 4 -   Y$0&a&u       ",
"      / { b&c&d&e&E$S.t ^+s |.f$f&p%g&h&x$i&f%j&k&l&j&O@@.m&n&o&4 ] : 0                       }.p&q&8+( l%|.4 0   r&/+: /       ",
"      9   s&t&u&v&w&Z.o < Z.V.f$x&y&z&n@A&B&L#C&D&E&F&G&H&I&T./               a ^%= , {     { ` J&K&Q ^+L&. 7   M&h.N&r /       ",
"          O&P&Q&R&'@^ : T.8+i.M+S&T&U&o@k.f+{+V&b$W&X&Y&(+9           u , ^ Z&`& *.*}     9 T.+*@*#*g+d $*, /   T.%*l%  u       "};
