/* XPM */
static char * portal_rot1_xpm[] = {
"64 64 3751 2",
"  	c #1D113A",
". 	c #1D1039",
"+ 	c #1B1035",
"@ 	c #1D1234",
"# 	c #1C1134",
"$ 	c #140E2A",
"% 	c #0E0B24",
"& 	c #0C0A22",
"* 	c #0F0C26",
"= 	c #181037",
"- 	c #23114E",
"; 	c #280F55",
"> 	c #211044",
", 	c #2A1644",
"' 	c #321B4A",
") 	c #341C4D",
"! 	c #341C4F",
"~ 	c #321B51",
"{ 	c #311A50",
"] 	c #2D1846",
"^ 	c #2F1848",
"/ 	c #311553",
"( 	c #2D1254",
"_ 	c #231043",
": 	c #1D1134",
"< 	c #1F1235",
"[ 	c #1B0F2F",
"} 	c #150A2E",
"| 	c #1A0944",
"1 	c #230A55",
"2 	c #52196F",
"3 	c #7C268A",
"4 	c #52125B",
"5 	c #7A2475",
"6 	c #A4398D",
"7 	c #9A368B",
"8 	c #4B125C",
"9 	c #4B135F",
"0 	c #611F75",
"a 	c #260C48",
"b 	c #1A0B3B",
"c 	c #1E0F3D",
"d 	c #0F0929",
"e 	c #0D0927",
"f 	c #0B0727",
"g 	c #0B0924",
"h 	c #120E2F",
"i 	c #151033",
"j 	c #171137",
"k 	c #120E2D",
"l 	c #110C29",
"m 	c #0E0C25",
"n 	c #0B0A24",
"o 	c #0B0A27",
"p 	c #0A0925",
"q 	c #0A0921",
"r 	c #0D0B24",
"s 	c #0C0A21",
"t 	c #110C25",
"u 	c #1A1130",
"v 	c #170F30",
"w 	c #1A1033",
"x 	c #1C1236",
"y 	c #1D113B",
"z 	c #1D103B",
"A 	c #191032",
"B 	c #170F2B",
"C 	c #150E28",
"D 	c #0C0B21",
"E 	c #0A0920",
"F 	c #0F0B24",
"G 	c #170F32",
"H 	c #1B0F42",
"I 	c #311264",
"J 	c #3B1477",
"K 	c #280E64",
"L 	c #271351",
"M 	c #2B184A",
"N 	c #301B50",
"O 	c #371D5C",
"P 	c #3A1D65",
"Q 	c #3D1C6C",
"R 	c #3E1A6F",
"S 	c #41177C",
"T 	c #4C139B",
"U 	c #4B11A0",
"V 	c #3A1180",
"W 	c #2B135B",
"X 	c #251249",
"Y 	c #1D1138",
"Z 	c #190E2D",
"` 	c #170A37",
" .	c #1D094C",
"..	c #340F5E",
"+.	c #471565",
"@.	c #290B3A",
"#.	c #561D51",
"$.	c #8E347E",
"%.	c #792B6D",
"&.	c #30093D",
"*.	c #4A145C",
"=.	c #5E1D77",
"-.	c #2A0B59",
";.	c #1E0850",
">.	c #1D0B44",
",.	c #180C2D",
"'.	c #1A0E2C",
").	c #1A0E31",
"!.	c #100A29",
"~.	c #140B2B",
"{.	c #130C2B",
"].	c #160F2E",
"^.	c #22153C",
"/.	c #291645",
"(.	c #2D164C",
"_.	c #2E164A",
":.	c #25133F",
"<.	c #170E30",
"[.	c #21173A",
"}.	c #130F2B",
"|.	c #0C0A20",
"1.	c #0B091F",
"2.	c #140E28",
"3.	c #18102F",
"4.	c #170E2F",
"5.	c #1E133A",
"6.	c #20133C",
"7.	c #170F2E",
"8.	c #130E27",
"9.	c #110C24",
"0.	c #120C27",
"a.	c #130C32",
"b.	c #1D0B4C",
"c.	c #4C1884",
"d.	c #5A1B9A",
"e.	c #490F8F",
"f.	c #3B0E79",
"g.	c #3C166D",
"h.	c #3B186D",
"i.	c #341868",
"j.	c #321869",
"k.	c #351479",
"l.	c #340C8C",
"m.	c #3D09A6",
"n.	c #3C09A8",
"o.	c #31088B",
"p.	c #260871",
"q.	c #230B66",
"r.	c #290C73",
"s.	c #2F126E",
"t.	c #29144A",
"u.	c #190D34",
"v.	c #190749",
"w.	c #2E0E5E",
"x.	c #381158",
"y.	c #25093B",
"z.	c #562554",
"A.	c #833A7B",
"B.	c #6A2C63",
"C.	c #1D0634",
"D.	c #370F56",
"E.	c #391063",
"F.	c #1D0853",
"G.	c #1A0841",
"H.	c #190B2F",
"I.	c #1E1032",
"J.	c #24143B",
"K.	c #25163A",
"L.	c #25163B",
"M.	c #2A1840",
"N.	c #2B173F",
"O.	c #28153B",
"P.	c #231438",
"Q.	c #1D1336",
"R.	c #1E1439",
"S.	c #1F1339",
"T.	c #1D1037",
"U.	c #190F32",
"V.	c #120D2A",
"W.	c #0C0A26",
"X.	c #0C0B27",
"Y.	c #090923",
"Z.	c #0B0A21",
"`.	c #0D0B23",
" +	c #120D26",
".+	c #18102E",
"++	c #1B1133",
"@+	c #19112E",
"#+	c #1D1232",
"$+	c #110D26",
"%+	c #0D0A22",
"&+	c #0D0926",
"*+	c #130A38",
"=+	c #230D53",
"-+	c #571C8F",
";+	c #7D28B9",
">+	c #681AB0",
",+	c #45049E",
"'+	c #540AB1",
")+	c #4F0CA9",
"!+	c #3B0B8D",
"~+	c #360B83",
"{+	c #420898",
"]+	c #4B04AF",
"^+	c #6908D3",
"/+	c #670BD4",
"(+	c #470BB1",
"_+	c #440DA8",
":+	c #450BAD",
"<+	c #4A06B3",
"[+	c #4B0DA0",
"}+	c #3E196E",
"|+	c #261346",
"1+	c #1A084F",
"2+	c #301062",
"3+	c #3A135D",
"4+	c #280B41",
"5+	c #613264",
"6+	c #874483",
"7+	c #642F62",
"8+	c #22093A",
"9+	c #361157",
"0+	c #2F0F5A",
"a+	c #180845",
"b+	c #190B34",
"c+	c #25123E",
"d+	c #2B1456",
"e+	c #2D1560",
"f+	c #351868",
"g+	c #3E1B73",
"h+	c #491D7A",
"i+	c #4B1E74",
"j+	c #461C6E",
"k+	c #41196C",
"l+	c #3B1A61",
"m+	c #361A57",
"n+	c #391B5B",
"o+	c #3A1A62",
"p+	c #39195F",
"q+	c #351957",
"r+	c #2F164B",
"s+	c #20113A",
"t+	c #1A1132",
"u+	c #191230",
"v+	c #0F0C25",
"w+	c #0D0A21",
"x+	c #120D27",
"y+	c #120D25",
"z+	c #120D28",
"A+	c #0C0923",
"B+	c #100A2C",
"C+	c #1D0E41",
"D+	c #2B105B",
"E+	c #5D1D97",
"F+	c #952FD5",
"G+	c #711BC0",
"H+	c #4F01B8",
"I+	c #7308D8",
"J+	c #6806CF",
"K+	c #5802C2",
"L+	c #4D01B2",
"M+	c #4201A3",
"N+	c #4C02AC",
"O+	c #5806BF",
"P+	c #700DE2",
"Q+	c #6A08E7",
"R+	c #5906D3",
"S+	c #4C05B5",
"T+	c #4902A8",
"U+	c #440594",
"V+	c #401973",
"W+	c #32155E",
"X+	c #210961",
"Y+	c #2D115F",
"Z+	c #321354",
"`+	c #1F0939",
" @	c #472659",
".@	c #613573",
"+@	c #432153",
"@@	c #220A3B",
"#@	c #331257",
"$@	c #2B0E5E",
"%@	c #1C084F",
"&@	c #2A1546",
"*@	c #3D1870",
"=@	c #42119F",
"-@	c #380A98",
";@	c #2D0F71",
">@	c #371578",
",@	c #3F1881",
"'@	c #41158B",
")@	c #41148C",
"!@	c #411782",
"~@	c #3E1878",
"{@	c #401779",
"]@	c #441782",
"^@	c #411580",
"/@	c #351071",
"(@	c #240A5C",
"_@	c #23114A",
":@	c #24153E",
"<@	c #1C1334",
"[@	c #0A091E",
"}@	c #0E0B22",
"|@	c #150E2A",
"1@	c #110D24",
"2@	c #110D25",
"3@	c #100C27",
"4@	c #0D0A24",
"5@	c #130D2B",
"6@	c #1B0F3A",
"7@	c #25104F",
"8@	c #350E71",
"9@	c #59159B",
"0@	c #8F27D3",
"a@	c #6612C2",
"b@	c #5602CA",
"c@	c #7B0CE5",
"d@	c #6A07D5",
"e@	c #6302D4",
"f@	c #5202B7",
"g@	c #340285",
"h@	c #1E0161",
"i@	c #1C0164",
"j@	c #3C02A6",
"k@	c #4202B4",
"l@	c #360196",
"m@	c #2D0275",
"n@	c #3F028C",
"o@	c #41019D",
"p@	c #3C0F8C",
"q@	c #3A127C",
"r@	c #2B0A73",
"s@	c #281258",
"t@	c #281345",
"u@	c #170631",
"v@	c #351B58",
"w@	c #43236B",
"x@	c #291247",
"y@	c #200A3D",
"z@	c #2D1155",
"A@	c #2A0C68",
"B@	c #270A64",
"C@	c #3F1C6A",
"D@	c #48159B",
"E@	c #4F05CE",
"F@	c #5408CE",
"G@	c #5920A5",
"H@	c #592392",
"I@	c #6218AB",
"J@	c #5C0DB9",
"K@	c #4507A6",
"L@	c #2F0682",
"M@	c #280970",
"N@	c #2D0B73",
"O@	c #310C7B",
"P@	c #330B84",
"Q@	c #481194",
"R@	c #551D9C",
"S@	c #451594",
"T@	c #411B74",
"U@	c #30194A",
"V@	c #1B1237",
"W@	c #150F2C",
"X@	c #100C25",
"Y@	c #140F2B",
"Z@	c #1D1235",
"`@	c #2E1859",
" #	c #301364",
".#	c #3A0C83",
"+#	c #5A11A7",
"@#	c #7517C2",
"##	c #5305B6",
"$#	c #4801C0",
"%#	c #5C05D4",
"&#	c #4903B3",
"*#	c #4301A9",
"=#	c #370191",
"-#	c #23026B",
";#	c #130245",
">#	c #160348",
",#	c #220366",
"'#	c #25026A",
")#	c #220266",
"!#	c #2F0371",
"~#	c #42028F",
"{#	c #4A01AD",
"]#	c #3C04AD",
"^#	c #3B0B98",
"/#	c #2C0972",
"(#	c #281453",
"_#	c #251341",
":#	c #130631",
"<#	c #371A6B",
"[#	c #401F77",
"}#	c #200C47",
"|#	c #1F0D3C",
"1#	c #29134F",
"2#	c #280A70",
"3#	c #360E7E",
"4#	c #5C15A6",
"5#	c #4D07B0",
"6#	c #4601BA",
"7#	c #5C02DA",
"8#	c #5B08CF",
"9#	c #6109C7",
"0#	c #6B06CC",
"a#	c #5F03C8",
"b#	c #4102A2",
"c#	c #23026D",
"d#	c #19024F",
"e#	c #1E0257",
"f#	c #2A0373",
"g#	c #2B0283",
"h#	c #781BC3",
"i#	c #BC41ED",
"j#	c #A338D6",
"k#	c #6A2990",
"l#	c #3A1D53",
"m#	c #1A1037",
"n#	c #160F2C",
"o#	c #100B23",
"p#	c #0A081E",
"q#	c #130E26",
"r#	c #130E28",
"s#	c #150F2B",
"t#	c #0B081F",
"u#	c #150D27",
"v#	c #261741",
"w#	c #3B1D6F",
"x#	c #3B1581",
"y#	c #370D89",
"z#	c #620FB3",
"A#	c #8508D6",
"B#	c #4B01AD",
"C#	c #4C03CB",
"D#	c #5705D9",
"E#	c #2C0188",
"F#	c #25016D",
"G#	c #3B0196",
"H#	c #2D017B",
"I#	c #150245",
"J#	c #12023C",
"K#	c #1C0255",
"L#	c #1D0256",
"M#	c #1D0253",
"N#	c #310279",
"O#	c #400296",
"P#	c #4C02B6",
"Q#	c #3F02B8",
"R#	c #3503A1",
"S#	c #2B0779",
"T#	c #2C1755",
"U#	c #2B1846",
"V#	c #1D0D38",
"W#	c #371477",
"X#	c #3A1781",
"Y#	c #210C4C",
"Z#	c #291544",
"`#	c #281649",
" $	c #3E0A94",
".$	c #5C0BBD",
"+$	c #810BE1",
"@$	c #6604D3",
"#$	c #4601B5",
"$$	c #6B05DB",
"%$	c #7C06EC",
"&$	c #8404E7",
"*$	c #6B02CB",
"=$	c #5F01C9",
"-$	c #4D02BC",
";$	c #2E0186",
">$	c #210164",
",$	c #360282",
"'$	c #36018A",
")$	c #290184",
"!$	c #4306AA",
"~$	c #730CDF",
"{$	c #882BCD",
"]$	c #6F2F90",
"^$	c #3D1D57",
"/$	c #1B1039",
"($	c #120C29",
"_$	c #0F0B21",
":$	c #0B091E",
"<$	c #100C24",
"[$	c #130E2A",
"}$	c #150F2E",
"|$	c #0A071D",
"1$	c #120B23",
"2$	c #231441",
"3$	c #3E1C78",
"4$	c #41139A",
"5$	c #6317C6",
"6$	c #A91AE5",
"7$	c #8304D0",
"8$	c #4F01AD",
"9$	c #5105C8",
"0$	c #5706D4",
"a$	c #26017B",
"b$	c #22025A",
"c$	c #410191",
"d$	c #300175",
"e$	c #14023D",
"f$	c #160241",
"g$	c #1D0257",
"h$	c #1B0152",
"i$	c #1E025C",
"j$	c #24036C",
"k$	c #2E0388",
"l$	c #4803C1",
"m$	c #4502C2",
"n$	c #3502A8",
"o$	c #3504A5",
"p$	c #38147E",
"q$	c #351C55",
"r$	c #1F0F39",
"s$	c #380E87",
"t$	c #3C0E95",
"u$	c #220E48",
"v$	c #2F1B4A",
"w$	c #36185F",
"x$	c #5F09C6",
"y$	c #7404E7",
"z$	c #8E10ED",
"A$	c #7A0AE6",
"B$	c #5602C9",
"C$	c #5301C3",
"D$	c #8812E4",
"E$	c #AB17EF",
"F$	c #8106D7",
"G$	c #6401CA",
"H$	c #5F01DB",
"I$	c #4901BA",
"J$	c #370190",
"K$	c #4F02AA",
"L$	c #44019C",
"M$	c #350296",
"N$	c #3501AD",
"O$	c #8317E2",
"P$	c #9235BE",
"Q$	c #682E86",
"R$	c #3A1B5A",
"S$	c #1E123D",
"T$	c #120C2C",
"U$	c #0E0A21",
"V$	c #0A071C",
"W$	c #0E0A22",
"X$	c #110D27",
"Y$	c #15102D",
"Z$	c #150F30",
"`$	c #150E2E",
" %	c #08061D",
".%	c #060619",
"+%	c #140A31",
"@%	c #2E1367",
"#%	c #5317A7",
"$%	c #971EE6",
"%%	c #A112DD",
"&%	c #5F01B0",
"*%	c #370296",
"=%	c #3D02AA",
"-%	c #2B0279",
";%	c #2A0262",
">%	c #3B027D",
",%	c #320277",
"'%	c #1D024B",
")%	c #110234",
"!%	c #180243",
"~%	c #190242",
"{%	c #20025C",
"]%	c #2D0380",
"^%	c #34039E",
"/%	c #4805C1",
"(%	c #4F05CA",
"_%	c #4003B3",
":%	c #4104BF",
"<%	c #4106B5",
"[%	c #3B1A6C",
"}%	c #2B164C",
"|%	c #3A07A5",
"1%	c #38099A",
"2%	c #281544",
"3%	c #3B1C62",
"4%	c #3C0E91",
"5%	c #5303BE",
"6%	c #5F02D7",
"7%	c #840FEA",
"8%	c #7C0CE7",
"9%	c #5F01D8",
"0%	c #4F01B4",
"a%	c #7102D3",
"b%	c #BF2AF2",
"c%	c #9814E9",
"d%	c #6B01D8",
"e%	c #8D19EB",
"f%	c #6E0CE0",
"g%	c #4601B8",
"h%	c #5C01BA",
"i%	c #4A02A3",
"j%	c #4800B2",
"k%	c #5E08D2",
"l%	c #C13FF3",
"m%	c #9B37C9",
"n%	c #5B2285",
"o%	c #3B1B62",
"p%	c #27154A",
"q%	c #150E32",
"r%	c #100C28",
"s%	c #08071D",
"t%	c #0E0A23",
"u%	c #140E29",
"v%	c #130E2E",
"w%	c #130D2D",
"x%	c #07061C",
"y%	c #0C0821",
"z%	c #1B0F37",
"A%	c #301561",
"B%	c #571BA3",
"C%	c #7F18D3",
"D%	c #7705C4",
"E%	c #480192",
"F%	c #2F036F",
"G%	c #2C0277",
"H%	c #330184",
"I%	c #350277",
"J%	c #34026F",
"K%	c #39017C",
"L%	c #28016B",
"M%	c #1C024B",
"N%	c #0B0227",
"O%	c #0D022D",
"P%	c #120236",
"Q%	c #1E0353",
"R%	c #2A0273",
"S%	c #2F0383",
"T%	c #3D059A",
"U%	c #4B05AF",
"V%	c #4604A8",
"W%	c #4304A9",
"X%	c #4503B8",
"Y%	c #3D069D",
"Z%	c #3A1279",
"`%	c #340399",
" &	c #350689",
".&	c #3A1467",
"+&	c #350E73",
"@&	c #2F028B",
"#&	c #2A0198",
"$&	c #3D02B8",
"%&	c #6101D2",
"&&	c #5401C6",
"*&	c #4201B8",
"=&	c #33018C",
"-&	c #6205B6",
";&	c #A422E8",
">&	c #9F23EF",
",&	c #8517EB",
"'&	c #AA3DEF",
")&	c #8E22EA",
"!&	c #5301CF",
"~&	c #6102CA",
"{&	c #3C018F",
"]&	c #3A0293",
"^&	c #6F0BDB",
"/&	c #9720F0",
"(&	c #9626DA",
"_&	c #561B8C",
":&	c #3D1772",
"<&	c #30185C",
"[&	c #28164E",
"}&	c #160F30",
"|&	c #0C0922",
"1&	c #161030",
"2&	c #120D2B",
"3&	c #0E0A26",
"4&	c #06061C",
"5&	c #130C2A",
"6&	c #241442",
"7&	c #351667",
"8&	c #5816AA",
"9&	c #7F12E0",
"0&	c #8906DF",
"a&	c #6002B6",
"b&	c #3C0282",
"c&	c #360273",
"d&	c #33036D",
"e&	c #360272",
"f&	c #340272",
"g&	c #250268",
"h&	c #1C025A",
"i&	c #13023E",
"j&	c #0C022E",
"k&	c #110338",
"l&	c #19034B",
"m&	c #1B024F",
"n&	c #1E0354",
"o&	c #2E0371",
"p&	c #3F0391",
"q&	c #440399",
"r&	c #4403A2",
"s&	c #4F03C2",
"t&	c #5702D2",
"u&	c #3A01A1",
"v&	c #220264",
"w&	c #220459",
"x&	c #2F066A",
"y&	c #2B036F",
"z&	c #28027B",
"A&	c #27018B",
"B&	c #280290",
"C&	c #360197",
"D&	c #340297",
"E&	c #3C01B6",
"F&	c #4102B3",
"G&	c #3F01A2",
"H&	c #5F0DB5",
"I&	c #8D24E6",
"J&	c #9A34ED",
"K&	c #9730EC",
"L&	c #9526ED",
"M&	c #6205DC",
"N&	c #5903CD",
"O&	c #4002A0",
"P&	c #300293",
"Q&	c #4301CC",
"R&	c #5703DE",
"S&	c #8414E6",
"T&	c #621C9F",
"U&	c #3A1481",
"V&	c #3A1B73",
"W&	c #371D61",
"X&	c #21143D",
"Y&	c #130C27",
"Z&	c #140E30",
"`&	c #150E30",
" *	c #100B28",
".*	c #09061D",
"+*	c #07061D",
"@*	c #190F30",
"#*	c #2B174C",
"$*	c #3A166F",
"%*	c #6D15B9",
"&*	c #8C13EE",
"**	c #7203DF",
"=*	c #6401CC",
"-*	c #5E02B5",
";*	c #440386",
">*	c #2C035F",
",*	c #2B0361",
"'*	c #28026B",
")*	c #1E026B",
"!*	c #1D0265",
"~*	c #16024E",
"{*	c #130243",
"]*	c #17034C",
"^*	c #1D045A",
"/*	c #210361",
"(*	c #1D0354",
"_*	c #1D0352",
":*	c #2A0368",
"<*	c #36027E",
"[*	c #3A0288",
"}*	c #40029D",
"|*	c #4502B3",
"1*	c #4601B6",
"2*	c #4501B1",
"3*	c #320288",
"4*	c #1F0359",
"5*	c #220359",
"6*	c #26025F",
"7*	c #240265",
"8*	c #21016D",
"9*	c #1D026F",
"0*	c #23027C",
"a*	c #2C0187",
"b*	c #3B02B4",
"c*	c #4103C8",
"d*	c #2F0290",
"e*	c #3A0292",
"f*	c #590EBE",
"g*	c #751DDC",
"h*	c #7410E4",
"i*	c #8A1CEE",
"j*	c #6D0AE4",
"k*	c #5601D2",
"l*	c #5303C3",
"m*	c #4A03B3",
"n*	c #5904D4",
"o*	c #6D05E7",
"p*	c #820AE8",
"q*	c #8616D0",
"r*	c #4F16A5",
"s*	c #421A88",
"t*	c #3A1D6A",
"u*	c #251644",
"v*	c #170E2A",
"w*	c #120D2C",
"x*	c #0C0822",
"y*	c #20133A",
"z*	c #331957",
"A*	c #42157E",
"B*	c #7D1DC8",
"C*	c #951EE9",
"D*	c #6908CD",
"E*	c #5A02CA",
"F*	c #6403CD",
"G*	c #490398",
"H*	c #230258",
"I*	c #1C024F",
"J*	c #22027B",
"K*	c #24027E",
"L*	c #1F036A",
"M*	c #1D0456",
"N*	c #22035F",
"O*	c #2D0373",
"P*	c #2E0372",
"Q*	c #25045E",
"R*	c #26045F",
"S*	c #30036F",
"T*	c #320374",
"U*	c #310377",
"V*	c #360288",
"W*	c #390293",
"X*	c #3C0297",
"Y*	c #4603A2",
"Z*	c #4502A3",
"`*	c #310382",
" =	c #250367",
".=	c #230358",
"+=	c #1F0350",
"@=	c #1D024F",
"#=	c #1C035F",
"$=	c #200276",
"%=	c #1F026E",
"&=	c #210277",
"*=	c #2C01A3",
"==	c #2F02A5",
"-=	c #36029D",
";=	c #4D04BB",
">=	c #5806CE",
",=	c #5304C5",
"'=	c #6A0CD4",
")=	c #6609DA",
"!=	c #5D04D6",
"~=	c #6805D6",
"{=	c #7F0BE5",
"]=	c #9412F0",
"^=	c #9A11EF",
"/=	c #9E12F0",
"(=	c #9813E9",
"_=	c #731CBF",
":=	c #401B87",
"<=	c #321862",
"[=	c #1A0F36",
"}=	c #110A22",
"|=	c #0E0A24",
"1=	c #08061A",
"2=	c #07061A",
"3=	c #2B1849",
"4=	c #3B1C65",
"5=	c #461486",
"6=	c #680EC3",
"7=	c #8B1BE1",
"8=	c #7014CA",
"9=	c #4D01CB",
"0=	c #4E02BE",
"a=	c #19024B",
"b=	c #120343",
"c=	c #190260",
"d=	c #22027A",
"e=	c #220373",
"f=	c #1E0459",
"g=	c #240454",
"h=	c #320467",
"i=	c #350379",
"j=	c #31037E",
"k=	c #310483",
"l=	c #360489",
"m=	c #37038B",
"n=	c #36028C",
"o=	c #370390",
"p=	c #4003A2",
"q=	c #4702AD",
"r=	c #46029F",
"s=	c #3B037F",
"t=	c #360375",
"u=	c #3A0380",
"v=	c #370483",
"w=	c #29036F",
"x=	c #1C024E",
"y=	c #1A0244",
"z=	c #190249",
"A=	c #1D0366",
"B=	c #1C0269",
"C=	c #220273",
"D=	c #2D029B",
"E=	c #2B029F",
"F=	c #31029A",
"G=	c #4102AF",
"H=	c #4302B7",
"I=	c #35029F",
"J=	c #4203AD",
"K=	c #5105BF",
"L=	c #6107CE",
"M=	c #7308DC",
"N=	c #7E07DF",
"O=	c #880AE5",
"P=	c #9712E7",
"Q=	c #A014ED",
"R=	c #A21DE6",
"S=	c #8426BC",
"T=	c #3D1B7B",
"U=	c #291457",
"V=	c #0E092B",
"W=	c #060517",
"X=	c #0D0923",
"Y=	c #0D091F",
"Z=	c #070517",
"`=	c #0A081F",
" -	c #191133",
".-	c #341D55",
"+-	c #3D1C69",
"@-	c #481388",
"#-	c #640AC1",
"$-	c #6909D0",
"%-	c #5B07D3",
"&-	c #4703CE",
"*-	c #3501A0",
"=-	c #1F0262",
"--	c #150250",
";-	c #150356",
">-	c #170359",
",-	c #1C035B",
"'-	c #1E0355",
")-	c #210451",
"!-	c #29045C",
"~-	c #310473",
"{-	c #3A029C",
"]-	c #4803BD",
"^-	c #4B04C4",
"/-	c #3F02B2",
"(-	c #3801A9",
"_-	c #4002B2",
":-	c #4F05BF",
"<-	c #5604C7",
"[-	c #5702C8",
"}-	c #5302BF",
"|-	c #47039F",
"1-	c #370273",
"2-	c #330368",
"3-	c #39047B",
"4-	c #310383",
"5-	c #1E0264",
"6-	c #170243",
"7-	c #180341",
"8-	c #180353",
"9-	c #18025A",
"0-	c #230274",
"a-	c #3203A6",
"b-	c #3002A9",
"c-	c #2C0291",
"d-	c #300190",
"e-	c #2E0192",
"f-	c #2C0190",
"g-	c #3C039D",
"h-	c #4704AD",
"i-	c #4903B4",
"j-	c #5502BB",
"k-	c #7003D2",
"l-	c #7C05DC",
"m-	c #9815E8",
"n-	c #A722E5",
"o-	c #7E23B3",
"p-	c #3A1A70",
"q-	c #291355",
"r-	c #140D33",
"s-	c #06061D",
"t-	c #0E0926",
"u-	c #100B27",
"v-	c #0C081E",
"w-	c #0A071E",
"x-	c #1B1235",
"y-	c #371D57",
"z-	c #3D1C6B",
"A-	c #5914A3",
"B-	c #710DD0",
"C-	c #6107DB",
"D-	c #3E03B8",
"E-	c #3701B2",
"F-	c #2C0192",
"G-	c #1A025F",
"H-	c #15025B",
"I-	c #16025A",
"J-	c #170351",
"K-	c #1F0354",
"L-	c #230355",
"M-	c #210353",
"N-	c #250283",
"O-	c #3902BD",
"P-	c #670AE2",
"Q-	c #7012DE",
"R-	c #7419D1",
"S-	c #6711C9",
"T-	c #640DD0",
"U-	c #710FDA",
"V-	c #700CD8",
"W-	c #6D0AD2",
"X-	c #6106D0",
"Y-	c #5500CA",
"Z-	c #5501AF",
"`-	c #530390",
" ;	c #4B0482",
".;	c #450395",
"+;	c #32038D",
"@;	c #1E0365",
"#;	c #1A034B",
"$;	c #18024F",
"%;	c #170256",
"&;	c #190357",
"*;	c #2A0491",
"=;	c #3103B1",
"-;	c #2B0398",
";;	c #230275",
">;	c #260183",
",;	c #29018C",
"';	c #27027F",
");	c #2C0387",
"!;	c #3A02A5",
"~;	c #4001AF",
"{;	c #4302B2",
"];	c #6103CA",
"^;	c #7703DB",
"/;	c #9A18E8",
"(;	c #AB23EA",
"_;	c #7B1FB2",
":;	c #3A186F",
"<;	c #2D1457",
"[;	c #190F38",
"};	c #07061F",
"|;	c #0E0825",
"1;	c #0C091F",
"2;	c #0A061C",
"3;	c #0B071D",
"4;	c #180F2F",
"5;	c #351E54",
"6;	c #451D7D",
"7;	c #6717B8",
"8;	c #700FD0",
"9;	c #710CE9",
"0;	c #4403BA",
"a;	c #2F019F",
"b;	c #2D0298",
"c;	c #1D0273",
"d;	c #140258",
"e;	c #100243",
"f;	c #170345",
"g;	c #25045A",
"h;	c #21036A",
"i;	c #2C029C",
"j;	c #27029E",
"k;	c #4504C8",
"l;	c #5F09CD",
"m;	c #6C13C5",
"n;	c #781DC0",
"o;	c #7218BE",
"p;	c #6913B9",
"q;	c #6F13BB",
"r;	c #8316CC",
"s;	c #911CDA",
"t;	c #9822DF",
"u;	c #8215DF",
"v;	c #7106DF",
"w;	c #7704CE",
"x;	c #6B03A9",
"y;	c #540393",
"z;	c #3F0396",
"A;	c #2A0385",
"B;	c #1E0363",
"C;	c #1B0254",
"D;	c #1B0260",
"E;	c #1A035D",
"F;	c #2B0480",
"G;	c #3403B6",
"H;	c #2A03A1",
"I;	c #1B036A",
"J;	c #1D0371",
"K;	c #23027F",
"L;	c #23027E",
"M;	c #28038D",
"N;	c #2F0396",
"O;	c #330298",
"P;	c #3601A6",
"Q;	c #4700BE",
"R;	c #7006D5",
"S;	c #A71EE9",
"T;	c #A91DF0",
"U;	c #7416B9",
"V;	c #401679",
"W;	c #31165C",
"X;	c #090720",
"Y;	c #0B0720",
"Z;	c #0F0A20",
"`;	c #08061B",
" >	c #0B081D",
".>	c #18102A",
"+>	c #1B102F",
"@>	c #3D2758",
"#>	c #5B279D",
"$>	c #791BCC",
"%>	c #9128E6",
"&>	c #8C1EEE",
"*>	c #5704D6",
"=>	c #3A02AB",
"->	c #300299",
";>	c #13024B",
">>	c #120238",
",>	c #1B0346",
"'>	c #24035C",
")>	c #1D0357",
"!>	c #240280",
"~>	c #3302A6",
"{>	c #4003B5",
"]>	c #4B04B7",
"^>	c #4505A2",
"/>	c #4A0796",
"(>	c #4B0D88",
"_>	c #4B0D89",
":>	c #3D0984",
"<>	c #38068B",
"[>	c #6811B3",
"}>	c #7D1CBE",
"|>	c #A134C5",
"1>	c #B639D2",
"2>	c #9E25DF",
"3>	c #9012E7",
"4>	c #7D06CF",
"5>	c #590398",
"6>	c #470288",
"7>	c #320386",
"8>	c #200370",
"9>	c #1C025D",
"0>	c #1D026C",
"a>	c #280373",
"b>	c #3404AD",
"c>	c #2B03AB",
"d>	c #1A036C",
"e>	c #17035C",
"f>	c #1D036F",
"g>	c #25028B",
"h>	c #2C02A7",
"i>	c #270395",
"j>	c #24027A",
"k>	c #31019C",
"l>	c #4500C4",
"m>	c #710ADE",
"n>	c #A01FEC",
"o>	c #8211DF",
"p>	c #5A0EB0",
"q>	c #471884",
"r>	c #391A64",
"s>	c #20113F",
"t>	c #0E0920",
"u>	c #060518",
"v>	c #140D24",
"w>	c #140C26",
"x>	c #3C2753",
"y>	c #6D33AF",
"z>	c #7822D0",
"A>	c #AD49F2",
"B>	c #6708D0",
"C>	c #5701CA",
"D>	c #4C03BE",
"E>	c #3803AB",
"F>	c #1C0267",
"G>	c #160347",
"H>	c #1D0348",
"I>	c #270361",
"J>	c #1D0359",
"K>	c #23036C",
"L>	c #2B0478",
"M>	c #5004B5",
"N>	c #390490",
"O>	c #30038A",
"P>	c #36038A",
"Q>	c #2B0275",
"R>	c #21026B",
"S>	c #25027F",
"T>	c #30029E",
"U>	c #4101BD",
"V>	c #4701BE",
"W>	c #680CB6",
"X>	c #8C1CBF",
"Y>	c #7C13BC",
"Z>	c #7F0FD6",
"`>	c #7306DC",
" ,	c #5A02B5",
".,	c #540290",
"+,	c #3F037F",
"@,	c #230371",
"#,	c #190355",
"$,	c #1A0253",
"%,	c #1D0268",
"&,	c #1D0261",
"*,	c #330495",
"=,	c #3706C3",
"-,	c #1D0374",
";,	c #150353",
">,	c #190463",
",,	c #210386",
"',	c #2C02AD",
"),	c #27029A",
"!,	c #2A0186",
"~,	c #3A00B3",
"{,	c #5702CF",
"],	c #7409E1",
"^,	c #5F03CD",
"/,	c #4D0EA3",
"(,	c #471981",
"_,	c #3F1D6D",
":,	c #221342",
"<,	c #0E0A27",
"[,	c #07061B",
"},	c #1D1231",
"|,	c #331D4F",
"1,	c #66319F",
"2,	c #9436E9",
"3,	c #AC48EC",
"4,	c #7210CA",
"5,	c #5100B8",
"6,	c #5503C8",
"7,	c #3A02AD",
"8,	c #1D0361",
"9,	c #1D0353",
"0,	c #240457",
"a,	c #29045F",
"b,	c #25035D",
"c,	c #200458",
"d,	c #250369",
"e,	c #220368",
"f,	c #1B0362",
"g,	c #24027C",
"h,	c #330294",
"i,	c #2B0287",
"j,	c #27028D",
"k,	c #3202AC",
"l,	c #3A03BE",
"m,	c #4503C9",
"n,	c #4D04CE",
"o,	c #6611CC",
"p,	c #821DCB",
"q,	c #8618C2",
"r,	c #6806B6",
"s,	c #7006D3",
"t,	c #5702CC",
"u,	c #5D03B2",
"v,	c #51038B",
"w,	c #280372",
"x,	c #18025B",
"y,	c #15024B",
"z,	c #1A025D",
"A,	c #2E037C",
"B,	c #4C0CD8",
"C,	c #2B0795",
"D,	c #160352",
"E,	c #17045C",
"F,	c #1B0373",
"G,	c #1F028B",
"H,	c #1D0280",
"I,	c #150350",
"J,	c #1D0260",
"K,	c #2E0193",
"L,	c #5303CA",
"M,	c #5E03D7",
"N,	c #6502D2",
"O,	c #560FA8",
"P,	c #431879",
"Q,	c #431E72",
"R,	c #261648",
"S,	c #150D28",
"T,	c #2E1C45",
"U,	c #422569",
"V,	c #7033AD",
"W,	c #B054F3",
"X,	c #A138EA",
"Y,	c #9A25E6",
"Z,	c #6205C3",
"`,	c #4802B3",
" '	c #37029C",
".'	c #1F0361",
"+'	c #23045A",
"@'	c #23045E",
"#'	c #21045B",
"$'	c #1D0550",
"%'	c #19034E",
"&'	c #1C0367",
"*'	c #1A026D",
"='	c #1D0276",
"-'	c #270287",
";'	c #2C028C",
">'	c #2A028A",
",'	c #3A02B4",
"''	c #4102C9",
")'	c #3C02BC",
"!'	c #4503BD",
"~'	c #4103B3",
"{'	c #2F02A4",
"]'	c #430AB5",
"^'	c #751AD3",
"/'	c #6007B7",
"('	c #5803AA",
"_'	c #5B03C7",
":'	c #5D03C9",
"<'	c #5D04A0",
"['	c #3A0375",
"}'	c #160254",
"|'	c #1F0268",
"1'	c #1D025F",
"2'	c #33037F",
"3'	c #5109D1",
"4'	c #2C069E",
"5'	c #150451",
"6'	c #170459",
"7'	c #19036A",
"8'	c #1B0277",
"9'	c #1A0273",
"0'	c #140249",
"a'	c #1B0255",
"b'	c #280278",
"c'	c #4F02C0",
"d'	c #5202C9",
"e'	c #7305DA",
"f'	c #6211B6",
"g'	c #421976",
"h'	c #3E1D6C",
"i'	c #221545",
"j'	c #130E2D",
"k'	c #070619",
"l'	c #0F0B22",
"m'	c #1C112E",
"n'	c #3A2354",
"o'	c #552D83",
"p'	c #7F37C6",
"q'	c #B152F2",
"r'	c #A533EA",
"s'	c #961BE8",
"t'	c #750CD3",
"u'	c #4B03B5",
"v'	c #390298",
"w'	c #1E035F",
"x'	c #1D035C",
"y'	c #1C0353",
"z'	c #170349",
"A'	c #190358",
"B'	c #1C046C",
"C'	c #23037F",
"D'	c #320390",
"E'	c #3D039D",
"F'	c #330293",
"G'	c #4501C0",
"H'	c #4F02CF",
"I'	c #4B03C5",
"J'	c #5704CE",
"K'	c #4D02C0",
"L'	c #4203C4",
"M'	c #570CD7",
"N'	c #6B13D6",
"O'	c #5405B2",
"P'	c #5302AD",
"Q'	c #6405CB",
"R'	c #6404B8",
"S'	c #520390",
"T'	c #200268",
"U'	c #200368",
"V'	c #1F025F",
"W'	c #360387",
"X'	c #4C06C5",
"Y'	c #290494",
"Z'	c #1C0467",
"`'	c #19036B",
" )	c #170362",
".)	c #120340",
"+)	c #270366",
"@)	c #3D019D",
"#)	c #4E01BB",
"$)	c #7503DE",
"%)	c #6D14C6",
"&)	c #50218A",
"*)	c #3B2264",
"=)	c #1D123C",
"-)	c #0E0B26",
";)	c #06061B",
">)	c #100B25",
",)	c #261639",
"')	c #44295E",
"))	c #5F3096",
"!)	c #7D28CE",
"~)	c #982AE7",
"{)	c #9C2BE6",
"])	c #7F0FDF",
"^)	c #7307D9",
"/)	c #5705BA",
"()	c #2E0287",
"_)	c #1B035C",
":)	c #170454",
"<)	c #1C0361",
"[)	c #1A0357",
"})	c #140341",
"|)	c #140248",
"1)	c #250386",
"2)	c #2B0291",
"3)	c #320392",
"4)	c #5203B7",
"5)	c #6203CA",
"6)	c #5704C3",
"7)	c #6E0BD6",
"8)	c #6D0BDD",
"9)	c #6006D9",
"0)	c #5B04CF",
"a)	c #4D03B3",
"b)	c #2C0272",
"c)	c #270370",
"d)	c #3803A1",
"e)	c #4E09C5",
"f)	c #5B08D4",
"g)	c #5403B3",
"h)	c #6806C2",
"i)	c #7206CA",
"j)	c #5D03A2",
"k)	c #390380",
"l)	c #250373",
"m)	c #24035E",
"n)	c #3A028F",
"o)	c #5004C8",
"p)	c #3404AA",
"q)	c #220380",
"r)	c #1C046D",
"s)	c #1A0468",
"t)	c #160359",
"u)	c #160354",
"v)	c #16033E",
"w)	c #220354",
"x)	c #290462",
"y)	c #350282",
"z)	c #5803BB",
"A)	c #7303DB",
"B)	c #6917C4",
"C)	c #6732A2",
"D)	c #422A61",
"E)	c #1C1138",
"F)	c #150E2C",
"G)	c #0B081E",
"H)	c #09071E",
"I)	c #0B0920",
"J)	c #2F1C43",
"K)	c #472A66",
"L)	c #5F2BA0",
"M)	c #6A1BC6",
"N)	c #7E1BDA",
"O)	c #9325EB",
"P)	c #7815DB",
"Q)	c #5502BC",
"R)	c #3B0295",
"S)	c #210171",
"T)	c #1B0363",
"U)	c #1D0465",
"V)	c #1D0363",
"W)	c #18034C",
"X)	c #11023A",
"Y)	c #140247",
"Z)	c #230373",
"`)	c #3A03A8",
" !	c #4502C0",
".!	c #5C03CA",
"+!	c #7505DD",
"@!	c #7B06E4",
"#!	c #8211E7",
"$!	c #9018EE",
"%!	c #8714EB",
"&!	c #7006E1",
"*!	c #5C04C7",
"=!	c #3B0396",
"-!	c #28036F",
";!	c #1D0350",
">!	c #230266",
",!	c #3A04A0",
"'!	c #4E06CA",
")!	c #5703C5",
"!!	c #7306C8",
"~!	c #870BD3",
"{!	c #7205B5",
"]!	c #4F0495",
"^!	c #2F0380",
"/!	c #2A0467",
"(!	c #3F0395",
"_!	c #5205C7",
":!	c #3A05B6",
"<!	c #26038E",
"[!	c #1E0478",
"}!	c #1A0465",
"|!	c #14034F",
"1!	c #170354",
"2!	c #1A0345",
"3!	c #21044E",
"4!	c #230453",
"5!	c #5303B1",
"6!	c #6704D3",
"7!	c #6B1FC5",
"8!	c #6A389A",
"9!	c #35214E",
"0!	c #150D2E",
"a!	c #150D2B",
"b!	c #0D0920",
"c!	c #0C0920",
"d!	c #130D29",
"e!	c #1F1435",
"f!	c #331D4A",
"g!	c #47286E",
"h!	c #6F2FB6",
"i!	c #741ED7",
"j!	c #7510E3",
"k!	c #740FE5",
"l!	c #5406BF",
"m!	c #320191",
"n!	c #28027F",
"o!	c #1F0272",
"p!	c #220377",
"q!	c #27037C",
"r!	c #210366",
"s!	c #150343",
"t!	c #100236",
"u!	c #18024B",
"v!	c #2C0281",
"w!	c #5904C5",
"x!	c #7907E9",
"y!	c #920AEC",
"z!	c #A10EEB",
"A!	c #900FE6",
"B!	c #8412E7",
"C!	c #8915E6",
"D!	c #7A0EDD",
"E!	c #6C06D7",
"F!	c #6106C5",
"G!	c #4102AC",
"H!	c #3B01A5",
"I!	c #2A0277",
"J!	c #190348",
"K!	c #220362",
"L!	c #38049A",
"M!	c #4C02BC",
"N!	c #6D0BC3",
"O!	c #9014CE",
"P!	c #860BC1",
"Q!	c #530397",
"R!	c #2D037C",
"S!	c #220367",
"T!	c #260367",
"U!	c #3F0493",
"V!	c #5305C5",
"W!	c #4105BD",
"X!	c #2B0397",
"Y!	c #21047D",
"Z!	c #18045E",
"`!	c #14034A",
" ~	c #18033F",
".~	c #1D0345",
"+~	c #250456",
"@~	c #36037D",
"#~	c #4A01AF",
"$~	c #640BCF",
"%~	c #7323CA",
"&~	c #582D8A",
"*~	c #2D1A4E",
"=~	c #0C0926",
"-~	c #0A071F",
";~	c #1D1332",
">~	c #221637",
",~	c #2E1B4A",
"'~	c #482775",
")~	c #8B42C8",
"!~	c #8A31E9",
"~~	c #912FED",
"{~	c #8B2DDF",
"]~	c #5517A6",
"^~	c #2E028B",
"/~	c #31028B",
"(~	c #220363",
"_~	c #14023C",
":~	c #200262",
"<~	c #3D01AA",
"[~	c #7509DE",
"}~	c #9C10EE",
"|~	c #9F0CEB",
"1~	c #910AE0",
"2~	c #7609D4",
"3~	c #780CDE",
"4~	c #710AD1",
"5~	c #5504BC",
"6~	c #4402AC",
"7~	c #380393",
"8~	c #330193",
"9~	c #36029F",
"0~	c #34039A",
"a~	c #2C0380",
"b~	c #1F025B",
"c~	c #2C0374",
"d~	c #3B02A0",
"e~	c #4E0AA4",
"f~	c #8316BD",
"g~	c #8310BE",
"h~	c #4A0290",
"i~	c #2D037A",
"j~	c #26036D",
"k~	c #4F0699",
"l~	c #5506CA",
"m~	c #30049A",
"n~	c #200474",
"o~	c #18045B",
"p~	c #160450",
"q~	c #190346",
"r~	c #19043D",
"s~	c #1E0349",
"t~	c #29035E",
"u~	c #300376",
"v~	c #390294",
"w~	c #4D06B3",
"x~	c #6219BE",
"y~	c #582497",
"z~	c #3E2368",
"A~	c #28184B",
"B~	c #110C2E",
"C~	c #16102B",
"D~	c #1D1432",
"E~	c #201536",
"F~	c #28174C",
"G~	c #41236C",
"H~	c #8F4ABD",
"I~	c #9538E9",
"J~	c #AD50F0",
"K~	c #973FDF",
"L~	c #5B14B5",
"M~	c #32038A",
"N~	c #2A0378",
"O~	c #2B037F",
"P~	c #330290",
"Q~	c #2F0284",
"R~	c #21035A",
"S~	c #190340",
"T~	c #340192",
"U~	c #5701CE",
"V~	c #8A09E9",
"W~	c #8909E1",
"X~	c #7505D2",
"Y~	c #6E02D4",
"Z~	c #770AE0",
"`~	c #8210E0",
" {	c #6108C1",
".{	c #4202B1",
"+{	c #3A02A3",
"@{	c #310299",
"#{	c #26017C",
"${	c #190253",
"%{	c #21025C",
"&{	c #330385",
"*{	c #35048A",
"={	c #6E10B3",
"-{	c #750EBA",
";{	c #480293",
">{	c #2D027E",
",{	c #2E0374",
"'{	c #28026A",
"){	c #52059C",
"!{	c #6607CC",
"~{	c #5606CA",
"{{	c #35059A",
"]{	c #1E046E",
"^{	c #1A0562",
"/{	c #190458",
"({	c #1B034B",
"_{	c #1C0444",
":{	c #1F044A",
"<{	c #2E027B",
"[{	c #2E0283",
"}{	c #390297",
"|{	c #6011BC",
"1{	c #6324AA",
"2{	c #462672",
"3{	c #2A194C",
"4{	c #110B2C",
"5{	c #110C21",
"6{	c #1A1034",
"7{	c #231447",
"8{	c #2C194E",
"9{	c #8946B2",
"0{	c #9539E8",
"a{	c #831EE5",
"b{	c #700FCF",
"c{	c #6705CA",
"d{	c #5303AE",
"e{	c #37028F",
"f{	c #30038E",
"g{	c #33028C",
"h{	c #2A0272",
"i{	c #250359",
"j{	c #210351",
"k{	c #340382",
"l{	c #4B02B9",
"m{	c #6902DB",
"n{	c #8606E2",
"o{	c #6903C5",
"p{	c #6703C8",
"q{	c #7806E1",
"r{	c #941DEB",
"s{	c #7915D4",
"t{	c #4B05B4",
"u{	c #3D03A7",
"v{	c #370394",
"w{	c #2A0281",
"x{	c #1D0266",
"y{	c #13024D",
"z{	c #15024C",
"A{	c #1B025E",
"B{	c #1A015E",
"C{	c #180153",
"D{	c #2B036C",
"E{	c #390389",
"F{	c #5B09B5",
"G{	c #6A0BBD",
"H{	c #450495",
"I{	c #2C0180",
"J{	c #33037A",
"K{	c #2C026E",
"L{	c #5303A6",
"M{	c #5C05C9",
"N{	c #5106C6",
"O{	c #360498",
"P{	c #1E0370",
"Q{	c #1A0457",
"R{	c #1A0448",
"S{	c #1F044C",
"T{	c #250458",
"U{	c #2E027F",
"V{	c #2B0187",
"W{	c #751CCC",
"X{	c #6B28AE",
"Y{	c #452771",
"Z{	c #2A194A",
"`{	c #120C2D",
" ]	c #0C0924",
".]	c #0D081E",
"+]	c #080617",
"@]	c #150D36",
"#]	c #1F133F",
"$]	c #3E1C6D",
"%]	c #8531CF",
"&]	c #7D1DE5",
"*]	c #5805CF",
"=]	c #5D05C4",
"-]	c #5E03BF",
";]	c #48029F",
">]	c #2E0288",
",]	c #3A029E",
"']	c #370289",
")]	c #280363",
"!]	c #2A045E",
"~]	c #280360",
"{]	c #4D02AD",
"]]	c #5F02CC",
"^]	c #6D03D5",
"/]	c #8306D8",
"(]	c #5F02BE",
"_]	c #7807D2",
":]	c #991BED",
"<]	c #881AE5",
"[]	c #560ABD",
"}]	c #3E03A1",
"|]	c #34037D",
"1]	c #260362",
"2]	c #26027B",
"3]	c #2A0292",
"4]	c #2D039E",
"5]	c #1D0367",
"6]	c #1A025E",
"7]	c #140254",
"8]	c #40048D",
"9]	c #5106B9",
"0]	c #660BC8",
"a]	c #3F0392",
"b]	c #330289",
"c]	c #390382",
"d]	c #2E0273",
"e]	c #6505BE",
"f]	c #6907DA",
"g]	c #5006C7",
"h]	c #200374",
"i]	c #1C0466",
"j]	c #190347",
"k]	c #1F034D",
"l]	c #2A0364",
"m]	c #2D0372",
"n]	c #320382",
"o]	c #4102A7",
"p]	c #5F09C3",
"q]	c #902EDE",
"r]	c #702EAD",
"s]	c #43266D",
"t]	c #2B1A4B",
"u]	c #0E0B21",
"v]	c #100B24",
"w]	c #150D39",
"x]	c #26174E",
"y]	c #6E24B3",
"z]	c #8618EE",
"A]	c #6709D3",
"B]	c #5A04C8",
"C]	c #5A02C3",
"D]	c #6004BB",
"E]	c #41029E",
"F]	c #310195",
"G]	c #3E029D",
"H]	c #300373",
"I]	c #240355",
"J]	c #260358",
"K]	c #2D0271",
"L]	c #4802A8",
"M]	c #5F02C8",
"N]	c #7904DE",
"O]	c #7F05D9",
"P]	c #5701C2",
"Q]	c #8C13E5",
"R]	c #9016F0",
"S]	c #6006D1",
"T]	c #3E02A7",
"U]	c #3E0387",
"V]	c #2A035F",
"W]	c #23017E",
"X]	c #3604AD",
"Y]	c #34049B",
"Z]	c #1E0266",
"`]	c #180255",
" ^	c #180352",
".^	c #16034F",
"+^	c #140350",
"@^	c #3A0487",
"#^	c #4E05C1",
"$^	c #5A06C7",
"%^	c #33018D",
"&^	c #400291",
"*^	c #3F0383",
"=^	c #3A028A",
"-^	c #6405C9",
";^	c #6E0AE1",
">^	c #4D06C7",
",^	c #3503A4",
"'^	c #22047F",
")^	c #1B0463",
"!^	c #180351",
"~^	c #180247",
"{^	c #1B0343",
"]^	c #26045A",
"^^	c #300478",
"/^	c #6A04CC",
"(^	c #8712E5",
"_^	c #942AE6",
":^	c #682EA5",
"<^	c #412568",
"[^	c #2E1C4F",
"}^	c #1B1139",
"|^	c #0E0B27",
"1^	c #0F0C22",
"2^	c #1D1142",
"3^	c #4C2285",
"4^	c #8222E0",
"5^	c #760CE0",
"6^	c #4702AF",
"7^	c #5503BC",
"8^	c #5703BA",
"9^	c #4804A1",
"0^	c #3F02A7",
"a^	c #4501A8",
"b^	c #3A0284",
"c^	c #1D0247",
"d^	c #1F0257",
"e^	c #39028F",
"f^	c #3D009E",
"g^	c #7806DA",
"h^	c #940AED",
"i^	c #6802D0",
"j^	c #6102D3",
"k^	c #890FF1",
"l^	c #6F06E8",
"m^	c #4601B3",
"n^	c #3A028D",
"o^	c #300361",
"p^	c #190255",
"q^	c #2802AA",
"r^	c #31039F",
"s^	c #1A034A",
"t^	c #0F0137",
"u^	c #0D0130",
"v^	c #0F0138",
"w^	c #12023F",
"x^	c #110243",
"y^	c #1D0254",
"z^	c #2D027F",
"A^	c #4F06C6",
"B^	c #4204A4",
"C^	c #27017B",
"D^	c #4C0292",
"E^	c #400284",
"F^	c #4902A4",
"G^	c #7306DB",
"H^	c #730EE5",
"I^	c #4303C1",
"J^	c #3803B5",
"K^	c #25038F",
"L^	c #18045C",
"M^	c #150346",
"N^	c #170344",
"O^	c #260460",
"P^	c #270368",
"Q^	c #5303AF",
"R^	c #850CE6",
"S^	c #A930F0",
"T^	c #9529E0",
"U^	c #612E96",
"V^	c #3A2061",
"W^	c #2D1C49",
"X^	c #21153B",
"Y^	c #180F33",
"Z^	c #341A5E",
"`^	c #6B2EB1",
" /	c #7719E6",
"./	c #7608E0",
"+/	c #5706B9",
"@/	c #4C02B4",
"#/	c #4602A9",
"$/	c #3B029C",
"%/	c #3E019B",
"&/	c #430291",
"*/	c #2D0362",
"=/	c #220352",
"-/	c #1B0245",
";/	c #220265",
">/	c #5103BB",
",/	c #840BE9",
"'/	c #6E06D3",
")/	c #5A01CD",
"!/	c #7D09E7",
"~/	c #8511E7",
"{/	c #5002CC",
"]/	c #3E029E",
"^/	c #39037D",
"//	c #1F0253",
"(/	c #17016C",
"_/	c #2F03AD",
":/	c #290373",
"</	c #120235",
"[/	c #0B0127",
"}/	c #06011F",
"|/	c #070122",
"1/	c #0F0135",
"2/	c #10023B",
"3/	c #1D0250",
"4/	c #2F018E",
"5/	c #5808CA",
"6/	c #2B0475",
"7/	c #2C0179",
"8/	c #4A038A",
"9/	c #450193",
"0/	c #5103B1",
"a/	c #890BEC",
"b/	c #6609E4",
"c/	c #3C03C7",
"d/	c #3804BE",
"e/	c #250390",
"f/	c #160344",
"g/	c #180342",
"h/	c #290370",
"i/	c #30037C",
"j/	c #4F03B0",
"k/	c #5702C2",
"l/	c #9A22F2",
"m/	c #9C3CCF",
"n/	c #502978",
"o/	c #2D1956",
"p/	c #26183C",
"q/	c #201638",
"r/	c #1D1433",
"s/	c #1B1037",
"t/	c #442071",
"u/	c #7531C1",
"v/	c #7B18E8",
"w/	c #8711E8",
"x/	c #7410D5",
"y/	c #4C01BA",
"z/	c #3C02A2",
"A/	c #3D029D",
"B/	c #390187",
"C/	c #31036D",
"D/	c #26035B",
"E/	c #1E0357",
"F/	c #3E02A5",
"G/	c #5904D2",
"H/	c #7307E6",
"I/	c #5E02D5",
"J/	c #7406E6",
"K/	c #9C17ED",
"L/	c #7D12D6",
"M/	c #3901A7",
"N/	c #3E029B",
"O/	c #3A027F",
"P/	c #1F016B",
"Q/	c #1E018A",
"R/	c #2E0392",
"S/	c #200353",
"T/	c #0C012E",
"U/	c #06011E",
"V/	c #030114",
"W/	c #050119",
"X/	c #0C012C",
"Y/	c #11013A",
"Z/	c #1C0155",
"`/	c #3902A1",
" (	c #5706C3",
".(	c #26036C",
"+(	c #3A0280",
"@(	c #5201A8",
"#(	c #710ACD",
"$(	c #9D19F1",
"%(	c #630CE6",
"&(	c #4204D4",
"*(	c #3403B8",
"=(	c #220381",
"-(	c #17034E",
";(	c #1A0347",
">(	c #1C0344",
",(	c #310281",
"'(	c #2C0274",
")(	c #4502AD",
"!(	c #8915EF",
"~(	c #9535D0",
"{(	c #331D54",
"](	c #211349",
"^(	c #1E1338",
"/(	c #1A112D",
"((	c #161029",
"_(	c #20143D",
":(	c #4A2476",
"<(	c #782EC3",
"[(	c #8E22ED",
"}(	c #891DE4",
"|(	c #6309CF",
"1(	c #4D01BF",
"2(	c #3A0298",
"3(	c #340282",
"4(	c #300273",
"5(	c #26035D",
"6(	c #2B0369",
"7(	c #30028D",
"8(	c #3C02AA",
"9(	c #5103CC",
"0(	c #6505DE",
"a(	c #5701D2",
"b(	c #7105E7",
"c(	c #8A0CEC",
"d(	c #6B07CA",
"e(	c #330192",
"f(	c #43029D",
"g(	c #35017E",
"h(	c #1E0180",
"i(	c #2A02A3",
"j(	c #2A027A",
"k(	c #17023F",
"l(	c #06011D",
"m(	c #02010F",
"n(	c #050118",
"o(	c #0B022B",
"p(	c #12023A",
"q(	c #4303A4",
"r(	c #29026D",
"s(	c #3D0281",
"t(	c #4E0298",
"u(	c #6105BA",
"v(	c #9315DF",
"w(	c #8F19E8",
"x(	c #5208E0",
"y(	c #4606D5",
"z(	c #2D03A3",
"A(	c #1E036D",
"B(	c #1C0352",
"C(	c #210352",
"D(	c #200351",
"E(	c #220365",
"F(	c #25036B",
"G(	c #200360",
"H(	c #380198",
"I(	c #730DDF",
"J(	c #9921E4",
"K(	c #501D7C",
"L(	c #1D1240",
"M(	c #0D091D",
"N(	c #0C081C",
"O(	c #130D2C",
"P(	c #20143E",
"Q(	c #4A2574",
"R(	c #8435C4",
"S(	c #AC3BEF",
"T(	c #9832E1",
"U(	c #4D04C0",
"V(	c #3F01AB",
"W(	c #380190",
"X(	c #300275",
"Y(	c #2D0369",
"Z(	c #210355",
"`(	c #2A0269",
" _	c #2F027C",
"._	c #2D037E",
"+_	c #32028F",
"@_	c #3C02AF",
"#_	c #4602C1",
"$_	c #4601BF",
"%_	c #4301C0",
"&_	c #5B04D6",
"*_	c #7B0BE6",
"=_	c #6807C6",
"-_	c #32018A",
";_	c #3E0293",
">_	c #290173",
",_	c #1F0283",
"'_	c #32039F",
")_	c #2D026C",
"!_	c #110237",
"~_	c #0A0125",
"{_	c #06011B",
"]_	c #0E0232",
"^_	c #160248",
"/_	c #260177",
"(_	c #3802A0",
"__	c #340289",
":_	c #2F0274",
"<_	c #3E028F",
"[_	c #5702B5",
"}_	c #800AD0",
"|_	c #A418E7",
"1_	c #600CDD",
"2_	c #4706DC",
"3_	c #3E04C3",
"4_	c #220281",
"5_	c #220357",
"6_	c #260366",
"7_	c #25046A",
"8_	c #26036A",
"9_	c #27036E",
"0_	c #300387",
"a_	c #6314C3",
"b_	c #A12EED",
"c_	c #9A24EA",
"d_	c #601CAC",
"e_	c #291A4C",
"f_	c #180F3A",
"g_	c #0C0A1F",
"h_	c #21153E",
"i_	c #472570",
"j_	c #8837C2",
"k_	c #B94CEF",
"l_	c #A13DE5",
"m_	c #4D03BC",
"n_	c #3B029E",
"o_	c #290361",
"p_	c #2D027A",
"q_	c #33028B",
"r_	c #2D027B",
"s_	c #310292",
"t_	c #4302C0",
"u_	c #4402BF",
"v_	c #3B01AE",
"w_	c #3801AE",
"x_	c #5103C4",
"y_	c #6606D7",
"z_	c #4D05AB",
"A_	c #2D017E",
"B_	c #330282",
"C_	c #1D0167",
"D_	c #1F0274",
"E_	c #340286",
"F_	c #32026E",
"G_	c #180246",
"H_	c #100235",
"I_	c #0C012D",
"J_	c #0D0131",
"K_	c #140242",
"L_	c #23026E",
"M_	c #39029D",
"N_	c #4103A5",
"O_	c #34037C",
"P_	c #380288",
"Q_	c #5102B8",
"R_	c #6C02D2",
"S_	c #930FDF",
"T_	c #9D17E9",
"U_	c #5607E3",
"V_	c #4806DB",
"W_	c #3903AD",
"X_	c #1D026A",
"Y_	c #2E036D",
"Z_	c #310379",
"`_	c #2C036F",
" :	c #26045E",
".:	c #2B046D",
"+:	c #330389",
"@:	c #4D04B4",
"#:	c #9028E1",
"$:	c #B83DF2",
"%:	c #891FE8",
"&:	c #5F21BA",
"*:	c #402665",
"=:	c #180E3A",
"-:	c #110D2B",
";:	c #281944",
">:	c #4B2870",
",:	c #7C2EC1",
"':	c #AA41EB",
"):	c #9E36EB",
"!:	c #6608CE",
"~:	c #4502A7",
"{:	c #410295",
"]:	c #3C0385",
"^:	c #290363",
"/:	c #220263",
"(:	c #2E0184",
"_:	c #300285",
"::	c #26026E",
"<:	c #2E0298",
"[:	c #4402C7",
"}:	c #4602C5",
"|:	c #4101BA",
"1:	c #3A01B2",
"2:	c #4701C2",
"3:	c #4A02BA",
"4:	c #300185",
"5:	c #2E0280",
"6:	c #1B0167",
"7:	c #200270",
"8:	c #360380",
"9:	c #340270",
"0:	c #24025E",
"a:	c #22025C",
"b:	c #100237",
"c:	c #170246",
"d:	c #1E0260",
"e:	c #4302A9",
"f:	c #3F0394",
"g:	c #30027A",
"h:	c #4002A1",
"i:	c #5601CA",
"j:	c #7505D7",
"k:	c #9818E6",
"l:	c #891AE6",
"m:	c #4603DA",
"n:	c #4003C6",
"o:	c #300274",
"p:	c #370286",
"q:	c #320379",
"r:	c #2D045F",
"s:	c #280358",
"t:	c #36037F",
"u:	c #4D02B1",
"v:	c #6F06D9",
"w:	c #9318EE",
"x:	c #9D23F1",
"y:	c #7C19E6",
"z:	c #622ABC",
"A:	c #502E79",
"B:	c #1C113E",
"C:	c #150E2B",
"D:	c #2C1B46",
"E:	c #562D79",
"F:	c #7E28CC",
"G:	c #891BEB",
"H:	c #8918E8",
"I:	c #7D11DE",
"J:	c #7207CE",
"K:	c #5B05AE",
"L:	c #3D0382",
"M:	c #240259",
"N:	c #220269",
"O:	c #2E017F",
"P:	c #29026E",
"Q:	c #1F0168",
"R:	c #2B019B",
"S:	c #3C01BF",
"T:	c #3B01B7",
"U:	c #3A01B5",
"V:	c #3B01BA",
"W:	c #4D02C9",
"X:	c #4001A6",
"Y:	c #250170",
"Z:	c #2D0285",
"`:	c #1E0275",
" <	c #210283",
".<	c #340287",
"+<	c #330270",
"@<	c #250160",
"#<	c #310276",
"$<	c #1F025A",
"%<	c #3D0394",
"&<	c #3C038D",
"*<	c #2E0185",
"=<	c #3B01A7",
"-<	c #5202C1",
";<	c #840EDC",
"><	c #8914E6",
",<	c #580AD8",
"'<	c #3B02C6",
")<	c #3602A8",
"!<	c #26027A",
"~<	c #27026A",
"{<	c #330284",
"]<	c #320280",
"^<	c #2A045C",
"/<	c #26044D",
"(<	c #240452",
"_<	c #3F028F",
":<	c #7706D2",
"<<	c #8A09EA",
"[<	c #8B10EB",
"}<	c #9218F0",
"|<	c #7D1AE6",
"1<	c #632DB7",
"2<	c #4F2D76",
"3<	c #1F1340",
"4<	c #130D2A",
"5<	c #140E2D",
"6<	c #2F1D4A",
"7<	c #5F2F86",
"8<	c #9A3ADA",
"9<	c #851DEA",
"0<	c #881CE8",
"a<	c #A024EA",
"b<	c #8914DE",
"c<	c #50039E",
"d<	c #210357",
"e<	c #190248",
"f<	c #240272",
"g<	c #2F0277",
"h<	c #250263",
"i<	c #21017D",
"j<	c #3101AA",
"k<	c #3901B9",
"l<	c #3001A6",
"m<	c #3201A9",
"n<	c #3A01BA",
"o<	c #5002C9",
"p<	c #3C0198",
"q<	c #220168",
"r<	c #24016D",
"s<	c #260281",
"t<	c #1F017E",
"u<	c #2A02A5",
"v<	c #34029A",
"w<	c #3A027C",
"x<	c #230154",
"y<	c #2A026B",
"z<	c #460291",
"A<	c #42038C",
"B<	c #38037C",
"C<	c #38037D",
"D<	c #290266",
"E<	c #210268",
"F<	c #2F018D",
"G<	c #3F01A9",
"H<	c #7006CD",
"I<	c #860BE7",
"J<	c #6806DE",
"K<	c #4402CA",
"L<	c #3A02B2",
"M<	c #2D028F",
"N<	c #27036F",
"O<	c #2C0379",
"P<	c #240361",
"Q<	c #1E0344",
"R<	c #1E0445",
"S<	c #1E034B",
"T<	c #3B0283",
"U<	c #6104B9",
"V<	c #5F04C1",
"W<	c #6707D1",
"X<	c #8815EC",
"Y<	c #7D1AE5",
"Z<	c #632DAE",
"`<	c #492B6C",
" [	c #231543",
".[	c #140E2C",
"+[	c #17102F",
"@[	c #321D4E",
"#[	c #662E91",
"$[	c #AD46E2",
"%[	c #9124EA",
"&[	c #9521ED",
"*[	c #8C22DD",
"=[	c #5B0AC1",
"-[	c #3A0390",
";[	c #1B024B",
">[	c #18024C",
",[	c #24036E",
"'[	c #2F0271",
")[	c #28026C",
"![	c #27028F",
"~[	c #3E02C1",
"{[	c #4102C2",
"][	c #3202AD",
"^[	c #2C01A0",
"/[	c #3702AB",
"([	c #4E02C0",
"_[	c #38028E",
":[	c #1F0260",
"<[	c #22026C",
"[[	c #230187",
"}[	c #220188",
"|[	c #3503BD",
"1[	c #3F03B9",
"2[	c #4A029C",
"3[	c #2D0263",
"4[	c #48028E",
"5[	c #41028B",
"6[	c #350376",
"7[	c #2E026C",
"8[	c #260263",
"9[	c #200265",
"0[	c #230270",
"a[	c #2E018C",
"b[	c #5A04BB",
"c[	c #900DE6",
"d[	c #7A07EA",
"e[	c #5605DA",
"f[	c #4404C6",
"g[	c #3D02AD",
"h[	c #36028A",
"i[	c #320276",
"j[	c #28036D",
"k[	c #1C0349",
"l[	c #19033F",
"m[	c #1A033F",
"n[	c #1D034A",
"o[	c #340376",
"p[	c #380286",
"q[	c #4401AD",
"r[	c #5E05D2",
"s[	c #7C0FED",
"t[	c #7B1AE6",
"u[	c #6932AA",
"v[	c #452866",
"w[	c #211541",
"x[	c #0D0B25",
"y[	c #351E51",
"z[	c #662897",
"A[	c #9736DE",
"B[	c #8D21E7",
"C[	c #911CEE",
"D[	c #6A0BCF",
"E[	c #3A0197",
"F[	c #27036C",
"G[	c #14023E",
"H[	c #24026C",
"I[	c #2D036D",
"J[	c #270270",
"K[	c #3F02BD",
"L[	c #3D03B5",
"M[	c #3704BE",
"N[	c #2D02A6",
"O[	c #3C02B1",
"P[	c #4C03BF",
"Q[	c #1E025B",
"R[	c #200180",
"S[	c #270090",
"T[	c #3802C6",
"U[	c #4E05D8",
"V[	c #5702B7",
"W[	c #3A0281",
"X[	c #1B0251",
"Y[	c #2D0260",
"Z[	c #36026C",
"`[	c #260259",
" }	c #1E0159",
".}	c #21026A",
"+}	c #280276",
"@}	c #330285",
"#}	c #4501A4",
"$}	c #7808D3",
"%}	c #9815EC",
"&}	c #780FEB",
"*}	c #650CE7",
"=}	c #5004CE",
"-}	c #4B0292",
";}	c #370374",
">}	c #2A0367",
",}	c #200354",
"'}	c #170241",
")}	c #16023E",
"!}	c #140239",
"~}	c #1B0246",
"{}	c #2E036E",
"]}	c #320286",
"^}	c #5203C4",
"/}	c #5A05D2",
"(}	c #6105E3",
"_}	c #6F1BD7",
":}	c #64319A",
"<}	c #3D235D",
"[}	c #1D123B",
"}}	c #0C0A24",
"|}	c #1C1336",
"1}	c #3E205A",
"2}	c #61219B",
"3}	c #6A1CC3",
"4}	c #7619DC",
"5}	c #8314E9",
"6}	c #5A09BC",
"7}	c #2E007F",
"8}	c #20025E",
"9}	c #180345",
"0}	c #26026A",
"a}	c #2B0368",
"b}	c #240271",
"c}	c #230284",
"d}	c #3501A5",
"e}	c #31029E",
"f}	c #3E06D7",
"g}	c #3103B0",
"h}	c #270191",
"i}	c #4002B0",
"j}	c #3A028E",
"k}	c #210265",
"l}	c #1C016D",
"m}	c #28018D",
"n}	c #3901CA",
"o}	c #5205E2",
"p}	c #6605CD",
"q}	c #4C019B",
"r}	c #260271",
"s}	c #2A0261",
"t}	c #44027A",
"u}	c #390370",
"v}	c #470289",
"w}	c #3F0387",
"x}	c #370283",
"y}	c #4F02AB",
"z}	c #6802CA",
"A}	c #830AE2",
"B}	c #8412EE",
"C}	c #7413ED",
"D}	c #5809D4",
"E}	c #3F0283",
"F}	c #440284",
"G}	c #1E0250",
"H}	c #15023E",
"I}	c #15033B",
"J}	c #210356",
"K}	c #370292",
"L}	c #5F05D0",
"M}	c #5B05CE",
"N}	c #3F01B3",
"O}	c #5A1AB5",
"P}	c #5D2E89",
"Q}	c #3C205E",
"R}	c #0F0C29",
"S}	c #0B0A23",
"T}	c #21143A",
"U}	c #462167",
"V}	c #581E99",
"W}	c #4917A1",
"X}	c #4F06C8",
"Y}	c #5D06D2",
"Z}	c #4802B0",
"`}	c #340185",
" |	c #1D0351",
".|	c #240367",
"+|	c #280365",
"@|	c #270362",
"#|	c #1F026B",
"$|	c #22017E",
"%|	c #3901AD",
"&|	c #3202A2",
"*|	c #3D05D7",
"=|	c #3D05CA",
"-|	c #200179",
";|	c #4602A4",
">|	c #260361",
",|	c #230363",
"'|	c #1D0168",
")|	c #23017D",
"!|	c #3C01C8",
"~|	c #5707E3",
"{|	c #7008E2",
"]|	c #5F02AE",
"^|	c #48019C",
"/|	c #1F0273",
"(|	c #25016E",
"_|	c #53039D",
":|	c #5702A3",
"<|	c #5001A3",
"[|	c #6601C3",
"}|	c #7304D4",
"||	c #7509E7",
"1|	c #7C14F0",
"2|	c #710CE5",
"3|	c #4A02AA",
"4|	c #310470",
"5|	c #2F0464",
"6|	c #34046E",
"7|	c #28035F",
"8|	c #16033D",
"9|	c #0E0230",
"0|	c #0F0232",
"a|	c #0F0231",
"b|	c #39019F",
"c|	c #700AE3",
"d|	c #650DC6",
"e|	c #3901A1",
"f|	c #681FB5",
"g|	c #683290",
"h|	c #3C1F60",
"i|	c #1C113A",
"j|	c #0D0A27",
"k|	c #2E1749",
"l|	c #4E2176",
"m|	c #501B93",
"n|	c #360E90",
"o|	c #3D03B6",
"p|	c #4402BC",
"q|	c #4701B0",
"r|	c #3A0190",
"s|	c #1D034F",
"t|	c #240363",
"u|	c #210359",
"v|	c #28028B",
"w|	c #3B03B6",
"x|	c #3503AA",
"y|	c #3503BC",
"z|	c #3A04CA",
"A|	c #24027F",
"B|	c #4102B2",
"C|	c #4802A9",
"D|	c #360373",
"E|	c #260360",
"F|	c #1F0171",
"G|	c #3A01B4",
"H|	c #5305E1",
"I|	c #6B08EA",
"J|	c #7507D7",
"K|	c #7806C9",
"L|	c #6405C4",
"M|	c #310296",
"N|	c #3C00A4",
"O|	c #5401AF",
"P|	c #7804C3",
"Q|	c #900BCF",
"R|	c #7D06D7",
"S|	c #6F06E1",
"T|	c #6D0CE7",
"U|	c #8519E6",
"V|	c #5D06BE",
"W|	c #3A0386",
"X|	c #2B0366",
"Y|	c #270457",
"Z|	c #290459",
"`|	c #120234",
" 1	c #0F0332",
".1	c #0D022E",
"+1	c #110232",
"@1	c #1B0446",
"#1	c #38047E",
"$1	c #4402A3",
"%1	c #5004BE",
"&1	c #6A07E2",
"*1	c #4506A2",
"=1	c #5702BB",
"-1	c #8B24D8",
";1	c #6D3496",
">1	c #351C57",
",1	c #191037",
"'1	c #0F0C27",
")1	c #341852",
"!1	c #542081",
"~1	c #541B99",
"{1	c #2F0886",
"]1	c #2E019C",
"^1	c #3E01B3",
"/1	c #4601B2",
"(1	c #4902A9",
"_1	c #2F036E",
":1	c #1E0356",
"<1	c #1E0369",
"[1	c #2E0399",
"}1	c #3D04BE",
"|1	c #3503A8",
"11	c #2A019A",
"21	c #3302B3",
"31	c #260287",
"41	c #3802A4",
"51	c #3E0296",
"61	c #40027C",
"71	c #2E0366",
"81	c #1D025C",
"91	c #1E0167",
"01	c #310293",
"a1	c #5204D3",
"b1	c #6206E5",
"c1	c #6607DE",
"d1	c #900FE9",
"e1	c #9E0FE8",
"f1	c #6B06CF",
"g1	c #6005CA",
"h1	c #7B0DD2",
"i1	c #9B15E0",
"j1	c #A51AE6",
"k1	c #830DE8",
"l1	c #750DE9",
"m1	c #730DDC",
"n1	c #5A05BD",
"o1	c #3E0292",
"p1	c #310478",
"q1	c #2A0465",
"r1	c #270355",
"s1	c #1D0344",
"t1	c #130335",
"u1	c #14023A",
"v1	c #100231",
"w1	c #130336",
"x1	c #1F044B",
"y1	c #43068A",
"z1	c #6506CB",
"A1	c #6C06DA",
"B1	c #5803CC",
"C1	c #4302A6",
"D1	c #6507C1",
"E1	c #9322E6",
"F1	c #6A329B",
"G1	c #331B57",
"H1	c #191038",
"I1	c #110C2A",
"J1	c #3A1F5A",
"K1	c #57228B",
"L1	c #57199E",
"M1	c #2E077E",
"N1	c #270187",
"O1	c #3801A6",
"P1	c #4202AE",
"Q1	c #1F034F",
"R1	c #180241",
"S1	c #1D034C",
"T1	c #1D0356",
"U1	c #3103A1",
"V1	c #3E04C1",
"W1	c #320297",
"X1	c #27018C",
"Y1	c #3102B0",
"Z1	c #2D039A",
"`1	c #360297",
" 2	c #47039D",
".2	c #4C028B",
"+2	c #3B0376",
"@2	c #21035C",
"#2	c #4404A7",
"$2	c #5E06D6",
"%2	c #4201C6",
"&2	c #5903CE",
"*2	c #7806E7",
"=2	c #7306E2",
"-2	c #7C0FE4",
";2	c #901BE8",
">2	c #8F17E9",
",2	c #8815E8",
"'2	c #7A0FE6",
")2	c #790FE1",
"!2	c #6006C1",
"~2	c #400299",
"{2	c #3D038E",
"]2	c #3D0383",
"^2	c #330466",
"/2	c #1A0241",
"(2	c #15023F",
"_2	c #140337",
":2	c #1D0444",
"<2	c #2B055C",
"[2	c #4A0694",
"}2	c #690AD3",
"|2	c #6305D8",
"12	c #6003D3",
"22	c #6503CB",
"32	c #7F1AD3",
"42	c #A93AE8",
"52	c #7130A9",
"62	c #35195B",
"72	c #1A113A",
"82	c #110C2C",
"92	c #3D2662",
"02	c #633192",
"a2	c #5A2197",
"b2	c #2F067B",
"c2	c #270182",
"d2	c #4902B7",
"e2	c #3C0290",
"f2	c #16013E",
"g2	c #130238",
"h2	c #1F0356",
"i2	c #3204A3",
"j2	c #3E04BC",
"k2	c #2F038A",
"l2	c #25027E",
"m2	c #2F02A7",
"n2	c #2E039F",
"o2	c #30038F",
"p2	c #3C0296",
"q2	c #440289",
"r2	c #420282",
"s2	c #2B0365",
"t2	c #1D0258",
"u2	c #170250",
"v2	c #2A027B",
"w2	c #4302B3",
"x2	c #4001B9",
"y2	c #5701D6",
"z2	c #5E02DD",
"A2	c #5C05D8",
"B2	c #6D0CE6",
"C2	c #6E0BE9",
"D2	c #6107DE",
"E2	c #6209D3",
"F2	c #5E07CA",
"G2	c #4902B4",
"H2	c #320289",
"I2	c #3A047A",
"J2	c #410475",
"K2	c #22034F",
"L2	c #13023D",
"M2	c #13023A",
"N2	c #0F022C",
"O2	c #19033B",
"P2	c #29045A",
"Q2	c #360473",
"R2	c #47049B",
"S2	c #5B06CE",
"T2	c #6204DC",
"U2	c #8906E4",
"V2	c #831EDA",
"W2	c #A43DE2",
"X2	c #7831B4",
"Y2	c #381663",
"Z2	c #1C113C",
"`2	c #1A0E39",
" 3	c #0D0A26",
".3	c #2E1D5D",
"+3	c #683B97",
"@3	c #6D379F",
"#3	c #431584",
"$3	c #4202B2",
"%3	c #4902BB",
"&3	c #340189",
"*3	c #15013F",
"=3	c #16023C",
"-3	c #1B0349",
";3	c #1C0457",
">3	c #1F046E",
",3	c #3504AA",
"'3	c #4204BD",
")3	c #35038D",
"!3	c #210370",
"~3	c #290393",
"{3	c #2D0299",
"]3	c #2B018E",
"^3	c #2F028C",
"/3	c #4B0299",
"(3	c #4F0294",
"_3	c #310368",
":3	c #1D0255",
"<3	c #17024F",
"[3	c #200264",
"}3	c #3A029B",
"|3	c #4202BB",
"13	c #3A01B7",
"23	c #4301BA",
"33	c #4202C7",
"43	c #4902D6",
"53	c #5203DE",
"63	c #4A02CF",
"73	c #3001A0",
"83	c #28018B",
"93	c #2A017C",
"03	c #2F037A",
"a3	c #16023D",
"b3	c #17033D",
"c3	c #150339",
"d3	c #2C0365",
"e3	c #37037D",
"f3	c #4503A3",
"g3	c #5704D2",
"h3	c #6003DC",
"i3	c #6D03CC",
"j3	c #7F04D4",
"k3	c #8417DA",
"l3	c #922FDC",
"m3	c #762CB8",
"n3	c #3C1570",
"o3	c #1C113D",
"p3	c #1B0E3D",
"q3	c #0B0A25",
"r3	c #221661",
"s3	c #573299",
"t3	c #7138AD",
"u3	c #511D91",
"v3	c #3D02A2",
"w3	c #4301B5",
"x3	c #4000AD",
"y3	c #37018F",
"z3	c #250260",
"A3	c #1D024C",
"B3	c #180242",
"C3	c #19034F",
"D3	c #1D0460",
"E3	c #27048C",
"F3	c #3805B7",
"G3	c #4503BF",
"H3	c #380390",
"I3	c #20036A",
"J3	c #1F0277",
"K3	c #29028B",
"L3	c #2E028C",
"M3	c #280279",
"N3	c #3A0289",
"O3	c #45028E",
"P3	c #36036B",
"Q3	c #210253",
"R3	c #1A0256",
"S3	c #2D0277",
"T3	c #3B02A5",
"U3	c #3E03C2",
"V3	c #3D03C3",
"W3	c #3802B1",
"X3	c #3502B4",
"Y3	c #4302CA",
"Z3	c #4B02D2",
"`3	c #4201BC",
" 4	c #350299",
".4	c #28027A",
"+4	c #1F0264",
"@4	c #1C015D",
"#4	c #17025C",
"$4	c #180361",
"%4	c #1A035A",
"&4	c #1B034C",
"*4	c #210453",
"=4	c #200450",
"-4	c #1D034E",
";4	c #1F0357",
">4	c #3A038B",
",4	c #4802AD",
"'4	c #4D02B4",
")4	c #6C03C3",
"!4	c #8202D3",
"~4	c #9517E4",
"{4	c #972EDF",
"]4	c #762CBC",
"^4	c #451682",
"/4	c #1E1043",
"(4	c #1F143F",
"_4	c #26176C",
":4	c #492590",
"<4	c #642BAD",
"[4	c #4E1797",
"}4	c #4C02AF",
"|4	c #4E01B9",
"14	c #5001B7",
"24	c #4E01B1",
"34	c #3E0290",
"44	c #290365",
"54	c #1C034D",
"64	c #1D036D",
"74	c #2D04A1",
"84	c #3A05C6",
"94	c #3B03B5",
"04	c #240470",
"a4	c #1D0269",
"b4	c #280376",
"c4	c #2E0279",
"d4	c #42028B",
"e4	c #3B0371",
"f4	c #24034C",
"g4	c #1C0257",
"h4	c #180245",
"i4	c #3A03A6",
"j4	c #3903BF",
"k4	c #3303B2",
"l4	c #3503B0",
"m4	c #5105CF",
"n4	c #5705D5",
"o4	c #2B0282",
"p4	c #24026D",
"q4	c #230369",
"r4	c #200363",
"s4	c #220364",
"t4	c #290369",
"u4	c #330477",
"v4	c #330479",
"w4	c #32047C",
"x4	c #2E037D",
"y4	c #28037A",
"z4	c #230370",
"A4	c #1F0368",
"B4	c #23026C",
"C4	c #390191",
"D4	c #4A01B5",
"E4	c #4B01B7",
"F4	c #5702B4",
"G4	c #7703CA",
"H4	c #9507DF",
"I4	c #B42FED",
"J4	c #AE3CE6",
"K4	c #7D2CC3",
"L4	c #471687",
"M4	c #1F1045",
"N4	c #120D32",
"O4	c #100C26",
"P4	c #2A1873",
"Q4	c #4C2684",
"R4	c #6025A4",
"S4	c #5811AB",
"T4	c #5602B8",
"U4	c #5F02C6",
"V4	c #5C03BB",
"W4	c #3A0290",
"X4	c #350284",
"Y4	c #260261",
"Z4	c #2F05AD",
"`4	c #4106D9",
" 5	c #3B04B9",
".5	c #31038F",
"+5	c #270476",
"@5	c #200472",
"#5	c #160355",
"$5	c #27027C",
"%5	c #4B029C",
"&5	c #45037E",
"*5	c #310357",
"=5	c #20025B",
"-5	c #15023D",
";5	c #24036A",
">5	c #2F0395",
",5	c #2B03A1",
"'5	c #270392",
")5	c #3B04A9",
"!5	c #4E04C5",
"~5	c #4603BC",
"{5	c #3602A0",
"]5	c #30028E",
"^5	c #360394",
"/5	c #2D0388",
"(5	c #2D0381",
"_5	c #300485",
":5	c #330395",
"<5	c #35039E",
"[5	c #320299",
"}5	c #2A0288",
"|5	c #230376",
"15	c #26037F",
"25	c #28027E",
"35	c #3B019A",
"45	c #5201BF",
"55	c #6E02D7",
"65	c #8A04E4",
"75	c #9006E2",
"85	c #8F07E0",
"95	c #B227EB",
"05	c #AE33E7",
"a5	c #7826BD",
"b5	c #40197B",
"c5	c #1D113F",
"d5	c #180F3E",
"e5	c #120E2B",
"f5	c #2E1B73",
"g5	c #512683",
"h5	c #6728A2",
"i5	c #630EB8",
"j5	c #5702BE",
"k5	c #5D02C2",
"l5	c #5902BC",
"m5	c #18024E",
"n5	c #1E026F",
"o5	c #1F027D",
"p5	c #3005B9",
"q5	c #4507E5",
"r5	c #4305CA",
"s5	c #37039A",
"t5	c #280571",
"u5	c #1E036C",
"v5	c #170357",
"w5	c #1B0366",
"x5	c #20026D",
"y5	c #2A0287",
"z5	c #4E02B2",
"A5	c #4E0291",
"B5	c #42036F",
"C5	c #2B035F",
"D5	c #1D0264",
"E5	c #170244",
"F5	c #0F0238",
"G5	c #20046B",
"H5	c #3404A1",
"I5	c #3104A4",
"J5	c #29048E",
"K5	c #330399",
"L5	c #3B02AD",
"M5	c #3902AF",
"N5	c #3502A7",
"O5	c #3002A0",
"P5	c #2C02A1",
"Q5	c #220388",
"R5	c #20037A",
"S5	c #24037F",
"T5	c #260385",
"U5	c #290388",
"V5	c #290284",
"W5	c #220272",
"X5	c #20036D",
"Y5	c #290288",
"Z5	c #2C0288",
"`5	c #4601A8",
" 6	c #6902D2",
".6	c #9607E9",
"+6	c #AA0DF0",
"@6	c #9D0AEC",
"#6	c #8104DB",
"$6	c #9B11E5",
"%6	c #A331E1",
"&6	c #702CAC",
"*6	c #371D67",
"=6	c #1A1239",
"-6	c #1B134B",
";6	c #130F2F",
">6	c #2F1B72",
",6	c #552786",
"'6	c #6C2CA3",
")6	c #6C0EBF",
"!6	c #5901CA",
"~6	c #5801CB",
"{6	c #5402BF",
"]6	c #290282",
"^6	c #410199",
"/6	c #320180",
"(6	c #1D0270",
"_6	c #1F0182",
":6	c #3205C0",
"<6	c #4908EA",
"[6	c #4605D1",
"}6	c #3A039E",
"|6	c #2E0574",
"16	c #17045E",
"26	c #1A0368",
"36	c #4C029F",
"46	c #570390",
"56	c #3A036F",
"66	c #250278",
"76	c #180157",
"86	c #0B022A",
"96	c #1C0358",
"06	c #290378",
"a6	c #300590",
"b6	c #35069D",
"c6	c #280585",
"d6	c #260383",
"e6	c #28038A",
"f6	c #250389",
"g6	c #1D0378",
"h6	c #1F037E",
"i6	c #1D0373",
"j6	c #240385",
"k6	c #24057F",
"l6	c #260379",
"m6	c #210367",
"n6	c #20036C",
"o6	c #280188",
"p6	c #30028A",
"q6	c #4F02B0",
"r6	c #8A05E2",
"s6	c #AC15EF",
"t6	c #B924F1",
"u6	c #9F14EE",
"v6	c #7803D4",
"w6	c #901FDE",
"x6	c #903ED7",
"y6	c #572C93",
"z6	c #241754",
"A6	c #130E30",
"B6	c #1C134E",
"C6	c #140F33",
"D6	c #371C7B",
"E6	c #57278C",
"F6	c #6928A4",
"G6	c #7C13D4",
"H6	c #7204E4",
"I6	c #4B02C2",
"J6	c #4602B0",
"K6	c #6001C7",
"L6	c #3A019B",
"M6	c #1F026F",
"N6	c #1E0277",
"O6	c #250290",
"P6	c #3404C0",
"Q6	c #4B0AED",
"R6	c #4104CF",
"S6	c #3E03A9",
"T6	c #36047F",
"U6	c #190457",
"V6	c #1F0483",
"W6	c #1A0260",
"X6	c #160246",
"Y6	c #22026E",
"Z6	c #6502AC",
"`6	c #45027F",
" 7	c #2B027E",
".7	c #170247",
"+7	c #110332",
"@7	c #18034F",
"#7	c #210567",
"$7	c #340694",
"%7	c #2B058D",
"&7	c #210478",
"*7	c #1B0368",
"=7	c #1C0369",
"-7	c #19035E",
";7	c #18035C",
">7	c #1F0373",
",7	c #1F0371",
"'7	c #220476",
")7	c #240473",
"!7	c #210364",
"~7	c #1B0351",
"{7	c #1B0354",
"]7	c #25027A",
"^7	c #29018A",
"/7	c #5700B4",
"(7	c #BA1BEA",
"_7	c #BB24F1",
":7	c #9517F0",
"<7	c #830CE7",
"[7	c #6205BF",
"}7	c #7A26CA",
"|7	c #6934BD",
"17	c #381D80",
"27	c #1F1455",
"37	c #1C1250",
"47	c #171039",
"57	c #3B1D7D",
"67	c #592A92",
"77	c #60249E",
"87	c #7914D3",
"97	c #9B17F1",
"07	c #9612ED",
"a7	c #6403D9",
"b7	c #5903C1",
"c7	c #3D029F",
"d7	c #360198",
"e7	c #250177",
"f7	c #2B0296",
"g7	c #4D0BEE",
"h7	c #4F08DB",
"i7	c #5606C1",
"j7	c #380586",
"k7	c #1B0456",
"l7	c #1E0372",
"m7	c #3006A5",
"n7	c #120240",
"o7	c #1C0254",
"p7	c #54039A",
"q7	c #4C038F",
"r7	c #31036F",
"s7	c #240364",
"t7	c #1E0358",
"u7	c #1E0463",
"v7	c #220474",
"w7	c #1D0368",
"x7	c #19035A",
"y7	c #14024F",
"z7	c #19035B",
"A7	c #1B0453",
"B7	c #1D0457",
"C7	c #1A034F",
"D7	c #1E035D",
"E7	c #280186",
"F7	c #2A0289",
"G7	c #310280",
"H7	c #5200AD",
"I7	c #A112E6",
"J7	c #880EEA",
"K7	c #5A02DD",
"L7	c #4D02BB",
"M7	c #4C05A6",
"N7	c #621EB5",
"O7	c #5225A0",
"P7	c #2F197A",
"Q7	c #201558",
"R7	c #140F34",
"S7	c #1B1055",
"T7	c #191140",
"U7	c #341D65",
"V7	c #5A328C",
"W7	c #6B36A1",
"X7	c #711FC5",
"Y7	c #9317EE",
"Z7	c #A61DEF",
"`7	c #9A10EC",
" 8	c #7606D3",
".8	c #300194",
"+8	c #2B017E",
"@8	c #290177",
"#8	c #27027B",
"$8	c #2F0297",
"%8	c #3C05C7",
"&8	c #4E0AE7",
"*8	c #6912EA",
"=8	c #7810E3",
"-8	c #4A06A4",
";8	c #180354",
">8	c #1C0468",
",8	c #2E06A3",
"'8	c #240688",
")8	c #16034C",
"!8	c #200359",
"~8	c #3B037C",
"{8	c #520299",
"]8	c #40037E",
"^8	c #33046B",
"/8	c #1E044D",
"(8	c #15033C",
"_8	c #13033F",
":8	c #15034D",
"<8	c #170355",
"[8	c #190353",
"}8	c #110344",
"|8	c #0E033A",
"18	c #0D0331",
"28	c #180344",
"38	c #130338",
"48	c #0D012B",
"58	c #160242",
"68	c #25036E",
"78	c #24017E",
"88	c #200172",
"98	c #280173",
"08	c #6401CE",
"a8	c #8D0AEA",
"b8	c #6806DD",
"c8	c #330094",
"d8	c #370684",
"e8	c #621FAC",
"f8	c #502490",
"g8	c #301A7E",
"h8	c #1E1456",
"i8	c #160F37",
"j8	c #1A0F54",
"k8	c #1C1249",
"l8	c #2B1C52",
"m8	c #51317A",
"n8	c #703AA0",
"o8	c #7F2BC9",
"p8	c #8B15ED",
"q8	c #A21EEF",
"r8	c #B926EB",
"s8	c #810ED4",
"t8	c #4A01B4",
"u8	c #3B0289",
"v8	c #30027B",
"w8	c #2F017F",
"x8	c #2E028E",
"y8	c #3302B2",
"z8	c #4806D6",
"A8	c #6F14EC",
"B8	c #7711EB",
"C8	c #5504C1",
"D8	c #1D0471",
"E8	c #2A069A",
"F8	c #2F06A7",
"G8	c #25057A",
"H8	c #210360",
"I8	c #490293",
"J8	c #41028C",
"K8	c #3A0477",
"L8	c #2C0363",
"M8	c #22044E",
"N8	c #21034B",
"O8	c #1A044E",
"P8	c #120342",
"Q8	c #16044A",
"R8	c #15034C",
"S8	c #0D0236",
"T8	c #09022B",
"U8	c #0D022B",
"V8	c #140339",
"W8	c #14033A",
"X8	c #100333",
"Y8	c #16033F",
"Z8	c #1F016F",
"`8	c #1D0162",
" 9	c #24026F",
".9	c #40019B",
"+9	c #7A06D5",
"@9	c #AD15F0",
"#9	c #7007D7",
"$9	c #3E01A1",
"%9	c #360B74",
"&9	c #6723A6",
"*9	c #4D2288",
"=9	c #2F1A7C",
"-9	c #1D1253",
";9	c #1B1144",
">9	c #1C0F58",
",9	c #1B114B",
"'9	c #2C1D4F",
")9	c #402868",
"!9	c #63338C",
"~9	c #963ACD",
"{9	c #A931F1",
"]9	c #B535ED",
"^9	c #C939EE",
"/9	c #9916DC",
"(9	c #5002A9",
"_9	c #380384",
":9	c #380283",
"<9	c #300179",
"[9	c #360291",
"}9	c #4002BC",
"|9	c #4C05DA",
"19	c #610AEB",
"29	c #5F06E6",
"39	c #4D03C3",
"49	c #27037F",
"59	c #2A0497",
"69	c #3205A8",
"79	c #33069B",
"89	c #2F047F",
"99	c #2C0276",
"09	c #35037A",
"a9	c #340476",
"b9	c #31046D",
"c9	c #2A0458",
"d9	c #22044B",
"e9	c #160342",
"f9	c #150342",
"g9	c #140342",
"h9	c #120243",
"i9	c #0B0232",
"j9	c #0B022E",
"k9	c #12033A",
"l9	c #180343",
"m9	c #1E044F",
"n9	c #4E02AD",
"o9	c #8A09DE",
"p9	c #A714E9",
"q9	c #6404C3",
"r9	c #370295",
"s9	c #3D0F7D",
"t9	c #6423A1",
"u9	c #4B2183",
"v9	c #29166E",
"w9	c #1B1053",
"x9	c #211352",
"y9	c #190D53",
"z9	c #1A0F4D",
"A9	c #2D1D4E",
"B9	c #3A255D",
"C9	c #663586",
"D9	c #AC44D2",
"E9	c #CA45F2",
"F9	c #D048EF",
"G9	c #BC3BEB",
"H9	c #770ECC",
"I9	c #2E037B",
"J9	c #340281",
"K9	c #320282",
"L9	c #4503AE",
"M9	c #5B06DC",
"N9	c #6209E9",
"O9	c #6008EC",
"P9	c #5605E3",
"Q9	c #4402C0",
"R9	c #2E0390",
"S9	c #28028F",
"T9	c #2E039E",
"U9	c #2F03A1",
"V9	c #3805A3",
"W9	c #3F059C",
"X9	c #360483",
"Y9	c #200267",
"Z9	c #2C027E",
"`9	c #310381",
" 0	c #370383",
".0	c #3A0287",
"+0	c #360377",
"@0	c #390367",
"#0	c #1C0348",
"$0	c #1D044C",
"%0	c #170341",
"&0	c #0D0231",
"*0	c #0D0234",
"=0	c #12033C",
"-0	c #190344",
";0	c #1B0445",
">0	c #1C0447",
",0	c #2A046C",
"'0	c #350382",
")0	c #4701A2",
"!0	c #6B04BD",
"~0	c #950FE3",
"{0	c #8711D3",
"]0	c #4602A6",
"^0	c #4D1299",
"/0	c #5D2298",
"(0	c #481F7D",
"_0	c #281568",
":0	c #1B1248",
"<0	c #1A0F42",
"[0	c #170E40",
"}0	c #2D1E4B",
"|0	c #362456",
"10	c #663186",
"20	c #AA33D8",
"30	c #C132F1",
"40	c #BB2EF0",
"50	c #9A1DE5",
"60	c #5F06BB",
"70	c #2C027C",
"80	c #4302A8",
"90	c #5302CA",
"00	c #6C0AE7",
"a0	c #7913EF",
"b0	c #6A0CEE",
"c0	c #5003DF",
"d0	c #4002BD",
"e0	c #35039C",
"f0	c #310298",
"g0	c #3703B2",
"h0	c #3403AF",
"i0	c #30039E",
"j0	c #4A05AD",
"k0	c #5B06B1",
"l0	c #45058C",
"m0	c #240273",
"n0	c #2D0378",
"o0	c #440294",
"p0	c #5402A8",
"q0	c #4E0297",
"r0	c #41037C",
"s0	c #2F0462",
"t0	c #29035B",
"u0	c #2C045D",
"v0	c #190345",
"w0	c #140241",
"x0	c #130240",
"y0	c #1A034D",
"z0	c #1A0444",
"A0	c #190442",
"B0	c #1E034D",
"C0	c #26045C",
"D0	c #33037D",
"E0	c #4102A1",
"F0	c #4101A5",
"G0	c #39028D",
"H0	c #5E04AB",
"I0	c #900EDF",
"J0	c #8F0DE2",
"K0	c #7103D2",
"L0	c #6F14BE",
"M0	c #5A2392",
"N0	c #492281",
"O0	c #2A156C",
"P0	c #1B0F53",
"Q0	c #1B1047",
"R0	c #120E28",
"S0	c #21163B",
"T0	c #261B40",
"U0	c #4F226C",
"V0	c #8C26BC",
"W0	c #911BD2",
"X0	c #9623E1",
"Y0	c #9820E7",
"Z0	c #630AB4",
"`0	c #31027F",
" a	c #290275",
".a	c #4F02BD",
"+a	c #5C03D6",
"@a	c #6C09E6",
"#a	c #7913ED",
"$a	c #6A0DEF",
"%a	c #5104E3",
"&a	c #4702CA",
"*a	c #3E02AF",
"=a	c #36039D",
"-a	c #3902AD",
";a	c #3402AD",
">a	c #2B029E",
",a	c #4603B4",
"'a	c #7C0BD0",
")a	c #750ABD",
"!a	c #440490",
"~a	c #240275",
"{a	c #210369",
"]a	c #230364",
"^a	c #4C02A7",
"/a	c #4C02AD",
"(a	c #5303AA",
"_a	c #4B0396",
":a	c #2E0464",
"<a	c #25045F",
"[a	c #20045C",
"}a	c #1E044E",
"|a	c #250457",
"1a	c #2B036A",
"2a	c #390290",
"3a	c #3F01A8",
"4a	c #3801A1",
"5a	c #350297",
"6a	c #4F02AC",
"7a	c #850ED5",
"8a	c #9111E3",
"9a	c #8009DB",
"0a	c #7921C7",
"aa	c #602D98",
"ba	c #412373",
"ca	c #22125A",
"da	c #190E4B",
"ea	c #191043",
"fa	c #14102E",
"ga	c #14102F",
"ha	c #120E2A",
"ia	c #161130",
"ja	c #38255C",
"ka	c #382558",
"la	c #7E3DA1",
"ma	c #C637F6",
"na	c #CC3AEF",
"oa	c #B52BEC",
"pa	c #750CCD",
"qa	c #3C009F",
"ra	c #3F039F",
"sa	c #4603A7",
"ta	c #5504C8",
"ua	c #6107DC",
"va	c #6006E9",
"wa	c #5D07E8",
"xa	c #5807D7",
"ya	c #370299",
"za	c #370499",
"Aa	c #3C03B4",
"Ba	c #3A03B9",
"Ca	c #4402C3",
"Da	c #8310DC",
"Ea	c #9012D7",
"Fa	c #6307AE",
"Ga	c #340385",
"Ha	c #22036C",
"Ia	c #2C0271",
"Ja	c #340187",
"Ka	c #380196",
"La	c #4501A5",
"Ma	c #4702A1",
"Na	c #380389",
"Oa	c #2F0375",
"Pa	c #2D036C",
"Qa	c #2F0374",
"Ra	c #2D0379",
"Sa	c #220361",
"Ta	c #1C0351",
"Ua	c #200455",
"Va	c #2E0468",
"Wa	c #3A047B",
"Xa	c #3B047E",
"Ya	c #3C038B",
"Za	c #3E02A2",
"`a	c #3A02A2",
" b	c #2C018B",
".b	c #35028F",
"+b	c #4401A7",
"@b	c #7A0DCF",
"#b	c #8A0FDC",
"$b	c #7113C3",
"%b	c #6526A9",
"&b	c #512A84",
"*b	c #2D1C57",
"=b	c #18103B",
"-b	c #160E39",
";b	c #181139",
">b	c #15112E",
",b	c #130F2D",
"'b	c #100D27",
")b	c #130E2C",
"!b	c #382557",
"~b	c #31234D",
"{b	c #76309A",
"]b	c #BA1DF6",
"^b	c #9B14EA",
"/b	c #9914EF",
"(b	c #8B11DF",
"_b	c #3B0194",
":b	c #290270",
"<b	c #290277",
"[b	c #3F01A7",
"}b	c #5703CB",
"|b	c #6606E8",
"1b	c #6B0CED",
"2b	c #5F08EE",
"3b	c #4901E0",
"4b	c #4B02C8",
"5b	c #4001B4",
"6b	c #35039F",
"7b	c #3E03AE",
"8b	c #770ED1",
"9b	c #6507C2",
"0b	c #5D0AAC",
"ab	c #4D088D",
"bb	c #2C0371",
"cb	c #32027E",
"db	c #300281",
"eb	c #300382",
"fb	c #380394",
"gb	c #3902A0",
"hb	c #310290",
"ib	c #2E027E",
"jb	c #330380",
"kb	c #38028D",
"lb	c #240368",
"mb	c #250366",
"nb	c #2F0473",
"ob	c #3A0488",
"pb	c #3B038A",
"qb	c #5004A4",
"rb	c #5A05B9",
"sb	c #4902B2",
"tb	c #260370",
"ub	c #3F048A",
"vb	c #5A05BF",
"wb	c #6C06D5",
"xb	c #6905CE",
"yb	c #5D11B3",
"zb	c #51238C",
"Ab	c #3F246D",
"Bb	c #25184D",
"Cb	c #161032",
"Db	c #120E29",
"Eb	c #110E27",
"Fb	c #130F2A",
"  . + @ # $ % & * = - ; > , ' ) ! ~ { ] ^ / ( _ : < [ } | 1 2 3 4 5 6 7 8 9 0 a b c d e f g h i j k l * m n o p q r s t u v w x ",
"y z A B C D E F G H I J K L M N O P Q R S T U V W X Y Z `  ...+.@.#.$.%.&.*.=.-.;.>.,.'.).!.~.{.].^./.(.(._.:.<.[.}.|.1.2.3.4.w ",
"5.6.7.8.9.s 1.0.a.b.c.d.e.f.g.h.i.j.k.l.m.n.o.p.q.r.s.t.u.v.w.x.y.z.A.B.C.D.E.F.G.H.I.J.K.L.M.N.O.P.Q.R.S.T.U.V.W.X.Y.Z.`. +.+++",
"@+#+ + +$+%+1.&+*+=+-+;+>+,+'+)+!+~+{+]+^+/+(+_+:+<+[+}+|+1+2+3+4+5+6+7+8+9+0+a+b+c+d+e+f+g+h+i+j+k+l+m+n+o+p+q+r+s+t+u+v+w+x+.+",
"8.C y+x+z+& A+B+C+D+E+F+G+H+I+J+K+L+M+N+O+P+Q+R+S+T+U+V+W+X+Y+Z+`+ @.@+@@@#@$@%@&@*@=@-@r.;@>@,@'@)@!@~@{@]@^@/@(@_@:@<@v+[@}@|@",
"2.1@2@z+3@4@5@6@7@8@9@0@a@b@c@d@e@f@g@h@i@j@k@l@m@n@o@p@q@r@s@t@u@v@w@x@y@z@A@B@C@D@E@F@G@H@I@J@K@L@M@N@O@P@Q@R@S@T@U@V@W@|.1.X@",
"2.2@$+Y@% t Z@`@ #.#+#@###$#%#&#*#=#-#;#>#,#'#)#!#~#{#]#^#/#(#_#:#<#[#}#|#1#2#3#4#5#6#7#8#9#0#a#b#c#d#e#f#g#h#i#j#k#l#m#n#o#p#|.",
"q#z+r#s#t#u#v#w#x#y#z#A#B#C#D#E#F#G#H#I#J#K#L#M#N#O#P#Q#R#S#T#U#V#W#X#Y#Z#`# $.$+$@$#$$$%$&$*$=$-$;$>$,$'$)$!$~${$]$^$/$($_$:$|.",
"<$[$}$W@|$1$2$3$4$5$6$7$8$9$0$a$b$c$d$e$f$g$h$i$j$k$l$m$n$o$p$q$r$s$t$u$v$w$x$y$z$A$B$C$D$E$F$G$H$I$J$K$L$M$N$O$P$Q$R$S$T$U$V$W$",
"X$Y$Z$`$ %.%+%@%#%$%%%&%~#*%=%-%;%>%,%'%)%!%~%{%]%^%/%(%_%:%<%[%}%|%1%2%3%4%5%6%7%8%9%0%a%b%c%d%e%f%g%h%i%j%k%l%m%n%o%p%q%r%s%t%",
"u%s#v%w%x%y%z%A%B%C%D%E%F%G%H%I%J%K%L%M%N%O%P%Q%R%S%T%U%V%W%X%Y%Z%`% &.&+&@&#&$&%&&&*&=&-&;&>&,&'&)&!&~&{&]&^&/&(&_&:&<&[&}&|&t%",
"1&`$2&3&4&5&6&7&8&9&0&a&b&c&d&e&f&g&h&i&j&O%k&l&m&n&o&p&q&r&s&t&u&v&w&x&y&z&A&B&C&D&E&F&G&H&I&J&K&L&M&N&O&P&Q&R&S&T&U&V&W&X&Y&%+",
"Z&`& *.*+*@*#*$*%*&***=*-*;*>*,*'*)*!*~*{*]*^*/*(*_*:*<*[*}*|*1*2*3*4*5*6*7*8*9*0*a*b*c*d*e*f*g*h*i*j*k*l*m*n*o*p*q*r*s*t*u*v*w+",
"w*w%y%.%x*y*z*A*B*C*D*E*F*G*H*I*!*J*K*L*M*N*O*P*Q*R*S*T*U*V*W*X*Y*Z*`* =.=+=@=#=$=%=&=*===-=;=>=,='=)=!=~={=]=^=/=(=_=:=<=[=}=W$",
"w*|=1=2=l 3=4=5=6=7=8=9=0=,$a=b=c=d=e=f=g=h=i=j=k=l=m=n=o=p=q=r=s=t=u=v=w=x=y=z=A=B=C=D=E=F=G=H=I=J=K=L=M=N=O=P=Q=R=S=T=U=V=W=X=",
"w%Y=Z=`= -.-+-@-#-$-%-&-*-=---;->-,-'-)-!-~-{-]-^-/-(-_-:-<-[-}-|-1-2-3-4-5-6-7-8-9-0-a-b-c-d-e-f-M$g-h-i-j-k-l-m-n-o-p-q-r-s-t-",
"u-v-W=w-x-y-z-A-B-C-D-E-F-G-H-I-J-K-L-M-j$N-O-P-Q-R-S-T-U-V-W-X-Y-Z-`- ;.;+;@;#;$;%;&;*;=;-;;;>;,;';);!;~;{;];^;/;(;_;:;<;[;};|;",
"1;2;W=3;4;5;6;7;8;9;0;a;b;c;d;e;f;g;L-h;i;j;k;l;m;n;o;p;q;r;s;t;u;v;w;x;y;z;A;B;C;D;E;F;G;H;I;J;K;L;M;N;O;P;Q;R;S;T;U;V;W;z X;Y;",
"Z;`; >.>+>@>#>$>%>&>*>=>->c;;>>>,>'>)>!>~>{>]>^>/>(>_>:><>[>}>|>1>2>3>4>5>6>7>8>K#9>0>a>b>c>d>e>f>g>h>i>j>k>l>m>n>o>p>q>r>s>A+s%",
"t>u>3;v>w>x>y>z>A>B>C>D>E>F>G>H>L-I>J>K>L>M>N>O>P>Q>R>S>T>U>V>W>X>Y>Z>`> ,.,+,@,#,$,%,&,*,=,-,;,>,,,',),c=!,~,{,],^,/,(,_,:,<,+*",
".*[,w+v-},|,1,2,3,4,5,6,7,8,9,0,a,b,c,w&d,e,f,g,h,i,j,k,l,m,n,o,p,q,r,s,t,u,v,w,x,y,!*z,A,B,C,D,E,F,G,H,I,J,K,L,M,N,O,P,Q,R,w%[,",
"[,`=<$S,T,U,V,W,X,Y,Z,`, '.'(*+'@'#'$'%'&'*'='-';'>',''')'!'~'{']'^'/'('_':'<'['x,}'|'1'2'3'4'5'6'7'8'9'0'a'b'c'd'e'f'g'h'i'j'[,",
"k't#l'm'n'o'p'q'r's't'u'v'w']*x'8,y'z'A'B'='C'D'E'F'G'H'I'J'K'F&L'M'N'O'P'Q'R'S'T'D;U'V'W'X'Y'Z'>,`'`' ).)M#+)@)#)$)%)&)*)=)-) %",
";)t#>),)')))!)~){)])^)/)()_):)<)[)})|)f,1)2)3)4)5)6)7)8)9)0)a)b)c)d)e)f)g)h)i)j)k)l)f#m)n)o)p)q)r)s)t)u)v)w)x)y)z)A)B)C)D)E)F)G)",
"H)I)n#J)K)L)M)N)O)P)Q)R)S)T)U)V)W)X)Y)Z)`) !.!+!@!#!$!%!&!*!=!-!;!>!,!'!)!!!~!{!]!^!o&/!(!_!:!<![!}!|!1!2!3!4!~-5!6!7!8!9!0!a!b!",
"c!d!e!f!g!h!i!j!k!l!m!n!o!p!q!r!s!t!u!v!w!x!y!z!A!B!C!D!E!F!G!H!I!J!K!L!M!N!O!P!Q!R!S!T!U!V!W!X!Y!Z!`!z' ~.~+~@~#~$~%~&~*~  =~-~",
"C ;~>~,~'~)~!~~~{~]~;;@,Z)^~/~(~_~>>:~<~[~}~|~1~2~3~4~5~6~7~8~9~0~a~b~c~d~e~f~g~h~i~j~7*k~$-l~m~n~o~p~q~r~s~t~u~v~w~x~y~z~A~B~<,",
"C~D~E~F~G~H~I~J~K~L~M~N~O~P~Q~R~S~m&T~U~V~W~X~Y~Z~`~ {.{+{@{#{${)>Z)&,%{&{*{={-{;{>{,{'{){!{~{{{]{^{/{({_{:{R*<{[{}{|{1{2{3{4{3&",
"_$5{6{7{8{9{0{a{b{c{d{e{f{g{h{i{j{k{l{m{n{o{p{q{r{s{t{u{v{w{x{y{z{A{B{C{D{E{F{G{H{I{J{K{L{M{N{O{P{Z'Q{R{S{T{+)U{V{O&W{X{Y{Z{`{ ]",
".]+]@]#]$]%]&]*]=]-];]>],]'])]!]~]{]]]^]/](]_]:]<][]}]|]1]2]3]4]j,5]6]7]5*8]9]0]a]b]c]d]e]f]g]0~h]i]#,j]k]l]m]n]o]p]q]r]s]t]q% ]",
"u]v]w]x]y]z]A]B]C]D]E]F]G]H]I]J]K]L]M]N]O]P]Q]R]S]T]U]V]W]X]Y]Z]`] ^.^+^(*@^#^$^%^&^*^=^-^;^>^,^'^)^!^~^{^]^1]^^/^(^_^:^<^[^}^|^",
"1^`$2^3^4^5^6^7^8^9^0^a^b^g=c^d^e^f^g^h^i^j^k^l^m^n^o^p^q^r^s^t^u^v^w^x^y^z^A^B^C^D^E^F^G^H^I^J^K^L^M^N^{^O^P^Q^R^S^T^U^V^W^X^3.",
"U$Y^Z^`^ /./+/@/#/$/%/&/*/=/-/;/G]>/,/'/)/!/~/{/]/^///(/_/:/</[/}/|/1/2/3/4/5/6/7/8/9/0/a/b/c/d/e/I,f/g/:{h/i/j/k/l/m/n/o/p/q/r/",
"u-s/t/u/v/w/x/y/z/A/B/C/0,D/E/b'F/G/H/I/J/K/L/M/N/O/P/Q/R/S/T/U/V/W/X/Y/Z/`/ (.(+(S'@(#($(%(&(*(=(-(;(>(w&>{,('()(!(~({(](^(/(((",
"2&_(:(<([(}(|(1(2(3(4(D/5(6(c)7(8(9(0(a(b(c(d(e(f(g(h(i(j(k(u^l(m(n(o(p(h@`/q(r(s(t(u(v(w(x(y(z(A(B(C(D(E(F(4*G(H(I(J(K(L([;M(N(",
"O(P(Q(R(S(T(U(V(W(X(Y(Z(`( _._+_@_#_$_%_&_*_=_-_;_>_,_'_)_6-!_~_{_|/]_^_/_(___:_<_[_}_|_1_2_3_4_h&5_l]6_7_8_9_0_a_b_c_d_e_f_F g_",
"w*h_i_j_k_l_m_n_n)4(o_5*p_q_r_s_t_u_v_w_x_y_z_A_B_C_D_E_F_@=G_H_I_J_K_L_M_N_O_P_Q_R_S_T_U_V_W_X_R~Y_Z_`_ :.:+:@:#:$:%:&:*:=:W@X@",
"-:;:>:,:':):!:~:{:]:^:/:(:_:::<:[:}:|:1:2:3:4:r_5:6:7:8:9:0:a:6-b:c:d:P~e:f:g:h:i:j:k:l:m:n:P&v&o:p:q:r:s:t:u:v:w:x:y:z:A:B:C:}@",
"2&D:E:F:G:H:I:J:K:L:M:N:O:P:Q:R:S:T:U:V:W:X:Y:-%Z:`: <.<+<@<#<Y__*$<Q>%<&<d]*<=<-<;<><,<'<)<!<~<{<]<^</<(<_<:<<<[<}<|<1<2<3<4<% ",
"5<6<7<8<9<0<a<b<c<d<e<f<g<h<i<j<k<l<m<n<o<p<q<r<s<t<u<v<w<x<y<z<A<B<C<B<D<E<F<G<H<I<J<K<L<M<N<O<z^P<Q<R<S<T<U<V<W<X<Y<Z<`< [.[-)",
"+[@[#[$[%[&[*[=[-[;[>[,['[)[![~[{[][^[/[([_[:[<[[[}[|[1[2[3[@=4[5[6[7[8[9[0[a[b[c[d[e[f[g[h[i[i/j[k[l[m[n[o[p[q[r[s[t[u[v[w[5<x[",
" -y[z[A[B[C[D[E[F[G[p^H[I[J[![K[L[M[N[O[P[E_Q[c#R[S[T[U[V[W[X[Y[Z[`[ }.}+}@}#}$}%}&}*}=}{]-};}>},}'})}!}~}{}]}^}/}(}_}:}<}[}2&}}",
"|}1}2}3}4}5}6}7}8}9}w'0}a}b}c}d}e}f}g}h}i}j}b~k}l}m}n}o}p}q}r}s}t}u}v}w}x}y}z}A}B}C}D}N/E}F}C/G}H}e$!_I}J}=^K}L}M}N}O}P}Q}[}R}S}",
"T}U}V}W}X}Y}Z}`}4* |.|+|@|#|$|%|&|*|=|-|F&;|>|,|'|)|!|~|{|]|^|/|(|=^_|:|<|[|}|||1|2|3|4|5|6|7|8|9|0|a|;({}j}b|c|d|e|f|g|h|i|j|r ",
"k|l|m|n|o|p|q|r|)[s|t|6*u|x{v|w|x|y|z|A|B|C|D|E|Z]F|G|H|I|J|K|L|M|N|O|P|Q|R|S|T|U|V|W|X|Y|Z|{^`| 1.1+1@1#1$1%1&1*1=1-1;1>1,1S}'1",
")1!1~1{1]1^1/1(1_1'%.=5(:1<1[1}1|111213141516171819101a1b1c1d1e1f1g1h1i1j1k1l1m1n1o1p1q1r1s1t1u1>>v1w1x1y1z1A1B1C1D1E1F1G1H1-)I1",
"J1K1L1M1N1O1P1z;Q1R1S15_T1<1U1V1W1X1Y1Z1`1 2.2+2@2d:E<#2$2%2&2*2=2-2;2>2,2'2)2!2~2{2]2^2/2u1(2H}</_2:2<2[2}2|212223242526272T$82",
"9202a2b2c2!;d2e2f2g2'%h2)>A=i2j2k2l2m2n2o2p2q2r2s2t2u2v2w2t_x2y2z2A2B2C2D2E2F2G2H2I2J2K2J#L2M2P%N2O2P2Q2R2S2T2$)U2V2W2X2Y2Z2`2 3",
".3+3@3#37($3%3&3*3=3-39,;3>3,3'3)3!3~3{3]3^3/3(3_3:3<3[3}3|313232:33435363T:73839303.|u2w^e$a3b3c3H>d3e3f3g3h3i3j3k3l3m3n3o3p3q3",
"r3s3t3u3v3w3x3y3z3A3B3C3D3E3F3G3H3I3J3K3L3M3N3O3P3Q3R3g$S3T3U3V3W3X3Y3Z3`3 4.4+4@4#4$4%4&4*4=4-4Q%;46_>4,4w2'4)4!4~4{4]4^4/4(4h ",
"_4:4<4[4}4|41424344454[)64748494O>04P{a4M3b4c4d4e4f481g4h4c~i4j4k4l4m4n4.{o4p4q4r4s4t4u4v4w4x4y4z4A4B4C4D4E4F4G4H4I4J4K4L4M4N4O4",
"P4Q4R4S4T4U4V4W4X4Y4L#x{c;Z4`4 5.5+5@5#5Z]$5Z:%5&5*5=581-5_~;5>5,5'5)5!5~5{5]5^5D'/5(5_5:5<5[5}5|515253545556575859505a5b5c5d5e5",
"f5g5h5i5j5k5l5-%9[E/m5n5o5p5q5r5s5t5u5v5w5x5y5z5A5B5C5D5E5`|F5G5H5I5J5K5L5M5N5O5P5Q5R5S5T5U5V5W5X5Y5Z5`5 6.6+6@6#6$6%6&6*6=6-6;6",
">6,6'6)6!6~6{6]6^6/6z,(6_6:6<6[6}6|6V)1626&,E<{-3646566676X/869606a6b6c6d6e6f6g6h6i6j6E3k6l6m6x'n6o6p6q6r6s6t6u6v6w6x6y6z6A6B6C6",
"D6E6F6G6!/H6I6J6K6L6M6N6O6P6Q6R6S6T6U6r)V6W6X6Y6O#Z6`6 7/|.7+7@781#7$7%7&7*7=7-7;7>7,7'7)7!7~7{7]7^7b]/7(7_7:7<7[7}7|71727C63747",
"576777879707a7b7c7d7e7`:f784g7h7i7j7k7l7m7=7n7o74(p7q7r7s7t7y=w^y,.^u7v7>7w7x7u)y7z7A7B7C7G[M2D7E7F7G7H7I7J7K7L7M7N7O7P7Q7R7S7T7",
"U7V7W7X7Y7Z7`7 8.8+8@8#8$8%8&8*8=8-8;8>8,8'8)8C7!8~8{8]8^8/87-(8_8:8+^D,<8[8)8}8|818f$2838485868788898%/08a8b8c8d8e8f8g8h8i8j8k8",
"l8m8n8o8p8q8r8s8t8u8v8w8x8y8z8A8B8C8w7D8E8F8G8H8T1r7I8J8K8L8M8N8H>O8 ^;#P8Q8R8S8T8U8V8W8X8Y85*.|Z8`8 9.9+9@9#9$9%9&9*9=9-9;9>9,9",
"'9)9!9~9{9]9^9/9(9_9:9<9[9}9|919293949q)59697989K!t799B_09a9b9c9d9S<j]e9f9g9h9i9j9k99}l9v)m95_E/r4K!x4n9o9p9q9r9s9t9u9v9w9x9y9z9",
"A9B9C9D9E9F9G9H9v~I9J9K9L9M9N9O9P9Q9R9S9T9U9V9W9X9D7Y9Z9`9 0.0+0e4@0.~#0$0%0H_&0*0=0Y8-0;0>0S1d<,0'051)0!0~0{0]0^0/0(0_0w9:0<0[0",
"}0|0102030405060K}70n=809000a0b0c0d0e0f0g0h0i0j0k0l0L_m0N~n0o0p0q0r0s0t0u0+~v0w0x0x0y0_*z0A0B0C0D0E0F0G0H0I0J0K0L0M0N0O0P0Q0R0R0",
"S0T0U0V0W0X0Y0Z0`0 a}{.a+a@a#a$a%a&a*a=a-a;a>a,a'a)a!a~a{a]a+(^a/a(a_a;}h=:a<a[aB(&4e#(*}a4!|a1a2a3a4a5a6a7a8a9a0aaabacadaeafaR0",
"gahaiajakalamanaoapaqarasatauavawaxa$_yazaAaBaCaDaEaFaGaHae,IaJaKaLaMaNaOaPaQaRaSaTa'-UaVaWaXaYaZa`a b.b+b@b#b$b%b&b*b=b-b;b>bR0",
",b'b)b!b~b{b]b^b/b(b_b:b<b[b}b0(|b1b2b3b4b5b6b7b$~8b9b0babbb9_cbdbebfbgbhbibjbkbRalbmbnbobpbqbrbsbF'tbubvbwbxbybzbAbBbCbDbiaEbFb"};
