/* XPM */
static char * portal_rot2_xpm[] = {
"64 64 3672 2",
"  	c #1B1038",
". 	c #1B0F36",
"+ 	c #190E33",
"@ 	c #1A1036",
"# 	c #120B29",
"$ 	c #130D26",
"% 	c #110C23",
"& 	c #0E0B21",
"* 	c #0A081F",
"= 	c #0B091E",
"- 	c #140C29",
"; 	c #0F0931",
"> 	c #200B51",
", 	c #501989",
"' 	c #471485",
") 	c #320C71",
"! 	c #2A1254",
"~ 	c #231443",
"{ 	c #2B184E",
"] 	c #331B5C",
"^ 	c #381A64",
"/ 	c #3C1969",
"( 	c #3C1867",
"_ 	c #42157B",
": 	c #46128F",
"< 	c #3C1080",
"[ 	c #2C115C",
"} 	c #221241",
"| 	c #201236",
"1 	c #180D2C",
"2 	c #14092E",
"3 	c #1A0845",
"4 	c #250A53",
"5 	c #631E79",
"6 	c #70217A",
"7 	c #5D1865",
"8 	c #732471",
"9 	c #7C2A74",
"0 	c #581D62",
"a 	c #250A38",
"b 	c #150B25",
"c 	c #1B0F31",
"d 	c #0C0825",
"e 	c #0A0825",
"f 	c #090725",
"g 	c #0A0822",
"h 	c #110D2D",
"i 	c #140F30",
"j 	c #151034",
"k 	c #110D2B",
"l 	c #100B27",
"m 	c #0E0B24",
"n 	c #0D0B23",
"o 	c #0A0922",
"p 	c #0A0925",
"q 	c #090823",
"r 	c #090820",
"s 	c #0C0A22",
"t 	c #0B0920",
"u 	c #100B23",
"v 	c #18102E",
"w 	c #150E2E",
"x 	c #180F30",
"y 	c #1A1133",
"z 	c #1C1039",
"A 	c #1B0F39",
"B 	c #1A0F36",
"C 	c #0B0A21",
"D 	c #100C23",
"E 	c #100C25",
"F 	c #09081E",
"G 	c #0B081E",
"H 	c #0D0829",
"I 	c #14093B",
"J 	c #270D59",
"K 	c #631F9D",
"L 	c #7122AC",
"M 	c #460594",
"N 	c #3D0D7C",
"O 	c #48177B",
"P 	c #3C1472",
"Q 	c #2F1462",
"R 	c #2F1467",
"S 	c #350F7E",
"T 	c #2D098A",
"U 	c #3A09A3",
"V 	c #3B0A99",
"W 	c #350A84",
"X 	c #2B0D6B",
"Y 	c #28105C",
"Z 	c #210F4A",
"` 	c #1C1134",
" .	c #150C2A",
"..	c #16083B",
"+.	c #1B084C",
"@.	c #401365",
"#.	c #3C1154",
"$.	c #2D0A39",
"%.	c #792A6D",
"&.	c #953681",
"*.	c #712567",
"=.	c #430E4F",
"-.	c #6C2176",
";.	c #591D6B",
">.	c #260F4B",
",.	c #251247",
"'.	c #2A1542",
").	c #2D173F",
"!.	c #2C163C",
"~.	c #221435",
"{.	c #211436",
"].	c #2E1A46",
"^.	c #32194F",
"/.	c #351856",
"(.	c #331854",
"_.	c #31164E",
":.	c #26133F",
"<.	c #160D2F",
"[.	c #201538",
"}.	c #120E29",
"|.	c #0B091F",
"1.	c #0A081E",
"2.	c #160F2D",
"3.	c #150D2D",
"4.	c #1D1237",
"5.	c #1F123A",
"6.	c #191031",
"7.	c #100C24",
"8.	c #0E0A22",
"9.	c #120D25",
"0.	c #110C26",
"a.	c #0F0B25",
"b.	c #0A0821",
"c.	c #0E0926",
"d.	c #140B32",
"e.	c #210E4A",
"f.	c #3C136E",
"g.	c #7123AB",
"h.	c #8D2BCB",
"i.	c #4901A3",
"j.	c #4800AC",
"k.	c #5F01CD",
"l.	c #41049E",
"m.	c #360788",
"n.	c #370885",
"o.	c #4705A2",
"p.	c #4902AE",
"q.	c #750CDE",
"r.	c #4708AF",
"s.	c #360991",
"t.	c #330A86",
"u.	c #2E0880",
"v.	c #32088E",
"w.	c #371569",
"x.	c #21133A",
"y.	c #140834",
"z.	c #1B0853",
"A.	c #36115D",
"B.	c #300E4A",
"C.	c #140427",
"D.	c #72306B",
"E.	c #813576",
"F.	c #401640",
"G.	c #230835",
"H.	c #451465",
"I.	c #381061",
"J.	c #210852",
"K.	c #1D0848",
"L.	c #190A37",
"M.	c #160B29",
"N.	c #1F0F38",
"O.	c #29104B",
"P.	c #2C124C",
"Q.	c #301353",
"R.	c #3D1569",
"S.	c #44157D",
"T.	c #381371",
"U.	c #280963",
"V.	c #1B084D",
"W.	c #281443",
"X.	c #1F1437",
"Y.	c #140F2A",
"Z.	c #07071B",
"`.	c #0A081C",
" +	c #0C0A21",
".+	c #140E29",
"++	c #19112F",
"@+	c #1A1132",
"#+	c #17102C",
"$+	c #1B112F",
"%+	c #0D0B20",
"&+	c #0A0920",
"*+	c #0C0921",
"=+	c #100C26",
"-+	c #0D0A23",
";+	c #100B26",
">+	c #170E34",
",+	c #1F0E42",
"'+	c #2C0E5C",
")+	c #461281",
"!+	c #7621B5",
"~+	c #8624CE",
"{+	c #4B01B1",
"]+	c #6505CA",
"^+	c #7E0DDA",
"/+	c #5F03C7",
"(+	c #5802BE",
"_+	c #4301A3",
":+	c #41019C",
"<+	c #5204B4",
"[+	c #6209CB",
"}+	c #680BDA",
"|+	c #5307C6",
"1+	c #4C0AB6",
"2+	c #4A05B4",
"3+	c #5503BA",
"4+	c #4A118C",
"5+	c #361C51",
"6+	c #160841",
"7+	c #1D0957",
"8+	c #3A1465",
"9+	c #340F4D",
"0+	c #0F042A",
"a+	c #7C3E7A",
"b+	c #823D7B",
"c+	c #1F092B",
"d+	c #2B0B44",
"e+	c #39115E",
"f+	c #210954",
"g+	c #180743",
"h+	c #150830",
"i+	c #1A0D2B",
"j+	c #201133",
"k+	c #231437",
"l+	c #1E1232",
"m+	c #1F1235",
"n+	c #1D1032",
"o+	c #170D2C",
"p+	c #120D2C",
"q+	c #1C0E43",
"r+	c #2D145E",
"s+	c #2C0E69",
"t+	c #391B50",
"u+	c #150E32",
"v+	c #1C1337",
"w+	c #130D27",
"x+	c #08081C",
"y+	c #09081C",
"z+	c #0C0A20",
"A+	c #17102B",
"B+	c #150F2A",
"C+	c #140D26",
"D+	c #0D0A20",
"E+	c #08081E",
"F+	c #0F0B23",
"G+	c #130E29",
"H+	c #0F0B24",
"I+	c #0F0A22",
"J+	c #19102F",
"K+	c #28144D",
"L+	c #2E145D",
"M+	c #330D72",
"N+	c #4C0F93",
"O+	c #6E18B5",
"P+	c #6B14BD",
"Q+	c #4B01BA",
"R+	c #6506D2",
"S+	c #6B08D4",
"T+	c #5703C3",
"U+	c #5101B6",
"V+	c #3A028E",
"W+	c #210265",
"X+	c #1A015D",
"Y+	c #360290",
"Z+	c #5004BE",
"`+	c #4902B7",
" @	c #4103A1",
".@	c #3C018D",
"+@	c #3B0284",
"@@	c #330B70",
"#@	c #3A1960",
"$@	c #240A5D",
"%@	c #230B60",
"&@	c #301356",
"*@	c #2A0F44",
"=@	c #2A143A",
"-@	c #673772",
";@	c #6A3671",
">@	c #13042B",
",@	c #2D0E48",
"'@	c #37135E",
")@	c #180848",
"!@	c #140735",
"~@	c #1D0F2F",
"{@	c #2B1448",
"]@	c #261251",
"^@	c #2F165D",
"/@	c #30165C",
"(@	c #3B1A66",
"_@	c #3C1B5D",
":@	c #371950",
"<@	c #2E163F",
"[@	c #211435",
"}@	c #1E1335",
"|@	c #21143A",
"1@	c #201138",
"2@	c #180E30",
"3@	c #0C0923",
"4@	c #080820",
"5@	c #110C24",
"6@	c #100C22",
"7@	c #120C26",
"8@	c #140E28",
"9@	c #0C081F",
"0@	c #130B24",
"a@	c #21143B",
"b@	c #361A64",
"c@	c #391578",
"d@	c #330E7E",
"e@	c #550EA1",
"f@	c #730CC1",
"g@	c #5905B2",
"h@	c #4201B5",
"i@	c #4201BF",
"j@	c #3901A3",
"k@	c #35018F",
"l@	c #36018F",
"m@	c #270173",
"n@	c #16024C",
"o@	c #130343",
"p@	c #210363",
"q@	c #2C027D",
"r@	c #270176",
"s@	c #230264",
"t@	c #350275",
"u@	c #4601A1",
"v@	c #3E059F",
"w@	c #381083",
"x@	c #2F0C72",
"y@	c #250D60",
"z@	c #271345",
"A@	c #200C39",
"B@	c #271242",
"C@	c #482667",
"D@	c #40215C",
"E@	c #15052E",
"F@	c #2C0F4C",
"G@	c #2F105E",
"H@	c #1F0859",
"I@	c #220F47",
"J@	c #37195B",
"K@	c #41148A",
"L@	c #39099C",
"M@	c #290C72",
"N@	c #2C1067",
"O@	c #3A1676",
"P@	c #451A79",
"Q@	c #4A1B7B",
"R@	c #471A76",
"S@	c #3B1A5D",
"T@	c #371958",
"U@	c #39195E",
"V@	c #38185D",
"W@	c #321853",
"X@	c #2D1448",
"Y@	c #1F1038",
"Z@	c #110B29",
"`@	c #120D28",
" #	c #0C0920",
".#	c #120D27",
"+#	c #08071C",
"@#	c #140F2E",
"##	c #140E2D",
"$#	c #09071D",
"%#	c #0B071B",
"&#	c #1C0F35",
"*#	c #39196D",
"=#	c #3C138F",
"-#	c #5314B4",
";#	c #9116D0",
">#	c #8207CC",
",#	c #5402AB",
"'#	c #4C03C2",
")#	c #5A06D6",
"!#	c #34028F",
"~#	c #210264",
"{#	c #38018B",
"]#	c #2F017C",
"^#	c #19024F",
"/#	c #10023A",
"(#	c #1D0256",
"_#	c #1D0255",
":#	c #2D026E",
"<#	c #3D0288",
"[#	c #46019F",
"}#	c #3D02AD",
"|#	c #37079C",
"1#	c #2F0977",
"2#	c #261055",
"3#	c #241342",
"4#	c #170832",
"5#	c #2B1356",
"6#	c #3C1E6E",
"7#	c #2D1455",
"8#	c #180734",
"9#	c #260F4A",
"0#	c #290D60",
"a#	c #280967",
"b#	c #381468",
"c#	c #451888",
"d#	c #4A07B9",
"e#	c #5005CF",
"f#	c #4F17A5",
"g#	c #4D1F83",
"h#	c #4B178C",
"i#	c #4A1194",
"j#	c #3D0F92",
"k#	c #340B8E",
"l#	c #371085",
"m#	c #381479",
"n#	c #3B1475",
"o#	c #40157A",
"p#	c #41147F",
"q#	c #35126D",
"r#	c #280D5B",
"s#	c #210E47",
"t#	c #201139",
"u#	c #1E1436",
"v#	c #110E28",
"w#	c #120D24",
"x#	c #0B0923",
"y#	c #130D2E",
"z#	c #140D2D",
"A#	c #07061B",
"B#	c #060518",
"C#	c #120A2C",
"D#	c #2B125E",
"E#	c #49149B",
"F#	c #8E1EDD",
"G#	c #A014D9",
"H#	c #6902B6",
"I#	c #480198",
"J#	c #4503AC",
"K#	c #4A05C2",
"L#	c #290180",
"M#	c #210258",
"N#	c #3B0282",
"O#	c #300174",
"P#	c #170242",
"Q#	c #14023E",
"R#	c #1B0251",
"S#	c #1A0150",
"T#	c #1C0253",
"U#	c #28026D",
"V#	c #37028D",
"W#	c #4902B3",
"X#	c #3F02B1",
"Y#	c #32029D",
"Z#	c #2B057F",
"`#	c #2A1457",
" $	c #291644",
".$	c #1D0E37",
"+$	c #301368",
"@$	c #3A1879",
"#$	c #260E53",
"$$	c #1F0E3A",
"%$	c #261347",
"&$	c #260B68",
"*$	c #340C80",
"=$	c #5911A5",
"-$	c #520AAE",
";$	c #4201B1",
">$	c #5302CC",
",$	c #570AC7",
"'$	c #5A14B3",
")$	c #6410B7",
"!$	c #6208C0",
"~$	c #4B03AE",
"{$	c #2D037D",
"]$	c #1E0459",
"^$	c #230760",
"/$	c #2C0970",
"($	c #300A7C",
"_$	c #3D0E8A",
":$	c #41148C",
"<$	c #401588",
"[$	c #35136F",
"}$	c #2F1849",
"|$	c #1B1234",
"1$	c #0F0B22",
"2$	c #120C2B",
"3$	c #100A28",
"4$	c #0E0922",
"5$	c #1B0F37",
"6$	c #2F1460",
"7$	c #55199E",
"8$	c #7D17CC",
"9$	c #7B07C1",
"0$	c #4A0195",
"a$	c #330273",
"b$	c #270178",
"c$	c #2F008C",
"d$	c #2A0270",
"e$	c #2A0261",
"f$	c #3A017A",
"g$	c #2F0272",
"h$	c #1B0248",
"i$	c #100232",
"j$	c #170244",
"k$	c #170243",
"l$	c #1E0258",
"m$	c #23036C",
"n$	c #24037E",
"o$	c #4103BA",
"p$	c #4503C2",
"q$	c #3602A8",
"r$	c #3503A5",
"s$	c #35117F",
"t$	c #311952",
"u$	c #330F7B",
"v$	c #391089",
"w$	c #230D4F",
"x$	c #2A1645",
"y$	c #271545",
"z$	c #450B9B",
"A$	c #6308C6",
"B$	c #7E0BDA",
"C$	c #6704D0",
"D$	c #4601B1",
"E$	c #6404D0",
"F$	c #7205DE",
"G$	c #7504D8",
"H$	c #6902C8",
"I$	c #5C01C1",
"J$	c #4201A3",
"K$	c #22016B",
"L$	c #18014F",
"M$	c #1E0257",
"N$	c #28036D",
"O$	c #29027C",
"P$	c #6A15B2",
"Q$	c #A939DD",
"R$	c #9935C9",
"S$	c #61228E",
"T$	c #3C1C52",
"U$	c #1A1136",
"V$	c #171030",
"W$	c #0E0A21",
"X$	c #140F2B",
"Y$	c #0B081F",
"Z$	c #120C27",
"`$	c #0F0A27",
" %	c #09071F",
".%	c #160E2D",
"+%	c #251444",
"@%	c #36146A",
"#%	c #5A14AC",
"$%	c #7D10D6",
"%%	c #7B04CD",
"&%	c #50029D",
"*%	c #320271",
"=%	c #2F026F",
"-%	c #330275",
";%	c #360275",
">%	c #33026E",
",%	c #310172",
"'%	c #240263",
")%	c #190246",
"!%	c #0A0225",
"~%	c #0F022F",
"{%	c #140239",
"]%	c #1F0257",
"^%	c #2D037E",
"/%	c #37039F",
"(%	c #4805B8",
"_%	c #4D05BE",
":%	c #3F03AB",
"<%	c #3E03B5",
"[%	c #3E07AC",
"}%	c #391864",
"|%	c #271448",
"1%	c #370899",
"2%	c #370A93",
"3%	c #22113E",
"4%	c #311B4E",
"5%	c #3B166B",
"6%	c #6507CD",
"7%	c #6E03DE",
"8%	c #8810E4",
"9%	c #770ADE",
"0%	c #5202C1",
"a%	c #4F01BC",
"b%	c #800EDC",
"c%	c #9A12E4",
"d%	c #7405CA",
"e%	c #5F01C2",
"f%	c #5402C6",
"g%	c #320191",
"h%	c #230268",
"i%	c #3A0287",
"j%	c #360187",
"k%	c #28017F",
"l%	c #3F06A0",
"m%	c #7415D4",
"n%	c #892BCA",
"o%	c #6C2B90",
"p%	c #3E1E56",
"q%	c #190F35",
"r%	c #130C28",
"s%	c #110B23",
"t%	c #09071B",
"u%	c #120C28",
"v%	c #0B0820",
"w%	c #060517",
"x%	c #09081F",
"y%	c #1D1235",
"z%	c #2D164F",
"A%	c #3A1372",
"B%	c #7615C6",
"C%	c #800EE2",
"D%	c #6E03D1",
"E%	c #5D02B9",
"F%	c #4A0294",
"G%	c #36036F",
"H%	c #2E035E",
"I%	c #300268",
"J%	c #2C0269",
"K%	c #210262",
"L%	c #190252",
"M%	c #110238",
"N%	c #0A0229",
"O%	c #0C022C",
"P%	c #120339",
"Q%	c #1A034D",
"R%	c #21025A",
"S%	c #24035E",
"T%	c #32037A",
"U%	c #43039B",
"V%	c #43039D",
"W%	c #4003A4",
"X%	c #4203B0",
"Y%	c #39088D",
"Z%	c #351074",
"`%	c #330494",
" &	c #320884",
".&	c #311457",
"+&	c #3A1470",
"@&	c #36039B",
"#&	c #3901A4",
"$&	c #5603CA",
"%&	c #790BE0",
"&&	c #7209DB",
"*&	c #5A01CE",
"=&	c #5001B3",
"-&	c #7608D0",
";&	c #B323E9",
">&	c #880DD9",
",&	c #6101C5",
"'&	c #6905DE",
")&	c #4F01C5",
"!&	c #3A0196",
"~&	c #4F02A7",
"{&	c #420198",
"]&	c #330291",
"^&	c #2F01A5",
"/&	c #7B12DA",
"(&	c #8A30B9",
"_&	c #652C81",
":&	c #381A55",
"<&	c #0E0925",
"[&	c #0D081E",
"}&	c #0D0921",
"|&	c #060516",
"1&	c #07061A",
"2&	c #271643",
"3&	c #36185D",
"4&	c #441285",
"5&	c #8F21D8",
"6&	c #8415DC",
"7&	c #5903C0",
"8&	c #6102CA",
"9&	c #5A03B3",
"0&	c #3A0378",
"a&	c #250355",
"b&	c #23025C",
"c&	c #1E026B",
"d&	c #1B025E",
"e&	c #140246",
"f&	c #12033F",
"g&	c #140347",
"h&	c #1B0353",
"i&	c #160345",
"j&	c #1C034E",
"k&	c #2F0374",
"l&	c #3C028C",
"m&	c #3F0393",
"n&	c #4303A3",
"o&	c #4E02C0",
"p&	c #4F02C3",
"q&	c #33038D",
"r&	c #24036C",
"s&	c #2B0767",
"t&	c #320B68",
"u&	c #29036F",
"v&	c #24017A",
"w&	c #280193",
"x&	c #3C02AC",
"y&	c #5401BF",
"z&	c #4B01B9",
"A&	c #3C01AA",
"B&	c #3A018C",
"C&	c #700CBD",
"D&	c #A523E3",
"E&	c #921AE4",
"F&	c #7913DC",
"G&	c #9622E5",
"H&	c #700FDB",
"I&	c #4800B8",
"J&	c #5902B4",
"K&	c #45019A",
"L&	c #4701AE",
"M&	c #6511CD",
"N&	c #B63CE8",
"O&	c #8F33B8",
"P&	c #542278",
"Q&	c #321657",
"R&	c #1E113C",
"S&	c #110C2B",
"T&	c #150E2F",
"U&	c #03030F",
"V&	c #341D55",
"W&	c #3D1869",
"X&	c #470D8D",
"Y&	c #720ED3",
"Z&	c #8D1ED9",
"`&	c #4803B2",
" *	c #5803D1",
".*	c #5202B2",
"+*	c #2E026F",
"@*	c #1D026C",
"#*	c #23027F",
"$*	c #210372",
"%*	c #1B035B",
"&*	c #1A0350",
"**	c #22035F",
"=*	c #2A036E",
"-*	c #250362",
";*	c #1F0353",
">*	c #210357",
",*	c #280362",
"'*	c #2F0371",
")*	c #360281",
"!*	c #3D029C",
"~*	c #4102AB",
"{*	c #4501B3",
"]*	c #3C029D",
"^*	c #27036D",
"/*	c #200356",
"(*	c #25025F",
"_*	c #270269",
":*	c #27027A",
"<*	c #21027C",
"[*	c #260283",
"}*	c #2F028A",
"|*	c #33029B",
"1*	c #3C02B0",
"2*	c #3D02A5",
"3*	c #4F05A4",
"4*	c #7B18C8",
"5*	c #8F24E3",
"6*	c #922EE6",
"7*	c #A33CE5",
"8*	c #8521DD",
"9*	c #5602CA",
"0*	c #5502B7",
"a*	c #380189",
"b*	c #45039F",
"c*	c #7611D8",
"d*	c #9825E3",
"e*	c #8826C2",
"f*	c #4E1A7F",
"g*	c #371762",
"h*	c #27144A",
"i*	c #140D2F",
"j*	c #0F0C26",
"k*	c #110C2A",
"l*	c #140D2E",
"m*	c #08061B",
"n*	c #0C081C",
"o*	c #060416",
"p*	c #130D2B",
"q*	c #251641",
"r*	c #3B1F5F",
"s*	c #3E1670",
"t*	c #4E0D98",
"u*	c #6807CB",
"v*	c #690EC9",
"w*	c #4803C5",
"x*	c #4502C6",
"y*	c #2F0183",
"z*	c #16024A",
"A*	c #10033A",
"B*	c #100346",
"C*	c #1B0267",
"D*	c #220275",
"E*	c #1E035F",
"F*	c #1C034A",
"G*	c #260455",
"H*	c #31036B",
"I*	c #310278",
"J*	c #2B036F",
"K*	c #280367",
"L*	c #2E036D",
"M*	c #360379",
"N*	c #30037A",
"O*	c #35028C",
"P*	c #37028F",
"Q*	c #3C0394",
"R*	c #4502A2",
"S*	c #360389",
"T*	c #240366",
"U*	c #220358",
"V*	c #210350",
"W*	c #1E0251",
"X*	c #1C025C",
"Y*	c #1E0271",
"Z*	c #220276",
"`*	c #2E028D",
" =	c #3E02BD",
".=	c #3802AC",
"+=	c #32028B",
"@=	c #4F09A8",
"#=	c #7A23D1",
"$=	c #8325DE",
"%=	c #881EE4",
"&=	c #801BE1",
"*=	c #5C04D1",
"==	c #5003BD",
"-=	c #390296",
";=	c #3401A2",
">=	c #4301C9",
",=	c #6D0DDC",
"'=	c #7919C9",
")=	c #51178C",
"!=	c #381572",
"~=	c #311860",
"{=	c #28164D",
"]=	c #060619",
"^=	c #09061A",
"/=	c #050415",
"(=	c #0F0A24",
"_=	c #261542",
":=	c #3A1C61",
"<=	c #491584",
"[=	c #640FB7",
"}=	c #6A09D2",
"|=	c #4E04C6",
"1=	c #3A02B2",
"2=	c #3301A9",
"3=	c #1F016C",
"4=	c #13024B",
"5=	c #16025B",
"6=	c #16035A",
"7=	c #170353",
"8=	c #1D0354",
"9=	c #1F034D",
"0=	c #230351",
"a=	c #2C035F",
"b=	c #33037B",
"c=	c #39029B",
"d=	c #3D03A4",
"e=	c #3C03A0",
"f=	c #380394",
"g=	c #32028D",
"h=	c #30028D",
"i=	c #3A0399",
"j=	c #4502A9",
"k=	c #4602A5",
"l=	c #3E0388",
"m=	c #360378",
"n=	c #36037C",
"o=	c #320379",
"p=	c #29036C",
"q=	c #1F0351",
"r=	c #1C0348",
"s=	c #1C0363",
"t=	c #200272",
"u=	c #1B025C",
"v=	c #25018D",
"w=	c #2D02A2",
"x=	c #2D0192",
"y=	c #39029C",
"z=	c #5606C2",
"A=	c #740FDD",
"B=	c #7A12E2",
"C=	c #5F05D4",
"D=	c #5102C4",
"E=	c #4E03B6",
"F=	c #4E03BB",
"G=	c #5703D2",
"H=	c #6F06DF",
"I=	c #8011D4",
"J=	c #6314AA",
"K=	c #3F1588",
"L=	c #3C1B72",
"M=	c #311A57",
"N=	c #1E1237",
"O=	c #08061A",
"P=	c #060519",
"Q=	c #080619",
"R=	c #0B081B",
"S=	c #150D29",
"T=	c #2C1B47",
"U=	c #401F71",
"V=	c #5A18A1",
"W=	c #6B12C3",
"X=	c #6A09D6",
"Y=	c #5506C9",
"Z=	c #2F019F",
"`=	c #2D0196",
" -	c #210277",
".-	c #130256",
"+-	c #14034A",
"@-	c #1B034C",
"#-	c #220353",
"$-	c #210351",
"%-	c #200359",
"&-	c #240373",
"*-	c #2F0297",
"=-	c #4A03C5",
"--	c #6009D5",
";-	c #5509C7",
">-	c #3A02AD",
",-	c #3C01B5",
"'-	c #4E04C2",
")-	c #5706C5",
"!-	c #5503C3",
"~-	c #5202BE",
"{-	c #4A03AA",
"]-	c #39037A",
"^-	c #300265",
"/-	c #370375",
"(-	c #340482",
"_-	c #1D025B",
":-	c #15023F",
"<-	c #17023F",
"[-	c #17034A",
"}-	c #1C026F",
"|-	c #15024E",
"1-	c #2B028C",
"2-	c #2A029B",
"3-	c #2A0294",
"4-	c #37029A",
"5-	c #5003C3",
"6-	c #3A02A8",
"7-	c #4103AE",
"8-	c #5506C3",
"9-	c #5A06CE",
"0-	c #6305D1",
"a-	c #7007D5",
"b-	c #870FE3",
"c-	c #910FE7",
"d-	c #9111E4",
"e-	c #950FE4",
"f-	c #7B16C8",
"g-	c #4E179B",
"h-	c #3D1A79",
"i-	c #2E1756",
"j-	c #1D1136",
"k-	c #0F0A25",
"l-	c #050414",
"m-	c #070518",
"n-	c #0B081D",
"o-	c #19122C",
"p-	c #180F2B",
"q-	c #37224D",
"r-	c #56288F",
"s-	c #6D1EBA",
"t-	c #8724D8",
"u-	c #871EE3",
"v-	c #630DD3",
"w-	c #3B01AB",
"x-	c #2F0296",
"y-	c #22027F",
"z-	c #140259",
"A-	c #0E023C",
"B-	c #14033C",
"C-	c #1F0350",
"D-	c #220355",
"E-	c #20035F",
"F-	c #260386",
"G-	c #280298",
"H-	c #3603AD",
"I-	c #5607CD",
"J-	c #6E11D1",
"K-	c #791BCC",
"L-	c #811DD0",
"M-	c #6D12C7",
"N-	c #6F12CC",
"O-	c #7310D1",
"P-	c #6D0CCD",
"Q-	c #6508C9",
"R-	c #5000C4",
"S-	c #4D01AD",
"T-	c #490288",
"U-	c #420375",
"V-	c #3C0382",
"W-	c #2C0283",
"X-	c #140244",
"Y-	c #16033D",
"Z-	c #150344",
"`-	c #170359",
" ;	c #180258",
".;	c #2C028E",
"+;	c #3103AD",
"@;	c #280292",
"#;	c #2F018D",
"$;	c #3901A6",
"%;	c #28018C",
"&;	c #2E028A",
"*;	c #4402AB",
"=;	c #4E07B2",
"-;	c #6307CB",
";;	c #7207CD",
">;	c #7A06DA",
",;	c #8E0FDE",
"';	c #9614E2",
");	c #9C0FE8",
"!;	c #9122D0",
"~;	c #4E1C90",
"{;	c #321669",
"];	c #160B39",
"^;	c #0C071F",
"/;	c #03030E",
"(;	c #060417",
"_;	c #040313",
":;	c #0D081F",
"<;	c #2D1D40",
"[;	c #602F99",
"};	c #7324C6",
"|;	c #9F41E3",
"1;	c #741FD0",
"2;	c #5803C6",
"3;	c #4802B6",
"4;	c #3602A0",
"5;	c #200273",
"6;	c #14024B",
"7;	c #190342",
"8;	c #210356",
"9;	c #1E0356",
"0;	c #210272",
"a;	c #2E0299",
"b;	c #3903AA",
"c;	c #4403B1",
"d;	c #4A05AE",
"e;	c #550BA5",
"f;	c #5F149F",
"g;	c #6316A0",
"h;	c #58119E",
"i;	c #580EA2",
"j;	c #7213B8",
"k;	c #8719CC",
"l;	c #9120D5",
"m;	c #8217D6",
"n;	c #6A08D1",
"o;	c #6803BF",
"p;	c #61039D",
"q;	c #4E038D",
"r;	c #40039A",
"s;	c #260380",
"t;	c #1A0353",
"u;	c #170349",
"v;	c #160252",
"w;	c #160353",
"x;	c #210373",
"y;	c #2F03A8",
"z;	c #2B039C",
"A;	c #26027C",
"B;	c #240179",
"C;	c #260186",
"D;	c #2E018D",
"E;	c #2F0287",
"F;	c #3B0399",
"G;	c #4703B1",
"H;	c #4602A9",
"I;	c #6302C5",
"J;	c #7805D1",
"K;	c #830ADB",
"L;	c #A51BE5",
"M;	c #9627C9",
"N;	c #3F1C79",
"O;	c #2E145C",
"P;	c #140D37",
"Q;	c #050417",
"R;	c #0E091F",
"S;	c #030312",
"T;	c #08061C",
"U;	c #2F1C4B",
"V;	c #5B2C90",
"W;	c #9037E1",
"X;	c #A848E5",
"Y;	c #7012C5",
"Z;	c #4F01B4",
"`;	c #5003BF",
" >	c #3B03AA",
".>	c #1E0267",
"+>	c #1E034B",
"@>	c #250357",
"#>	c #25035B",
"$>	c #1E0357",
"%>	c #210364",
"&>	c #280372",
"*>	c #4703A8",
"=>	c #3D0399",
"->	c #34038C",
";>	c #340383",
">>	c #2A026D",
",>	c #230165",
"'>	c #2C0471",
")>	c #2F0381",
"!>	c #550BA6",
"~>	c #7116B6",
"{>	c #942DBB",
"]>	c #AB35C9",
"^>	c #9724D5",
"/>	c #8611DA",
"(>	c #7705C3",
"_>	c #5A0395",
":>	c #430287",
"<>	c #30038B",
"[>	c #200370",
"}>	c #1B0254",
"|>	c #190258",
"1>	c #19025D",
"2>	c #240370",
"3>	c #3003A4",
"4>	c #2C03A5",
"5>	c #1F0373",
"6>	c #1E026C",
"7>	c #250183",
"8>	c #210273",
"9>	c #240378",
"0>	c #310394",
"a>	c #3C02A6",
"b>	c #3D01A8",
"c>	c #5203B9",
"d>	c #7103D1",
"e>	c #860EDA",
"f>	c #A621E4",
"g>	c #8D21C4",
"h>	c #3A196E",
"i>	c #2D135A",
"j>	c #1A0F3A",
"k>	c #080720",
"l>	c #050416",
"m>	c #0F0A21",
"n>	c #160D28",
"o>	c #301D47",
"p>	c #45256C",
"q>	c #6E31AB",
"r>	c #A951EA",
"s>	c #9B35E1",
"t>	c #9222DB",
"u>	c #5C03B9",
"v>	c #4A02B3",
"w>	c #37029D",
"x>	c #1D035D",
"y>	c #1E0354",
"z>	c #240357",
"A>	c #250358",
"B>	c #220359",
"C>	c #1F0354",
"D>	c #200355",
"E>	c #240365",
"F>	c #290372",
"G>	c #210368",
"H>	c #24037A",
"I>	c #300289",
"J>	c #2B037B",
"K>	c #200269",
"L>	c #270285",
"M>	c #3102A2",
"N>	c #3E02B7",
"O>	c #4501B8",
"P>	c #610AB0",
"Q>	c #871CB7",
"R>	c #8017BB",
"S>	c #8010D2",
"T>	c #7607D2",
"U>	c #5B03A6",
"V>	c #49027E",
"W>	c #350377",
"X>	c #21036B",
"Y>	c #190354",
"Z>	c #1A0257",
"`>	c #1C0265",
" ,	c #25036E",
".,	c #2F039F",
"+,	c #2B03A6",
"@,	c #1B0372",
"#,	c #1D0371",
"$,	c #220280",
"%,	c #25028A",
"&,	c #29038D",
"*,	c #2E038D",
"=,	c #32029B",
"-,	c #4001B2",
";,	c #6403C9",
">,	c #9417DD",
",,	c #A720E6",
"',	c #821AC2",
"),	c #3C1572",
"!,	c #30145D",
"~,	c #1D113C",
"{,	c #090821",
"],	c #221434",
"^,	c #3E2658",
"/,	c #582C8C",
"(,	c #8136C6",
"_,	c #A849E7",
":,	c #9C2FE1",
"<,	c #8E19DE",
"[,	c #6B09C6",
"},	c #4503AB",
"|,	c #33028E",
"1,	c #1D035B",
"2,	c #18034C",
"3,	c #20035C",
"4,	c #1F0356",
"5,	c #1B034A",
"6,	c #17034C",
"7,	c #1A0363",
"8,	c #180267",
"9,	c #1B026D",
"0,	c #23027E",
"a,	c #2D018D",
"b,	c #270288",
"c,	c #2B029C",
"d,	c #3402B3",
"e,	c #3803B6",
"f,	c #4003BD",
"g,	c #4903C3",
"h,	c #6210C4",
"i,	c #7E1BC3",
"j,	c #7E15B8",
"k,	c #6A08B8",
"l,	c #6A06D0",
"m,	c #5702BE",
"n,	c #570399",
"o,	c #44037F",
"p,	c #170355",
"q,	c #17024D",
"r,	c #1B0263",
"s,	c #1C025E",
"t,	c #2F0390",
"u,	c #3104B4",
"v,	c #1C0374",
"w,	c #140352",
"x,	c #180361",
"y,	c #220285",
"z,	c #2D03AA",
"A,	c #280299",
"B,	c #210274",
"C,	c #2D0190",
"D,	c #4000B9",
"E,	c #6808D2",
"F,	c #971CE1",
"G,	c #8E16DE",
"H,	c #670EB6",
"I,	c #43147F",
"J,	c #32155E",
"K,	c #211140",
"L,	c #0B0822",
"M,	c #0A071C",
"N,	c #2F1B42",
"O,	c #462B64",
"P,	c #612C9F",
"Q,	c #7722C9",
"R,	c #952ADE",
"S,	c #9024DC",
"T,	c #7B0ED7",
"U,	c #6B07CC",
"V,	c #4B03AB",
"W,	c #2E0282",
"X,	c #190355",
"Y,	c #14034C",
"Z,	c #1A035D",
"`,	c #1A0358",
" '	c #150348",
".'	c #180358",
"+'	c #1A0368",
"@'	c #1C0272",
"#'	c #21037B",
"$'	c #2D028A",
"%'	c #2F0289",
"&'	c #3F02BB",
"*'	c #4302C3",
"='	c #3D02B5",
"-'	c #4603B8",
";'	c #3E03AB",
">'	c #2E029E",
",'	c #4D0DB3",
"''	c #7217C6",
")'	c #5D06AE",
"!'	c #6003B6",
"~'	c #5502C5",
"{'	c #5A03B7",
"]'	c #510387",
"^'	c #250366",
"/'	c #150256",
"('	c #140249",
"_'	c #1C0262",
":'	c #180259",
"<'	c #2E037D",
"['	c #4509CD",
"}'	c #230580",
"|'	c #14034D",
"1'	c #16035C",
"2'	c #1C0379",
"3'	c #24029A",
"4'	c #21028D",
"5'	c #160258",
"6'	c #27017E",
"7'	c #3800AC",
"8'	c #5603C8",
"9'	c #790FDB",
"0'	c #6406CA",
"a'	c #4C0DA3",
"b'	c #461780",
"c'	c #3A1965",
"d'	c #21113E",
"e'	c #0C0823",
"f'	c #060415",
"g'	c #0A071E",
"h'	c #1E1333",
"i'	c #371F4B",
"j'	c #482A6D",
"k'	c #6424B1",
"l'	c #6311C1",
"m'	c #8420DC",
"n'	c #8921E0",
"o'	c #6A0CCD",
"p'	c #5203B4",
"q'	c #3A028F",
"r'	c #21026C",
"s'	c #170357",
"t'	c #18035B",
"u'	c #1A035A",
"v'	c #15034A",
"w'	c #11023C",
"x'	c #140349",
"y'	c #1C0367",
"z'	c #250384",
"A'	c #31038D",
"B'	c #4A03A9",
"C'	c #3F02A2",
"D'	c #4801BA",
"E'	c #4E02C7",
"F'	c #4F03C5",
"G'	c #5303C5",
"H'	c #4802B4",
"I'	c #3E02AF",
"J'	c #4304BF",
"K'	c #5C0FCE",
"L'	c #600DC0",
"M'	c #4F03A3",
"N'	c #5703B7",
"O'	c #5B03C3",
"P'	c #5A039F",
"Q'	c #3C0375",
"R'	c #160254",
"S'	c #1D0262",
"T'	c #1E025F",
"U'	c #340387",
"V'	c #4A09C8",
"W'	c #280690",
"X'	c #14034B",
"Y'	c #140357",
"Z'	c #170366",
"`'	c #1C027E",
" )	c #1A0276",
".)	c #140348",
"+)	c #1D025D",
"@)	c #2D0191",
"#)	c #5203C5",
"$)	c #5F03D1",
"%)	c #5C01C6",
"&)	c #4C0F99",
"*)	c #421776",
"=)	c #3F1D6B",
"-)	c #1F123D",
";)	c #1A122F",
">)	c #251739",
",)	c #351E50",
"')	c #4A2979",
"))	c #8536D0",
"!)	c #6911D2",
"~)	c #7914E2",
"{)	c #690CD6",
"])	c #4203A6",
"^)	c #31028A",
"/)	c #240175",
"()	c #1B0266",
"_)	c #1D036A",
":)	c #20036A",
"<)	c #1B0357",
"[)	c #13033C",
"})	c #100237",
"|)	c #15034C",
"1)	c #28037F",
"2)	c #3B02AB",
"3)	c #4002B2",
"4)	c #5A03BE",
"5)	c #6C03D0",
"6)	c #6904D3",
"7)	c #720BD8",
"8)	c #8013DF",
"9)	c #710DDB",
"0)	c #5E05D1",
"a)	c #5303BF",
"b)	c #400399",
"c)	c #270367",
"d)	c #2D0283",
"e)	c #4207AE",
"f)	c #570BC7",
"g)	c #5005B6",
"h)	c #5403A9",
"i)	c #6506C2",
"j)	c #5F03AF",
"k)	c #490387",
"l)	c #1D0361",
"m)	c #1E0361",
"n)	c #220262",
"o)	c #3A0393",
"p)	c #4405B7",
"q)	c #250489",
"r)	c #170358",
"s)	c #16035B",
"t)	c #170369",
"u)	c #18036F",
"v)	c #170365",
"w)	c #140248",
"x)	c #1C0257",
"y)	c #2F0282",
"z)	c #4C02BB",
"A)	c #5603C5",
"B)	c #6A05CC",
"C)	c #5611A2",
"D)	c #3D176D",
"E)	c #401D6C",
"F)	c #211442",
"G)	c #1A122E",
"H)	c #1E1432",
"I)	c #211438",
"J)	c #311B56",
"K)	c #5A2F8D",
"L)	c #9A49DA",
"M)	c #7B1AE3",
"N)	c #9A3AE5",
"O)	c #7625C8",
"P)	c #21007C",
"Q)	c #22036E",
"R)	c #210270",
"S)	c #1F026E",
"T)	c #2C0389",
"U)	c #18034A",
"V)	c #100234",
"W)	c #100235",
"X)	c #1B0255",
"Y)	c #330193",
"Z)	c #6506D4",
"`)	c #7305DD",
" !	c #8D09E0",
".!	c #8C09DE",
"+!	c #810DE0",
"@!	c #8D18E7",
"#!	c #8F18E7",
"$!	c #770BDE",
"%!	c #6D06D7",
"&!	c #4D03AF",
"*!	c #330387",
"=!	c #21035C",
"-!	c #1D0253",
";!	c #2A037E",
">!	c #4706B9",
",!	c #5004C4",
"'!	c #5703B2",
")!	c #7107C4",
"!!	c #6E04BB",
"~!	c #540397",
"{!	c #270372",
"]!	c #250365",
"^!	c #270265",
"/!	c #4203A1",
"(!	c #4303B6",
"_!	c #29038E",
":!	c #1D036D",
"<!	c #180365",
"[!	c #160363",
"}!	c #15035E",
"|!	c #140351",
"1!	c #150342",
"2!	c #2C0272",
"3!	c #4001A2",
"4!	c #5702BF",
"5!	c #6F08CF",
"6!	c #5E14AC",
"7!	c #401B72",
"8!	c #301759",
"9!	c #191039",
"0!	c #0D0A24",
"a!	c #0C091E",
"b!	c #140E26",
"c!	c #1A112E",
"d!	c #21133E",
"e!	c #2B1752",
"f!	c #603384",
"g!	c #9649CF",
"h!	c #9333E8",
"i!	c #A64FE0",
"j!	c #7522C5",
"k!	c #350193",
"l!	c #280373",
"m!	c #250372",
"n!	c #29037C",
"o!	c #330292",
"p!	c #2B0278",
"q!	c #120236",
"r!	c #140241",
"s!	c #2B027D",
"t!	c #4B01C2",
"u!	c #860EE4",
"v!	c #9B0FE5",
"w!	c #9A0AE2",
"x!	c #920ED7",
"y!	c #6E0CD0",
"z!	c #790BDF",
"A!	c #710CCB",
"B!	c #5A03C4",
"C!	c #6005BF",
"D!	c #4203A0",
"E!	c #3C01A8",
"F!	c #340290",
"G!	c #1C0351",
"H!	c #300389",
"I!	c #4203B6",
"J!	c #5B02BD",
"K!	c #850DCD",
"L!	c #8608C6",
"M!	c #6603A4",
"N!	c #3D0387",
"O!	c #2C0374",
"P!	c #280364",
"Q!	c #2C036C",
"R!	c #4A03AC",
"S!	c #4504BC",
"T!	c #2F039C",
"U!	c #1B036B",
"V!	c #160359",
"W!	c #140355",
"X!	c #1A0345",
"Y!	c #230354",
"Z!	c #280366",
"`!	c #3F0295",
" ~	c #6002C2",
".~	c #6C07CD",
"+~	c #651EB3",
"@~	c #4F2782",
"#~	c #321F55",
"$~	c #180F33",
"%~	c #0C0821",
"&~	c #080716",
"*~	c #100928",
"=~	c #1A1039",
"-~	c #642F8D",
";~	c #8B3BD0",
">~	c #8122DF",
",~	c #7111D0",
"'~	c #6508C3",
")~	c #5602B3",
"!~	c #3C038F",
"~~	c #2C0380",
"{~	c #2F0387",
"]~	c #2F0283",
"^~	c #230262",
"/~	c #1B0343",
"(~	c #290275",
"_~	c #4701B2",
":~	c #6D03DB",
"<~	c #8E0BE1",
"[~	c #8008D2",
"}~	c #7603CE",
"|~	c #6E05CC",
"1~	c #6507CE",
"2~	c #800FD7",
"3~	c #4503A8",
"4~	c #4202AB",
"5~	c #370394",
"6~	c #2E0287",
"7~	c #330196",
"8~	c #32029A",
"9~	c #2D0385",
"0~	c #210360",
"a~	c #1B034D",
"b~	c #3A039B",
"c~	c #4100B0",
"d~	c #7116B1",
"e~	c #9814CD",
"f~	c #370382",
"g~	c #210369",
"h~	c #220360",
"i~	c #260367",
"j~	c #4F03AF",
"k~	c #4805C1",
"l~	c #30039F",
"m~	c #220384",
"n~	c #1B036E",
"o~	c #13034E",
"p~	c #14034E",
"q~	c #150345",
"r~	c #1B0345",
"s~	c #21034B",
"t~	c #220354",
"u~	c #3E038D",
"v~	c #5C02C0",
"w~	c #6507C7",
"x~	c #6B2DB2",
"y~	c #593083",
"z~	c #321F4A",
"A~	c #190F30",
"B~	c #130C26",
"C~	c #110A2F",
"D~	c #1B113C",
"E~	c #431B74",
"F~	c #7323C2",
"G~	c #7A1FD9",
"H~	c #610ACE",
"I~	c #5603BF",
"J~	c #5B03B9",
"K~	c #38028C",
"L~	c #32028A",
"M~	c #2B0370",
"N~	c #26035C",
"O~	c #250356",
"P~	c #330379",
"Q~	c #4702A8",
"R~	c #5B02CA",
"S~	c #7703D9",
"T~	c #7804CD",
"U~	c #6003BC",
"V~	c #6903CB",
"W~	c #7A0EDC",
"X~	c #8515DE",
"Y~	c #6D0DC4",
"Z~	c #3B01A9",
"`~	c #3E03A8",
" {	c #2F0291",
".{	c #2A0286",
"+{	c #190157",
"@{	c #18024C",
"#{	c #21026D",
"${	c #1A024D",
"%{	c #2F0379",
"&{	c #350395",
"*{	c #4A0B88",
"={	c #8E16C8",
"-{	c #560297",
";{	c #2E027B",
">{	c #240362",
",{	c #250165",
"'{	c #6308B8",
"){	c #5B07D2",
"!{	c #3303A3",
"~{	c #250383",
"{{	c #180362",
"]{	c #120349",
"^{	c #16033B",
"/{	c #20034A",
"({	c #28035B",
"_{	c #3F0294",
":{	c #5101BB",
"<{	c #6B12CE",
"[{	c #6931A6",
"}{	c #3E2160",
"|{	c #160E2F",
"1{	c #0F0925",
"2{	c #0D0821",
"3{	c #0E0A20",
"4{	c #140D35",
"5{	c #271651",
"6{	c #7223B8",
"7{	c #7B17DA",
"8{	c #6309C8",
"9{	c #5704C0",
"0{	c #5703BB",
"a{	c #5A03B6",
"b{	c #47039E",
"c{	c #31028D",
"d{	c #370195",
"e{	c #350284",
"f{	c #290363",
"g{	c #270359",
"h{	c #27035E",
"i{	c #410295",
"j{	c #5702BD",
"k{	c #6503CC",
"l{	c #7804CF",
"m{	c #6A03C0",
"n{	c #6704C1",
"o{	c #8411DB",
"p{	c #8D1AE2",
"q{	c #7818CC",
"r{	c #4205AA",
"s{	c #340295",
"t{	c #320382",
"u{	c #280276",
"v{	c #20026F",
"w{	c #120244",
"x{	c #190257",
"y{	c #1B0261",
"z{	c #170251",
"A{	c #330382",
"B{	c #4A0697",
"C{	c #720FBC",
"D{	c #55049B",
"E{	c #29017C",
"F{	c #2B0273",
"G{	c #2A0369",
"H{	c #370378",
"I{	c #6307BA",
"J{	c #5E07D0",
"K{	c #3A04A8",
"L{	c #150455",
"M{	c #18033E",
"N{	c #17033B",
"O{	c #250354",
"P{	c #2A0362",
"Q{	c #350288",
"R{	c #4001A5",
"S{	c #6814CA",
"T{	c #5B259B",
"U{	c #391F61",
"V{	c #2C194E",
"W{	c #110B2F",
"X{	c #0D0925",
"Y{	c #0C091F",
"Z{	c #1A113E",
"`{	c #55278E",
" ]	c #761CDC",
".]	c #7109D9",
"+]	c #4702AA",
"@]	c #4E03B3",
"#]	c #5303B3",
"$]	c #47039D",
"%]	c #3E029F",
"&]	c #3E019E",
"*]	c #3A028B",
"=]	c #290361",
"-]	c #21034C",
";]	c #1F024D",
">]	c #2D0272",
",]	c #3D0196",
"']	c #5C03BE",
")]	c #7404D3",
"!]	c #7904D1",
"~]	c #5E02BF",
"{]	c #7B0DD2",
"]]	c #8D16E4",
"^]	c #7410D6",
"/]	c #4903B2",
"(]	c #340374",
"_]	c #260263",
":]	c #28037E",
"<]	c #2A028D",
"[]	c #2A0394",
"}]	c #27028C",
"|]	c #1D0269",
"1]	c #18025A",
"2]	c #140153",
"3]	c #1F0355",
"4]	c #37037C",
"5]	c #4B06A5",
"6]	c #620BB9",
"7]	c #51069E",
"8]	c #28017C",
"9]	c #2F0378",
"0]	c #2E036E",
"a]	c #41038A",
"b]	c #5C04BC",
"c]	c #5405C3",
"d]	c #3C04A5",
"e]	c #1F036D",
"f]	c #1A0365",
"g]	c #18045B",
"h]	c #1A0343",
"i]	c #1D0345",
"j]	c #2F0281",
"k]	c #4D08AE",
"l]	c #641EAF",
"m]	c #492876",
"n]	c #311D56",
"o]	c #0F0A2C",
"p]	c #100B29",
"q]	c #0E0A23",
"r]	c #170F32",
"s]	c #3C1D65",
"t]	c #7131B6",
"u]	c #7216DD",
"v]	c #7A0BDD",
"w]	c #6009BB",
"x]	c #4302A2",
"y]	c #3B0197",
"z]	c #430295",
"A]	c #300369",
"B]	c #20034B",
"C]	c #18023D",
"D]	c #1E0157",
"E]	c #3C019B",
"F]	c #7407D2",
"G]	c #8A08E1",
"H]	c #6803CB",
"I]	c #5D02CA",
"J]	c #810EE3",
"K]	c #750BE2",
"L]	c #4F03BD",
"M]	c #3C0299",
"N]	c #380375",
"O]	c #240257",
"P]	c #210184",
"Q]	c #3003A1",
"R]	c #210269",
"S]	c #180255",
"T]	c #150350",
"U]	c #14024F",
"V]	c #3B0480",
"W]	c #4A05AF",
"X]	c #5C08C3",
"Y]	c #45039B",
"Z]	c #370380",
"`]	c #5603A7",
" ^	c #6505CC",
".^	c #5105C3",
"+^	c #38039D",
"@^	c #200372",
"#^	c #190363",
"$^	c #180357",
"%^	c #170346",
"&^	c #1D0347",
"*^	c #25035F",
"=^	c #2A0273",
"-^	c #2C0181",
";^	c #33028D",
">^	c #5C0FB5",
",^	c #6E21B9",
"'^	c #482774",
")^	c #301B52",
"!^	c #100B2B",
"~^	c #0E0A25",
"{^	c #110C28",
"]^	c #1E123B",
"^^	c #4A2277",
"/^	c #722AC0",
"(^	c #7A15E1",
"_^	c #7E11DD",
":^	c #6B0DCB",
"<^	c #4801B3",
"[^	c #3A029B",
"}^	c #3B0296",
"|^	c #370183",
"1^	c #330370",
"2^	c #230353",
"3^	c #190247",
"4^	c #3C029A",
"5^	c #5203BE",
"6^	c #7C09DF",
"7^	c #6705CB",
"8^	c #5701C5",
"9^	c #7608DE",
"0^	c #8010E0",
"a^	c #5402CD",
"b^	c #3C029C",
"c^	c #35027A",
"d^	c #200248",
"e^	c #140154",
"f^	c #2902A8",
"g^	c #2D0391",
"h^	c #180349",
"i^	c #0F0134",
"j^	c #0C0130",
"k^	c #0F0139",
"l^	c #12023F",
"m^	c #1A034F",
"n^	c #2D0378",
"o^	c #4A04B9",
"p^	c #4E04B6",
"q^	c #310188",
"r^	c #3D028A",
"s^	c #3D0380",
"t^	c #390283",
"u^	c #5C04BA",
"v^	c #6908D6",
"w^	c #4F06C3",
"x^	c #34039E",
"y^	c #210378",
"z^	c #1A0462",
"A^	c #180354",
"B^	c #1C0346",
"C^	c #26035B",
"D^	c #2B036B",
"E^	c #2F037B",
"F^	c #3A0297",
"G^	c #5006B0",
"H^	c #7C21CC",
"I^	c #732AB5",
"J^	c #43266F",
"K^	c #2E1A4D",
"L^	c #130C2F",
"M^	c #0D0924",
"N^	c #130D2C",
"O^	c #221441",
"P^	c #50277D",
"Q^	c #7F2CC7",
"R^	c #972AE5",
"S^	c #801ED5",
"T^	c #5706C3",
"U^	c #4501B0",
"V^	c #36028E",
"W^	c #31027D",
"X^	c #2E026D",
"Y^	c #240358",
"Z^	c #26035E",
"`^	c #220364",
" /	c #2D0383",
"./	c #3D02A6",
"+/	c #5703CC",
"@/	c #6A06DB",
"#/	c #5A02CF",
"$/	c #7508DE",
"%/	c #9214E2",
"&/	c #7510CE",
"*/	c #3B0292",
"=/	c #350375",
"-/	c #1D025A",
";/	c #1A0174",
">/	c #2D039B",
",/	c #100231",
"'/	c #090125",
")/	c #07011F",
"!/	c #080124",
"~/	c #0F0135",
"{/	c #10013A",
"]/	c #1D0250",
"^/	c #27007C",
"//	c #4D08BD",
"(/	c #36038A",
"_/	c #240174",
":/	c #49028C",
"</	c #3D0280",
"[/	c #46029D",
"}/	c #6C05D1",
"|/	c #6E0CDC",
"1/	c #4503BC",
"2/	c #3403A8",
"3/	c #220382",
"4/	c #18035E",
"5/	c #160343",
"6/	c #180340",
"7/	c #2D0372",
"8/	c #5E03BC",
"9/	c #780FD4",
"0/	c #8F2BDB",
"a/	c #6E2EA9",
"b/	c #402469",
"c/	c #2C1A4A",
"d/	c #150E33",
"e/	c #0B0823",
"f/	c #140E2E",
"g/	c #21143F",
"h/	c #51297E",
"i/	c #963BD1",
"j/	c #B446E8",
"k/	c #7F28D1",
"l/	c #4302B0",
"m/	c #3C019E",
"n/	c #310280",
"o/	c #2F0372",
"p/	c #210354",
"q/	c #290266",
"r/	c #2B026F",
"s/	c #2B027A",
"t/	c #3C02A9",
"u/	c #5003C5",
"v/	c #5803CC",
"w/	c #5501CD",
"x/	c #7306E1",
"y/	c #820CDF",
"z/	c #6007B9",
"A/	c #340193",
"B/	c #3E0292",
"C/	c #330279",
"D/	c #1E017B",
"E/	c #21018F",
"F/	c #28027E",
"G/	c #1A0247",
"H/	c #0A012A",
"I/	c #05011C",
"J/	c #030114",
"K/	c #06011B",
"L/	c #0C012D",
"M/	c #110239",
"N/	c #1D0259",
"O/	c #3B029C",
"P/	c #5606BE",
"Q/	c #28036E",
"R/	c #320278",
"S/	c #490386",
"T/	c #440192",
"U/	c #5403B0",
"V/	c #8009E1",
"W/	c #6309D9",
"X/	c #3802BA",
"Y/	c #3503B6",
"Z/	c #23038C",
"`/	c #13034C",
" (	c #140340",
".(	c #150340",
"+(	c #1A0342",
"@(	c #4E03A8",
"#(	c #7E0ADC",
"$(	c #9C28E6",
"%(	c #8D25DA",
"&(	c #5D2C93",
"*(	c #3C2261",
"=(	c #2E1B4C",
"-(	c #1C1238",
";(	c #0F0B27",
">(	c #130E2E",
",(	c #2A1847",
"'(	c #4E2975",
")(	c #8F34D1",
"!(	c #BD52E9",
"~(	c #7D23D7",
"{(	c #4203A8",
"](	c #3B0298",
"^(	c #32027D",
"/(	c #2F036C",
"((	c #22025A",
"_(	c #2D027A",
":(	c #2A0374",
"<(	c #340297",
"[(	c #4002B6",
"}(	c #4101B6",
"|(	c #4001B4",
"1(	c #3F00BA",
"2(	c #6506D5",
"3(	c #770ADC",
"4(	c #5204A8",
"5(	c #38018E",
"6(	c #3B018B",
"7(	c #260170",
"8(	c #240294",
"9(	c #2D0396",
"0(	c #240265",
"a(	c #14023A",
"b(	c #0B012A",
"c(	c #040119",
"d(	c #02010F",
"e(	c #05011B",
"f(	c #12013A",
"g(	c #22016C",
"h(	c #3E02A5",
"i(	c #4603A3",
"j(	c #29026B",
"k(	c #3E027E",
"l(	c #4D028F",
"m(	c #5603A9",
"n(	c #760DCC",
"o(	c #8D14E6",
"p(	c #5A08DA",
"q(	c #3C03C4",
"r(	c #3003AD",
"s(	c #20037D",
"t(	c #150341",
"u(	c #180341",
"v(	c #200350",
"w(	c #290370",
"x(	c #31037D",
"y(	c #4D03AD",
"z(	c #6408C6",
"A(	c #9D2AE9",
"B(	c #8F32C9",
"C(	c #4E2A78",
"D(	c #2C1851",
"E(	c #27183C",
"F(	c #17102E",
"G(	c #160F30",
"H(	c #351F52",
"I(	c #5B2E85",
"J(	c #8021D8",
"K(	c #9F34E9",
"L(	c #7D12DD",
"M(	c #4F01B9",
"N(	c #450398",
"O(	c #420291",
"P(	c #330372",
"Q(	c #1E0350",
"R(	c #230265",
"S(	c #30018C",
"T(	c #2F0280",
"U(	c #210365",
"V(	c #3601A8",
"W(	c #4703C5",
"X(	c #3D02AF",
"Y(	c #3B01AC",
"Z(	c #3100A4",
"`(	c #5E04CF",
" _	c #6107C9",
"._	c #3A038C",
"+_	c #350286",
"@_	c #2D0176",
"#_	c #180166",
"$_	c #250285",
"%_	c #330282",
"&_	c #240259",
"*_	c #0F0230",
"=_	c #08011F",
"-_	c #050119",
";_	c #080223",
">_	c #0E0232",
",_	c #150147",
"'_	c #28027D",
")_	c #330293",
"!_	c #310283",
"~_	c #2C026E",
"{_	c #3F0284",
"]_	c #4D029E",
"^_	c #720AC0",
"/_	c #8E15D9",
"(_	c #7D14DE",
"__	c #4F08D7",
":_	c #3D03C3",
"<_	c #2B039A",
"[_	c #1D0369",
"}_	c #1C0349",
"|_	c #230360",
"1_	c #2B0277",
"2_	c #2D0277",
"3_	c #320282",
"4_	c #5606B8",
"5_	c #8A20E1",
"6_	c #8836B5",
"7_	c #331D56",
"8_	c #24134A",
"9_	c #1D1332",
"0_	c #19112D",
"a_	c #1F1337",
"b_	c #41235F",
"c_	c #6E2FA2",
"d_	c #861EE0",
"e_	c #7A11E1",
"f_	c #8317DC",
"g_	c #7D12D3",
"h_	c #6A06BD",
"i_	c #470394",
"j_	c #2F0366",
"k_	c #1A024E",
"l_	c #250172",
"m_	c #2F0184",
"n_	c #1A0162",
"o_	c #3301AE",
"p_	c #4602C8",
"q_	c #3C02AE",
"r_	c #3D01B5",
"s_	c #5202CC",
"t_	c #3F029F",
"u_	c #210168",
"v_	c #330283",
"w_	c #21016B",
"x_	c #100156",
"y_	c #290378",
"z_	c #39027B",
"A_	c #250258",
"B_	c #1D024F",
"C_	c #14023D",
"D_	c #0D012D",
"E_	c #0B012B",
"F_	c #0D0230",
"G_	c #140243",
"H_	c #21016D",
"I_	c #36029B",
"J_	c #360390",
"K_	c #2E0272",
"L_	c #340280",
"M_	c #4A02A5",
"N_	c #5E02BA",
"O_	c #9714D6",
"P_	c #8513D9",
"Q_	c #570AD6",
"R_	c #4405D1",
"S_	c #3603AE",
"T_	c #21027A",
"U_	c #1B0358",
"V_	c #200353",
"W_	c #210353",
"X_	c #210359",
"Y_	c #220365",
"Z_	c #220362",
"`_	c #1E0355",
" :	c #23026E",
".:	c #8016DC",
"+:	c #7D21B9",
"@:	c #2F1551",
"#:	c #1A0F3B",
"$:	c #130C23",
"%:	c #120C23",
"&:	c #25163E",
"*:	c #4D2671",
"=:	c #8C3CB7",
"-:	c #9E38E2",
";:	c #8216E1",
">:	c #8F21DE",
",:	c #8D1DD8",
"':	c #6505B8",
"):	c #2A026C",
"!:	c #190344",
"~:	c #280274",
"{:	c #2B026D",
"]:	c #1C025B",
"^:	c #210180",
"/:	c #3001AA",
"(:	c #3901B4",
"_:	c #3201A4",
"::	c #3801B2",
"<:	c #3C01B6",
"[:	c #4F02C2",
"}:	c #2A0179",
"|:	c #200163",
"1:	c #310284",
"2:	c #13015F",
"3:	c #26027B",
"4:	c #3A037B",
"5:	c #220260",
"6:	c #210255",
"7:	c #0F0232",
"8:	c #100236",
"9:	c #170249",
"0:	c #1E0261",
"a:	c #35019B",
"b:	c #4803AD",
"c:	c #390382",
"d:	c #2A026B",
"e:	c #4702A9",
"f:	c #5701C3",
"g:	c #7503CE",
"h:	c #A417E0",
"i:	c #720DDB",
"j:	c #4C06DC",
"k:	c #4103C5",
"l:	c #29028C",
"m:	c #19025C",
"n:	c #1E0351",
"o:	c #2A036A",
"p:	c #240364",
"q:	c #250367",
"r:	c #26036D",
"s:	c #370297",
"t:	c #791FCA",
"u:	c #9522E5",
"v:	c #811EC9",
"w:	c #481977",
"x:	c #1B113D",
"y:	c #140C2F",
"z:	c #0B081C",
"A:	c #2B1945",
"B:	c #56257F",
"C:	c #9139C7",
"D:	c #9831E1",
"E:	c #8C1CE3",
"F:	c #841DD9",
"G:	c #6513BE",
"H:	c #3D0299",
"I:	c #260363",
"J:	c #1E025E",
"K:	c #2A0370",
"L:	c #2A0268",
"M:	c #2E01A1",
"N:	c #3A02B7",
"O:	c #3501AC",
"P:	c #2C019B",
"Q:	c #3301AA",
"R:	c #4201BB",
"S:	c #4902B1",
"T:	c #25016D",
"U:	c #280279",
"V:	c #24027F",
"W:	c #1C017D",
"X:	c #2B0293",
"Y:	c #340279",
"Z:	c #29025C",
"`:	c #220160",
" <	c #340379",
".<	c #1A034C",
"+<	c #210260",
"@<	c #4203A2",
"#<	c #3D0386",
"$<	c #29026C",
"%<	c #2F0187",
"&<	c #4A02B8",
"*<	c #5300C4",
"=<	c #8C0CD8",
"-<	c #9D21E4",
";<	c #4C05D4",
"><	c #4303D1",
",<	c #3A03AE",
"'<	c #20026E",
")<	c #1F0357",
"!<	c #31036D",
"~<	c #260359",
"{<	c #2F0376",
"]<	c #5D07C4",
"^<	c #A939E2",
"/<	c #9D2CE9",
"(<	c #741CD1",
"_<	c #4A2086",
":<	c #321C4C",
"<<	c #572187",
"[<	c #6F1CBF",
"}<	c #801FD9",
"|<	c #8819E3",
"1<	c #6E0FCC",
"2<	c #44039C",
"3<	c #280272",
"4<	c #18024A",
"5<	c #15024A",
"6<	c #200261",
"7<	c #290269",
"8<	c #260282",
"9<	c #3B03B4",
"0<	c #4103BE",
"a<	c #3602AF",
"b<	c #2B029E",
"c<	c #3102A1",
"d<	c #4402B2",
"e<	c #4102A0",
"f<	c #230266",
"g<	c #210176",
"h<	c #200180",
"i<	c #27029B",
"j<	c #3203AC",
"k<	c #3A0288",
"l<	c #320267",
"m<	c #1D0251",
"n<	c #3A0380",
"o<	c #45028D",
"p<	c #310373",
"q<	c #36037E",
"r<	c #38037C",
"s<	c #1F0259",
"t<	c #250173",
"u<	c #340198",
"v<	c #4602AF",
"w<	c #6B06CB",
"x<	c #9013E0",
"y<	c #630ED6",
"z<	c #3701C4",
"A<	c #3B03B5",
"B<	c #2C028B",
"C<	c #2D026C",
"D<	c #3B0194",
"E<	c #2F0373",
"F<	c #2C0359",
"G<	c #24034A",
"H<	c #410398",
"I<	c #5601C3",
"J<	c #7F0AE0",
"K<	c #A62DE8",
"L<	c #8A1AE8",
"M<	c #631BCC",
"N<	c #57308B",
"O<	c #26154A",
"P<	c #3D1F57",
"Q<	c #571F91",
"R<	c #4F1B9F",
"S<	c #590EC4",
"T<	c #700ED9",
"U<	c #5708B8",
"V<	c #350285",
"W<	c #180348",
"X<	c #290365",
"Y<	c #24026A",
"Z<	c #230280",
"`<	c #2F019B",
" [	c #3402A3",
".[	c #3703BA",
"+[	c #2E03A8",
"@[	c #3402A4",
"#[	c #4603B5",
"$[	c #390291",
"%[	c #210261",
"&[	c #200264",
"*[	c #21017B",
"=[	c #220089",
"-[	c #3102AF",
";[	c #4304C4",
">[	c #390278",
",[	c #1B024C",
"'[	c #390275",
")[	c #44028B",
"![	c #2F036D",
"~[	c #2C0267",
"{[	c #21025C",
"][	c #1D0261",
"^[	c #29027F",
"/[	c #3D019F",
"([	c #6605C2",
"_[	c #8109DD",
":[	c #7208DD",
"<[	c #4002C5",
"[[	c #3B02B6",
"}[	c #2F0298",
"|[	c #250273",
"1[	c #2D0279",
"2[	c #2A017B",
"3[	c #23034D",
"4[	c #210346",
"5[	c #210349",
"6[	c #2D0368",
"7[	c #5A02B6",
"8[	c #8B0AE2",
"9[	c #8E15E6",
"0[	c #8414E7",
"a[	c #5E20C5",
"b[	c #61378E",
"c[	c #201244",
"d[	c #150E2D",
"e[	c #482069",
"f[	c #501B90",
"g[	c #39118D",
"h[	c #4304BA",
"i[	c #4F03C2",
"j[	c #4602AC",
"k[	c #330184",
"l[	c #1F0359",
"m[	c #1A034B",
"n[	c #210362",
"o[	c #26035F",
"p[	c #1F0174",
"q[	c #34019E",
"r[	c #3B04CC",
"s[	c #3403B5",
"t[	c #3B02A6",
"u[	c #38028D",
"v[	c #22025F",
"w[	c #1C016C",
"x[	c #260089",
"y[	c #3201B8",
"z[	c #4703D2",
"A[	c #5703BE",
"B[	c #42028D",
"C[	c #270258",
"D[	c #320266",
"E[	c #210257",
"F[	c #1F025F",
"G[	c #22026A",
"H[	c #2A0180",
"I[	c #5904B3",
"J[	c #860ED9",
"K[	c #800BE3",
"L[	c #5904D7",
"M[	c #4403C3",
"N[	c #34028D",
"O[	c #2D0374",
"P[	c #2B0379",
"Q[	c #200357",
"R[	c #19033C",
"S[	c #1B0340",
"T[	c #2E036A",
"U[	c #5203A4",
"V[	c #6304BE",
"W[	c #5D05C3",
"X[	c #7E12DF",
"Y[	c #8418E4",
"Z[	c #5F22BE",
"`[	c #533074",
" }	c #241447",
".}	c #150E2C",
"+}	c #4F1F7B",
"@}	c #4A168D",
"#}	c #2D0885",
"$}	c #3302A4",
"%}	c #3F01B2",
"&}	c #4401A9",
"*}	c #3B0190",
"=}	c #270267",
"-}	c #1B034B",
";}	c #24035C",
">}	c #21017C",
",}	c #3702AA",
"'}	c #30039E",
")}	c #3803C6",
"!}	c #3B04C4",
"~}	c #1E0172",
"{}	c #3E02AD",
"]}	c #44029F",
"^}	c #24035D",
"/}	c #21035E",
"(}	c #1B0162",
"_}	c #22017C",
":}	c #3701C1",
"<}	c #5206D9",
"[}	c #6506CE",
"}}	c #4F029C",
"|}	c #2F0277",
"1}	c #270260",
"2}	c #3F0273",
"3}	c #36036A",
"4}	c #3C0278",
"5}	c #350279",
"6}	c #2F0279",
"7}	c #3C0292",
"8}	c #5301B3",
"9}	c #7608CE",
"0}	c #8B12E1",
"a}	c #7710E3",
"b}	c #610BDE",
"c}	c #4F05CA",
"d}	c #4802AA",
"e}	c #46028E",
"f}	c #370274",
"g}	c #15023C",
"h}	c #16023C",
"i}	c #350380",
"j}	c #5603C3",
"k}	c #730DDF",
"l}	c #7C17E1",
"m}	c #6528B4",
"n}	c #4D2D6D",
"o}	c #261648",
"p}	c #120D2B",
"q}	c #0A0921",
"r}	c #56208A",
"s}	c #501895",
"t}	c #2A067A",
"u}	c #2B018E",
"v}	c #3A01A8",
"w}	c #4302AA",
"x}	c #42039A",
"y}	c #2A0364",
"z}	c #1B0249",
"A}	c #230358",
"B}	c #1D0353",
"C}	c #1D0367",
"D}	c #2C0393",
"E}	c #3A03B2",
"F}	c #3203A4",
"G}	c #2F02AC",
"H}	c #3503B8",
"I}	c #3E02AA",
"J}	c #4402A0",
"K}	c #23035E",
"L}	c #1D0164",
"M}	c #200172",
"N}	c #3C01BA",
"O}	c #5005D8",
"P}	c #6A08DD",
"Q}	c #6303B5",
"R}	c #4F029D",
"S}	c #290277",
"T}	c #230169",
"U}	c #370281",
"V}	c #4E0396",
"W}	c #5901B6",
"X}	c #6D03C6",
"Y}	c #7A08DC",
"Z}	c #7A10E5",
"`}	c #7011E3",
" |	c #5508C9",
".|	c #3C0295",
"+|	c #3D0281",
"@|	c #430281",
"#|	c #180243",
"$|	c #13023A",
"%|	c #190245",
"&|	c #2D036C",
"*|	c #300280",
"=|	c #4B03B6",
"-|	c #5703CA",
";|	c #6206DB",
">|	c #6F17D7",
",|	c #662FA5",
"'|	c #452862",
")|	c #1E133C",
"!|	c #130E2C",
"~|	c #140E31",
"{|	c #5E2695",
"]|	c #49138C",
"^|	c #280477",
"/|	c #260182",
"(|	c #3801A2",
"_|	c #4302A9",
":|	c #1B0247",
"<|	c #17033F",
"[|	c #1C0353",
"}|	c #20036D",
"||	c #3103A3",
"1|	c #2F0295",
"2|	c #2A0199",
"3|	c #2E02A5",
"4|	c #280289",
"5|	c #35029B",
"6|	c #3D028D",
"7|	c #3B0373",
"8|	c #28035F",
"9|	c #20016B",
"0|	c #5304DA",
"a|	c #6307DE",
"b|	c #6F08D1",
"c|	c #7808C7",
"d|	c #6204BB",
"e|	c #3C019C",
"f|	c #5302A7",
"g|	c #6B03B4",
"h|	c #6E04B8",
"i|	c #6B03C3",
"j|	c #6C04D1",
"k|	c #6A09DE",
"l|	c #7D15E6",
"m|	c #670AD3",
"n|	c #43019B",
"o|	c #2D0365",
"p|	c #2E0361",
"q|	c #34036D",
"r|	c #28035E",
"s|	c #15023E",
"t|	c #0E0230",
"u|	c #0F0234",
"v|	c #15033E",
"w|	c #370285",
"x|	c #5B04C8",
"y|	c #5704C7",
"z|	c #4301B8",
"A|	c #5C18B8",
"B|	c #592C87",
"C|	c #381F57",
"D|	c #1C1139",
"E|	c #100C28",
"F|	c #180F37",
"G|	c #0E0B25",
"H|	c #713C9D",
"I|	c #4B1D82",
"J|	c #280283",
"K|	c #4202B1",
"L|	c #4702AE",
"M|	c #2C016E",
"N|	c #100132",
"O|	c #15023B",
"P|	c #1D034B",
"Q|	c #1E0353",
"R|	c #1E036B",
"S|	c #3803B0",
"T|	c #3903AD",
"U|	c #29027E",
"V|	c #290291",
"W|	c #2E03A4",
"X|	c #2B0390",
"Y|	c #380395",
"Z|	c #460292",
"`|	c #450280",
" 1	c #300366",
".1	c #1D0359",
"+1	c #2C0281",
"@1	c #5304C3",
"#1	c #5B05D6",
"$1	c #6207D1",
"%1	c #890DDE",
"&1	c #8D0CDC",
"*1	c #6304C5",
"=1	c #5D05C0",
"-1	c #750AC6",
";1	c #9210D1",
">1	c #9C13DA",
",1	c #800ADE",
"'1	c #6B0ADF",
")1	c #6F0EDC",
"!1	c #6F10CD",
"~1	c #5004A8",
"{1	c #35037B",
"]1	c #280360",
"^1	c #260355",
"/1	c #270357",
"(1	c #110331",
"_1	c #0C022B",
":1	c #100230",
"<1	c #1B0349",
"[1	c #300371",
"}1	c #3A028D",
"|1	c #39019D",
"11	c #6E09DE",
"21	c #5E0BBC",
"31	c #2F0096",
"41	c #5E1DA9",
"51	c #5E2F81",
"61	c #391E5B",
"71	c #191036",
"81	c #0D0A25",
"91	c #100B28",
"01	c #7344AA",
"a1	c #70329F",
"b1	c #30037C",
"c1	c #37029C",
"d1	c #4602B8",
"e1	c #3F01A6",
"f1	c #0F012F",
"g1	c #190347",
"h1	c #190352",
"i1	c #1E036E",
"j1	c #3903B3",
"k1	c #3A03A7",
"l1	c #25036D",
"m1	c #260285",
"n1	c #2E03A2",
"o1	c #28038A",
"p1	c #340292",
"q1	c #3C0289",
"r1	c #460286",
"s1	c #37036F",
"t1	c #23025E",
"u1	c #1A0351",
"v1	c #1A0259",
"w1	c #4B03C2",
"x1	c #4001BA",
"y1	c #5E03CD",
"z1	c #7005DD",
"A1	c #6F06D9",
"B1	c #7D13DB",
"C1	c #8A17DE",
"D1	c #9218DF",
"E1	c #8A16E0",
"F1	c #780FE2",
"G1	c #730DD8",
"H1	c #6208BF",
"I1	c #4A03A4",
"J1	c #390387",
"K1	c #27035D",
"L1	c #23034E",
"M1	c #1C0340",
"N1	c #130333",
"O1	c #110234",
"P1	c #0F0332",
"Q1	c #0E022E",
"R1	c #120334",
"S1	c #220352",
"T1	c #3C0386",
"U1	c #4A03A8",
"V1	c #5304BF",
"W1	c #6107D0",
"X1	c #4A05A3",
"Y1	c #5609B2",
"Z1	c #7A25BF",
"`1	c #652F8A",
" 2	c #2F1850",
".2	c #150932",
"+2	c #201145",
"@2	c #100B2A",
"#2	c #54289F",
"$2	c #652AA8",
"%2	c #350482",
"&2	c #4101AD",
"*2	c #3F00A1",
"=2	c #340180",
"-2	c #1C024A",
";2	c #1B0356",
">2	c #190357",
",2	c #27048D",
"'2	c #3E04C1",
")2	c #4803B4",
"!2	c #230362",
"~2	c #200374",
"{2	c #290394",
"]2	c #2A0189",
"^2	c #2A018A",
"/2	c #52029C",
"(2	c #3C0377",
"_2	c #25025A",
":2	c #15014C",
"<2	c #2E0280",
"[2	c #4402B5",
"}2	c #3901AF",
"|2	c #4501BB",
"12	c #5802D3",
"22	c #5702CF",
"32	c #650AD7",
"42	c #7310E1",
"52	c #6B0BDE",
"62	c #6C0BDA",
"72	c #730FD6",
"82	c #6608CC",
"92	c #380389",
"02	c #390374",
"a2	c #290357",
"b2	c #17023C",
"c2	c #14033B",
"d2	c #120232",
"e2	c #16033A",
"f2	c #2C045E",
"g2	c #4D069D",
"h2	c #6307C9",
"i2	c #6205CF",
"j2	c #4F03BB",
"k2	c #4902A5",
"l2	c #7010C6",
"m2	c #8527CD",
"n2	c #5B2C84",
"o2	c #2B174B",
"p2	c #140E30",
"q2	c #2D0D58",
"r2	c #2B1457",
"s2	c #0C0924",
"t2	c #542691",
"u2	c #571CA2",
"v2	c #4A059F",
"w2	c #5201B6",
"x2	c #5202B6",
"y2	c #4D02AB",
"z2	c #42029B",
"A2	c #300374",
"B2	c #200352",
"C2	c #160347",
"D2	c #1B035C",
"E2	c #21037A",
"F2	c #3803B7",
"G2	c #3D02A4",
"H2	c #230366",
"I2	c #200278",
"J2	c #2B0289",
"K2	c #2B0280",
"L2	c #25026E",
"M2	c #4B019A",
"N2	c #250352",
"O2	c #14024A",
"P2	c #220265",
"Q2	c #3F03A4",
"R2	c #3901B1",
"S2	c #3B01B3",
"T2	c #4301B6",
"U2	c #4202BB",
"V2	c #4101C5",
"W2	c #5403D9",
"X2	c #5103D4",
"Y2	c #3F02C0",
"Z2	c #3701B2",
"`2	c #30018E",
" 3	c #2F037C",
".3	c #30035F",
"+3	c #180241",
"@3	c #12023B",
"#3	c #13023B",
"$3	c #11032F",
"%3	c #260354",
"&3	c #350470",
"*3	c #5407AC",
"=3	c #6107CD",
"-3	c #5D03CE",
";3	c #5D02C8",
">3	c #6304C1",
",3	c #8A24D4",
"'3	c #8A2FCB",
")3	c #582786",
"!3	c #2A154B",
"~3	c #370F6E",
"{3	c #271153",
"]3	c #0A0923",
"^3	c #59258F",
"/3	c #6019A9",
"(3	c #5704B4",
"_3	c #5801B9",
":3	c #5A02B8",
"<3	c #47029B",
"[3	c #2C026F",
"}3	c #1D0252",
"|3	c #1B0259",
"13	c #1C0368",
"23	c #24038C",
"33	c #3605BC",
"43	c #3C05C3",
"53	c #310392",
"63	c #20036B",
"73	c #1F0266",
"83	c #290279",
"93	c #26036E",
"03	c #360280",
"a3	c #40027F",
"b3	c #2C0352",
"c3	c #18024D",
"d3	c #1B024E",
"e3	c #2E0279",
"f3	c #3B03C0",
"g3	c #3803B1",
"h3	c #3202A6",
"i3	c #3401B7",
"j3	c #4702CF",
"k3	c #4601C9",
"l3	c #310292",
"m3	c #240279",
"n3	c #21016C",
"o3	c #280271",
"p3	c #240369",
"q3	c #100241",
"r3	c #13023C",
"s3	c #130239",
"t3	c #10022F",
"u3	c #0E0327",
"v3	c #22034E",
"w3	c #38037A",
"x3	c #4E04B3",
"y3	c #5A04D1",
"z3	c #6203D2",
"A3	c #8005DC",
"B3	c #7504D1",
"C3	c #9932DC",
"D3	c #9038CB",
"E3	c #58238A",
"F3	c #29144D",
"G3	c #3E1875",
"H3	c #2B1B4F",
"I3	c #622995",
"J3	c #6218AA",
"K3	c #5403B5",
"L3	c #5301BA",
"M3	c #3B028D",
"N3	c #220269",
"O3	c #1D0358",
"P3	c #1D0272",
"Q3	c #28039D",
"R3	c #3C07CD",
"S3	c #4005CB",
"T3	c #35039D",
"U3	c #2A0378",
"V3	c #19035E",
"W3	c #170255",
"X3	c #230272",
"Y3	c #29027D",
"Z3	c #3C028A",
"`3	c #470388",
" 4	c #300355",
".4	c #19024A",
"+4	c #1D015E",
"@4	c #180248",
"#4	c #1B024B",
"$4	c #2F0384",
"%4	c #3603AB",
"&4	c #3203B6",
"*4	c #2F03A4",
"=4	c #3D03B8",
"-4	c #5404D1",
";4	c #4802BC",
">4	c #2C0186",
",4	c #23026B",
"'4	c #1D025F",
")4	c #190256",
"!4	c #180257",
"~4	c #17025A",
"{4	c #1C0362",
"]4	c #20034E",
"^4	c #220357",
"/4	c #3D038D",
"(4	c #4B03B9",
"_4	c #5703D3",
":4	c #5C02C3",
"<4	c #7904CA",
"[4	c #7501CD",
"}4	c #8F2BD9",
"|4	c #8733C9",
"14	c #511D86",
"24	c #25124B",
"34	c #3E2572",
"44	c #140E3A",
"54	c #642998",
"64	c #7216BE",
"74	c #6504D1",
"84	c #5C01D0",
"94	c #4F02BB",
"04	c #360294",
"a4	c #400197",
"b4	c #340182",
"c4	c #1F0260",
"d4	c #1E0279",
"e4	c #2C03AC",
"f4	c #3F06D7",
"g4	c #3A03A4",
"h4	c #2B0477",
"i4	c #1F0365",
"j4	c #17035A",
"k4	c #17035D",
"l4	c #1D0266",
"m4	c #42029E",
"n4	c #4C0295",
"o4	c #3F036B",
"p4	c #2A0357",
"q4	c #160249",
"r4	c #120234",
"s4	c #1B0252",
"t4	c #2B0399",
"u4	c #260393",
"v4	c #4E04C1",
"w4	c #4B03BC",
"x4	c #250270",
"y4	c #2A0372",
"z4	c #2B0376",
"A4	c #24036B",
"B4	c #260369",
"C4	c #320378",
"D4	c #2E0371",
"E4	c #2D0373",
"F4	c #1D0357",
"G4	c #2C0273",
"H4	c #4302A0",
"I4	c #4702B3",
"J4	c #5C02B7",
"K4	c #7603C1",
"L4	c #8302D5",
"M4	c #9623DE",
"N4	c #8130C6",
"O4	c #4C158C",
"P4	c #211148",
"Q4	c #110B2B",
"R4	c #221463",
"S4	c #1B1147",
"T4	c #110D29",
"U4	c #5D2496",
"V4	c #7C14D3",
"W4	c #9013E7",
"X4	c #8208E2",
"Y4	c #4E02C3",
"Z4	c #5A01BC",
"`4	c #21026E",
" 5	c #1C0270",
".5	c #210282",
"+5	c #2F03B3",
"@5	c #4708E0",
"#5	c #4103CB",
"$5	c #3903A3",
"%5	c #31047B",
"&5	c #1E0360",
"*5	c #180363",
"=5	c #1A025E",
"-5	c #200265",
";5	c #4A029B",
">5	c #4A0380",
",5	c #350365",
"'5	c #210268",
")5	c #16014F",
"!5	c #1A0359",
"~5	c #2F0391",
"{5	c #2F039E",
"]5	c #28038D",
"^5	c #320398",
"/5	c #3D02B4",
"(5	c #3602A6",
"_5	c #300297",
":5	c #2A0387",
"<5	c #29037D",
"[5	c #2C037D",
"}5	c #30038C",
"|5	c #320394",
"15	c #2B0288",
"25	c #25027D",
"35	c #210371",
"45	c #220374",
"55	c #4E01B8",
"65	c #5202B0",
"75	c #6902BB",
"85	c #8705D0",
"95	c #9F1BE0",
"05	c #AE36E2",
"a5	c #8534C6",
"b5	c #531699",
"c5	c #271351",
"d5	c #1E0F47",
"e5	c #2A1572",
"f5	c #1E1451",
"g5	c #120E2D",
"h5	c #592892",
"i5	c #6312BB",
"j5	c #9317E7",
"k5	c #9A18E5",
"l5	c #7405D8",
"m5	c #5F03C0",
"n5	c #380296",
"o5	c #230172",
"p5	c #1D0270",
"q5	c #27028E",
"r5	c #3303B7",
"s5	c #4709E4",
"t5	c #3F04CC",
"u5	c #34047D",
"v5	c #1A0366",
"w5	c #1F037F",
"x5	c #19025F",
"y5	c #150248",
"z5	c #3F0195",
"A5	c #5D02A1",
"B5	c #430278",
"C5	c #2A027A",
"D5	c #1C0268",
"E5	c #10013C",
"F5	c #0C022A",
"G5	c #18034F",
"H5	c #2E048A",
"I5	c #2F0594",
"J5	c #270386",
"K5	c #2E0398",
"L5	c #2B0396",
"M5	c #26038A",
"N5	c #26038E",
"O5	c #210381",
"P5	c #1F0377",
"Q5	c #210379",
"R5	c #23037F",
"S5	c #280385",
"T5	c #2A0287",
"U5	c #25037C",
"V5	c #280281",
"W5	c #380291",
"X5	c #5001B6",
"Y5	c #6C03CF",
"Z5	c #8404DC",
"`5	c #8D04DB",
" 6	c #8A07D7",
".6	c #A321DF",
"+6	c #B437E3",
"@6	c #852DC7",
"#6	c #49148C",
"$6	c #210F49",
"%6	c #2B1773",
"&6	c #1E1454",
"*6	c #130E30",
"=6	c #733CA4",
"-6	c #7525C3",
";6	c #8410E3",
">6	c #9D1AE7",
",6	c #9C16E2",
"'6	c #7107C7",
")6	c #2F018F",
"!6	c #280177",
"~6	c #270172",
"{6	c #240276",
"]6	c #2D0294",
"^6	c #3C05C4",
"/6	c #4F0BE7",
"(6	c #5C0DDE",
"_6	c #650ACB",
":6	c #3C058A",
"<6	c #180352",
"[6	c #2F06A0",
"}6	c #11023D",
"|6	c #320279",
"16	c #5C03A4",
"26	c #480384",
"36	c #29036E",
"46	c #1E0367",
"56	c #18024B",
"66	c #120335",
"76	c #150349",
"86	c #1B0257",
"96	c #210465",
"06	c #320690",
"a6	c #290486",
"b6	c #15035B",
"c6	c #1B036C",
"d6	c #190367",
"e6	c #1B036D",
"f6	c #1C036F",
"g6	c #250387",
"h6	c #23037B",
"i6	c #240375",
"j6	c #210367",
"k6	c #1D0365",
"l6	c #250281",
"m6	c #2C0285",
"n6	c #6901CA",
"o6	c #9008E0",
"p6	c #A40FE7",
"q6	c #9A0AE4",
"r6	c #8004D5",
"s6	c #9210DA",
"t6	c #A129DC",
"u6	c #7727B4",
"v6	c #3F1D75",
"w6	c #211441",
"x6	c #371964",
"y6	c #301A80",
"z6	c #1D1251",
"A6	c #150F36",
"B6	c #653093",
"C6	c #8928CF",
"D6	c #8C19E6",
"E6	c #AA29E5",
"F6	c #B127E1",
"G6	c #790CCA",
"H6	c #4701A7",
"I6	c #2E0277",
"J6	c #2C027B",
"K6	c #2E0290",
"L6	c #4C0AD4",
"M6	c #7014E4",
"N6	c #720FDC",
"O6	c #4804A2",
"P6	c #170356",
"Q6	c #1D036F",
"R6	c #2B069B",
"S6	c #21057E",
"T6	c #3D037E",
"U6	c #4A028D",
"V6	c #36036E",
"W6	c #280361",
"X6	c #1C034F",
"Y6	c #170240",
"Z6	c #12023C",
"`6	c #15034D",
" 7	c #210468",
".7	c #24047B",
"+7	c #210376",
"@7	c #1E036D",
"#7	c #19035F",
"$7	c #160356",
"%7	c #150355",
"&7	c #210370",
"*7	c #22036F",
"=7	c #190351",
"-7	c #24017F",
";7	c #2F0284",
">7	c #4F01AA",
",7	c #950DDB",
"'7	c #A817E6",
")7	c #B022E8",
"!7	c #9A14E5",
"~7	c #891AD5",
"{7	c #9038D1",
"]7	c #652F9B",
"^7	c #2B1A57",
"/7	c #130D2F",
"(7	c #3E1B6C",
"_7	c #2D1776",
":7	c #1A0F53",
"<7	c #17103D",
"[7	c #713A90",
"}7	c #B347DA",
"|7	c #B63DE7",
"17	c #C643E6",
"27	c #B42FE3",
"37	c #7A0CC5",
"47	c #420392",
"57	c #33017B",
"67	c #2C0275",
"77	c #330290",
"87	c #3302AF",
"97	c #4D07D1",
"07	c #640CE4",
"a7	c #6408DD",
"b7	c #4603A9",
"c7	c #1E0369",
"d7	c #1F0376",
"e7	c #2B059B",
"f7	c #2B0598",
"g7	c #21046C",
"h7	c #1D0356",
"i7	c #3C037C",
"j7	c #4F0297",
"k7	c #3F0381",
"l7	c #310368",
"m7	c #13033F",
"n7	c #13034A",
"o7	c #13034B",
"p7	c #150353",
"q7	c #170352",
"r7	c #110346",
"s7	c #15034E",
"t7	c #19034D",
"u7	c #1B034F",
"v7	c #14023F",
"w7	c #14033E",
"x7	c #1C0358",
"y7	c #280183",
"z7	c #2D028C",
"A7	c #5500AE",
"B7	c #B218E4",
"C7	c #AA20E7",
"D7	c #8712E6",
"E7	c #7C0ADE",
"F7	c #5D03B6",
"G7	c #7B25C7",
"H7	c #6D38BC",
"I7	c #361D79",
"J7	c #1D124C",
"K7	c #471E77",
"L7	c #281566",
"M7	c #180E50",
"N7	c #1A1146",
"O7	c #743895",
"P7	c #B837E5",
"Q7	c #C33AE7",
"R7	c #C33EE8",
"S7	c #9521DC",
"T7	c #5304AE",
"U7	c #2C027C",
"V7	c #32027B",
"W7	c #4903B6",
"X7	c #4F03D3",
"Y7	c #5305DE",
"Z7	c #5A08E2",
"`7	c #5503D7",
" 8	c #3C03A5",
".8	c #230383",
"+8	c #2B0397",
"@8	c #2F04A0",
"#8	c #2F048C",
"$8	c #250264",
"%8	c #32027E",
"&8	c #36037D",
"*8	c #2B0361",
"=8	c #230350",
"-8	c #200349",
";8	c #1B0347",
">8	c #15034B",
",8	c #120243",
"'8	c #130344",
")8	c #130346",
"!8	c #0D0238",
"~8	c #0B0330",
"{8	c #0E0330",
"]8	c #110332",
"^8	c #160246",
"/8	c #22036A",
"(8	c #23017B",
"_8	c #230173",
":8	c #2F017B",
"<8	c #5302A8",
"[8	c #8B0CD9",
"}8	c #7E0BDF",
"|8	c #4F00CF",
"18	c #4802AF",
"28	c #4B08A1",
"38	c #6121B0",
"48	c #4B239B",
"58	c #1E1450",
"68	c #140E2F",
"78	c #4B217B",
"88	c #2D166D",
"98	c #1A0E55",
"08	c #191048",
"a8	c #742C99",
"b8	c #B31FEC",
"c8	c #A421E3",
"d8	c #A120E7",
"e8	c #7D0ED1",
"f8	c #3A0098",
"g8	c #2F0382",
"h8	c #260271",
"i8	c #390290",
"j8	c #4002A3",
"k8	c #5502D1",
"l8	c #6D0DE6",
"m8	c #6F0FE5",
"n8	c #5906E4",
"o8	c #4802CD",
"p8	c #3802A3",
"q8	c #270283",
"r8	c #2C0295",
"s8	c #2B0398",
"t8	c #38049A",
"u8	c #39038C",
"v8	c #170252",
"w8	c #310377",
"x8	c #320376",
"y8	c #2F0368",
"z8	c #250350",
"A8	c #150343",
"B8	c #13033E",
"C8	c #12033D",
"D8	c #100341",
"E8	c #0A022F",
"F8	c #0A022A",
"G8	c #100331",
"H8	c #140338",
"I8	c #100332",
"J8	c #1F016D",
"K8	c #1C0165",
"L8	c #280174",
"M8	c #4801A3",
"N8	c #7505D0",
"O8	c #860BDF",
"P8	c #5A04C5",
"Q8	c #2F018A",
"R8	c #420D8B",
"S8	c #591FA0",
"T8	c #472188",
"U8	c #291770",
"V8	c #1C134E",
"W8	c #2B124D",
"X8	c #542884",
"Y8	c #311777",
"Z8	c #170C4F",
"`8	c #180E4A",
" 9	c #140C3C",
".9	c #441168",
"+9	c #57128C",
"@9	c #7122B3",
"#9	c #7A2BBE",
"$9	c #461191",
"%9	c #29026E",
"&9	c #5203C2",
"*9	c #5C03D6",
"=9	c #7410E4",
"-9	c #7F17E6",
";9	c #5604E5",
">9	c #4402CB",
",9	c #3C02AA",
"'9	c #2F038E",
")9	c #30029B",
"!9	c #3803B8",
"~9	c #2C029C",
"{9	c #4F04AC",
"]9	c #45048D",
"^9	c #1B0258",
"/9	c #1E0265",
"(9	c #290278",
"_9	c #2E0378",
":9	c #34027F",
"<9	c #3B0383",
"[9	c #34036F",
"}9	c #400272",
"|9	c #26034F",
"19	c #1A0347",
"29	c #160341",
"39	c #0C0230",
"49	c #09022B",
"59	c #0D0332",
"69	c #170342",
"79	c #180342",
"89	c #200354",
"99	c #1E035B",
"09	c #1B025A",
"a9	c #1E025C",
"b9	c #2B027E",
"c9	c #5902B3",
"d9	c #910EDB",
"e9	c #9310DE",
"f9	c #5E04C0",
"g9	c #34038A",
"h9	c #4A1585",
"i9	c #5B2198",
"j9	c #431F81",
"k9	c #2A1670",
"l9	c #1A1149",
"m9	c #471F72",
"n9	c #482C76",
"o9	c #181040",
"p9	c #180E3F",
"q9	c #150D3D",
"r9	c #110D26",
"s9	c #19113C",
"t9	c #36215E",
"u9	c #503078",
"v9	c #722FA7",
"w9	c #9B23EA",
"x9	c #7811D6",
"y9	c #AC32D3",
"z9	c #8A13D7",
"A9	c #5F03CF",
"B9	c #5E07D6",
"C9	c #650BE4",
"D9	c #5706E2",
"E9	c #4702D1",
"F9	c #4302B8",
"G9	c #38029F",
"H9	c #320397",
"I9	c #3702AF",
"J9	c #2F029A",
"K9	c #5B05BE",
"L9	c #790AC2",
"M9	c #3A0386",
"N9	c #26026C",
"O9	c #4E02A0",
"P9	c #5302A4",
"Q9	c #470185",
"R9	c #320365",
"S9	c #230352",
"T9	c #220351",
"U9	c #15033D",
"V9	c #0D0234",
"W9	c #0F0238",
"X9	c #13033B",
"Y9	c #190343",
"Z9	c #21035B",
"`9	c #250363",
" 0	c #2E0374",
".0	c #3A0291",
"+0	c #5B02B4",
"@0	c #930EDA",
"#0	c #880DD2",
"$0	c #4C03A8",
"%0	c #2F037E",
"&0	c #53198E",
"*0	c #57218F",
"=0	c #3C1C79",
"-0	c #231363",
";0	c #181048",
">0	c #432270",
",0	c #2E1D5B",
"'0	c #18103B",
")0	c #130E2B",
"!0	c #140F2C",
"~0	c #161034",
"{0	c #3C2660",
"]0	c #362159",
"^0	c #7F409F",
"/0	c #C54CEC",
"(0	c #C241E5",
"_0	c #D550E7",
":0	c #9216DE",
"<0	c #3F00A5",
"[0	c #25036F",
"}0	c #340284",
"|0	c #3C039C",
"10	c #4D02C6",
"20	c #4A05B5",
"30	c #380495",
"40	c #3803A2",
"50	c #3903B2",
"60	c #3902B2",
"70	c #6408C7",
"80	c #9011D6",
"90	c #7109B6",
"00	c #2D0280",
"a0	c #200362",
"b0	c #290367",
"c0	c #41028E",
"d0	c #4A02AC",
"e0	c #4902A2",
"f0	c #4F039B",
"g0	c #380376",
"h0	c #2F0363",
"i0	c #310465",
"j0	c #230357",
"k0	c #170347",
"l0	c #13023E",
"m0	c #1A0346",
"n0	c #16033C",
"o0	c #370385",
"p0	c #420192",
"q0	c #8008CE",
"r0	c #9514DB",
"s0	c #5C05B3",
"t0	c #400496",
"u0	c #581D98",
"v0	c #522186",
"w0	c #35196F",
"x0	c #1E1057",
"y0	c #191049",
"z0	c #382062",
"A0	c #352160",
"B0	c #17103A",
"C0	c #130F2C",
"D0	c #130F2D",
"E0	c #110D28",
"F0	c #14102E",
"G0	c #352358",
"H0	c #352355",
"I0	c #793B9B",
"J0	c #BE34EC",
"K0	c #C437E6",
"L0	c #B32BE9",
"M0	c #790DD1",
"N0	c #3A009A",
"O0	c #24026E",
"P0	c #3C029B",
"Q0	c #4D03BA",
"R0	c #5701D4",
"S0	c #7611E4",
"T0	c #8118E6",
"U0	c #5404E1",
"V0	c #4403CB",
"W0	c #4002BB",
"X0	c #5A08BF",
"Y0	c #8012CB",
"Z0	c #7D0EC2",
"`0	c #4A0397",
" a	c #200364",
".a	c #250368",
"+a	c #2E0276",
"@a	c #31018A",
"#a	c #3C0198",
"$a	c #4902A1",
"%a	c #2C036D",
"&a	c #2B0366",
"*a	c #28036B",
"=a	c #180347",
"-a	c #1C024F",
";a	c #1B0348",
">a	c #20034C",
",a	c #220350",
"'a	c #2C036E",
")a	c #3F01A7",
"!a	c #390289",
"~a	c #7507C8",
"{a	c #9B13E2",
"]a	c #6901CC",
"^a	c #7406CD",
"/a	c #5B1F96",
"(a	c #502480",
"_a	c #311871",
":a	c #1C0F57",
"<a	c #37215C",
"[a	c #33225F",
"}a	c #181235",
"|a	c #14102C",
"1a	c #120E2B",
"2a	c #0F0C25",
"3a	c #120D2A",
"4a	c #352353",
"5a	c #2F214A",
"6a	c #722E94",
"7a	c #B31CEC",
"8a	c #9513E1",
"9a	c #9313E6",
"0a	c #8510D6",
"aa	c #39018E",
"ba	c #27026B",
"ca	c #270272",
"da	c #3C01A0",
"ea	c #5403C3",
"fa	c #6104D5",
"ga	c #6206DF",
"ha	c #660BE4",
"ia	c #5B08E5",
"ja	c #4701D9",
"ka	c #4A02C5",
"la	c #3D01AC",
"ma	c #350393",
"na	c #4003B3",
"oa	c #3503A6",
"pa	c #36039C",
"qa	c #510996",
"ra	c #450585",
"sa	c #2F027A",
"ta	c #2D037C",
"ua	c #34028C",
"va	c #360296",
"wa	c #30037D",
"xa	c #27035C",
"ya	c #340371",
"za	c #360374",
"Aa	c #330375",
"Ba	c #3C02A2",
"Ca	c #34019A",
"Da	c #2C018A",
"Ea	c #3E0299",
"Fa	c #6605BB",
"Ga	c #9414DE",
"Ha	c #7C08D2",
"Ia	c #7B13CE",
"Ja	c #652B9D",
"Ka	c #4B287C",
"La	c #2B1469",
"Ma	c #170C4D",
"Na	c #230F54",
"Oa	c #2C1E4D",
"Pa	c #34215B",
"Qa	c #161131",
"Ra	c #100D25",
"Sa	c #120E28",
"  . + @ # $ % & * = - ; > , ' ) ! ~ { ] ^ / ( _ : < [ } | 1 2 3 4 5 6 7 8 9 0 a b c d e f g h i j k l m n o p q r s t u v w x y ",
"z A B w C $ D E F G H I J K L M N O P Q R S T U V W X Y Z `  ...+.@.#.$.%.&.*.=.-.;.>.,.'.).!.~.{.].^./.(._.:.<.[.}.|.1.$ 2.3.x ",
"4.5.6.7.8.9.0.a.b.c.d.e.f.g.h.i.j.k.l.m.n.o.p.q.r.s.t.u.v.w.x.y.z.A.B.C.D.E.F.G.H.I.J.K.L.M.N.O.P.Q.R.S.T.U.V.W.X.Y.Z.`. +.+++@+",
"#+$+%+&+*+E =+-+;+>+,+'+)+!+~+{+]+^+/+(+_+:+<+[+}+|+1+2+3+4+5+6+7+8+9+0+a+b+c+d+e+f+g+h+i+j+k+l+m+n+o+p+q+r+s+t+u+v+w+x+y+z+A+B+",
"9.C+D+E+F+G+H+I+J+K+L+M+N+O+P+Q+R+S+T+U+V+W+X+Y+Z+`+ @.@+@@@#@$@%@&@*@=@-@;@>@,@'@)@!@~@{@]@^@/@(@_@:@<@[@}@|@1@2@n -+3@4@&+5@% ",
"$ 6@& &+7@8@9@0@a@b@c@d@e@f@g@h@i@j@k@l@m@n@o@p@q@r@s@t@u@v@w@x@y@z@A@B@C@D@E@F@G@H@I@J@K@L@M@N@O@P@Q@O R@S@T@U@V@W@X@Y@Z@`@-+ #",
"$ D .#+#@###$#%#&#*#=#-#;#>#,#'#)#!#~#{#]#^#/#^#(#_#:#<#[#}#|#1#2#3#4#5#6#7#8#9#0#a#b#c#d#e#f#g#h#i#j#k#l#m#n#o#p#q#r#s#t#u#v#|.",
"w#0.=+x#y#z#A#B#C#D#E#F#G#H#I#J#K#L#M#N#O#P#Q#R#S#T#U#V#W#X#Y#Z#`# $.$+$@$#$$$%$&$*$=$-$;$>$,$'$)$!$~${$]$^$/$($_$:$<$[$}$|$.#x+",
"1$`@-+a.2$3$A#4$5$6$7$8$9$0$a$b$c$d$e$f$g$h$i$j$k$l$m$n$o$p$q$r$s$t$N.u$v$w$x$y$z$A$B$C$D$E$F$G$H$I$J$K$L$M$N$O$P$Q$R$S$T$U$V$W$",
"E X$Y$Z$`$ %A#.%+%@%#%$%%%&%*%=%-%;%>%,%'%)%!%~%{%]%^%/%(%_%:%<%[%}%|%1%2%3%4%5%6%7%8%9%0%a%b%c%d%e%f%g%h%i%j%k%l%m%n%o%p%q%r%s%",
"w+8@t%u%v%w%x%y%z%A%B%C%D%E%F%G%H%I%J%K%L%M%N%O%P%Q%R%S%T%U%V%W%X%Y%Z%`% &.&+&@&#&$&%&&&*&=&-&;&>&,&'&)&!&~&{&]&^&/&(&_&:&  <&[&",
"@###+#}&|&1&3$2&3&4&5&6&7&8&9&0&a&b&W+c&d&e&f&g&h&R#i&j&k&l&m&n&o&p&q&r&s&t&u&v&w&x&y&z&A&B&C&D&E&F&G&H&I&J&K&L&M&N&O&P&Q&R&S&*+",
"y#T&A#G U&F T&V&W&X&Y&Z&`& *.*+*j$e&@*#*$*%*&***=*-*;*>*,*'*)*!*~*{*]*^*/*(*_*:*<*[*}*|*1*2*3*4*5*6*7*8*9*0*a*b*c*d*e*f*g*h*i*j*",
"k*l*m*n*o*p*q*r*s*t*u*v*w*x*y*z*A*B*C*D*E*F*G*H*I*J*K*L*M*k&N*O*P*Q*R*S*T*U*V*W*X*Y*Z*`* =.=+=@=#=$=%=&=*===-=;=>=,='=)=!=~={=z#",
"k*<&]=^=/=(=_=:=<=[=}=|=1=2=3=4=5=6=7=8=9=0=a=b=c=d=e=f=g=h=i=j=k=l=m=n=o=p=q=r=j$s=t=u=v=w=x=y=z=$&A=B=C=D=E=F=G=H=I=J=K=L=M=N=",
"2$O=P=Q=R=S=T=U=V=W=X=Y=Z=`= -.-.-+-@-#-$-%-&-*-=---;->-,-'-)-!-~-{-]-^-/-(-_-:-<-[-}-|-1-2-3-4-5-6-7-8-9-0-a-b-c-d-e-f-g-h-i-j-",
"k-l-m-n-o-p-q-r-s-t-u-v-w-x-y-z-A-B-C-D-E-F-G-H-I-J-K-L-M-N-O-P-Q-R-S-T-U-V-W-X-Y-Z-`- ;.;+;@;#;$;%;&;*;=;-;;;>;,;';);!;~;{;];^;",
"G /;(;O=_;:;<;[;};|;1;2;3;4;5;6;B-7;8;9;0;a;b;c;d;e;f;g;h;i;j;k;l;m;n;o;p;q;r;s;t;u;v;w;x;y;z;A;B;C;D;E;F;G;H;I;J;K;L;M;N;O;P;Q;",
"R;S;T;7.I+{.U;V;W;X;Y;Z;`; >.>[-+>@>#>$>%>&>*>=>->;>>>,>'>)>!>~>{>]>^>/>(>_>:><>[>}>|>1>2>3>4>5>6>7>8>9>0>a>b>c>d>e>f>g>h>i>j>k>",
":;l>1.m>n>o>p>q>r>s>t>u>v>w>x>y>z>A>B>C>D>E>F>G>H>I>J>K>L>M>N>O>P>Q>R>S>T>U>V>W>X>Y>Z>`> ,.,+,@,6=#,$,%,&,*,=,-,;,>,,,',),!,~,{,",
"T;w%Y$}&],^,/,(,_,:,<,[,},|,1,2,9;3,4,5,6,7,8,9,0,a,b,c,d,e,f,g,h,i,j,k,l,m,n,o,2>p,q,r,s,t,u,v,w,x,y,z,A,B,C,D,E,F,G,H,I,J,K,L,",
"m-M,*+7@N,O,P,Q,R,S,T,U,V,W,X,Y,Z,`,[- '.'+'@'#'$'%'`*&'*'='-';'>',''')'!'~'{']'^'/'('_':'<'['}'|'1'2'3'4'5'6'7'8'9'0'a'b'c'd'e'",
"f'g'H+h'i'j'k'l'm'n'o'p'q'r's't'u'v'w'x'y'z'F-A'B'{-C'D'E'F'G'H'I'J'K'L'M'N'O'P'Q'5'R'S'T'U'V'W'X'Y'Z'`' ).)+)@)#)$)%)&)*)=)-)<&",
"P=8@;)>),)')))!)~){)])^)/)()_):)<)[)})|)1)2)3)4)5)6)7)8)9)0)a)b)c)d)e)f)g)h)i)j)k)W+l)m)n)o)p)q)r)s)t)u)v)w)x)y)z)A)B)C)D)E)F)k*",
" #G)H)I)J)K)L)M)N)O)P)Q)R)S)T)J>U)V)W)X)Y)Z)`) !.!+!@!#!$!%!&!*!=!-!;!>!,!'!)!!!~!b={!]!^!/!(!_!:!<![!}!|!1!;*2!3!4!5!6!7!8!9!0!",
"a!b!c!d!e!f!g!h!i!j!k!l!m!n!o!p!B-q!r!s!t!u!v!w!x!y!z!A!B!C!D!E!F!G!8=H!I!J!K!L!M!N!O!P!Q!R!S!T!#'U!V!W!.)X!Y!Z!`! ~.~+~@~#~$~%~",
"Q=&~*~=~~ -~;~>~,~'~)~!~~~{~]~^~/~5,(~_~:~<~[~}~|~1~2~3~4~5~6~7~8~9~0~a~b~c~d~e~p;f~g~h~i~j~k~l~m~n~o~p~q~r~s~t~u~v~w~x~y~z~A~B~",
"n-n-C~D~E~F~G~H~I~J~~&K~h=L~M~N~O~P~Q~R~S~T~U~V~W~X~Y~Z~`~ {.{+{@{g~#{${%{&{*{={-{;{ ,>{,{'{){!{~{{{]{.)Y-^{/{({_{:{<{[{}{|{1{2{",
"3{r%4{5{6{7{8{9{0{a{b{c{d{e{f{g{h{i{j{k{l{m{n{o{p{q{r{s{t{u{v{/'w{x{y{z{'%A{B{C{D{E{F{G{H{I{J{K{$*`-L{[-M{N{O{P{Q{R{S{T{U{V{W{X{",
"Y{##Z{`{ ].]+]@]#]$]%]&]*]=]-];]>],]'])]!]~]{]]]^]/]Q*(]_]:]<][]}]|]1]2]3]4]5]6]7]8]9]0]a]b]c]d]e]f]g]U)h]i]t~=*j]^)k]l]m]n]o]p]",
"q]r]s]t]u]v]w]p.x]-=y]z]A]B]C]D]q'E]F]G]H]I]J]K]L]M]N]O]P]Q]t,R]S]7=T]U]&*V]W]X]Y]y)Z]g$`] ^.^+^@^#^$^%^&^Y!*^=^-^;^>^,^'^)^!^~^",
"{^]^^^/^(^_^:^<^[^}^|^1^2^#-3^W+4^5^6^7^8^9^0^a^b^c^d^e^f^g^h^i^j^k^l^w{m^n^o^p^q^r^s^t^u^v^w^x^y^z^A^%^B^C^D^E^F^G^H^I^J^K^L^M^",
"N^O^P^Q^R^S^T^U^V^W^X^Y^Y^Z^`^ /./+/@/#/$/%/&/E!*/=/-/;/>/E>,/'/)/!/~/{/]/^///(/_/:/</[/}/|/1/2/3/4/x'5/6/z>S%7/8/9/0/a/b/c/d/e/",
"f/g/h/i/j/k/l/m/n/o/h{p/q/r/s/h=t/u/v/w/x/y/z/A/B/C/D/E/F/G/H/I/J/K/L/M/N/O/P/Q/R/S/T/U/V/W/X/Y/Z/`/ (.(+(*^]!@(#($(%(&(*(=(-(;(",
">(,('()(!(~({(](^(/(p/((_(y):(<([(}(|(1(2(3(4(5(6(7(8(9(0(a(b(c(d(e(O%f(g(h(i(j(k(l(m(n(o(p(q(r(s(x't(u(v(w(x(y(z(A(B(C(D(E(X.F(",
"G(H(I(J(K(L(M(N(O(P(Q(R(S(T(U(V(W(X(Y(Z(`( _._+_@_#_$_%_&_:-*_=_-_;_>_,_'_)_!_~_{_]_^_/_(___:_<_[_U)r~}_|_1_2_3_4_5_6_7_8_{.9_0_",
"a_b_c_d_e_f_g_h_i_j_k_l_m__]n_o_p_q_r_Z(s_t_u_v_w_x_y_z_A_B_C_D_E_F_G_H_I_J_K_L_M_N_O_P_Q_R_S_T_U_V_W_X_Y_Z_`_ :&!.:+:@:#:<.$:%:",
"&:*:=:-:;:>:,:':):!:x)~:{:]:^:/:(:_:::<:[:}:|:1:Z*2:3:4:O]5:6:7:8:9:0:a:b:c:d:e:f:g:h:i:j:k:l:m:n:=]o:p:p:q:r:s:t:u:v:w:x:y:z:Y{",
"A:B:C:D:E:F:G:H:I:r!J:K:L:Z*M:N:O:P:Q:R:S:T:|:U:V:W:X:Y:Z:`: <;*.<+<{$@<#<$<%<&<*<=<-<;<><,<'<)<!<n/'*~<Z^{<)_]<^</<(<_<F)l*1$n ",
":<<<[<}<|<1<2<3<4<5<6<7<j(8<9<0<a<b<c<d<e<f<0:g<h<i<j<k<l<m<n<o<m=p<q<r<s<t<u<v<w<x<y<z<A<B<J:C<D<E<F<G<h{H<I<J<K<L<M<N<O<G(D 0!",
"P<Q<R<S<T<U<V<+<W<<)s@X<Y<Z<`< [.[+[@[#[$[%[&[*[=[-[;[{->[,['[)[W>![~[{[][^[/[([_[:[<[[[}[|[^'1[2[3[4[5[6[7[8[V/9[0[a[b[c[d[Y{x#",
"e[f[g[h[i[j[k[l[m[n[-*o[R]p[q[*-r[s[v=t[u[v[6<w[x[y[z[A[B[{[C[D[Z:E[F[G[2>H[I[J[K[L[M[x&N[K_O[P[Q[R[S[i]T[U[V[W[X[Y[Z[`[ }.}k-b.",
"+}@}#}$}%}&}*}=}-}**;}>*y{>},}'})}!}~}{}]}^}/}(}_}:}<}[}}}|}1}2}3}4}5}6}7}8}9}0}a}b}c}d}e}f}Q!S%!:g}h}7;6[i}&]j}k}l}m}n}o}f/p}q}",
"r}s}t}u}v}w}x}y}z}>*A}B}C}D}E}F}G}H}V:I}J}H*K}L}M}N}O}P}Q}R}S}T}U}V}V}B[W}X}Y}Z}`} |.|+|@|H*W_#|:-$|q!%|&|*|=|-|;|>|,|'|)|!|~|s ",
"{|]|^|/|(|_|i}:|<|9=W_[|}|||A<1|2|3|4|5|6|7|8|X*9|6-0|a|b|c|d| {e|f|g|h|i|j|k|l|m|n|o|p|q|r|s|t|u|t|v|A}w|N[x|y|z|A|B|C|D|E|F|G|",
"H|I|:(J|K|L|M|N|O|P|Q|h&R|S|T|U|V|W|X|Y|Z|`| 1.1u=+1@1#1$1%1&1*1=1-1;1>1,1'1)1!1~1{1]1^1/1B^(1_1O%:1<1[1}1|11121314151617181x:91",
"01a1b1c1d1e1'%f1#|g18=h1i1j1k1l1m1n1o1p1q1r1s1t1u1v1 @w1x1y1z1A1B1C1D1E1F1G1H1I1J1'*K1L1M1N1O1P1Q1R1S1T1U1V1W1X1Y1Z1`1 2~|.2+2@2",
"#2$2%2D$&2*2=2<1-2$|;2>2,2'2)2!2~2{2]2^2T(/2(2_2z*:2<2[2}2|21222324252627282U192V-02a2b2a(c2$|O1d2e2f2g2h2i2j2k2l2m2n2o2p2q2r2s2",
"t2u2v2w2x2y2z2A2B2C2D2E2r(F2G2H2_)I2J2K2L2M2(2N2z{O2P2Q2R2S2T2U2V2W2X2Y2Z2t/`2 3(2.3+3@3@3#3,/$3S[%3&3*3=3-3;3>3,3'3)3!3i*~3{3]3",
"^3/3(3_3:3<3;{[3}3|31323334353{!631373839303a3b3c3+)d3e36-f3g3h3i3j3k3%}l3m3n3o3p3x{q3r3s3a(t3u3v3j_w3x3y3z3A3B3C3D3E3F3i*G3H3h ",
"I3J3K3L30*M3N3O3c3y{P3Q3R3S3T3U3X>V3W3X3Y3Z3`3 4.4+4@4#4$4%4&4*4=4-4;4>4,4'4)4!4~4{4u;<1]4r~X!r=^40]/4(4_4:4<4[4}4|41424y#3444H+",
"546474849404a4b4c4()d4e4f4R_g4h4i4j4k4l43:m4n4o4p4Z>q4r4s41)t4u4T3v4w4l3x4y4z4A4B40]C4D4E4H2U(O3F4G4H4I4a>J4K4L4M4N4O4P4Q4R4S4T4",
"U4V4W4X4Y4L|Z4E]`4 5.5+5@5#5$5%5&5k4*5=5-5-=;5>5,5'5)5:1F_!5~5{5]5^5X#/5(5|*_5:5<5[5}5|5l315253545T(&}556575859505a5b5c5d5e5f5g5",
"h5i5j5k5l5m5n5Y)o5p5q5r5s5t5:%u5Y>v5w5x5y5`4z5A5B5C5D5E5F5G5l1H5I5s;J5K5L5M5N5O5P5Q5R5S5T5m363U5V5W5X5Y5Z5`5 6.6+6@6#6$6r2%6&6*6",
"=6-6;6>6,6'6)6!6~6{6]6^6/6(6_6:6<6:![6f]}6s4|616263646566676869606a6i1b6c6d6e6f6#'g6h6i6j6x>k6l6m6H4n6o6p6q6r6s6t6u6v6w6x6y6z6A6",
"B6C6D6E6F6G6H6U}I6J6K6r5L6M6N6O6P6Q6R6S6.)56((T6U6V6W6X6Y6Z6w)`6 7.7+7@7#7$7%7_)C}&7*7p@u1=7`4-7;7>7,7'7)7!7g:~7{7]7^7/7(7_7:7<7",
"[7}7|717273747Z]576777879707a7b7c7d7e7f7g7h74,i7j7k7l7]46/c2m7n7o7p7s'q7X'n7r7s7t7u7U)v7w7x7y7z7n/A7B7C7D7E7F7G7H7I7J7/7K7L7M7N7",
"O7P7Q7R7S7T7U76}V7;{W7X7Y7Z7`7 8h6.8+8@8#8^*[|$8%8&81^*8=8-8;86,>8,8'8v')8!8~8{8C_v|]8Q1^8/8(8_8:8<8[8}8|818283848e5586878889808",
"a8b8c8d8e8f8g8h8i8j8k8l8m8n8o8p8q8r8s8T!t8u8!2v8~: 3w8x8y8z85[;8A8B8C8.)D8E8F8G8H8R1I8P#Q[,4J8K8L8M8N8O8P8Q8R8S8T8U8V8W8X8Y8Z8`8",
" 9.9+9@9#9$9%9s/j8&9*9=9-9;9>9,9'9)9!9~9^5{9]9^9/9(9_9:9<9[9}9|9u(1929V)394959B-69B-79C-899909a9b9c9d9e9f9g9h9i9j9k9l9m9n9o9p9q9",
"r9X$s9t9u9v9w9x9y9z9A9B9C9D9E9F9G9H9I9~9J9K9L9M90;X>N9r/O9P9Q9R9S9a&T9U9W)V9W9X929Y9h];8F*Z9`9 0.0+0@0#0$0%0&0*0=0-0;0>0,0'0r9r9",
")0!0~0{0]0^0/0(0_0:0<0[0}0|02)10203040506070809000X>a0b0c0d0e0f0g0h0i0j0k0U)l0A89;m0n0u(V*o[o0x]7}p0q0r0s0t0u0v0w0x0y0z0A0B0C0r9",
"D0E0F0G0H0I0J0K0L0M0N0g8O0P0Q0R0S0T0U0V0W0X0Y0Z0`0F> a.a+a@a#a$al&%ao|&a*a/}=a-aM$;a>a,aA>'aE])ag%!a~a{a]a^a/a(a_a:ay0<a[a}a|ar9",
"1a2a3a4a5a6a7a8a9a0aaabacadaeafagahaiajakala{~manaoapaqarasatauava%'=^'away4$>y>C>xayazaAau[BaCaDaEaFaGaHaIaJaKaLaMaNaOaPaQaRaSa"};
