/* XPM */
static char * portal_rot8_xpm[] = {
"64 64 3342 2",
"  	c #120927",
". 	c #120826",
"+ 	c #100824",
"@ 	c #110926",
"# 	c #0A061C",
"$ 	c #0B071A",
"% 	c #090718",
"& 	c #080616",
"* 	c #050514",
"= 	c #060514",
"- 	c #0C071C",
"; 	c #080522",
"> 	c #15063A",
", 	c #3A1165",
"' 	c #330B63",
") 	c #220750",
"! 	c #13082E",
"~ 	c #080518",
"{ 	c #050311",
"] 	c #040311",
"^ 	c #040414",
"/ 	c #0C071D",
"( 	c #140929",
"_ 	c #1A0A35",
": 	c #270D56",
"< 	c #460F7F",
"[ 	c #5C0F95",
"} 	c #6A0E9C",
"| 	c #66089B",
"1 	c #4F038D",
"2 	c #3A0285",
"3 	c #35018D",
"4 	c #49039B",
"5 	c #53059F",
"6 	c #490395",
"7 	c #35027E",
"8 	c #2D046F",
"9 	c #290660",
"0 	c #20084E",
"a 	c #18083D",
"b 	c #0C061A",
"c 	c #0E071F",
"d 	c #070419",
"e 	c #050419",
"f 	c #050319",
"g 	c #050417",
"h 	c #09071F",
"i 	c #0C0821",
"j 	c #0D0924",
"k 	c #09071E",
"l 	c #09061B",
"m 	c #080618",
"n 	c #070618",
"o 	c #050517",
"p 	c #050519",
"q 	c #050418",
"r 	c #050415",
"s 	c #070517",
"t 	c #060515",
"u 	c #090618",
"v 	c #0F0920",
"w 	c #0D0820",
"x 	c #0F0821",
"y 	c #110924",
"z 	c #120928",
"A 	c #120828",
"B 	c #110826",
"C 	c #060516",
"D 	c #090619",
"E 	c #050414",
"F 	c #060414",
"G 	c #08041C",
"H 	c #0C052A",
"I 	c #1B0741",
"J 	c #491475",
"K 	c #531680",
"L 	c #2A035C",
"M 	c #0B051F",
"N 	c #03020B",
"O 	c #040310",
"P 	c #180C2D",
"Q 	c #1F0D3A",
"R 	c #250C4D",
"S 	c #3B0D74",
"T 	c #550E93",
"U 	c #640A9A",
"V 	c #600791",
"W 	c #520389",
"X 	c #3F0183",
"Y 	c #38028E",
"Z 	c #390296",
"` 	c #3A028D",
" .	c #3C028D",
"..	c #430196",
"+.	c #3D018B",
"@.	c #2F0276",
"#.	c #320378",
"$.	c #36037F",
"%.	c #30047F",
"&.	c #2E0676",
"*.	c #2C0768",
"=.	c #230850",
"-.	c #1B0B35",
";.	c #1E0E2C",
">.	c #1F0E2D",
",.	c #1E0E2B",
"'.	c #170C25",
").	c #160C26",
"!.	c #201132",
"~.	c #23103A",
"{.	c #250F3E",
"].	c #240F3C",
"^.	c #220E39",
"/.	c #1A0B2E",
"(.	c #0E0721",
"_.	c #150D27",
":.	c #0A081C",
"<.	c #0E081F",
"[.	c #0D071F",
"}.	c #130A27",
"|.	c #140A29",
"1.	c #100922",
"2.	c #080617",
"3.	c #0A0719",
"4.	c #09071A",
"5.	c #080619",
"6.	c #08051A",
"7.	c #0C0623",
"8.	c #150835",
"9.	c #2A0B51",
"0.	c #51167E",
"a.	c #5F1B89",
"b.	c #18033C",
"c.	c #04030F",
"d.	c #0A071D",
"e.	c #120A26",
"f.	c #1F1036",
"g.	c #240F40",
"h.	c #290E50",
"i.	c #350967",
"j.	c #5E0DA0",
"k.	c #5E08A3",
"l.	c #570393",
"m.	c #3A0173",
"n.	c #2E0162",
"o.	c #2D0171",
"p.	c #36038E",
"q.	c #38038F",
"r.	c #210168",
"s.	c #240167",
"t.	c #290170",
"u.	c #280169",
"v.	c #22015F",
"w.	c #2E0170",
"x.	c #41038D",
"y.	c #490598",
"z.	c #32047D",
"A.	c #230562",
"B.	c #200850",
"C.	c #190939",
"D.	c #140927",
"E.	c #0F071D",
"F.	c #120825",
"G.	c #1C0935",
"H.	c #1F0B37",
"I.	c #220B3C",
"J.	c #2B0D4D",
"K.	c #300E5C",
"L.	c #270B53",
"M.	c #1B0549",
"N.	c #120438",
"O.	c #1B0C30",
"P.	c #140C27",
"Q.	c #0C081D",
"R.	c #030312",
"S.	c #050412",
"T.	c #070515",
"U.	c #0C081C",
"V.	c #100921",
"W.	c #110923",
"X.	c #0F091E",
"Y.	c #120921",
"Z.	c #070615",
"`.	c #050515",
" +	c #08061A",
".+	c #09061A",
"++	c #0F0824",
"@+	c #14082F",
"#+	c #1E0843",
"$+	c #320960",
"%+	c #491174",
"&+	c #461266",
"*+	c #050312",
"=+	c #140A27",
"-+	c #211039",
";+	c #281247",
">+	c #2E0E55",
",+	c #3C0B70",
"'+	c #5B1195",
")+	c #660FA8",
"!+	c #5703A1",
"~+	c #4D0292",
"{+	c #32016A",
"]+	c #1D024E",
"^+	c #1F015E",
"/+	c #290276",
"(+	c #26016C",
"_+	c #17014A",
":+	c #1F0155",
"<+	c #25016A",
"[+	c #1A0151",
"}+	c #11013C",
"|+	c #1C0151",
"1+	c #360380",
"2+	c #4B069F",
"3+	c #39058A",
"4+	c #2A066F",
"5+	c #1E0657",
"6+	c #1B0847",
"7+	c #160931",
"8+	c #100821",
"9+	c #0D0522",
"0+	c #10052C",
"a+	c #13082A",
"b+	c #130824",
"c+	c #0F071F",
"d+	c #0A071E",
"e+	c #120830",
"f+	c #200C45",
"g+	c #1E084D",
"h+	c #28113A",
"i+	c #0D0822",
"j+	c #120B27",
"k+	c #0B071B",
"l+	c #040412",
"m+	c #0D081D",
"n+	c #0C071A",
"o+	c #0B081C",
"p+	c #1C0D38",
"q+	c #200C44",
"r+	c #240755",
"s+	c #300763",
"t+	c #2F0754",
"u+	c #1B052E",
"v+	c #080514",
"w+	c #0B0719",
"x+	c #110921",
"y+	c #1D0E33",
"z+	c #271144",
"A+	c #2F0F57",
"B+	c #37096C",
"C+	c #460787",
"D+	c #5D0CA0",
"E+	c #5D0D9D",
"F+	c #460294",
"G+	c #43018E",
"H+	c #360171",
"I+	c #260156",
"J+	c #210156",
"K+	c #22015C",
"L+	c #1F0152",
"M+	c #1F014C",
"N+	c #27015C",
"O+	c #23015C",
"P+	c #140143",
"Q+	c #0A012E",
"R+	c #120140",
"S+	c #3C0392",
"T+	c #40039D",
"U+	c #360585",
"V+	c #2D0379",
"W+	c #260566",
"X+	c #1C0942",
"Y+	c #120535",
"Z+	c #1C093A",
"`+	c #351346",
" @	c #2A103B",
".@	c #1F0E2E",
"+@	c #160C25",
"@@	c #140B25",
"#@	c #160C29",
"$@	c #150928",
"%@	c #060518",
"&@	c #040415",
"*@	c #0A0718",
"=@	c #090717",
"-@	c #0A061A",
";@	c #0C081B",
">@	c #070414",
",@	c #0B0618",
"'@	c #160B2A",
")@	c #251149",
"!@	c #280E58",
"~@	c #23085C",
"{@	c #20054A",
"]@	c #14042D",
"^@	c #050413",
"/@	c #090616",
"(@	c #0E081C",
"_@	c #1F122F",
":@	c #2C144A",
"<@	c #351160",
"[@	c #3E0C74",
"}@	c #48088A",
"|@	c #4A0494",
"1@	c #4E0898",
"2@	c #460792",
"3@	c #3C0291",
"4@	c #430291",
"5@	c #3A0276",
"6@	c #270254",
"7@	c #21024A",
"8@	c #240152",
"9@	c #230151",
"0@	c #230153",
"a@	c #240156",
"b@	c #1C014A",
"c@	c #0E0130",
"d@	c #0C012F",
"e@	c #12023C",
"f@	c #1A0252",
"g@	c #200163",
"h@	c #240169",
"i@	c #2E0274",
"j@	c #31027B",
"k@	c #320476",
"l@	c #290C55",
"m@	c #170A2E",
"n@	c #0D0524",
"o@	c #140436",
"p@	c #290944",
"q@	c #4A155D",
"r@	c #3D1356",
"s@	c #330F5A",
"t@	c #331157",
"u@	c #2A1045",
"v@	c #271041",
"w@	c #281045",
"x@	c #270F44",
"y@	c #230F3C",
"z@	c #1F0C34",
"A@	c #09051D",
"B@	c #0A071B",
"C@	c #070518",
"D@	c #040312",
"E@	c #0C0820",
"F@	c #0C081F",
"G@	c #050313",
"H@	c #060312",
"I@	c #281050",
"J@	c #2B0A69",
"K@	c #2B0864",
"L@	c #11042E",
"M@	c #080516",
"N@	c #0C071B",
"O@	c #120920",
"P@	c #2F1948",
"Q@	c #421C70",
"R@	c #4B1384",
"S@	c #510E91",
"T@	c #50089B",
"U@	c #42039B",
"V@	c #390393",
"W@	c #330391",
"X@	c #34028C",
"Y@	c #380282",
"Z@	c #2B0264",
"`@	c #1C0244",
" #	c #1B0244",
".#	c #20014F",
"+#	c #1F014F",
"@#	c #14013B",
"##	c #0D012D",
"$#	c #0F0132",
"%#	c #11013A",
"&#	c #13013D",
"*#	c #160145",
"=#	c #1C014C",
"-#	c #28015F",
";#	c #2F016C",
">#	c #2F0668",
",#	c #2C0E52",
"'#	c #1B0C2F",
")#	c #0E042E",
"!#	c #18063C",
"~#	c #2D0B46",
"{#	c #3F104D",
"]#	c #380A46",
"^#	c #360A5D",
"/#	c #2D0B63",
"(#	c #280C59",
"_#	c #2A0C57",
":#	c #2E0D5A",
"<#	c #2F0D5D",
"[#	c #250A50",
"}#	c #1B0743",
"|#	c #150833",
"1#	c #140928",
"2#	c #140C26",
"3#	c #0A081B",
"4#	c #060517",
"5#	c #0B0720",
"6#	c #0C0720",
"7#	c #030310",
"8#	c #0A051F",
"9#	c #1C0A43",
"0#	c #260961",
"a#	c #08031E",
"b#	c #070516",
"c#	c #130921",
"d#	c #1D112F",
"e#	c #201233",
"f#	c #3A1D5B",
"g#	c #511D8A",
"h#	c #601E9B",
"i#	c #6419A3",
"j#	c #570CA7",
"k#	c #3C0394",
"l#	c #270180",
"m#	c #270182",
"n#	c #22016D",
"o#	c #1C0154",
"p#	c #14013E",
"q#	c #15014A",
"r#	c #16014B",
"s#	c #130141",
"t#	c #0F0135",
"u#	c #090124",
"v#	c #0E012F",
"w#	c #110138",
"x#	c #12013C",
"y#	c #1B014A",
"z#	c #26015C",
"A#	c #2F016B",
"B#	c #2F0172",
"C#	c #290862",
"D#	c #250C4A",
"E#	c #19083C",
"F#	c #15053D",
"G#	c #210843",
"H#	c #26093F",
"I#	c #200630",
"J#	c #3A0F3A",
"K#	c #621F57",
"L#	c #611F5E",
"M#	c #380F4F",
"N#	c #1F0553",
"O#	c #21065C",
"P#	c #2C0866",
"Q#	c #2F0C67",
"R#	c #2F0C65",
"S#	c #250A51",
"T#	c #210F35",
"U#	c #120A24",
"V#	c #09051C",
"W#	c #030311",
"X#	c #080517",
"Y#	c #180935",
"Z#	c #160836",
"`#	c #150B23",
" $	c #241435",
".$	c #2F1A48",
"+$	c #3B1B5F",
"@$	c #542481",
"#$	c #6C2AA5",
"$$	c #722DA7",
"%$	c #631DA3",
"&$	c #540CA2",
"*$	c #2F008D",
"=$	c #200171",
"-$	c #1F016F",
";$	c #14014E",
">$	c #0C0137",
",$	c #0B0234",
"'$	c #090230",
")$	c #100145",
"!$	c #150156",
"~$	c #150155",
"{$	c #10013F",
"]$	c #0A012B",
"^$	c #06011E",
"/$	c #07011F",
"($	c #0B0126",
"_$	c #120138",
":$	c #150148",
"<$	c #1B0254",
"[$	c #2A016D",
"}$	c #32017D",
"|$	c #2F0181",
"1$	c #29066F",
"2$	c #230858",
"3$	c #1A054E",
"4$	c #1D0845",
"5$	c #230940",
"6$	c #210836",
"7$	c #210B2B",
"8$	c #491A44",
"9$	c #622257",
"0$	c #601F56",
"a$	c #401145",
"b$	c #24034C",
"c$	c #1E025B",
"d$	c #4E0D85",
"e$	c #7F28A6",
"f$	c #722596",
"g$	c #48176A",
"h$	c #2A133C",
"i$	c #0F0921",
"j$	c #090719",
"k$	c #0C081E",
"l$	c #08061B",
"m$	c #150A2A",
"n$	c #0E081D",
"o$	c #110A21",
"p$	c #1A0E29",
"q$	c #261538",
"r$	c #341C4D",
"s$	c #401F68",
"t$	c #59278B",
"u$	c #7436A4",
"v$	c #772FAC",
"w$	c #7027A6",
"x$	c #510F96",
"y$	c #3C028F",
"z$	c #300186",
"A$	c #210170",
"B$	c #1A0162",
"C$	c #10014A",
"D$	c #0C013D",
"E$	c #0D0141",
"F$	c #0D023F",
"G$	c #100147",
"H$	c #160256",
"I$	c #150253",
"J$	c #120247",
"K$	c #0C0231",
"L$	c #09022B",
"M$	c #080226",
"N$	c #0B022A",
"O$	c #14013C",
"P$	c #1D0258",
"Q$	c #1D0263",
"R$	c #29027C",
"S$	c #320188",
"T$	c #290180",
"U$	c #250370",
"V$	c #210656",
"W$	c #1A0845",
"X$	c #1C0A37",
"Y$	c #1E0834",
"Z$	c #160629",
"`$	c #3D1D42",
" %	c #582856",
".%	c #592353",
"+%	c #3A1237",
"@%	c #2E0836",
"#%	c #3C0D55",
"$%	c #2B065A",
"%%	c #2E0377",
"&%	c #570D9F",
"*%	c #651E98",
"=%	c #501E6B",
"-%	c #2D143E",
";%	c #100825",
">%	c #090617",
",%	c #060415",
"'%	c #03030F",
")%	c #120924",
"!%	c #130B23",
"~%	c #140C23",
"{%	c #1A0F2B",
"]%	c #24143A",
"^%	c #311A4E",
"/%	c #411C6E",
"(%	c #4F1A88",
"_%	c #6821A0",
":%	c #7629AA",
"<%	c #7523AA",
"[%	c #6616A1",
"}%	c #4B078F",
"|%	c #380189",
"1%	c #310286",
"2%	c #21026F",
"3%	c #140152",
"4%	c #0D013F",
"5%	c #0A0136",
"6%	c #0B0134",
"7%	c #0F0238",
"8%	c #12023D",
"9%	c #140244",
"0%	c #140242",
"a%	c #14023D",
"b%	c #13023C",
"c%	c #13023D",
"d%	c #110239",
"e%	c #13013C",
"f%	c #1B0253",
"g%	c #280275",
"h%	c #32038A",
"i%	c #32028E",
"j%	c #27027D",
"k%	c #21036B",
"l%	c #1A0644",
"m%	c #1B0D35",
"n%	c #18092D",
"o%	c #130526",
"p%	c #1B0A2F",
"q%	c #472451",
"r%	c #5D2D5A",
"s%	c #3C193C",
"t%	c #170426",
"u%	c #230635",
"v%	c #451355",
"w%	c #360D53",
"x%	c #21036E",
"y%	c #5B0AA3",
"z%	c #66228B",
"A%	c #4A1E60",
"B%	c #27113D",
"C%	c #110927",
"D%	c #080519",
"E%	c #03030E",
"F%	c #0A0617",
"G%	c #0F091F",
"H%	c #140C24",
"I%	c #1B0E32",
"J%	c #2E174C",
"K%	c #4A2273",
"L%	c #501B8D",
"M%	c #4A0C92",
"N%	c #6316A0",
"O%	c #6D1CA7",
"P%	c #6814A6",
"Q%	c #5C0B9D",
"R%	c #45048D",
"S%	c #340183",
"T%	c #290176",
"U%	c #1A015A",
"V%	c #10013E",
"W%	c #0C0130",
"X%	c #0B012B",
"Y%	c #0F0230",
"Z%	c #15023B",
"`%	c #17023C",
" &	c #150239",
".&	c #16023A",
"+&	c #1A0240",
"@&	c #1E0348",
"#&	c #200250",
"$&	c #1C024E",
"%&	c #150240",
"&&	c #100236",
"*&	c #15023E",
"=&	c #220259",
"-&	c #30037C",
";&	c #320286",
">&	c #2A0280",
",&	c #250374",
"'&	c #210A4E",
")&	c #1C0D32",
"!&	c #15082B",
"~&	c #170833",
"{&	c #291348",
"]&	c #341A4B",
"^&	c #321840",
"/&	c #140523",
"(&	c #1E0732",
"_&	c #260941",
":&	c #250846",
"<&	c #19053C",
"[&	c #200640",
"}&	c #651E88",
"|&	c #692389",
"1&	c #3C1758",
"2&	c #230E3F",
"3&	c #140A2A",
"4&	c #09071D",
"5&	c #0D0821",
"6&	c #020208",
"7&	c #0B071C",
"8&	c #080515",
"9&	c #0C0721",
"0&	c #150B2E",
"a&	c #1F103B",
"b&	c #422163",
"c&	c #672F95",
"d&	c #5A1AA2",
"e&	c #540CA0",
"f&	c #6012A8",
"g&	c #6213A6",
"h&	c #57089F",
"i&	c #510599",
"j&	c #3A0385",
"k&	c #290173",
"l&	c #1B0257",
"m&	c #140245",
"n&	c #13023A",
"o&	c #130236",
"p&	c #130235",
"q&	c #15023C",
"r&	c #15023D",
"s&	c #160241",
"t&	c #160247",
"u&	c #18024B",
"v&	c #1E0251",
"w&	c #23025A",
"x&	c #22015B",
"y&	c #1F0253",
"z&	c #180245",
"A&	c #190246",
"B&	c #24025C",
"C&	c #2F026F",
"D&	c #300278",
"E&	c #2E0280",
"F&	c #2B047E",
"G&	c #260C5C",
"H&	c #1E0E33",
"I&	c #190838",
"J&	c #220B4C",
"K&	c #291152",
"L&	c #230F42",
"M&	c #140629",
"N&	c #190630",
"O&	c #21083C",
"P&	c #20083F",
"Q&	c #140537",
"R&	c #110432",
"S&	c #12042F",
"T&	c #2D0B44",
"U&	c #41135D",
"V&	c #330F55",
"W&	c #270E48",
"X&	c #1B0C36",
"Y&	c #060413",
"Z&	c #0A061B",
"`&	c #0A0620",
" *	c #12082C",
".*	c #170B2F",
"+*	c #281440",
"@*	c #5D2E7C",
"#*	c #702FA4",
"$*	c #631DAB",
"%*	c #681FAA",
"&*	c #550FA1",
"**	c #45068F",
"=*	c #3D0288",
"-*	c #3F0386",
";*	c #2D0273",
">*	c #21015F",
",*	c #140243",
"'*	c #11023B",
")*	c #18023F",
"!*	c #180240",
"~*	c #180242",
"{*	c #140240",
"]*	c #160155",
"^*	c #1B0165",
"/*	c #1A0265",
"(*	c #1F016B",
"_*	c #29017F",
":*	c #2F0282",
"<*	c #290270",
"[*	c #200259",
"}*	c #1D024D",
"|*	c #1E024B",
"1*	c #220157",
"2*	c #2B0168",
"3*	c #2F0273",
"4*	c #300281",
"5*	c #2E047B",
"6*	c #260B57",
"7*	c #200B43",
"8*	c #210855",
"9*	c #260A5E",
"0*	c #220B4E",
"a*	c #170834",
"b*	c #14052B",
"c*	c #1C0838",
"d*	c #1D0843",
"e*	c #17053E",
"f*	c #11052F",
"g*	c #100624",
"h*	c #0F061D",
"i*	c #130822",
"j*	c #1C0830",
"k*	c #230A41",
"l*	c #240C4A",
"m*	c #220F45",
"n*	c #1C0E38",
"o*	c #0C071F",
"p*	c #13092A",
"q*	c #1C0C3B",
"r*	c #2A0F4E",
"s*	c #3A1465",
"t*	c #4D1B7E",
"u*	c #632697",
"v*	c #6823A8",
"w*	c #6E29A9",
"x*	c #6C2CA1",
"y*	c #4A1288",
"z*	c #220167",
"A*	c #240166",
"B*	c #220162",
"C*	c #180155",
"D*	c #110143",
"E*	c #0C0235",
"F*	c #10023C",
"G*	c #170241",
"H*	c #15023F",
"I*	c #150245",
"J*	c #190257",
"K*	c #240275",
"L*	c #230179",
"M*	c #2B0287",
"N*	c #42049F",
"O*	c #48069F",
"P*	c #36038D",
"Q*	c #270272",
"R*	c #240263",
"S*	c #24025A",
"T*	c #210252",
"U*	c #260160",
"V*	c #2E0178",
"W*	c #350289",
"X*	c #330284",
"Y*	c #29085D",
"Z*	c #240665",
"`*	c #25056C",
" =	c #23085E",
".=	c #1B0940",
"+=	c #180A2F",
"@=	c #1A0B32",
"#=	c #1B0842",
"$=	c #1C064B",
"%=	c #1C0746",
"&=	c #200C3C",
"*=	c #210C3D",
"==	c #1D0B37",
"-=	c #190A30",
";=	c #170A2B",
">=	c #14092B",
",=	c #1A093B",
"'=	c #241049",
")=	c #22113F",
"!=	c #0A071C",
"~=	c #2B134B",
"{=	c #3B156A",
"]=	c #4E1687",
"^=	c #5D14A0",
"/=	c #5810A1",
"(=	c #55139F",
"_=	c #530EA0",
":=	c #550F9B",
"<=	c #4F1290",
"[=	c #360778",
"}=	c #1B0259",
"|=	c #170153",
"1=	c #160153",
"2=	c #13014C",
"3=	c #110247",
"4=	c #100242",
"5=	c #100243",
"6=	c #110241",
"7=	c #150241",
"8=	c #1E0256",
"9=	c #2B0274",
"0=	c #2E027E",
"a=	c #360387",
"b=	c #44068D",
"c=	c #500C98",
"d=	c #540E9A",
"e=	c #370483",
"f=	c #280178",
"g=	c #25016B",
"h=	c #23025F",
"i=	c #250165",
"j=	c #290171",
"k=	c #300182",
"l=	c #330188",
"m=	c #240366",
"n=	c #210264",
"o=	c #240465",
"p=	c #210949",
"q=	c #200E3A",
"r=	c #210E3C",
"s=	c #210C47",
"t=	c #260563",
"u=	c #270760",
"v=	c #320A63",
"w=	c #2F115B",
"x=	c #300D6B",
"y=	c #2C0871",
"z=	c #210957",
"A=	c #210D43",
"B=	c #1D0C37",
"C=	c #15082F",
"D=	c #180B31",
"E=	c #130924",
"F=	c #03030C",
"G=	c #0B071E",
"H=	c #2B1349",
"I=	c #451C73",
"J=	c #501893",
"K=	c #540FA1",
"L=	c #4E089B",
"M=	c #450492",
"N=	c #420392",
"O=	c #400390",
"P=	c #43038E",
"Q=	c #44028C",
"R=	c #370279",
"S=	c #21025C",
"T=	c #190254",
"U=	c #1A0158",
"V=	c #1A025A",
"W=	c #180256",
"X=	c #140248",
"Y=	c #0D0236",
"Z=	c #0D0231",
"`=	c #0E0234",
" -	c #0F023B",
".-	c #120243",
"+-	c #17024E",
"@-	c #22025F",
"#-	c #250267",
"$-	c #29026B",
"%-	c #34046E",
"&-	c #480C7F",
"*-	c #54108D",
"=-	c #49098F",
"--	c #3C0390",
";-	c #37038A",
">-	c #300280",
",-	c #2F017B",
"'-	c #2C0171",
")-	c #2C0173",
"!-	c #2F017D",
"~-	c #21015D",
"{-	c #210451",
"]-	c #220947",
"^-	c #260D4D",
"/-	c #280A5C",
"(-	c #3F0785",
"_-	c #490396",
":-	c #4D0693",
"<-	c #4D088E",
"[-	c #32057A",
"}-	c #33038B",
"|-	c #370394",
"1-	c #290869",
"2-	c #200A4C",
"3-	c #260F4D",
"4-	c #26103F",
"5-	c #1B0C2C",
"6-	c #050314",
"7-	c #09071B",
"8-	c #0F0924",
"9-	c #1E0F37",
"0-	c #3F1D65",
"a-	c #571C93",
"b-	c #5711A5",
"c-	c #5B07A7",
"d-	c #45038D",
"e-	c #390284",
"f-	c #3C0288",
"g-	c #3F0287",
"h-	c #38017C",
"i-	c #2E016F",
"j-	c #220264",
"k-	c #1E025F",
"l-	c #210165",
"m-	c #200263",
"n-	c #12023E",
"o-	c #0C022E",
"p-	c #09012A",
"q-	c #0B0131",
"r-	c #0F023E",
"s-	c #100247",
"t-	c #11024C",
"u-	c #11014E",
"v-	c #140250",
"w-	c #180258",
"x-	c #200261",
"y-	c #21025A",
"z-	c #2F055E",
"A-	c #3E0971",
"B-	c #480A83",
"C-	c #500994",
"D-	c #4D069B",
"E-	c #400395",
"F-	c #39018A",
"G-	c #320179",
"H-	c #2D026B",
"I-	c #2D016E",
"J-	c #22015E",
"K-	c #1C0248",
"L-	c #20034F",
"M-	c #20035C",
"N-	c #260274",
"O-	c #5203A3",
"P-	c #5F08A8",
"Q-	c #5404A0",
"R-	c #37008B",
"S-	c #35018C",
"T-	c #3F0498",
"U-	c #3B1176",
"V-	c #30105B",
"W-	c #2C0E5B",
"X-	c #321257",
"Y-	c #2C1145",
"Z-	c #1C0C2A",
"`-	c #070519",
" ;	c #0F0822",
".;	c #1B0D31",
"+;	c #351954",
"@;	c #5A2485",
"#;	c #6D20A8",
"$;	c #6514A9",
"%;	c #5909A1",
"&;	c #4E0796",
"*;	c #350183",
"=;	c #35017F",
"-;	c #36027B",
";;	c #37027C",
">;	c #2B0170",
",;	c #200164",
"';	c #24016D",
");	c #210164",
"!;	c #200160",
"~;	c #1D0157",
"{;	c #13023B",
"];	c #0C012C",
"^;	c #090125",
"/;	c #0B012E",
"(;	c #11023E",
"_;	c #180257",
":;	c #190160",
"<;	c #16015C",
"[;	c #150159",
"};	c #18015C",
"|;	c #1B0161",
"1;	c #1E0164",
"2;	c #1D025B",
"3;	c #1C0253",
"4;	c #240358",
"5;	c #310568",
"6;	c #4B0982",
"7;	c #5B0B96",
"8;	c #530799",
"9;	c #410391",
"0;	c #34017E",
"a;	c #2B0262",
"b;	c #26025B",
"c;	c #21025B",
"d;	c #190249",
"e;	c #180142",
"f;	c #19014B",
"g;	c #190159",
"h;	c #1D016C",
"i;	c #310189",
"j;	c #4D03A1",
"k;	c #5B06A8",
"l;	c #50039F",
"m;	c #3C018F",
"n;	c #460298",
"o;	c #4A039F",
"p;	c #42098B",
"q;	c #420E7A",
"r;	c #3C0B72",
"s;	c #2F0D64",
"t;	c #32105A",
"u;	c #2B0F4A",
"v;	c #1C0C31",
"w;	c #1E1032",
"x;	c #2F174A",
"y;	c #4C2072",
"z;	c #722A9F",
"A;	c #7F2DAC",
"B;	c #681BA1",
"C;	c #440593",
"D;	c #3C0190",
"E;	c #2E017B",
"F;	c #2D0175",
"G;	c #2B0270",
"H;	c #2C0175",
"I;	c #2B0174",
"J;	c #260168",
"K;	c #210259",
"L;	c #1B014B",
"M;	c #170240",
"N;	c #10022F",
"O;	c #0E0133",
"P;	c #150146",
"Q;	c #1F0162",
"R;	c #2F027A",
"S;	c #2B0183",
"T;	c #22016E",
"U;	c #25026D",
"V;	c #2A0271",
"W;	c #200165",
"X;	c #1C0162",
"Y;	c #1C016B",
"Z;	c #1D016A",
"`;	c #41077C",
" >	c #5C108E",
".>	c #67129D",
"+>	c #560A9B",
"@>	c #3D0388",
"#>	c #2F0166",
"$>	c #260254",
"%>	c #250259",
"&>	c #16023E",
"*>	c #150142",
"=>	c #160151",
"->	c #190162",
";>	c #2A0177",
">>	c #470399",
",>	c #440295",
"'>	c #3D018F",
")>	c #4E039B",
"!>	c #5B03A8",
"~>	c #54039C",
"{>	c #4A048F",
"]>	c #440589",
"^>	c #330678",
"/>	c #290867",
"(>	c #2F0E5E",
"_>	c #2B104A",
":>	c #0D071D",
"<>	c #1D0F30",
"[>	c #32184A",
"}>	c #461C6F",
"|>	c #5D1F92",
"1>	c #782CA8",
"2>	c #782DA8",
"3>	c #4E1393",
"4>	c #300282",
"5>	c #2D017B",
"6>	c #28016E",
"7>	c #270169",
"8>	c #280167",
"9>	c #2C0167",
"0>	c #240157",
"a>	c #1D024B",
"b>	c #1B0246",
"c>	c #190240",
"d>	c #1C0243",
"e>	c #17023F",
"f>	c #1B0251",
"g>	c #230166",
"h>	c #2F0278",
"i>	c #3D028D",
"j>	c #51049F",
"k>	c #4E039F",
"l>	c #490393",
"m>	c #45028F",
"n>	c #43028D",
"o>	c #2C0174",
"p>	c #260174",
"q>	c #2C0188",
"r>	c #280188",
"s>	c #250282",
"t>	c #2A0186",
"u>	c #320288",
"v>	c #520F88",
"w>	c #752192",
"x>	c #69179C",
"y>	c #4B0598",
"z>	c #3D0177",
"A>	c #2C0253",
"B>	c #26025A",
"C>	c #1C024F",
"D>	c #14023B",
"E>	c #120235",
"F>	c #120141",
"G>	c #140151",
"H>	c #1C015F",
"I>	c #280175",
"J>	c #300184",
"K>	c #310180",
"L>	c #41028A",
"M>	c #640A9F",
"N>	c #700AA8",
"O>	c #5B049B",
"P>	c #480192",
"Q>	c #3C0188",
"R>	c #2C0272",
"S>	c #1F035C",
"T>	c #22085B",
"U>	c #290D57",
"V>	c #190D2B",
"W>	c #31164B",
"X>	c #4E216F",
"Y>	c #5F1C97",
"Z>	c #6315A8",
"`>	c #6C1EA9",
" ,	c #601AA1",
".,	c #280172",
"+,	c #22015D",
"@,	c #210157",
"#,	c #210254",
"$,	c #21024C",
"%,	c #1D0245",
"&,	c #19023D",
"*,	c #140237",
"=,	c #1A0245",
"-,	c #220256",
";,	c #300171",
">,	c #390184",
",,	c #4C029C",
"',	c #5D04A5",
"),	c #6A08AB",
"!,	c #7007AC",
"~,	c #6F06A8",
"{,	c #6004A4",
"],	c #5504A2",
"^,	c #440392",
"/,	c #3C038D",
"(,	c #350191",
"_,	c #2F018D",
":,	c #2D028A",
"<,	c #2F028C",
"[,	c #350390",
"},	c #470789",
"|,	c #68188B",
"1,	c #721B9A",
"2,	c #5D0AA2",
"3,	c #50038C",
"4,	c #3B0263",
"5,	c #2D0263",
"6,	c #1B0159",
"7,	c #0F0133",
"8,	c #10013C",
"9,	c #140156",
"0,	c #180157",
"a,	c #240175",
"b,	c #2C0186",
"c,	c #280174",
"d,	c #410283",
"e,	c #7716A5",
"f,	c #7511A9",
"g,	c #59049B",
"h,	c #470195",
"i,	c #360186",
"j,	c #1F015D",
"k,	c #12013E",
"l,	c #140341",
"m,	c #210752",
"n,	c #2A1242",
"o,	c #461B68",
"p,	c #6E2B94",
"q,	c #7024A7",
"r,	c #6213A9",
"s,	c #640FA8",
"t,	c #57089D",
"u,	c #3C0382",
"v,	c #2B016D",
"w,	c #23015B",
"x,	c #210152",
"y,	c #180241",
"z,	c #140238",
"A,	c #120137",
"B,	c #1A014A",
"C,	c #21015A",
"D,	c #2D016F",
"E,	c #440193",
"F,	c #4E029B",
"G,	c #5903A1",
"H,	c #5F03A0",
"I,	c #60049F",
"J,	c #6504A2",
"K,	c #6806A3",
"L,	c #6307A3",
"M,	c #5E09A8",
"N,	c #610BA9",
"O,	c #5C0AA8",
"P,	c #48059D",
"Q,	c #3B0396",
"R,	c #37028F",
"S,	c #300286",
"T,	c #350387",
"U,	c #4F0C90",
"V,	c #60128D",
"W,	c #631190",
"X,	c #620B9F",
"Y,	c #5A0396",
"Z,	c #460272",
"`,	c #33026E",
" '	c #0F0239",
".'	c #0F022F",
"+'	c #0F023A",
"@'	c #130150",
"#'	c #13014B",
"$'	c #1D0168",
"%'	c #2A0188",
"&'	c #270172",
"*'	c #43057F",
"='	c #6F15A7",
"-'	c #6E12AB",
";'	c #53039F",
">'	c #5507A1",
",'	c #3C0191",
"''	c #160144",
")'	c #1C0351",
"!'	c #060416",
"~'	c #3C1562",
"{'	c #4E1880",
"]'	c #7124A6",
"^'	c #6615A9",
"/'	c #6814AA",
"('	c #6915A7",
"_'	c #5F0C9F",
":'	c #4B048A",
"<'	c #360273",
"['	c #27025B",
"}'	c #1D0249",
"|'	c #180243",
"1'	c #1D014A",
"2'	c #1A0248",
"3'	c #170248",
"4'	c #18014F",
"5'	c #240165",
"6'	c #2D0174",
"7'	c #3E0283",
"8'	c #4D0394",
"9'	c #54039D",
"0'	c #58039D",
"a'	c #520295",
"b'	c #4B038F",
"c'	c #490291",
"d'	c #4D0198",
"e'	c #52039B",
"f'	c #57069F",
"g'	c #5B09A3",
"h'	c #630CA8",
"i'	c #600AA9",
"j'	c #4D04A1",
"k'	c #400397",
"l'	c #300181",
"m'	c #3C0784",
"n'	c #560C8C",
"o'	c #57088C",
"p'	c #57069A",
"q'	c #520393",
"r'	c #410273",
"s'	c #2F0265",
"t'	c #200161",
"u'	c #0E0231",
"v'	c #0E023A",
"w'	c #100245",
"x'	c #13014A",
"y'	c #21017A",
"z'	c #21016B",
"A'	c #350376",
"B'	c #5D13A0",
"C'	c #6B1CAB",
"D'	c #6B20A9",
"E'	c #6515A8",
"F'	c #420399",
"G'	c #2B0173",
"H'	c #2D016A",
"I'	c #270163",
"J'	c #1E015B",
"K'	c #190835",
"L'	c #3C1270",
"M'	c #451086",
"N'	c #5A11A1",
"O'	c #6412A9",
"P'	c #600FA4",
"Q'	c #5B129A",
"R'	c #530893",
"S'	c #3D0378",
"T'	c #2A025F",
"U'	c #1F024B",
"V'	c #170247",
"W'	c #1E0157",
"X'	c #21015C",
"Y'	c #1D0257",
"Z'	c #1E015D",
"`'	c #210166",
" )	c #2C017B",
".)	c #3C028E",
"+)	c #5904A4",
"@)	c #5D04A4",
"#)	c #58039F",
"$)	c #530299",
"%)	c #4A0390",
"&)	c #530497",
"*)	c #5B06A1",
"=)	c #600AA6",
"-)	c #5C0AA4",
";)	c #57089E",
">)	c #4B0593",
",)	c #490392",
"')	c #4C039B",
"))	c #4E039E",
"!)	c #3C0389",
"~)	c #2F0274",
"{)	c #27026B",
"])	c #2A027F",
"^)	c #3F0895",
"/)	c #4A098F",
"()	c #4A0589",
"_)	c #4A0394",
":)	c #39016D",
"<)	c #2C025D",
"[)	c #130148",
"})	c #0F0139",
"|)	c #0E013B",
"1)	c #120146",
"2)	c #1A0160",
"3)	c #1E0172",
"4)	c #220170",
"5)	c #32037C",
"6)	c #501396",
"7)	c #661EA8",
"8)	c #6C1EAB",
"9)	c #6618A8",
"0)	c #460599",
"a)	c #380184",
"b)	c #3A017B",
"c)	c #2B016C",
"d)	c #1B0941",
"e)	c #2E0A6D",
"f)	c #340883",
"g)	c #47069A",
"h)	c #55099F",
"i)	c #48078D",
"j)	c #39047B",
"k)	c #1D0150",
"l)	c #150149",
"m)	c #1C0156",
"n)	c #210163",
"o)	c #21015E",
"p)	c #1E0259",
"q)	c #210169",
"r)	c #280179",
"s)	c #32018C",
"t)	c #4903A0",
"u)	c #4A029A",
"v)	c #490298",
"w)	c #4B029B",
"x)	c #5606A0",
"y)	c #620AA8",
"z)	c #7113AD",
"A)	c #6512A6",
"B)	c #510B98",
"C)	c #48058E",
"D)	c #30027F",
"E)	c #300180",
"F)	c #36027D",
"G)	c #2F027C",
"H)	c #230264",
"I)	c #180249",
"J)	c #200264",
"K)	c #38068D",
"L)	c #450892",
"M)	c #400382",
"N)	c #42028D",
"O)	c #41028C",
"P)	c #3C0272",
"Q)	c #2C025C",
"R)	c #190251",
"S)	c #120142",
"T)	c #11013E",
"U)	c #100140",
"V)	c #100241",
"W)	c #1C0269",
"X)	c #1F0176",
"Y)	c #1E0170",
"Z)	c #250174",
"`)	c #360389",
" !	c #3F0398",
".!	c #530CA2",
"+!	c #6214AA",
"@!	c #5A11A5",
"#!	c #430398",
"$!	c #3C0187",
"%!	c #36017A",
"&!	c #30017A",
"*!	c #30037E",
"=!	c #1D0A4C",
"-!	c #22036E",
";!	c #2D0283",
">!	c #36028C",
",!	c #3A0386",
"'!	c #2F0271",
")!	c #200159",
"!!	c #170148",
"~!	c #0E0135",
"{!	c #1C0155",
"]!	c #1E0155",
"^!	c #1D0260",
"/!	c #2E0188",
"(!	c #42029B",
"_!	c #3F019A",
":!	c #4C03A2",
"<!	c #5B07A4",
"[!	c #5806A5",
"}!	c #5806A8",
"|!	c #5405A5",
"1!	c #4A0499",
"2!	c #3F048B",
"3!	c #33037D",
"4!	c #2D0276",
"5!	c #280276",
"6!	c #21016E",
"7!	c #23016A",
"8!	c #290178",
"9!	c #24016B",
"0!	c #17014D",
"a!	c #26037A",
"b!	c #400698",
"c!	c #37027A",
"d!	c #3F028A",
"e!	c #3D0270",
"f!	c #270259",
"g!	c #15024A",
"h!	c #10013B",
"i!	c #110141",
"j!	c #120147",
"k!	c #180254",
"l!	c #200274",
"m!	c #1F0277",
"n!	c #1D0169",
"o!	c #240171",
"p!	c #2C0181",
"q!	c #460695",
"r!	c #570BA6",
"s!	c #4C06A2",
"t!	c #3F0296",
"u!	c #310179",
"v!	c #270167",
"w!	c #390383",
"x!	c #571399",
"y!	c #1C0851",
"z!	c #1F026C",
"A!	c #2D0173",
"B!	c #21015B",
"C!	c #100137",
"D!	c #0F0136",
"E!	c #130243",
"F!	c #1A014D",
"G!	c #1D0151",
"H!	c #1A014C",
"I!	c #14014C",
"J!	c #180160",
"K!	c #24017C",
"L!	c #2F018B",
"M!	c #2D0184",
"N!	c #30018B",
"O!	c #41029B",
"P!	c #5905A8",
"Q!	c #6409A8",
"R!	c #440394",
"S!	c #36018A",
"T!	c #2B016B",
"U!	c #280261",
"V!	c #22025B",
"W!	c #1F0160",
"X!	c #180156",
"Y!	c #1E015E",
"Z!	c #210265",
"`!	c #17024A",
" ~	c #160148",
".~	c #2A0278",
"+~	c #3C0395",
"@~	c #3A0281",
"#~	c #44028A",
"$~	c #46028C",
"%~	c #3C026D",
"&~	c #1D024A",
"*~	c #0E0140",
"=~	c #0D0135",
"-~	c #110144",
";~	c #1E025A",
">~	c #220284",
",~	c #1C0272",
"'~	c #170259",
")~	c #1C0161",
"!~	c #21016A",
"~~	c #350384",
"{~	c #47059B",
"]~	c #43039C",
"^~	c #3C0294",
"/~	c #2F017C",
"(~	c #250176",
"_~	c #410492",
":~	c #6816A7",
"<~	c #1D0458",
"[~	c #2A017C",
"}~	c #320181",
"|~	c #2C016F",
"1~	c #14023C",
"2~	c #14023E",
"3~	c #150144",
"4~	c #18014A",
"5~	c #1C024C",
"6~	c #1B014E",
"7~	c #1B0169",
"8~	c #1F0178",
"9~	c #290188",
"0~	c #2D018A",
"a~	c #2D0186",
"b~	c #2A0084",
"c~	c #5605A6",
"d~	c #530599",
"e~	c #3E0384",
"f~	c #2C0178",
"g~	c #230159",
"h~	c #1E014B",
"i~	c #1A0153",
"j~	c #1B015A",
"k~	c #190157",
"l~	c #140150",
"m~	c #0F0141",
"n~	c #1A0256",
"o~	c #190253",
"p~	c #230267",
"q~	c #38028C",
"r~	c #45028C",
"s~	c #4E038E",
"t~	c #49038A",
"u~	c #3A026A",
"v~	c #0D013D",
"w~	c #0E013C",
"x~	c #14014B",
"y~	c #1F0269",
"z~	c #21027F",
"A~	c #160265",
"B~	c #17015B",
"C~	c #1B0164",
"D~	c #2D0179",
"E~	c #3B038A",
"F~	c #48039C",
"G~	c #3F038B",
"H~	c #2E018D",
"I~	c #3C029C",
"J~	c #5F0DA8",
"K~	c #1E0165",
"L~	c #2A017A",
"M~	c #2F0180",
"N~	c #32027B",
"O~	c #230257",
"P~	c #170140",
"Q~	c #190248",
"R~	c #1B0248",
"S~	c #190155",
"T~	c #1C016A",
"U~	c #280185",
"V~	c #290189",
"W~	c #240180",
"X~	c #24017D",
"Y~	c #290184",
"Z~	c #280181",
"`~	c #32018A",
" {	c #440399",
".{	c #4C0499",
"+{	c #2A016C",
"@{	c #280160",
"#{	c #130143",
"${	c #15015C",
"%{	c #190169",
"&{	c #200273",
"*{	c #220273",
"={	c #1F026F",
"-{	c #17015C",
";{	c #110145",
">{	c #140149",
",{	c #180148",
"'{	c #240268",
"){	c #380384",
"!{	c #510490",
"~{	c #5B0593",
"{{	c #4D0384",
"]{	c #340266",
"^{	c #18024C",
"/{	c #120144",
"({	c #140147",
"_{	c #220375",
":{	c #210380",
"<{	c #120255",
"[{	c #0E0242",
"}{	c #150157",
"|{	c #18015B",
"1{	c #340380",
"2{	c #460395",
"3{	c #5704A1",
"4{	c #6007A8",
"5{	c #5E07A8",
"6{	c #5203A6",
"7{	c #5908A5",
"8{	c #2F017A",
"9{	c #140139",
"0{	c #120133",
"a{	c #170242",
"b{	c #170245",
"c{	c #15014E",
"d{	c #210174",
"e{	c #2E028D",
"f{	c #2C0288",
"g{	c #1F0177",
"h{	c #210177",
"i{	c #270185",
"j{	c #370192",
"k{	c #320281",
"l{	c #290168",
"m{	c #270161",
"n{	c #14015C",
"o{	c #14015E",
"p{	c #1B026C",
"q{	c #1C0267",
"r{	c #19025B",
"s{	c #170252",
"t{	c #14014A",
"u{	c #120148",
"v{	c #0F013D",
"w{	c #170146",
"x{	c #220165",
"y{	c #350476",
"z{	c #590A8C",
"A{	c #630891",
"B{	c #4F0380",
"C{	c #330268",
"D{	c #1F0257",
"E{	c #17024C",
"F{	c #150147",
"G{	c #1A024F",
"H{	c #270370",
"I{	c #2D0487",
"J{	c #100248",
"K{	c #140255",
"L{	c #170160",
"M{	c #1A0262",
"N{	c #230270",
"O{	c #2E017E",
"P{	c #380286",
"Q{	c #4C0395",
"R{	c #6004A6",
"S{	c #6B08AA",
"T{	c #6A09AB",
"U{	c #6209A3",
"V{	c #220161",
"W{	c #100130",
"X{	c #130246",
"Y{	c #160157",
"Z{	c #220175",
"`{	c #23017B",
" ]	c #260287",
".]	c #1F017A",
"+]	c #220178",
"@]	c #2B0185",
"#]	c #2D0177",
"$]	c #1B0157",
"%]	c #1A0152",
"&]	c #230160",
"*]	c #1F0157",
"=]	c #17014E",
"-]	c #110156",
";]	c #1E0180",
">]	c #150244",
",]	c #080124",
"']	c #0D013A",
")]	c #0F023D",
"!]	c #0C013B",
"~]	c #220260",
"{]	c #35056D",
"]]	c #600D8D",
"^]	c #590786",
"/]	c #430372",
"(]	c #290261",
"_]	c #1A024A",
":]	c #250265",
"<]	c #310385",
"[]	c #2B0382",
"}]	c #19035F",
"|]	c #0E0241",
"1]	c #0E0245",
"2]	c #1A0170",
"3]	c #20026C",
"4]	c #270177",
"5]	c #310182",
"6]	c #470291",
"7]	c #5A049E",
"8]	c #6B09A8",
"9]	c #720BAB",
"0]	c #690CA3",
"a]	c #360180",
"b]	c #2D0172",
"c]	c #0F0130",
"d]	c #0E012C",
"e]	c #120134",
"f]	c #130244",
"g]	c #160257",
"h]	c #200170",
"i]	c #24027A",
"j]	c #23027C",
"k]	c #26028A",
"l]	c #26028F",
"m]	c #29017D",
"n]	c #300183",
"o]	c #17014C",
"p]	c #1C0157",
"q]	c #1E015C",
"r]	c #11014B",
"s]	c #1B0160",
"t]	c #1A024D",
"u]	c #0A0127",
"v]	c #05011B",
"w]	c #040116",
"x]	c #05011A",
"y]	c #080126",
"z]	c #0B0132",
"A]	c #0C0139",
"B]	c #2A0266",
"C]	c #40057E",
"D]	c #5A0A8D",
"E]	c #400372",
"F]	c #28025F",
"G]	c #18024A",
"H]	c #23025B",
"I]	c #330281",
"J]	c #2C0380",
"K]	c #1D0269",
"L]	c #110249",
"M]	c #0F0249",
"N]	c #140161",
"O]	c #1C0179",
"P]	c #1B016F",
"Q]	c #1A015F",
"R]	c #2F0182",
"S]	c #4A0295",
"T]	c #57039F",
"U]	c #6D0CA8",
"V]	c #7413A7",
"W]	c #661497",
"X]	c #340179",
"Y]	c #210256",
"Z]	c #14013A",
"`]	c #120237",
" ^	c #14024E",
".^	c #200271",
"+^	c #270281",
"@^	c #26027E",
"#^	c #230280",
"$^	c #280291",
"%^	c #250288",
"&^	c #29017A",
"*^	c #2C0176",
"=^	c #15014B",
"-^	c #170159",
";^	c #120151",
">^	c #180154",
",^	c #230152",
"'^	c #0B0129",
")^	c #06011D",
"!^	c #030113",
"~^	c #02010D",
"{^	c #030114",
"]^	c #070120",
"^^	c #09012B",
"/^	c #0C0234",
"(^	c #150242",
"_^	c #35037B",
":^	c #420589",
"<^	c #480582",
"[^	c #2D0165",
"}^	c #1E0159",
"|^	c #180247",
"1^	c #1B014D",
"2^	c #310277",
"3^	c #38028F",
"4^	c #260281",
"5^	c #17025D",
"6^	c #0E024B",
"7^	c #12015B",
"8^	c #13015F",
"9^	c #120152",
"0^	c #160154",
"a^	c #230175",
"b^	c #33018C",
"c^	c #4E0399",
"d^	c #660BA4",
"e^	c #7814AA",
"f^	c #71169D",
"g^	c #501578",
"h^	c #1E024D",
"i^	c #0E0131",
"j^	c #11023D",
"k^	c #130249",
"l^	c #1C0265",
"m^	c #2A0389",
"n^	c #280280",
"o^	c #21017C",
"p^	c #25028C",
"q^	c #1C016E",
"r^	c #230171",
"s^	c #2C0177",
"t^	c #240164",
"u^	c #170149",
"v^	c #16015D",
"w^	c #150162",
"x^	c #170164",
"y^	c #20015F",
"z^	c #230155",
"A^	c #1D0148",
"B^	c #130139",
"C^	c #0C012B",
"D^	c #06011B",
"E^	c #03010F",
"F^	c #02010B",
"G^	c #0A012A",
"H^	c #11013B",
"I^	c #1C0152",
"J^	c #2B0272",
"K^	c #3B038D",
"L^	c #370374",
"M^	c #1C015C",
"N^	c #1D024F",
"O^	c #210250",
"P^	c #32036B",
"Q^	c #3D038A",
"R^	c #32038C",
"S^	c #210276",
"T^	c #16025D",
"U^	c #0F024A",
"V^	c #0F024C",
"W^	c #0F0150",
"X^	c #0F014C",
"Y^	c #0D023A",
"Z^	c #16014F",
"`^	c #26017B",
" /	c #3C0296",
"./	c #5C08A3",
"+/	c #8218AD",
"@/	c #7813AC",
"#/	c #5A1485",
"$/	c #2E1056",
"%/	c #10023D",
"&/	c #140253",
"*/	c #1B0265",
"=/	c #280284",
"-/	c #2A0283",
";/	c #210269",
">/	c #19015E",
",/	c #21017D",
"'/	c #1D0172",
")/	c #1F016A",
"!/	c #2B017C",
"~/	c #2F0175",
"{/	c #200155",
"]/	c #14014D",
"^/	c #170064",
"//	c #1F017B",
"(/	c #250164",
"_/	c #1F014A",
":/	c #190145",
"</	c #15013F",
"[/	c #0D012F",
"}/	c #030115",
"|/	c #06011C",
"1/	c #190152",
"2/	c #300380",
"3/	c #330382",
"4/	c #260165",
"5/	c #220258",
"6/	c #200251",
"7/	c #300265",
"8/	c #430387",
"9/	c #420393",
"0/	c #2F0386",
"a/	c #1B026B",
"b/	c #14025B",
"c/	c #11024B",
"d/	c #0E0243",
"e/	c #0D0242",
"f/	c #0D0240",
"g/	c #0C0238",
"h/	c #11013D",
"i/	c #1B0158",
"j/	c #2D017F",
"k/	c #5C0BA4",
"l/	c #650EA3",
"m/	c #570994",
"n/	c #3C0E69",
"o/	c #250C49",
"p/	c #1C0150",
"q/	c #13014E",
"r/	c #16025E",
"s/	c #260285",
"t/	c #2C0278",
"u/	c #190264",
"v/	c #1C026B",
"w/	c #220172",
"x/	c #2B0175",
"y/	c #2E026A",
"z/	c #150145",
"A/	c #120149",
"B/	c #18015F",
"C/	c #2A0292",
"D/	c #2D0183",
"E/	c #2C0165",
"F/	c #1B0141",
"G/	c #1A0147",
"H/	c #1F024F",
"I/	c #110234",
"J/	c #080121",
"K/	c #070122",
"L/	c #090128",
"M/	c #170151",
"N/	c #26016F",
"O/	c #3A038A",
"P/	c #2F0373",
"Q/	c #210263",
"R/	c #260161",
"S/	c #2B0164",
"T/	c #2A0161",
"U/	c #230157",
"V/	c #300269",
"W/	c #3D0280",
"X/	c #430391",
"Y/	c #3C038F",
"Z/	c #290278",
"`/	c #190261",
" (	c #120250",
".(	c #0C023A",
"+(	c #0C0239",
"@(	c #0F0232",
"#(	c #140140",
"$(	c #220163",
"%(	c #330185",
"&(	c #420298",
"*(	c #47029A",
"=(	c #3C038A",
"-(	c #3B0976",
";(	c #2F0D5B",
">(	c #200B40",
",(	c #1B0156",
"'(	c #110149",
")(	c #130152",
"!(	c #160263",
"~(	c #1F037B",
"{(	c #27038D",
"](	c #2A038D",
"^(	c #210260",
"/(	c #15024E",
"((	c #1A0267",
"_(	c #1F0273",
":(	c #1F026A",
"<(	c #2C025B",
"[(	c #1E024A",
"}(	c #1D016D",
"|(	c #280191",
"1(	c #34039C",
"2(	c #3A028C",
"3(	c #300165",
"4(	c #1D014C",
"5(	c #2B0161",
"6(	c #190242",
"7(	c #0D0130",
"8(	c #0F0137",
"9(	c #2C0277",
"0(	c #2C026F",
"a(	c #200257",
"b(	c #240159",
"c(	c #2F0261",
"d(	c #2F0164",
"e(	c #2E0165",
"f(	c #31026F",
"g(	c #49038F",
"h(	c #3C0391",
"i(	c #2F0380",
"j(	c #1D0261",
"k(	c #11024A",
"l(	c #0C0236",
"m(	c #0D0232",
"n(	c #110232",
"o(	c #16023B",
"p(	c #1B024A",
"q(	c #360187",
"r(	c #440296",
"s(	c #440390",
"t(	c #3A0878",
"u(	c #320D62",
"v(	c #2C0F51",
"w(	c #1B0B37",
"x(	c #160156",
"y(	c #130155",
"z(	c #150163",
"A(	c #1E027D",
"B(	c #290396",
"C(	c #2D0398",
"D(	c #280381",
"E(	c #1F0263",
"F(	c #190252",
"G(	c #140252",
"H(	c #190263",
"I(	c #210167",
"J(	c #2B016E",
"K(	c #310165",
"L(	c #2D0158",
"M(	c #1C0247",
"N(	c #130146",
"O(	c #180159",
"P(	c #36039B",
"Q(	c #41039E",
"R(	c #3E0287",
"S(	c #2A015F",
"T(	c #180140",
"U(	c #260154",
"V(	c #310167",
"W(	c #240255",
"X(	c #1A0148",
"Y(	c #1A014F",
"Z(	c #1E0160",
"`(	c #270173",
" _	c #1A014E",
"._	c #260158",
"+_	c #310261",
"@_	c #35016A",
"#_	c #33016F",
"$_	c #3A027C",
"%_	c #4E059F",
"&_	c #44039B",
"*_	c #310387",
"=_	c #220269",
"-_	c #140251",
";_	c #0F0340",
">_	c #0E0236",
",_	c #0E022F",
"'_	c #0E022C",
")_	c #130232",
"!_	c #160239",
"~_	c #1B0249",
"{_	c #2D0270",
"]_	c #40018D",
"^_	c #4E039A",
"/_	c #360B68",
"(_	c #2F1056",
"__	c #271047",
":_	c #15092A",
"<_	c #1A0157",
"[_	c #150154",
"}_	c #170163",
"|_	c #1D0279",
"1_	c #280395",
"2_	c #2F03A2",
"3_	c #2F0394",
"4_	c #270276",
"5_	c #1E025D",
"6_	c #170251",
"7_	c #14024F",
"8_	c #1E0163",
"9_	c #280165",
"0_	c #300164",
"a_	c #290255",
"b_	c #190245",
"c_	c #130145",
"d_	c #2F028D",
"e_	c #4003A3",
"f_	c #4A039D",
"g_	c #400281",
"h_	c #160142",
"i_	c #23014D",
"j_	c #2A015B",
"k_	c #250257",
"l_	c #220255",
"m_	c #26025F",
"n_	c #2D026C",
"o_	c #2C026C",
"p_	c #23015D",
"q_	c #220159",
"r_	c #26015E",
"s_	c #370172",
"t_	c #3E027D",
"u_	c #4B048B",
"v_	c #55059A",
"w_	c #5705A7",
"x_	c #4C06A1",
"y_	c #32038D",
"z_	c #26027A",
"A_	c #18025C",
"B_	c #10024A",
"C_	c #100233",
"D_	c #10022D",
"E_	c #0F022B",
"F_	c #150236",
"G_	c #19023E",
"H_	c #240258",
"I_	c #38017E",
"J_	c #4B0198",
"K_	c #4F0697",
"L_	c #450F7F",
"M_	c #2F0F58",
"N_	c #2B124C",
"O_	c #1F0E3A",
"P_	c #0B051D",
"Q_	c #1A015D",
"R_	c #28038F",
"S_	c #3004A4",
"T_	c #2F039C",
"U_	c #2C0287",
"V_	c #230268",
"W_	c #19034F",
"X_	c #15014F",
"Y_	c #1C0159",
"Z_	c #1A0154",
"`_	c #35016E",
" :	c #330266",
".:	c #24024F",
"+:	c #170144",
"@:	c #12013F",
"#:	c #1F0161",
"$:	c #370290",
"%:	c #4403A4",
"&:	c #4C039D",
"*:	c #450284",
"=:	c #210150",
"-:	c #26014E",
";:	c #21014A",
">:	c #20024C",
",:	c #220251",
"':	c #1E024C",
"):	c #1C014F",
"!:	c #240163",
"~:	c #2C0172",
"{:	c #380183",
"]:	c #3F0189",
"^:	c #4F038C",
"/:	c #5D0896",
"(:	c #630AA1",
"_:	c #630BA8",
"::	c #4A05A3",
"<:	c #360396",
"[:	c #270286",
"}:	c #210274",
"|:	c #140257",
"1:	c #100345",
"2:	c #0F023C",
"3:	c #0F0233",
"4:	c #110231",
"5:	c #140233",
"6:	c #140236",
"7:	c #1B0242",
"8:	c #2E0171",
"9:	c #3C018B",
"0:	c #4C0598",
"a:	c #4A128B",
"b:	c #441C72",
"c:	c #2D174E",
"d:	c #1F0E3B",
"e:	c #040313",
"f:	c #1F015A",
"g:	c #1F0167",
"h:	c #270288",
"i:	c #3004A2",
"j:	c #3806A8",
"k:	c #320394",
"l:	c #21035A",
"m:	c #150249",
"n:	c #100246",
"o:	c #0D023C",
"p:	c #1D0156",
"q:	c #2D025A",
"r:	c #1D0244",
"s:	c #0E0138",
"t:	c #1E015A",
"u:	c #420397",
"v:	c #3D039C",
"w:	c #570495",
"x:	c #3C0379",
"y:	c #200157",
"z:	c #250155",
"A:	c #270153",
"B:	c #1F014B",
"C:	c #160147",
"D:	c #140148",
"E:	c #190154",
"F:	c #2B0178",
"G:	c #37018B",
"H:	c #490297",
"I:	c #59039B",
"J:	c #6D09A1",
"K:	c #660BA3",
"L:	c #590AA4",
"M:	c #4D08A5",
"N:	c #38039E",
"O:	c #2B0291",
"P:	c #210280",
"Q:	c #0D023B",
"R:	c #0E0235",
"S:	c #100232",
"T:	c #18023E",
"U:	c #190243",
"V:	c #41068D",
"W:	c #4D1491",
"X:	c #4A207A",
"Y:	c #3F2160",
"Z:	c #27163C",
"`:	c #130929",
" <	c #09061D",
".<	c #050416",
"+<	c #230165",
"@<	c #240174",
"#<	c #270289",
"$<	c #3A06A2",
"%<	c #4909A8",
"&<	c #440597",
"*<	c #2B026E",
"=<	c #0F0245",
"-<	c #0F0246",
";<	c #1C015D",
"><	c #2F0165",
",<	c #27024D",
"'<	c #170139",
")<	c #35028C",
"!<	c #30018F",
"~<	c #6506A5",
"{<	c #4A038D",
"]<	c #25016C",
"^<	c #2A0168",
"/<	c #350269",
"(<	c #2E0161",
"_<	c #180251",
":<	c #1E0162",
"<<	c #420291",
"[<	c #5F069E",
"}<	c #6F10A7",
"|<	c #690DA7",
"1<	c #4F07A4",
"2<	c #3A04A0",
"3<	c #34039D",
"4<	c #2C0392",
"5<	c #220280",
"6<	c #1A0268",
"7<	c #13024F",
"8<	c #0C022F",
"9<	c #110230",
"0<	c #1D0250",
"a<	c #1F025A",
"b<	c #29026F",
"c<	c #400A87",
"d<	c #491881",
"e<	c #381B5A",
"f<	c #1D0F31",
"g<	c #150C27",
"h<	c #0F0820",
"i<	c #350288",
"j<	c #350295",
"k<	c #35039B",
"l<	c #4607A8",
"m<	c #5109A9",
"n<	c #4A0696",
"o<	c #2B0366",
"p<	c #140246",
"q<	c #12024C",
"r<	c #130253",
"s<	c #320164",
"t<	c #210241",
"u<	c #130136",
"v<	c #130142",
"w<	c #220166",
"x<	c #31018A",
"y<	c #2C0187",
"z<	c #3F0295",
"A<	c #5C04A6",
"B<	c #4F039B",
"C<	c #3A0287",
"D<	c #35017C",
"E<	c #42017C",
"F<	c #3C0274",
"G<	c #2F0167",
"H<	c #300172",
"I<	c #320177",
"J<	c #3C027F",
"K<	c #4E0392",
"L<	c #5D059F",
"M<	c #5B05A5",
"N<	c #6008A6",
"O<	c #560BA3",
"P<	c #43059D",
"Q<	c #3703A0",
"R<	c #2F0398",
"S<	c #290288",
"T<	c #1C016C",
"U<	c #160158",
"V<	c #13024A",
"W<	c #0D0230",
"X<	c #0D022F",
"Y<	c #140239",
"Z<	c #23025C",
"`<	c #35047B",
" [	c #440D85",
".[	c #3E1670",
"+[	c #2C154D",
"@[	c #190D30",
"#[	c #4804A3",
"$[	c #4805A8",
"%[	c #4103A8",
"&[	c #4405A9",
"*[	c #4805A5",
"=[	c #3B0387",
"-[	c #110246",
";[	c #1A0366",
">[	c #180364",
",[	c #260169",
"'[	c #350178",
")[	c #31015E",
"![	c #220243",
"~[	c #150143",
"{[	c #2B0181",
"][	c #2B0187",
"^[	c #3A0193",
"/[	c #4A02A0",
"([	c #5204A2",
"_[	c #57079C",
":[	c #5A0797",
"<[	c #600593",
"[[	c #5B048D",
"}[	c #470286",
"|[	c #48018F",
"1[	c #4F0395",
"2[	c #5A059D",
"3[	c #6308A6",
"4[	c #6408AB",
"5[	c #4D03A6",
"6[	c #370299",
"7[	c #340394",
"8[	c #29018D",
"9[	c #2A028B",
"0[	c #110147",
"a[	c #14023A",
"b[	c #120232",
"c[	c #120234",
"d[	c #19024A",
"e[	c #1B024C",
"f[	c #2A0265",
"g[	c #380278",
"h[	c #42048B",
"i[	c #571395",
"j[	c #4C1683",
"k[	c #3A1A62",
"l[	c #281546",
"m[	c #160C2F",
"n[	c #0A061E",
"o[	c #0F0727",
"p[	c #5308A9",
"q[	c #560AAC",
"r[	c #4705AB",
"s[	c #3D03A5",
"t[	c #380295",
"u[	c #26026E",
"v[	c #16035A",
"w[	c #1C036D",
"x[	c #16035D",
"y[	c #0D013C",
"z[	c #210160",
"A[	c #32016E",
"B[	c #32025D",
"C[	c #220148",
"D[	c #140142",
"E[	c #100135",
"F[	c #1F025E",
"G[	c #290282",
"H[	c #2B018A",
"I[	c #32018D",
"J[	c #3A0196",
"K[	c #4B079E",
"L[	c #600DA8",
"M[	c #670EA6",
"N[	c #6E0CA4",
"O[	c #6A08A1",
"P[	c #57039B",
"Q[	c #50039C",
"R[	c #5404A3",
"S[	c #5B08A9",
"T[	c #5C09AA",
"U[	c #5108A8",
"V[	c #3F039F",
"W[	c #300390",
"X[	c #290283",
"Y[	c #210175",
"Z[	c #1F0168",
"`[	c #1E0249",
" }	c #1C0249",
".}	c #160244",
"+}	c #1B0252",
"@}	c #1F0159",
"#}	c #250261",
"$}	c #3C0284",
"%}	c #57079E",
"&}	c #640CA8",
"*}	c #6316A2",
"=}	c #652198",
"-}	c #3E1B69",
";}	c #2F174C",
">}	c #1D0F36",
",}	c #0B0621",
"'}	c #12092C",
")}	c #4D0BA5",
"!}	c #5109AD",
"~}	c #3D03A8",
"{}	c #320197",
"]}	c #2A017E",
"^}	c #1B0261",
"/}	c #17025B",
"(}	c #190367",
"_}	c #20037A",
":}	c #150357",
"<}	c #0E0237",
"[}	c #23015A",
"}}	c #3E0174",
"|}	c #370163",
"1}	c #220150",
"2}	c #1B0255",
"3}	c #26027F",
"4}	c #270287",
"5}	c #280183",
"6}	c #2C018C",
"7}	c #37019B",
"8}	c #4A04A8",
"9}	c #5608A8",
"0}	c #5F0AA7",
"a}	c #5F09A8",
"b}	c #5606A7",
"c}	c #4D06A7",
"d}	c #570AAA",
"e}	c #580AA9",
"f}	c #4E07A2",
"g}	c #43069B",
"h}	c #3A0394",
"i}	c #320289",
"j}	c #210162",
"k}	c #1B0153",
"l}	c #250160",
"m}	c #210255",
"n}	c #180248",
"o}	c #1B024E",
"p}	c #250163",
"q}	c #41048A",
"r}	c #6514A6",
"s}	c #7821AA",
"t}	c #631A9C",
"u}	c #4C1F77",
"v}	c #2F1950",
"w}	c #23143C",
"x}	c #0E0824",
"y}	c #08051B",
"z}	c #070418",
"A}	c #150931",
"B}	c #41148F",
"C}	c #4105A8",
"D}	c #3602A0",
"E}	c #250173",
"F}	c #1E0271",
"G}	c #210377",
"H}	c #18035A",
"I}	c #250154",
"J}	c #3C0271",
"K}	c #30025E",
"L}	c #12014A",
"M}	c #150247",
"N}	c #210272",
"O}	c #21027E",
"P}	c #21027C",
"Q}	c #270188",
"R}	c #2E0197",
"S}	c #3A029F",
"T}	c #3C039B",
"U}	c #49059D",
"V}	c #5408A3",
"W}	c #52079E",
"X}	c #4D0599",
"Y}	c #4C0696",
"Z}	c #480590",
"`}	c #3C0384",
" |	c #300274",
".|	c #2B016A",
"+|	c #30016A",
"@|	c #300167",
"#|	c #260159",
"$|	c #1F0254",
"%|	c #1E0257",
"&|	c #19024B",
"*|	c #260166",
"=|	c #47068F",
"-|	c #6518A3",
";|	c #682295",
">|	c #501D79",
",|	c #341A56",
"'|	c #261440",
")|	c #1A0F31",
"!|	c #1F0840",
"~|	c #1E0C3F",
"{|	c #3C196E",
"]|	c #3F1187",
"^|	c #330291",
"/|	c #2F0189",
"(|	c #260175",
"_|	c #210271",
":|	c #1F0272",
"<|	c #210363",
"[|	c #260255",
"}|	c #350168",
"||	c #2B0258",
"1|	c #080127",
"2|	c #060121",
"3|	c #1E026A",
"4|	c #1D0274",
"5|	c #350292",
"6|	c #350198",
"7|	c #310193",
"8|	c #2F018C",
"9|	c #330388",
"0|	c #41048F",
"a|	c #3F038A",
"b|	c #310174",
"c|	c #320373",
"d|	c #2F026C",
"e|	c #27025F",
"f|	c #1F024C",
"g|	c #20024A",
"h|	c #290156",
"i|	c #2A0257",
"j|	c #21024D",
"k|	c #1A024B",
"l|	c #170235",
"m|	c #190238",
"n|	c #1A023F",
"o|	c #210253",
"p|	c #22025D",
"q|	c #270171",
"r|	c #410986",
"s|	c #590D9E",
"t|	c #631B9A",
"u|	c #4E1D70",
"v|	c #2D144A",
"w|	c #23123D",
"x|	c #1D1032",
"y|	c #140C2A",
"z|	c #0A061F",
"A|	c #08061C",
"B|	c #270851",
"C|	c #1B093C",
"D|	c #050518",
"E|	c #41196B",
"F|	c #46107F",
"G|	c #3E0289",
"H|	c #330183",
"I|	c #240277",
"J|	c #220179",
"K|	c #270273",
"L|	c #270368",
"M|	c #2C025E",
"N|	c #36016B",
"O|	c #290257",
"P|	c #0C012D",
"Q|	c #0C022D",
"R|	c #140249",
"S|	c #1F0266",
"T|	c #390391",
"U|	c #3B0293",
"V|	c #20016A",
"W|	c #230260",
"X|	c #2A0262",
"Y|	c #1B0240",
"Z|	c #1B023F",
"`|	c #1F0248",
" 1	c #1D0246",
".1	c #130238",
"+1	c #0D0128",
"@1	c #13022F",
"#1	c #20024D",
"$1	c #340272",
"%1	c #44038F",
"&1	c #5E1799",
"*1	c #6A1CA4",
"=1	c #6C15A9",
"-1	c #58148B",
";1	c #310F50",
">1	c #190C33",
",1	c #180D2D",
"'1	c #160D28",
")1	c #130B24",
"!1	c #16092C",
"~1	c #14092C",
"{1	c #0B0721",
"]1	c #2D0F57",
"^1	c #1E123A",
"/1	c #481C6F",
"(1	c #480F80",
"_1	c #3C0287",
":1	c #380187",
"<1	c #28017B",
"[1	c #22017A",
"}1	c #1C0171",
"|1	c #2F027B",
"11	c #200252",
"21	c #140144",
"31	c #0D0233",
"41	c #1D025E",
"51	c #21036D",
"61	c #1F026B",
"71	c #2A027D",
"81	c #2F0284",
"91	c #17014F",
"01	c #1A0155",
"a1	c #25025A",
"b1	c #2B0257",
"c1	c #22024C",
"d1	c #170237",
"e1	c #150234",
"f1	c #12022F",
"g1	c #11022F",
"h1	c #0B012C",
"i1	c #0C012A",
"j1	c #0D012B",
"k1	c #10012D",
"l1	c #16023C",
"m1	c #4E0391",
"n1	c #6006A8",
"o1	c #781FAB",
"p1	c #741EAE",
"q1	c #6617A6",
"r1	c #48137B",
"s1	c #1F0C3C",
"t1	c #11082A",
"u1	c #230E3C",
"v1	c #270B49",
"w1	c #180A34",
"x1	c #2C1954",
"y1	c #0C0829",
"z1	c #4A1C72",
"A1	c #540E8E",
"B1	c #4A029C",
"C1	c #44019B",
"D1	c #360188",
"E1	c #2D0280",
"F1	c #290183",
"G1	c #280180",
"H1	c #44038C",
"I1	c #480383",
"J1	c #29025C",
"K1	c #220252",
"L1	c #130233",
"M1	c #0D022C",
"N1	c #1A0356",
"O1	c #200366",
"P1	c #20026B",
"Q1	c #290181",
"R1	c #19024F",
"S1	c #130144",
"T1	c #160149",
"U1	c #1A0246",
"V1	c #150139",
"W1	c #10012F",
"X1	c #0D012A",
"Y1	c #0C0227",
"Z1	c #0A0225",
"`1	c #0A0125",
" 2	c #070121",
".2	c #0C0229",
"+2	c #140137",
"@2	c #1F024D",
"#2	c #30026C",
"$2	c #48038B",
"%2	c #510399",
"&2	c #640AAA",
"*2	c #6D14AE",
"=2	c #6013A8",
"-2	c #4C1494",
";2	c #381768",
">2	c #170E31",
",2	c #090517",
"'2	c #19082A",
")2	c #4B1B74",
"!2	c #370D66",
"~2	c #170933",
"{2	c #170C49",
"]2	c #120933",
"^2	c #09071C",
"/2	c #451970",
"(2	c #5B0C9E",
"_2	c #6B0BAD",
":2	c #6104A9",
"<2	c #390192",
"[2	c #37028B",
"}2	c #320192",
"|2	c #5E089D",
"12	c #5B0692",
"22	c #16014D",
"32	c #1F024A",
"42	c #170239",
"52	c #0B0233",
"62	c #14024A",
"72	c #1B035F",
"82	c #18025B",
"92	c #18025D",
"02	c #200270",
"a2	c #220174",
"b2	c #0B012A",
"c2	c #0A0126",
"d2	c #080120",
"e2	c #1F0251",
"f2	c #340180",
"g2	c #430393",
"h2	c #620FAB",
"i2	c #4F149A",
"j2	c #421D7C",
"k2	c #331C50",
"l2	c #100829",
"m2	c #2B0C38",
"n2	c #571B70",
"o2	c #612391",
"p2	c #3C0E72",
"q2	c #1B0B3B",
"r2	c #140833",
"s2	c #1D0D55",
"t2	c #140C3B",
"u2	c #0A081F",
"v2	c #411B6C",
"w2	c #490A8D",
"x2	c #6E0FAE",
"y2	c #720FAC",
"z2	c #5603A2",
"A2	c #46028F",
"B2	c #35037D",
"C2	c #5A0893",
"D2	c #5F0892",
"E2	c #2F026A",
"F2	c #180252",
"G2	c #24015D",
"H2	c #230256",
"I2	c #140234",
"J2	c #0F0235",
"K2	c #0E023C",
"L2	c #140254",
"M2	c #170260",
"N2	c #1C026A",
"O2	c #1D026B",
"P2	c #1C0255",
"Q2	c #190247",
"R2	c #0F012F",
"S2	c #090122",
"T2	c #0A0222",
"U2	c #0B0125",
"V2	c #2D0272",
"W2	c #360286",
"X2	c #3F0297",
"Y2	c #4E04A3",
"Z2	c #5A0BA9",
"`2	c #57139F",
" 3	c #461C82",
".3	c #3B1E60",
"+3	c #251440",
"@3	c #0F0825",
"#3	c #190732",
"$3	c #561271",
"%3	c #79219D",
"&3	c #631F95",
"*3	c #340C67",
"=3	c #160834",
"-3	c #1E0F55",
";3	c #140C3C",
">3	c #0B0821",
",3	c #552B7B",
"'3	c #571A92",
")3	c #6309AB",
"!3	c #7511AD",
"~3	c #740EA9",
"{3	c #530396",
"]3	c #20015B",
"^3	c #37036B",
"/3	c #46047A",
"(3	c #2B0267",
"_3	c #170250",
":3	c #2D0166",
"<3	c #24024D",
"[3	c #1A023A",
"}3	c #0D0237",
"|3	c #0B0133",
"13	c #100249",
"23	c #160160",
"33	c #1A0258",
"43	c #21025E",
"53	c #0B0127",
"63	c #08021D",
"73	c #0F0228",
"83	c #130230",
"93	c #21034A",
"03	c #2E0367",
"a3	c #2F0173",
"b3	c #30027B",
"c3	c #420391",
"d3	c #430396",
"e3	c #3C0295",
"f3	c #4604A2",
"g3	c #530FA3",
"h3	c #4D1D88",
"i3	c #3C1F63",
"j3	c #281541",
"k3	c #2F045D",
"l3	c #650A94",
"m3	c #781CA5",
"n3	c #581B86",
"o3	c #2E1357",
"p3	c #150C2F",
"q3	c #27104A",
"r3	c #21115E",
"s3	c #130A3B",
"t3	c #0D0826",
"u3	c #4A216D",
"v3	c #661C9B",
"w3	c #6710AC",
"x3	c #7F1DAC",
"y3	c #841BA9",
"z3	c #590698",
"A3	c #33017D",
"B3	c #270260",
"C3	c #22015A",
"D3	c #290262",
"E3	c #240260",
"F3	c #220257",
"G3	c #31016E",
"H3	c #360173",
"I3	c #2F015F",
"J3	c #26014A",
"K3	c #0A022F",
"L3	c #0B0231",
"M3	c #0E0238",
"N3	c #0C023B",
"O3	c #0D013E",
"P3	c #15025A",
"Q3	c #16025C",
"R3	c #1C0264",
"S3	c #22026D",
"T3	c #220265",
"U3	c #14023F",
"V3	c #17023B",
"W3	c #1E0245",
"X3	c #300366",
"Y3	c #45048E",
"Z3	c #450394",
"`3	c #400393",
" 4	c #48049A",
".4	c #43048E",
"+4	c #2C0379",
"@4	c #3C0A86",
"#4	c #481783",
"$4	c #402064",
"%4	c #2B1745",
"&4	c #1A0E30",
"*4	c #350659",
"=4	c #460283",
"-4	c #65119D",
";4	c #6B279D",
">4	c #4A2173",
",4	c #1E113F",
"'4	c #2C1250",
")4	c #1F0F57",
"!4	c #11083C",
"~4	c #0F092C",
"{4	c #53286B",
"]4	c #8633A4",
"^4	c #892CAD",
"/4	c #9530AC",
"(4	c #8721AB",
"_4	c #5A0794",
":4	c #27015F",
"<4	c #24015B",
"[4	c #230167",
"}4	c #200266",
"|4	c #190250",
"14	c #340177",
"24	c #310269",
"34	c #23024B",
"44	c #140235",
"54	c #100231",
"64	c #0B0230",
"74	c #09022E",
"84	c #0A0235",
"94	c #0F0242",
"04	c #17025A",
"a4	c #1C0263",
"b4	c #200168",
"c4	c #1D0262",
"d4	c #190256",
"e4	c #240257",
"f4	c #2C0266",
"g4	c #3C0386",
"h4	c #46039B",
"i4	c #3F0293",
"j4	c #360382",
"k4	c #3B0A7C",
"l4	c #45157C",
"m4	c #432061",
"n4	c #2F1846",
"o4	c #0E0821",
"p4	c #0C0627",
"q4	c #4C058F",
"r4	c #420386",
"s4	c #5B1A95",
"t4	c #50288D",
"u4	c #261459",
"v4	c #130A38",
"w4	c #0A0721",
"x4	c #341458",
"y4	c #1B0D4B",
"z4	c #0F083A",
"A4	c #110932",
"B4	c #562870",
"C4	c #8B27AC",
"D4	c #9229AD",
"E4	c #922CAE",
"F4	c #6F15A5",
"G4	c #210159",
"H4	c #340287",
"I4	c #39029C",
"J4	c #2F028A",
"K4	c #2F0174",
"L4	c #350174",
"M4	c #2A025A",
"N4	c #1D0243",
"O4	c #0B022C",
"P4	c #08012B",
"Q4	c #060122",
"R4	c #050120",
"S4	c #080227",
"T4	c #180253",
"U4	c #170155",
"V4	c #150250",
"W4	c #16024B",
"X4	c #32027E",
"Y4	c #3E0396",
"Z4	c #44039E",
"`4	c #47029B",
" 5	c #440293",
".5	c #3F0385",
"+5	c #4E0990",
"@5	c #5C1793",
"#5	c #4D1E74",
"$5	c #391B52",
"%5	c #201038",
"&5	c #2A0375",
"*5	c #320180",
"=5	c #360478",
"-5	c #471583",
";5	c #361773",
">5	c #1D0D54",
",5	c #140C3A",
"'5	c #37155B",
")5	c #1F0E50",
"!5	c #11083D",
"~5	c #100933",
"{5	c #561E72",
"]5	c #8614B1",
"^5	c #7A16AA",
"/5	c #7915AD",
"(5	c #5C089D",
"_5	c #290071",
":5	c #210261",
"<5	c #28016C",
"[5	c #2E0179",
"}5	c #3E029C",
"|5	c #5107AD",
"15	c #5108AC",
"25	c #3A0397",
"35	c #24026F",
"45	c #27016B",
"55	c #29025F",
"65	c #21024B",
"75	c #1F0345",
"85	c #05011F",
"95	c #060220",
"05	c #090223",
"a5	c #0C022B",
"b5	c #0E0230",
"c5	c #13023E",
"d5	c #130240",
"e5	c #130245",
"f5	c #14024D",
"g5	c #19015A",
"h5	c #29016E",
"i5	c #31017E",
"j5	c #330186",
"k5	c #4A029B",
"l5	c #57039D",
"m5	c #5C139A",
"n5	c #651A9B",
"o5	c #5A1D8B",
"p5	c #3E1C5C",
"q5	c #24113C",
"r5	c #280740",
"s5	c #3F0573",
"t5	c #2F0867",
"u5	c #411477",
"v5	c #331665",
"w5	c #1D0F52",
"x5	c #120B38",
"y5	c #1D0B38",
"z5	c #3C1B62",
"A5	c #220F58",
"B5	c #0F073A",
"C5	c #0F0835",
"D5	c #0C072B",
"E5	c #31094D",
"F5	c #3F0A68",
"G5	c #541785",
"H5	c #5A1D8F",
"I5	c #330A6C",
"J5	c #1D0152",
"K5	c #2E017A",
"L5	c #4402A1",
"M5	c #5709AB",
"N5	c #5E0EAD",
"O5	c #3D03A9",
"P5	c #2E028C",
"Q5	c #25026F",
"R5	c #1F024E",
"S5	c #16023D",
"T5	c #080224",
"U5	c #0A0228",
"V5	c #0C022A",
"W5	c #0A0226",
"X5	c #090123",
"Y5	c #170157",
"Z5	c #350184",
"`5	c #3B018B",
" 6	c #360183",
".6	c #3D0185",
"+6	c #4D028F",
"@6	c #590299",
"#6	c #5E0D9D",
"$6	c #7022A3",
"%6	c #6C2698",
"&6	c #4A1D72",
"*6	c #2C1449",
"=6	c #160B2D",
"-6	c #190635",
";6	c #540875",
">6	c #610899",
",6	c #240265",
"'6	c #350D63",
")6	c #431671",
"!6	c #2F1460",
"~6	c #1C0E52",
"{6	c #110934",
"]6	c #331454",
"^6	c #331E57",
"/6	c #0F092E",
"(6	c #0F082E",
"_6	c #0D072C",
":6	c #10092B",
"<6	c #261645",
"[6	c #3A2158",
"}6	c #55217D",
"|6	c #7318B0",
"16	c #5909A0",
"26	c #80249E",
"36	c #660BA1",
"46	c #45029B",
"56	c #4504A1",
"66	c #4A06AB",
"76	c #3F03AA",
"86	c #32019C",
"96	c #2E0186",
"06	c #270178",
"a6	c #1E0156",
"b6	c #0D022B",
"c6	c #0B0227",
"d6	c #0C0128",
"e6	c #140241",
"f6	c #150150",
"g6	c #44018D",
"h6	c #51029B",
"i6	c #57029C",
"j6	c #520294",
"k6	c #520290",
"l6	c #5B0296",
"m6	c #61039D",
"n6	c #6614A1",
"o6	c #69229C",
"p6	c #572083",
"q6	c #351457",
"r6	c #1A0C34",
"s6	c #270454",
"t6	c #670896",
"u6	c #65079E",
"v6	c #37027D",
"w6	c #20025D",
"x6	c #3C1069",
"y6	c #40166B",
"z6	c #2B1259",
"A6	c #170B49",
"B6	c #100934",
"C6	c #311653",
"D6	c #201343",
"E6	c #0F092A",
"F6	c #0B081E",
"G6	c #0E0924",
"H6	c #2B1A46",
"I6	c #261541",
"J6	c #5E2E76",
"K6	c #9437B2",
"L6	c #912FAC",
"M6	c #A03AAD",
"N6	c #6D0EA8",
"O6	c #2E007B",
"P6	c #250162",
"Q6	c #2A0180",
"R6	c #380194",
"S6	c #27026D",
"T6	c #200258",
"U6	c #0F0234",
"V6	c #100134",
"W6	c #110237",
"X6	c #160243",
"Y6	c #17024D",
"Z6	c #30016F",
"`6	c #6F07A6",
" 7	c #7108A9",
".7	c #7308AA",
"+7	c #6E03A8",
"@7	c #65039F",
"#7	c #7005A5",
"$7	c #7B1CA8",
"%7	c #6E1EA3",
"&7	c #5E2092",
"*7	c #3E146A",
"=7	c #210C41",
"-7	c #110829",
";7	c #130537",
">7	c #5F049A",
",7	c #6F0BA5",
"'7	c #440385",
")7	c #2F0270",
"!7	c #401371",
"~7	c #3C1564",
"{7	c #251052",
"]7	c #13093F",
"^7	c #100834",
"/7	c #291548",
"(7	c #251646",
"_7	c #0F0929",
":7	c #0B081F",
"<7	c #0C0920",
"[7	c #251840",
"}7	c #25183D",
"|7	c #592A73",
"17	c #8E24B2",
"27	c #9327AD",
"37	c #861EAF",
"47	c #59079C",
"57	c #290072",
"67	c #180151",
"77	c #3F019F",
"87	c #600FAD",
"97	c #3C03A6",
"07	c #2F028E",
"a7	c #1D025D",
"b7	c #150246",
"c7	c #120233",
"d7	c #160150",
"e7	c #23015F",
"f7	c #460380",
"g7	c #700AA0",
"h7	c #8011AD",
"i7	c #7D11AD",
"j7	c #7A0FAC",
"k7	c #6E04A8",
"l7	c #6504A1",
"m7	c #7513A7",
"n7	c #8625AB",
"o7	c #6D239E",
"p7	c #4C1880",
"q7	c #2D0C57",
"r7	c #12092D",
"s7	c #0C0626",
"t7	c #1D035E",
"u7	c #570396",
"v7	c #730AAA",
"w7	c #4D0199",
"x7	c #560399",
"y7	c #43146F",
"z7	c #3A185F",
"A7	c #220F54",
"B7	c #13083F",
"C7	c #271743",
"D7	c #241746",
"E7	c #0F0A25",
"F7	c #0C091E",
"G7	c #0A081E",
"H7	c #080719",
"I7	c #25183C",
"J7	c #211635",
"K7	c #54206E",
"L7	c #8612B2",
"M7	c #6F0BA9",
"N7	c #6E0BAD",
"O7	c #6309A1",
"P7	c #28016A",
"Q7	c #1B014F",
"R7	c #1B0155",
"S7	c #2B0177",
"T7	c #3C0292",
"U7	c #4703A0",
"V7	c #4803A8",
"W7	c #4B06AB",
"X7	c #4304AC",
"Y7	c #3301A3",
"Z7	c #350194",
"`7	c #2C0180",
" 8	c #210266",
".8	c #1E0154",
"+8	c #160242",
"@8	c #160246",
"#8	c #140247",
"$8	c #6006A3",
"%8	c #660AA9",
"&8	c #670DA8",
"*8	c #680BA7",
"=8	c #5F04A0",
"-8	c #5D049C",
";8	c #7313A6",
">8	c #7520A0",
",8	c #5A1C8C",
"'8	c #390F69",
")8	c #210A45",
"!8	c #140639",
"~8	c #190355",
"{8	c #4B038D",
"]8	c #6E0BA7",
"^8	c #5B049E",
"/8	c #5A0B9B",
"(8	c #4A1D75",
"_8	c #361B5B",
":8	c #1D0D4D",
"<8	c #0F0739",
"[8	c #18083C",
"}8	c #1E1438",
"|8	c #241543",
"18	c #0E0922",
"  . + @ # $ % & * = - ; > , ' ) ! ~ { ] ^ / ( _ : < [ } | 1 2 3 4 5 6 7 8 9 0 a b c d e f g h i j k l m n o p q r s t u v w x y ",
"z A B w C $ % D E F G H I J K L M N O s x P Q R S T U V W X Y Z `  ...+.@.#.$.%.&.*.=.-.;.>.,.'.).!.~.{.].^./.(._.:.= E $ <.[.x ",
"}.|.1.% 2.3.4.5.r 6.7.8.9.0.a.b.c.] d.e.f.g.h.i.j.k.l.m.n.o.p.q.r.s.t.u.v.w.x.y.z.A.B.C.D.E.F.G.H.I.J.K.L.M.N.O.P.Q.R.S.T.U.V.W.",
"X.Y.Z.`.t D  +~ .+++@+#+$+%+&+*+c.T.=+-+;+>+,+'+)+!+~+{+]+^+/+(+_+:+<+[+}+|+1+2+3+4+5+6+7+8+9+0+a+b+c+d+e+f+g+h+i+j+k+l+S.T.X.m+",
"3.n+T.^ 2.o+m 2.8+p+q+r+s+t+u+v+w+x+y+z+A+B+C+D+E+F+G+H+I+J+K+L+M+N+O+P+Q+R+<+S+T+U+V+W+X+Y.M Y+Z+`+ @.@+@@@#@$@8+n n %@&@t *@% ",
"$ =@& `.-@;@>@,@'@)@!@~@{@]@^@/@(@_@:@<@[@}@|@1@2@3@4@5@6@7@8@9@0@a@b@c@d@e@f@g@h@i@j@k@l@m@n@o@p@q@r@s@t@u@v@w@x@y@z@D.A@B@C@t ",
"$ % B@D@E@F@G@H@. I@J@K@L@~ M@N@O@P@Q@R@S@T@U@V@W@X@Y@Z@`@ #M+.#+#b@@###$#%#&#*#=#-#;#>#,#'#)#!#~#{#]#^#/#(#_#:#<#[#}#|#1#2#3#= ",
"*@4.4.4#5#6#R.7#8#9#0#a#b#v+c#d#e#f#g#h#i#j#k#l#m#n#o#p#c@&#q#r#s#t#u#u#v#w#x#y#z#A#B#C#D#E#F#G#H#I#J#K#L#M#N#O#P#Q#R#S#T#U#3#D@",
"2.B@C@5.d+V#W#X#B Y#Z#t - `# $.$+$@$#$$$%$&$*$=$-$;$>$,$'$)$!$~${$]$^$/$($_$:$<$[$}$|$1$2$3$4$5$6$7$8$9$0$a$b$c$d$e$f$g$h$@ i$M@",
"j$k$F B@l$E W#<.m$1#n$o$p$q$r$s$t$u$v$w$x$y$z$A$B$C$D$E$F$G$H$I$J$K$L$M$N$O$P$Q$R$S$T$U$V$W$X$Y$Z$`$ %.%+%@%#%$%%%&%*%=%-%;%k+>%",
"k+;@*+# ,%'%E 8+)%!%~%{%]%^%/%(%_%:%<%[%}%|%1%2%3%4%5%6%7%8%9%0%a%b%c%e@d%e%f%g%h%i%j%k%l%m%n%o%p%q%r%s%t%u%v%w%x%y%z%A%B%C%D%>@",
"E@F@D@s E%] .+- F%G%H%I%J%K%L%M%N%O%P%Q%R%S%T%U%V%W%X%Y%Z%`% &.&+&@&#&$&%&&&*&=&-&;&>&,&'&)&!&~&{&]&^&/&(&_&:&<&[&}&|&1&2&3&4&T.",
"5#5&R.F 6&E 7&8&*+9&0&a&b&c&d&e&f&g&h&i&j&k&l&m&n&o&p&q&r&s&t&u&v&w&x&y&z&r&A&B&C&D&E&F&G&H&I&J&K&L&M&N&O&P&Q&R&S&T&U&V&W&X&9& +",
"4&6#] Y&E%m m Z&`& *.*+*@*#*$*%*&***=*-*;*>*,*'*r&)*!*~*{*]*^*/*(*_*:*<*[*}*|*1*2*3*4*5*6*7*8*9*0*a*b*c*d*e*f*g*h*i*j*k*l*m*n*o*",
"4&D%O *+c.b#d.p*q*r*s*t*u*v*w*x*y*z*A*B*C*D*E*F*0%s&G*H*I*J*K*L*M*N*O*P*Q*R*S*T*U*V*W*X*Y*Z*`* =.=+=@=#=$=%=&=*===-=;=>=,='=)==+",
"d+] c.D@b#!=z ~={=]=^=/=(=_=:=<=[=}=|=1=2=3=4=5=6=b%n&n&7=8=9=0=a=b=c=d=e=f=g=h=i=j=k=l=m=n=o=p=q=r=s=t=u=v=w=x=y=z=A=B=D.C=D=E=",
"D%F=] C G=3&H=I=J=K=L=M=N=O=P=Q=R=S=T=U=V=W=X=F*Y=Z=`= -.-+-@-#-$-%-&-*-=---;->-,-'-)-!-~-%&{-]-^-/-(-_-:-<-[-}-|-1-2-3-4-5-# D%",
"F 6&6-7-8-9-0-a-b-c-d-e-f-=*g-h-i-j-k-l-m-<$n-o-p-q-r-s-t-u-v-w-x-y-z-A-B-C-D-E-F-G-H-I-J-H*K-L-M-N- .O-P-Q-R-S-T-U-V-W-X-Y-Z-x ",
"v+N `- ;.;+;@;#;$;%;&;*;=;-;;;>;,;';);!;~;{;];^;/;(;_;:;<;[;};|;1;2;3;4;5;6;7;8;9;0;a;b;c;d;e;f;g;h;i;j;k;l;m;n;o;p;q;r;s;t;u;v;",
">@*+x w;x;y;z;A;B;C;D;E;F;G;H;I;(+J;K;L;M;N;##O;P;Q;R;S;T;U;V;W;X;Y;Y;Z;n#`; >.>+>@>#>$>%>]+&>*>=>->;> .>>,>'>)>!>~>{>]>^>/>(>_>",
"D@:><>[>}>|>1>2>3>4>5>6>7>8>2*9>0>a>b>c>d>e>f>g>h>i>j>k>l>m>n>o>p>q>r>s>t>u>v>w>x>y>z>A>B>C>D>E>F>G>H>I>J>K>L>M>N>O>P>Q>R>S>T>U>",
"'%V>W>X>Y>Z>`> ,j&.,7>+,@,#,$,%,&,*,Z%=,-,;,>,'>,,',),!,~,{,],^,/,(,_,:,<,[,},|,1,2,3,4,5,6,7,N;8,9,0,a,b,c,d,e,f,g,h,i,j,k,l,m,",
"G@n,o,p,q,r,s,t,u,v,w,x,b>y,)*)*z,A,B,C,D,>,E,F,G,H,I,J,K,L,M,N,O,P,Q,R,S,T,U,V,W,X,Y,Z,`,m- '.'+'@'#'$'%'&'*'='-';'>','!;P+'')'",
"!'~'{']'^'/'('_':'<'['}'q&|'1'2'3'4'5'6'7'8'9'0'a'b'c'd'e'f'g'h'i'j'k'` l'j%m'n'o'p'q'r's't'6=u'v'w'x'Z;y'z'A'B'C'D'E'F'G'H'I'J'",
"K'L'M'N'O'P'Q'R'S'T'U'a%V'W'X'Y'Z'`' ).)+)@)#)$)%)&)*)=)-);)>),)')))!)~){)])^)/)()_)n>:)<)c$[)})|)1)2)3)3)4)5)6)7)8)9)0)a)b)c)l-",
"d)e)f)g)h)i)j)[$k)Y%O$l)m)n)o)p)q)r)s)t)j;u)v)w)x)y)z)A)B)C)D)E)h>F)G)H)I)J)K)L)M)N)O)P)Q)R)S)T)U)V)W)X)Y)Z)`) !.!+!@!#!$!%!&!*!",
"=!-!;!>!,!'!)!!!w#~!:${!]!o#[+^!T$/!3 (!_!:!<![!}!|!1!2!3!4!;>5!6!7!8!9!{*0!a!b!c!d!N)e!f!g!h!i!j!k!l!m!n!o!E&p!q!r!s!t!u!v!w!x!",
"y!z!_*k=A!B!*#C!D!E!F!G!H!I!J!K!_,L!M!N!O!P!Q!t,R!S!H;T!U!V!y-W!H>X!Y!Z!`! ~.~+~@~#~$~%~&~*~=~-~I!;~>~,~'~)~$'!~~~{~]~^~/~(~_~:~",
"<~6![~}~|~G!1~2~3~4~5~6~0,7~8~9~0~a~T$b~F'c~d~e~f~[$g~h~b@i~j~k~l~m~F>n~o~,*p~q~r~s~t~u~a>v~w~1)x~y~z~A~s-B~C~!~D~E~F~n;G~H~I~J~",
"K~L~M~N~O~P~D>V'Q~R~H!S~T~U~V~W~X~Y~Z~`~ {.{R=>;+{@{1'#{${%{&{*{={-{;{X=>{,{'{){!{~{{{]{^{D*/{({n~_{:{<{[{}{|{U%9!1{2{3{4{5{6{7{",
"L~1%8{g~9{0{1~|'a{b{c{B~d{e{f{g{h{i{q>j{k{'!o)l{m{W'n{o{p{q{r{s{t{3%u{;{v{w{x{y{z{A{B{C{D{E{F{G{H{I{_{J{[{K{L{M{N{O{P{Q{R{S{T{U{",
"M~E;V{c@($W{D>e>1~X{Y{n!Z{`{ ].]+]@]3 #]$]%]&]*]=]-];]^*g;>]X%,]p-'])]*~!]d;~]{]]]^]/](]D{_]B,:]<][]}]|]1]n{2]p{3]4]5]6]7]8]9]0]",
"a]b]G!c]d]e]D>1~f]g]h]i]j]k]l]y'm]n]8{{!o]p]q]#'r]s]`'t]C!u]v]w]x]y]z]A]']b>B]C]D]E]F]3;G]2'H]I]J]K]L]F$M]N]O]P]Q]4)R]S]T]U]V]W]",
"X]B#Y]Z]Y%`]b%8% ^.^+^@^#^$^%^d{&^*^X'l)=^U=-^;^>^w&,^Z]'^)^!^~^{^]^^^/^(^F]_^:^<^[^}^G{|^1^2^3^4^5^s-1]6^7^8^9^0^a^b^c^d^e^f^g^",
"~-X'h^D>i^'*j^k^l^m^n^A$o^p^q^r^s^t^u^>{Y{v^w^x^y^z^A^B^C^D^E^F^{^]^G^H^I^J^K^G~L^M^W'N^O^P^Q^R^S^T^t-U^V^W^X^Y^Z^`^ /./+/@/#/$/",
")!H!Z]%#%/J$&/*/=/-/;/>/,/'/)/!/~/{/*#]/${^///h{(/_/:/</[/^${^}/|/,]D!1/<*2/3/~)4/v.5/6/7/8/9/0/a/b/c/d/e/f/g/h/i/j/#!k/l/m/n/o/",
"i-p/h!;{q/r/m!s/<,t/+-u/o^v/w/x/y/K-z/A/B///C/D/E/F/G/H/I/,]J/K/L/d@M/N/O/P/Q/R/S/T/U/V/W/X/Y/Z/`/ (F$.(+(Z=@(#($(%(&(*(=(-(;(>(",
"b],('()(!(~({(](Z/^(/(((_(:(6>;#<([(:$G>}(|(1(2(3([/4(5(6(7(t#8(q#S~z'9(0(a(b(c(d(e(f(g(>>h(i(j(k(f/l(E*m(n(o(p(7>q(r(s(t(u(v(w(",
"Q;x(y(z(A(B(C(D(E(F(G(H(n!I(J(K(L(M(N(O(l#P(Q(R(S(T(U(V(W(X(Y(Z(`(9((+V{ _._+_@_#_$__)%_&_*_=_-_L];_>_,_'_)_!_~_{_]_^_}@/_(___:_",
"<_[_}_|_1_2_3_4_5_6_7_-^X;8_9_0_a_b_c_8_d_e_f_g_N+h_i_j_k_l_m_n_0(o_p_q_r_e(s_t_u_v_w_x_y_z_A_B_3= -C_D_E_F_G_H_I_J_K_L_M_N_O_P_",
"~;Q_S^R_S_T_U_V_W_ ^5=X_Y_Z_`_ :.:+:@:#:$:%:&:*:[^=:-:;:K->:,:':):C,!:~:{:]:^:/:(:_:::<:[:}:|:1:2:3:4:5:6:7:#&8:9:0:a:b:c:d:p*e:",
"f:g:h:i:j:k:/+l:m:n:o:I!l&p:S/q:r:e%s:t:u:v:j>w:x:y:z:A:B:C:F{D:E:W;F:G:H:I:J:K:L:M:N:O:P:((c/Q:R:S:*,T:U:$&~-;*V:W:X:Y:Z:`: <.<",
"+<@<#<$<%<&<*<N^V)=<-<]/;<o)><,<'<})s:W!)<!<')~<{<]<^</<(<*]~;_<:<#]=*<<[<}<|<1<2<3<4<5<6<7<Y^8<,_9<`%~_0<a<j,b<c<d<e<f<g<h<5.`.",
"i<j<k<l<m<n<o<p<q<r<k(x~n);,s<t<u<T)v<w<x<y<z<A<B<C<D<E<F<G<H<I<J<K<L<M<N<O<P<Q<R<S<T<U<V<+'W<X<N;Y<|'5~Z<A*<+`< [.[+[@[o*~ d.s ",
"#[$[%[&[*[=[a(-[;[>[n:c_,['[)[![O$R+~[g>{[][^[/[([_[:[<[[[}[|[1[2[3[4[5[6[7[8[9[j%s]0[@:a%a[b[c[r&d[e[f[g[@>h[i[j[k[l[m[n[F o[5.",
"p[q[r[s[t[u[7_v[w[x[y[T)z[A[B[C[D[})E[F[G[H[I[J[K[L[M[N[O[P[Q[R[S[T[U[V[W[X[Y[Z[U= ~|'`[ }=,r&.}+}@}#}$}%}&}*}=}-};}>},}l 6-'}l ",
")}!}~}{}]}^}/}(}_}:}<}H^[}}}|}1}c_7('^2}3}4}5}6}7}8}9}0}a}b}c}d}e}f}g}h}i}x/j}k}t]*]l}H]m}5~n}G]G]o}p}q}r}s}t}u}v}w}x}y}z}9+A} <",
"B}C}D}H~E}^*h;F}G}H}b%%#I}J}K}W'L}G^^;M}N}O}P}Q}R}S}T}U}V}W}X}Y}Z}`} |.|+|@|#|$|%|q]%|U'[( #A&&|G]^{*|=|-|;|>|,|'|)|i `-4#!|~|C@",
"{|]|^|/|(|_|h{:|}:<|V'2~[|}|||G{A/1|2|6=3|4|S^5|6|7|8|9|0|a|b|c|d|e|f|g|h|i|j|}*k|s&6:l|m|n|o|p|H)q|r|s|t|u|v|w|x|y|z|A| <B|C|D|",
"E|F|G|H|c,I|W~J|K|L|e[|'M|N|O|M(e@P|Q|R|S|:|2%T|U|f=T;V|6!]<W|X|b;f|Y|Z|`| 19{.1E>+1D_@15:#1$1>,%1&1*1=1-1;1>1,1'1)1!1~1{1]1^1h ",
"/1(1_1:1,-<1[1}1|1c|1121y:F][|d>E>v#31P+4151617181q)E:91c{01a1b1c1n|d1e1f1g1u]u]h1i1j1k1l1E/m1',n1o1p1q1r1s1t18+o$u1v1w15#x1y1m ",
"z1A1B1C1D1E1F1G1H1I1J1q#~;=&K17:L1M1d@+'N1O1^}P1Q1(~Y!R121S1T1U1V1W1X1Y1Z1`1J/ 2,]`1.2+2@2#2$2%2&2*2=2-2;2>2x},2'2)2!2~2n[{2]2^2",
"/2(2_2:2<2H|[2}2|2127/22$]y-O~3242g18<526272829202a24)J)R)m&-[r-W%G^b2];N$c2J/d2c2I/~*e2p_[$f2g2O,h2i2j2k2l2G=m2n2o2p2q2r2s2t2u2",
"v2w2x2y2z2A2j=B2C2D2E2=>F2D{G2H2Z|I2J2+(K2v-K{B_L2M2N2O2^!P2v&Q2`]R2'^^;S2S2T2U2b[}'w&i=V2W2X2Y2Z2`2 3.3+3@3#3$3%3&3*3=3~|-3;3>3",
",3'3)3!3~3{3!~]3^3/3(3_3T1v&:3#><3[3E>}3|3Q:-[L]s-13|:23/}3343K;}*&>S:536373835:9303a3b3c3d3e3f3g3h3i3j3`:Z&k3l3m3n3o3p3q3r3s3t3",
"u3v3w3x3y3z3A3B3C3D3E3F2`!F3G3H3I3J3.'X<K3L3M3}3N3O3k(&/P3Q3R3S3T3P2U3c[N;V3W393X3Y3Z3`3 4.4+4@4#4$4%4&4x *4=4-4;4>4,4{1'4)4!4~4",
"{4]4^4/4(4_4;#:4<4*][4}4|4y:c)1424344454o-6452K3748494 ^04`/04a4b4c4d4,*2~ }e4f4g4>>h4i4j4u,k4l4m4n40&o4p4q4r4s4t4u4v4w4x4y4z4A4",
"B4C4D4E4F4u,c$G4w,]3H4I4J4:]+<K4L4M4N4o(Y%O4P4Q4R4S431(;62s{s{T4X!0,U4V4W4@,o_X4Y4Z4`4 5.5+5@5#5$5%5B !#&5*5=5-5;5>5,5i '5)5!5~5",
"{5]5^5/5(5_5:5i~<5[5}5|515253545B#55657544c22|859505a5b5J2'*c5d5e5f5g5Q_^+h5i5j5^~k5T]l5m5n5o5p5q53&r5s5N=`'t5u5v5w5x5y5z5A5B5C5",
"D5E5F5G5H5I5J5t:K53@L5M5N5O5P5Q5.,t'R5`|S5[/y]T5U5M1V5W5X5J/W<(; ^Y5X;g@~:Z5`5 6.6+6@6#6$6%6&6*6=6-6;6>6%1,6'6)6!6~6{6]6^6/6(6_6",
"4.k$:6<6[6}6|616263646566676869606!~a6h^e[c%8<]$a5,_b6c6d6C^e6f6Q_s]n)~/g6h6i6j6k6l6m6n6o6p6q6r6i+s6t6u6v6w6x6y6z6A6B6C6D6E64.4.",
"F6k$G6H6I6J6K6L6M6N6O6F(P6I;Q6R6i<S6$(V!T6V'U6V6W6n(N;b[D>X6Y6Y{g5j}Z61 `6 7.7+7@7#7$7%7&7*7=7-7;755>7,7'7)7!7~7{7]7^7/7(7_7F64.",
":77-<7[7}7|71727374757:567G'q~77M5879707N/a7b7b%{;54N;c7Y<c%D:I!d7e7f7g7h7i7j7k7l7m7n7o7p7q7r7s7t79_u7v7w7x7y7z7A7B7B6C7D7E7F74.",
"G7H7d.I7J7K7L7M7N7O7P7Q7R7S7T7U7V7W7X7Y7Z7`7 8w<=&.87=n(Y<+8@8#8E:+{$2$8%8&8*8=8-8;8>8,8'8)8!8~8K~~:{8]8^8/8(8_8:8<8[8}8|818j$3#"};
