/* XPM */
static char * portal_rot7_xpm[] = {
"64 64 3410 2",
"  	c #130A29",
". 	c #130928",
"+ 	c #110925",
"@ 	c #130A24",
"# 	c #120A24",
"$ 	c #0C081D",
"% 	c #070618",
"& 	c #060617",
"* 	c #08061A",
"= 	c #0F0926",
"- 	c #180A38",
"; 	c #1C083E",
"> 	c #160931",
", 	c #1D0D31",
"' 	c #1D0E31",
") 	c #120922",
"! 	c #070619",
"~ 	c #060416",
"{ 	c #050414",
"] 	c #100725",
"^ 	c #1C0940",
"/ 	c #320D69",
"( 	c #4A0F8A",
"_ 	c #5D0F98",
": 	c #670B9B",
"< 	c #570695",
"[ 	c #44058C",
"} 	c #370190",
"| 	c #46039E",
"1 	c #5706A8",
"2 	c #4F049F",
"3 	c #3D018D",
"4 	c #2D0275",
"5 	c #2F0474",
"6 	c #34057B",
"7 	c #2E057A",
"8 	c #290770",
"9 	c #28095D",
"0 	c #240A50",
"a 	c #150830",
"b 	c #110822",
"c 	c #0A061D",
"d 	c #07051B",
"e 	c #06041B",
"f 	c #060519",
"g 	c #0A0720",
"h 	c #0D0923",
"i 	c #0E0A26",
"j 	c #0A071F",
"k 	c #07061A",
"l 	c #060619",
"m 	c #06061B",
"n 	c #06051A",
"o 	c #060517",
"p 	c #0A061A",
"q 	c #100A21",
"r 	c #0E0821",
"s 	c #100923",
"t 	c #120A26",
"u 	c #130A2A",
"v 	c #13092A",
"w 	c #0E081D",
"x 	c #0D071C",
"y 	c #060616",
"z 	c #080619",
"A 	c #0E0823",
"B 	c #11082F",
"C 	c #220A4A",
"D 	c #2A0C58",
"E 	c #1C0749",
"F 	c #190A38",
"G 	c #140927",
"H 	c #080518",
"I 	c #050412",
"J 	c #050413",
"K 	c #0A061B",
"L 	c #140A27",
"M 	c #1C0C37",
"N 	c #270E53",
"O 	c #44117E",
"P 	c #63119E",
"Q 	c #6F0DA3",
"R 	c #66079B",
"S 	c #500290",
"T 	c #3B028D",
"U 	c #390297",
"V 	c #3B0297",
"W 	c #3F0392",
"X 	c #400295",
"Y 	c #440197",
"Z 	c #390185",
"` 	c #33027C",
" .	c #3E038C",
"..	c #440594",
"+.	c #3C068C",
"@.	c #2C0673",
"#.	c #270760",
"$.	c #1D0A44",
"%.	c #170B2C",
"&.	c #120923",
"*.	c #0E061D",
"=.	c #0D061F",
"-.	c #09061D",
";.	c #0C071E",
">.	c #0C061E",
",.	c #0D0820",
"'.	c #160D2A",
").	c #1B0D32",
"!.	c #1F0D37",
"~.	c #200D35",
"{.	c #1A0B2D",
"].	c #0E0722",
"^.	c #170E29",
"/.	c #0B081D",
"(.	c #060515",
"_.	c #0C071C",
":.	c #0F0920",
"<.	c #0E0720",
"[.	c #140B29",
"}.	c #160B2B",
"|.	c #0E0820",
"1.	c #0B071B",
"2.	c #090619",
"3.	c #060615",
"4.	c #0B0623",
"5.	c #130637",
"6.	c #370F62",
"7.	c #411173",
"8.	c #330867",
"9.	c #1D0646",
"0.	c #080517",
"a.	c #040310",
"b.	c #060414",
"c.	c #0B061D",
"d.	c #150B29",
"e.	c #1E0E39",
"f.	c #260D4C",
"g.	c #3A0D71",
"h.	c #520D93",
"i.	c #5E099D",
"j.	c #570490",
"k.	c #46027D",
"l.	c #3A0179",
"m.	c #37028B",
"n.	c #3B0399",
"o.	c #330287",
"p.	c #220169",
"q.	c #290171",
"r.	c #28016D",
"s.	c #20015B",
"t.	c #22015E",
"u.	c #37027D",
"v.	c #49059B",
"w.	c #460699",
"x.	c #2F067A",
"y.	c #220661",
"z.	c #1D084F",
"A.	c #1B0A3E",
"B.	c #15092A",
"C.	c #0F0621",
"D.	c #10062C",
"E.	c #170934",
"F.	c #1E0E2D",
"G.	c #1C0D2A",
"H.	c #180C27",
"I.	c #140B26",
"J.	c #140C28",
"K.	c #150B28",
"L.	c #100822",
"M.	c #06061A",
"N.	c #07061B",
"O.	c #060518",
"P.	c #0A071A",
"Q.	c #110A24",
"R.	c #100A1F",
"S.	c #130A23",
"T.	c #07051A",
"U.	c #0B0627",
"V.	c #18063B",
"W.	c #3F126A",
"X.	c #5C1C8B",
"Y.	c #461172",
"Z.	c #17043A",
"`.	c #050411",
" +	c #060516",
".+	c #0D071F",
"++	c #190D2F",
"@+	c #22103D",
"#+	c #290F4D",
"$+	c #360D66",
"%+	c #580D97",
"&+	c #660AAD",
"*+	c #5F04A4",
"=+	c #4A0287",
"-+	c #2F0165",
";+	c #250161",
">+	c #2B0278",
",+	c #2E027E",
"'+	c #230165",
")+	c #1D0154",
"!+	c #240163",
"~+	c #200160",
"{+	c #140144",
"]+	c #11013D",
"^+	c #230163",
"/+	c #3C038F",
"(+	c #44049F",
"_+	c #3B0591",
":+	c #31067E",
"<+	c #29056F",
"[+	c #220757",
"}+	c #100821",
"|+	c #10062D",
"1+	c #1A063C",
"2+	c #381050",
"3+	c #421657",
"4+	c #361252",
"5+	c #2E104F",
"6+	c #2A1047",
"7+	c #26113F",
"8+	c #281143",
"9+	c #2A1048",
"0+	c #281046",
"a+	c #250F3F",
"b+	c #200E37",
"c+	c #160929",
"d+	c #070617",
"e+	c #0A071B",
"f+	c #0A071C",
"g+	c #09061E",
"h+	c #12072F",
"i+	c #1D0943",
"j+	c #451372",
"k+	c #641D91",
"l+	c #3F1060",
"m+	c #08041D",
"n+	c #040410",
"o+	c #251340",
"p+	c #2C124E",
"q+	c #320D63",
"r+	c #520F8C",
"s+	c #6913AA",
"t+	c #5F09AB",
"u+	c #51029F",
"v+	c #420186",
"w+	c #2E0164",
"x+	c #220157",
"y+	c #230162",
"z+	c #22015F",
"A+	c #1E0152",
"B+	c #240157",
"C+	c #280161",
"D+	c #1E0154",
"E+	c #10013A",
"F+	c #0D0234",
"G+	c #19024F",
"H+	c #280271",
"I+	c #310282",
"J+	c #340284",
"K+	c #350383",
"L+	c #360384",
"M+	c #320871",
"N+	c #240D4A",
"O+	c #15082A",
"P+	c #0F052E",
"Q+	c #411155",
"R+	c #471357",
"S+	c #3B0E57",
"T+	c #370E63",
"U+	c #310F60",
"V+	c #2D0F58",
"W+	c #2E0E59",
"X+	c #310E60",
"Y+	c #2E0D5E",
"Z+	c #240954",
"`+	c #190643",
" @	c #180936",
".@	c #190D2D",
"+@	c #120B24",
"@@	c #060514",
"#@	c #0C071D",
"$@	c #0A0719",
"%@	c #0A0619",
"&@	c #09061B",
"*@	c #0B071D",
"=@	c #12092A",
"-@	c #1A0939",
";@	c #250753",
">@	c #400C73",
",@	c #420E67",
"'@	c #210737",
")@	c #080616",
"!@	c #090618",
"~@	c #22113A",
"{@	c #2B124B",
"]@	c #340E60",
"^@	c #3C0878",
"/@	c #53079C",
"(@	c #6610A8",
"_@	c #4F0797",
":@	c #47029A",
"<@	c #450290",
"[@	c #35026D",
"}@	c #250254",
"|@	c #240255",
"1@	c #250156",
"2@	c #240154",
"3@	c #260158",
"4@	c #240158",
"5@	c #17013F",
"6@	c #0E012F",
"7@	c #0F0136",
"8@	c #140141",
"9@	c #19014E",
"0@	c #1C0157",
"a@	c #22015D",
"b@	c #2E016D",
"c@	c #320173",
"d@	c #330A6A",
"e@	c #290F4B",
"f@	c #170930",
"g@	c #110538",
"h@	c #200843",
"i@	c #2F0C47",
"j@	c #2F0A3C",
"k@	c #401049",
"l@	c #5A1C63",
"m@	c #4E1861",
"n@	c #2E0B58",
"o@	c #22065A",
"p@	c #240662",
"q@	c #340A6F",
"r@	c #3D1273",
"s@	c #320C6F",
"t@	c #2F1157",
"u@	c #210F35",
"v@	c #110B26",
"w@	c #0D081E",
"x@	c #130A25",
"y@	c #200F41",
"z@	c #210B49",
"A@	c #290661",
"B@	c #350766",
"C@	c #1B0534",
"D@	c #080416",
"E@	c #0C071A",
"F@	c #0F081D",
"G@	c #1F1332",
"H@	c #2C154D",
"I@	c #361162",
"J@	c #430C7D",
"K@	c #4E0695",
"L@	c #4D059C",
"M@	c #4F099D",
"N@	c #3A0393",
"O@	c #41029D",
"P@	c #430292",
"Q@	c #2F0266",
"R@	c #1F0248",
"S@	c #20024B",
"T@	c #240153",
"U@	c #220155",
"V@	c #200154",
"W@	c #1C014A",
"X@	c #120136",
"Y@	c #0D012E",
"Z@	c #110139",
"`@	c #12013D",
" #	c #13013D",
".#	c #1D014F",
"+#	c #25015A",
"@#	c #31016F",
"##	c #2E0173",
"$#	c #2B0B5E",
"%#	c #250D4A",
"&#	c #180640",
"*#	c #1A0643",
"=#	c #270B48",
"-#	c #26093C",
";#	c #180526",
">#	c #4C1946",
",#	c #6C245F",
"'#	c #621F58",
")#	c #3A0E44",
"!#	c #230452",
"~#	c #1E0160",
"{#	c #591191",
"]#	c #8D2FB2",
"^#	c #7927A0",
"/#	c #4E1C6B",
"(#	c #29133C",
"_#	c #100926",
":#	c #0B071A",
"<#	c #0B071C",
"[#	c #0D081D",
"}#	c #0D071B",
"|#	c #1A0E2F",
"1#	c #2A1352",
"2#	c #2A0D5F",
"3#	c #240661",
"4#	c #190538",
"5#	c #09061C",
"6#	c #0A0618",
"7#	c #120A1F",
"8#	c #2F1B47",
"9#	c #411B70",
"0#	c #4D1287",
"a#	c #530D97",
"b#	c #5407A5",
"c#	c #4103A1",
"d#	c #350296",
"e#	c #330299",
"f#	c #300186",
"g#	c #2D016F",
"h#	c #1D014B",
"i#	c #14013A",
"j#	c #180144",
"k#	c #19014F",
"l#	c #18014E",
"m#	c #130142",
"n#	c #100135",
"o#	c #070120",
"p#	c #0A0125",
"q#	c #0F012E",
"r#	c #12013A",
"s#	c #140143",
"t#	c #1E0256",
"u#	c #2C016E",
"v#	c #35017F",
"w#	c #310286",
"x#	c #2A0670",
"y#	c #240859",
"z#	c #1B0650",
"A#	c #200A47",
"B#	c #250A40",
"C#	c #1D0633",
"D#	c #34163A",
"E#	c #582554",
"F#	c #622559",
"G#	c #4C1846",
"H#	c #360B3E",
"I#	c #3C0C59",
"J#	c #29055E",
"K#	c #31047E",
"L#	c #5606A8",
"M#	c #651D9A",
"N#	c #52206B",
"O#	c #2C143F",
"P#	c #110927",
"Q#	c #0A061C",
"R#	c #0D081F",
"S#	c #060413",
"T#	c #180B30",
"U#	c #2C1259",
"V#	c #2D0A70",
"W#	c #2B0863",
"X#	c #070518",
"Y#	c #090617",
"Z#	c #0B061A",
"`#	c #160C26",
" $	c #1D102E",
".$	c #3B1E5C",
"+$	c #541E8E",
"@$	c #621CA0",
"#$	c #6719AA",
"$$	c #590CAE",
"%$	c #3A0397",
"&$	c #22017D",
"*$	c #240181",
"=$	c #1C015E",
"-$	c #140142",
";$	c #0F0238",
">$	c #0B0232",
",$	c #120146",
"'$	c #150157",
")$	c #170157",
"!$	c #110140",
"~$	c #0B012C",
"{$	c #06011F",
"]$	c #07011F",
"^$	c #0B0127",
"/$	c #13013C",
"($	c #1D0257",
"_$	c #1D0261",
":$	c #2C027C",
"<$	c #36018C",
"[$	c #2B0188",
"}$	c #280475",
"|$	c #220658",
"1$	c #1C0847",
"2$	c #1D0C36",
"3$	c #1D0932",
"4$	c #140625",
"5$	c #49244F",
"6$	c #612E5E",
"7$	c #4F204B",
"8$	c #1F0729",
"9$	c #230634",
"0$	c #4A1558",
"a$	c #3A0E57",
"b$	c #230370",
"c$	c #5F0DA7",
"d$	c #6D258F",
"e$	c #4C1F63",
"f$	c #291142",
"g$	c #140A2B",
"h$	c #0A061E",
"i$	c #070616",
"j$	c #060412",
"k$	c #0D091F",
"l$	c #0D0821",
"m$	c #0C0720",
"n$	c #040412",
"o$	c #04030F",
"p$	c #0C0622",
"q$	c #1E0B49",
"r$	c #260A61",
"s$	c #050312",
"t$	c #080618",
"u$	c #1B0F2B",
"v$	c #28173C",
"w$	c #331953",
"x$	c #4F237A",
"y$	c #6927A4",
"z$	c #742DAC",
"A$	c #691FAB",
"B$	c #570DA9",
"C$	c #320091",
"D$	c #210174",
"E$	c #1F016F",
"F$	c #13014F",
"G$	c #0D013E",
"H$	c #0E0140",
"I$	c #0D023C",
"J$	c #11014A",
"K$	c #18015B",
"L$	c #180159",
"M$	c #14024B",
"N$	c #0B022F",
"O$	c #0A022A",
"P$	c #0D022F",
"Q$	c #15013F",
"R$	c #1D0259",
"S$	c #240272",
"T$	c #31038B",
"U$	c #360194",
"V$	c #290183",
"W$	c #230272",
"X$	c #1D0648",
"Y$	c #1D0E38",
"Z$	c #1A0A2E",
"`$	c #0F0524",
" %	c #200E39",
".%	c #402152",
"+%	c #4D2553",
"@%	c #2A1030",
"#%	c #1D062F",
"$%	c #270941",
"%%	c #2B0A4B",
"&%	c #1D0641",
"*%	c #14043A",
"=%	c #661E84",
"-%	c #702592",
";%	c #421762",
">%	c #2A1148",
",%	c #1B0C35",
"'%	c #0D0723",
")%	c #0B0720",
"!%	c #0B061F",
"~%	c #110826",
"{%	c #1A0A38",
"]%	c #180839",
"^%	c #0F081E",
"/%	c #1C0F2A",
"(%	c #2C1A3E",
"_%	c #3A1F57",
":%	c #4D217C",
"<%	c #6F339F",
"[%	c #7B32B3",
"}%	c #792EAF",
"|%	c #57129D",
"1%	c #35018E",
"2%	c #250176",
"3%	c #1C0166",
"4%	c #11024D",
"5%	c #0C013F",
"6%	c #0C013C",
"7%	c #0F023E",
"8%	c #120243",
"9%	c #16024C",
"0%	c #160248",
"a%	c #140240",
"b%	c #15023F",
"c%	c #160242",
"d%	c #150245",
"e%	c #140241",
"f%	c #100138",
"g%	c #170247",
"h%	c #230264",
"i%	c #340386",
"j%	c #370291",
"k%	c #2C0286",
"l%	c #27037D",
"m%	c #230A57",
"n%	c #1F0F37",
"o%	c #180A2D",
"p%	c #160635",
"q%	c #2C1452",
"r%	c #311851",
"s%	c #271137",
"t%	c #140529",
"u%	c #22093A",
"v%	c #250A45",
"w%	c #18063D",
"x%	c #120536",
"y%	c #120531",
"z%	c #14062E",
"A%	c #300B48",
"B%	c #340E57",
"C%	c #2C0E54",
"D%	c #210F43",
"E%	c #1C0D38",
"F%	c #0D0921",
"G%	c #0C081F",
"H%	c #0A071E",
"I%	c #160B2C",
"J%	c #0F091E",
"K%	c #130B22",
"L%	c #1D102D",
"M%	c #2B183E",
"N%	c #3A1E58",
"O%	c #4A1F7A",
"P%	c #62239A",
"Q%	c #7B32B0",
"R%	c #7C2BB2",
"S%	c #701DAB",
"T%	c #540998",
"U%	c #3B018E",
"V%	c #36028E",
"W%	c #250279",
"X%	c #150154",
"Y%	c #0D013C",
"Z%	c #0A0131",
"`%	c #0C0131",
" &	c #13023A",
".&	c #17023E",
"+&	c #16023C",
"@&	c #17023A",
"#&	c #1A0240",
"$&	c #1F0349",
"%&	c #220255",
"&&	c #210157",
"*&	c #1A0249",
"=&	c #14023C",
"-&	c #160240",
";&	c #210257",
">&	c #300374",
",&	c #360281",
"'&	c #300284",
")&	c #2E038A",
"!&	c #2A0B6C",
"~&	c #190933",
"{&	c #230B53",
"]&	c #2A1159",
"^&	c #230E47",
"/&	c #120528",
"(&	c #1A0734",
"_&	c #210A42",
":&	c #1D0745",
"<&	c #110534",
"[&	c #110627",
"}&	c #110621",
"|&	c #130720",
"1&	c #150925",
"2&	c #1A0A31",
"3&	c #1E0A43",
"4&	c #250F4E",
"5&	c #261347",
"6&	c #160C2C",
"7&	c #0B061B",
"8&	c #0C0721",
"9&	c #040413",
"0&	c #0E071F",
"a&	c #140B25",
"b&	c #150D25",
"c&	c #1B0F2C",
"d&	c #25153B",
"e&	c #341B53",
"f&	c #441D76",
"g&	c #501691",
"h&	c #6119A1",
"i&	c #7522AF",
"j&	c #731DAE",
"k&	c #6810A9",
"l&	c #500697",
"m&	c #39028A",
"n&	c #2E0180",
"o&	c #1E0163",
"p&	c #110141",
"q&	c #0F0234",
"r&	c #0F0230",
"s&	c #120236",
"t&	c #190242",
"u&	c #180243",
"v&	c #180248",
"w&	c #1D0251",
"x&	c #24025C",
"y&	c #260263",
"z&	c #22015B",
"A&	c #1D024E",
"B&	c #180242",
"C&	c #1B0248",
"D&	c #220256",
"E&	c #2C026A",
"F&	c #320275",
"G&	c #31027F",
"H&	c #320386",
"I&	c #2B096B",
"J&	c #230E45",
"K&	c #220954",
"L&	c #290867",
"M&	c #260B5C",
"N&	c #190937",
"O&	c #17092E",
"P&	c #1C0A3A",
"Q&	c #1E0849",
"R&	c #1C064C",
"S&	c #210E3A",
"T&	c #210D41",
"U&	c #1D0C3A",
"V&	c #1B0C32",
"W&	c #1A0C2C",
"X&	c #14092B",
"Y&	c #200F3F",
"Z&	c #0C061F",
"`&	c #0D071D",
" *	c #0E091D",
".*	c #150C26",
"+*	c #1B0E31",
"@*	c #2B174B",
"#*	c #4E2478",
"$*	c #5C2398",
"%*	c #5512A1",
"&*	c #5D10A7",
"**	c #6B18AE",
"=*	c #6411AA",
"-*	c #5906A3",
";*	c #480493",
">*	c #30027E",
",*	c #210166",
"'*	c #16024A",
")*	c #150240",
"!*	c #17023D",
"~*	c #18023E",
"{*	c #180240",
"]*	c #170243",
"^*	c #17024B",
"/*	c #1A025C",
"(*	c #1C0267",
"_*	c #1D026C",
":*	c #27017C",
"<*	c #31028D",
"[*	c #310285",
"}*	c #290270",
"|*	c #23025F",
"1*	c #230258",
"2*	c #230257",
"3*	c #270160",
"4*	c #350286",
"5*	c #38028E",
"6*	c #300677",
"7*	c #27095E",
"8*	c #270573",
"9*	c #26066B",
"0*	c #1F0A4E",
"a*	c #1C0D33",
"b*	c #1E0E3A",
"c*	c #210A4D",
"d*	c #24065E",
"e*	c #2A085E",
"f*	c #310E5D",
"g*	c #331263",
"h*	c #320A75",
"i*	c #290870",
"j*	c #220C52",
"k*	c #240F47",
"l*	c #200E3B",
"m*	c #170A2D",
"n*	c #0F0824",
"o*	c #070519",
"p*	c #050410",
"q*	c #040411",
"r*	c #09061A",
"s*	c #130A2B",
"t*	c #1D0F3A",
"u*	c #3E1E5D",
"v*	c #653090",
"w*	c #6726AA",
"x*	c #6015AD",
"y*	c #6014AD",
"z*	c #590FA5",
"A*	c #4E079A",
"B*	c #470393",
"C*	c #3C0286",
"D*	c #29016E",
"E*	c #1B0254",
"F*	c #12023E",
"G*	c #15023E",
"H*	c #1A0243",
"I*	c #190244",
"J*	c #170245",
"K*	c #180253",
"L*	c #1F016D",
"M*	c #24017C",
"N*	c #280285",
"O*	c #3A0499",
"P*	c #4B06A9",
"Q*	c #4606A1",
"R*	c #32038B",
"S*	c #260174",
"T*	c #25016A",
"U*	c #240262",
"V*	c #250261",
"W*	c #2A0170",
"X*	c #310183",
"Y*	c #36018E",
"Z*	c #300280",
"`*	c #230367",
" =	c #230366",
".=	c #240858",
"+=	c #240E41",
"@=	c #271047",
"#=	c #2F0C61",
"$=	c #3B077E",
"%=	c #42068B",
"&=	c #47098A",
"*=	c #430986",
"==	c #340585",
"-=	c #380396",
";=	c #35068C",
">=	c #260961",
",=	c #240C53",
"'=	c #2E1156",
")=	c #2E124A",
"!=	c #210E34",
"~=	c #130822",
"{=	c #0B071F",
"]=	c #04030E",
"^=	c #0E0727",
"/=	c #180B33",
"(=	c #1D0F37",
"_=	c #542A6E",
":=	c #6E319D",
"<=	c #732EB0",
"[=	c #742DB1",
"}=	c #631FA4",
"|=	c #41098A",
"1=	c #2E0277",
"2=	c #210162",
"3=	c #170151",
"4=	c #0F023C",
"5=	c #120244",
"6=	c #160246",
"7=	c #170242",
"8=	c #16023F",
"9=	c #160241",
"0=	c #1A024E",
"a=	c #26026B",
"b=	c #2E027F",
"c=	c #340289",
"d=	c #3E048F",
"e=	c #4D0A97",
"f=	c #5C11A1",
"g=	c #530D9A",
"h=	c #3A048F",
"i=	c #300187",
"j=	c #2F027D",
"k=	c #2E0178",
"l=	c #2D0174",
"m=	c #2C0174",
"n=	c #310180",
"o=	c #2C0177",
"p=	c #1D0253",
"q=	c #1C0446",
"r=	c #240651",
"s=	c #250854",
"t=	c #260763",
"u=	c #34057D",
"v=	c #480499",
"w=	c #5906AA",
"x=	c #5E06AB",
"y=	c #4D039D",
"z=	c #380190",
"A=	c #3C0298",
"B=	c #420C93",
"C=	c #3E1474",
"D=	c #351163",
"E=	c #2F0F5F",
"F=	c #32115A",
"G=	c #2F1150",
"H=	c #230E3C",
"I=	c #170B2B",
"J=	c #100A24",
"K=	c #0D0720",
"L=	c #14092E",
"M=	c #1E0D3E",
"N=	c #35125D",
"O=	c #49177A",
"P=	c #5F2295",
"Q=	c #6720AB",
"R=	c #671DAE",
"S=	c #6923A8",
"T=	c #551995",
"U=	c #300672",
"V=	c #1B015B",
"W=	c #1A0158",
"X=	c #160153",
"Y=	c #13024E",
"Z=	c #120248",
"`=	c #120247",
" -	c #110246",
".-	c #11023E",
"+-	c #110239",
"@-	c #12023A",
"#-	c #13023F",
"$-	c #230260",
"%-	c #28026C",
"&-	c #2E036F",
"*-	c #3C0774",
"=-	c #4F1083",
"--	c #530F90",
";-	c #500A98",
">-	c #4C079C",
",-	c #430498",
"'-	c #3B0291",
")-	c #380187",
"!-	c #310276",
"~-	c #300273",
"{-	c #2D0171",
"]-	c #1D024C",
"^-	c #1E0255",
"/-	c #1E0265",
"(-	c #28017C",
"_-	c #41019A",
":-	c #5A06AC",
"<-	c #6006AE",
"[-	c #4D03A0",
"}-	c #410196",
"|-	c #4D03A3",
"1-	c #4C04A1",
"2-	c #470A90",
"3-	c #4B0C89",
"4-	c #420A81",
"5-	c #330B72",
"6-	c #300D64",
"7-	c #2F0F57",
"8-	c #250F40",
"9-	c #1B0E30",
"0-	c #050311",
"a-	c #2F1553",
"b-	c #3E1772",
"c-	c #5C199A",
"d-	c #6111AD",
"e-	c #590EAA",
"f-	c #510BA3",
"g-	c #4C079D",
"h-	c #510C99",
"i-	c #470790",
"j-	c #2E0371",
"k-	c #1D0258",
"l-	c #1A0157",
"m-	c #1A015B",
"n-	c #1C025E",
"o-	c #180256",
"p-	c #140246",
"q-	c #0F0239",
"r-	c #0D0134",
"s-	c #0F023D",
"t-	c #110247",
"u-	c #12024E",
"v-	c #12024F",
"w-	c #160253",
"x-	c #1C025F",
"y-	c #230265",
"z-	c #200158",
"A-	c #2F055F",
"B-	c #3B0871",
"C-	c #460981",
"D-	c #560B96",
"E-	c #5708A0",
"F-	c #4C059C",
"G-	c #3F0293",
"H-	c #34017B",
"I-	c #2B0261",
"J-	c #280262",
"K-	c #21025B",
"L-	c #190144",
"M-	c #1A0150",
"N-	c #1B015F",
"O-	c #1D0171",
"P-	c #4B039F",
"Q-	c #5304A6",
"R-	c #47029C",
"S-	c #400195",
"T-	c #5705A6",
"U-	c #6103AF",
"V-	c #5702A3",
"W-	c #4D0398",
"X-	c #41038E",
"Y-	c #300477",
"Z-	c #260665",
"`-	c #2C0C60",
" ;	c #2D1055",
".;	c #291147",
"+;	c #040311",
"@;	c #0B071E",
"#;	c #140A29",
"$;	c #281247",
"%;	c #4D207D",
"&;	c #54179E",
"*;	c #580DAB",
"=;	c #4E069D",
"-;	c #3F0390",
";;	c #420395",
">;	c #420293",
",;	c #460391",
"';	c #3F0187",
");	c #2E0171",
"!;	c #200261",
"~;	c #1E0260",
"{;	c #22016A",
"];	c #210266",
"^;	c #1B0252",
"/;	c #100239",
"(;	c #0A0129",
"_;	c #0A012A",
":;	c #0E0239",
"<;	c #150250",
"[;	c #17025B",
"};	c #150159",
"|;	c #15015A",
"1;	c #19015F",
"2;	c #1D0166",
"3;	c #200168",
"4;	c #1D025C",
"5;	c #1A0155",
"6;	c #1E0258",
"7;	c #2C046A",
"8;	c #500B87",
"9;	c #610F9A",
"0;	c #620EA2",
"a;	c #4E069C",
"b;	c #3A0286",
"c;	c #2D0162",
"d;	c #280258",
"e;	c #27025E",
"f;	c #1D024F",
"g;	c #160140",
"h;	c #15014F",
"i;	c #18015E",
"j;	c #270172",
"k;	c #330185",
"l;	c #370188",
"m;	c #460292",
"n;	c #6C0CA8",
"o;	c #760CAE",
"p;	c #5C049F",
"q;	c #490197",
"r;	c #3A0189",
"s;	c #250168",
"t;	c #1D0652",
"u;	c #260A58",
"v;	c #2D0E58",
"w;	c #070516",
"x;	c #100925",
"y;	c #1E1039",
"z;	c #421D69",
"A;	c #5A1E9A",
"B;	c #5A0FAE",
"C;	c #40048C",
"D;	c #390188",
"E;	c #3E028D",
"F;	c #3F028A",
"G;	c #3F0287",
"H;	c #310177",
"I;	c #26016B",
"J;	c #24026F",
"K;	c #230268",
"L;	c #220167",
"M;	c #1E0159",
"N;	c #110236",
"O;	c #0B012A",
"P;	c #090126",
"Q;	c #0F0135",
"R;	c #17014F",
"S;	c #26017B",
"T;	c #1F016B",
"U;	c #22026B",
"V;	c #270171",
"W;	c #1F0168",
"X;	c #1E0173",
"Y;	c #1E0174",
"Z;	c #220178",
"`;	c #27017D",
" >	c #3D0588",
".>	c #5C1192",
"+>	c #751D9F",
"@>	c #6614A3",
"#>	c #4A049A",
"$>	c #3C0176",
"%>	c #2C0254",
"&>	c #280260",
"*>	c #1C0253",
"=>	c #14013B",
"->	c #120235",
";>	c #120142",
">>	c #160157",
",>	c #250177",
"'>	c #2C0189",
")>	c #290176",
"!>	c #440289",
"~>	c #7C18AC",
"{>	c #7A12B0",
"]>	c #5C05A1",
"^>	c #4A019D",
"/>	c #3A0190",
"(>	c #200163",
"_>	c #160243",
":>	c #1E0454",
"<>	c #25075E",
"[>	c #1A0D31",
"}>	c #331852",
"|>	c #582486",
"1>	c #6C1EAD",
"2>	c #6612B0",
"3>	c #5C09A8",
"4>	c #51069B",
"5>	c #360187",
"6>	c #350180",
"7>	c #34027A",
"8>	c #33017E",
"9>	c #2C0176",
"0>	c #24016D",
"a>	c #280171",
"b>	c #230160",
"c>	c #1D0151",
"d>	c #190243",
"e>	c #110232",
"f>	c #0E0130",
"g>	c #11013B",
"h>	c #290179",
"i>	c #430396",
"j>	c #44029B",
"k>	c #3E028B",
"l>	c #41028F",
"m>	c #280179",
"n>	c #2F0190",
"o>	c #2C0192",
"p>	c #28028C",
"q>	c #2E0291",
"r>	c #360295",
"s>	c #4E0B8F",
"t>	c #731F93",
"u>	c #751CA1",
"v>	c #5C09A9",
"w>	c #520390",
"x>	c #3D0268",
"y>	c #300267",
"z>	c #1D0160",
"A>	c #100131",
"B>	c #10023B",
"C>	c #170154",
"D>	c #220172",
"E>	c #2D018F",
"F>	c #2A017C",
"G>	c #450684",
"H>	c #7116AB",
"I>	c #7213B2",
"J>	c #5806A8",
"K>	c #5F0AAD",
"L>	c #44029E",
"M>	c #290172",
"N>	c #25015F",
"O>	c #23015B",
"P>	c #1F025A",
"Q>	c #230363",
"R>	c #180D2C",
"S>	c #2A1544",
"T>	c #491F6D",
"U>	c #712AA0",
"V>	c #822CB3",
"W>	c #6F1DAA",
"X>	c #470699",
"Y>	c #3C0195",
"Z>	c #2F017F",
"`>	c #2D0178",
" ,	c #2C0173",
".,	c #2E0175",
"+,	c #280166",
"@,	c #23015A",
"#,	c #1F024F",
"$,	c #1B0243",
"%,	c #1D0245",
"&,	c #290174",
"*,	c #3A018D",
"=,	c #5003A0",
"-,	c #6406AD",
";,	c #6606AE",
">,	c #6805AB",
",,	c #5E04A8",
"',	c #5704A8",
"),	c #440395",
"!,	c #400392",
"~,	c #390198",
"{,	c #320191",
"],	c #310290",
"^,	c #30028E",
"/,	c #360391",
"(,	c #4C0993",
"_,	c #671592",
":,	c #701897",
"<,	c #690FA8",
"[,	c #6104A1",
"},	c #4B0277",
"|,	c #380273",
"1,	c #24026D",
"2,	c #11023F",
"3,	c #0F022F",
"4,	c #130250",
"5,	c #110146",
"6,	c #1C0167",
"7,	c #260186",
"8,	c #20016F",
"9,	c #2C0171",
"0,	c #5D12A4",
"a,	c #6F1DB2",
"b,	c #7527B3",
"c,	c #711DB2",
"d,	c #4D06A5",
"e,	c #330183",
"f,	c #39017B",
"g,	c #2F0171",
"h,	c #200165",
"i,	c #290370",
"j,	c #130B26",
"k,	c #27153D",
"l,	c #3E1D60",
"m,	c #59208A",
"n,	c #7C2DAD",
"o,	c #8434B0",
"p,	c #57179D",
"q,	c #2E017F",
"r,	c #270169",
"s,	c #280261",
"t,	c #27025B",
"u,	c #20024D",
"v,	c #18023C",
"w,	c #17023C",
"x,	c #1B0245",
"y,	c #210254",
"z,	c #310173",
"A,	c #3E018E",
"B,	c #43019A",
"C,	c #5402A9",
"D,	c #6605AD",
"E,	c #6A06AD",
"F,	c #7006AE",
"G,	c #7406AE",
"H,	c #6B07AC",
"I,	c #6208AF",
"J,	c #640CAF",
"K,	c #630BB0",
"L,	c #5006A7",
"M,	c #40039F",
"N,	c #3D039A",
"O,	c #300286",
"P,	c #40078D",
"Q,	c #5D1094",
"R,	c #5B0B8F",
"S,	c #5D089F",
"T,	c #5B04A1",
"U,	c #48027E",
"V,	c #340267",
"W,	c #24016B",
"X,	c #13024B",
"Y,	c #100235",
"Z,	c #0F013A",
"`,	c #100145",
" '	c #160151",
".'	c #1F0172",
"+'	c #1F017A",
"@'	c #210173",
"#'	c #2C0277",
"$'	c #490D95",
"%'	c #6920AD",
"&'	c #6D1DB1",
"*'	c #731DB2",
"='	c #4B06A2",
"-'	c #3F0191",
";'	c #3C0181",
">'	c #330179",
",'	c #2A0176",
"''	c #340483",
")'	c #0F0921",
"!'	c #23123A",
"~'	c #3D1D5A",
"{'	c #561F85",
"]'	c #651BA6",
"^'	c #7324B0",
"/'	c #7025AD",
"('	c #420492",
"_'	c #290276",
":'	c #23015E",
"<'	c #220158",
"['	c #1F0251",
"}'	c #1D0249",
"|'	c #1C0244",
"1'	c #19023E",
"2'	c #130137",
"3'	c #170143",
"4'	c #1F0157",
"5'	c #2B016D",
"6'	c #3A0186",
"7'	c #460197",
"8'	c #5202A1",
"9'	c #5B03A4",
"0'	c #5C03A0",
"a'	c #56039C",
"b'	c #5B03A1",
"c'	c #5E04A4",
"d'	c #5E06A5",
"e'	c #5E0AAA",
"f'	c #670DAF",
"g'	c #680DB1",
"h'	c #5606AB",
"i'	c #46039F",
"j'	c #3D0293",
"k'	c #2A0180",
"l'	c #37058F",
"m'	c #520D98",
"n'	c #54088F",
"o'	c #4F0496",
"p'	c #4B029C",
"q'	c #3D017B",
"r'	c #33015F",
"s'	c #220261",
"t'	c #10013F",
"u'	c #100143",
"v'	c #180259",
"w'	c #21017B",
"x'	c #1E0177",
"y'	c #230174",
"z'	c #320284",
"A'	c #42049C",
"B'	c #4805A2",
"C'	c #6111B0",
"D'	c #6313AF",
"E'	c #4704A2",
"F'	c #3F0292",
"G'	c #320174",
"H'	c #32017A",
"I'	c #430693",
"J'	c #59149D",
"K'	c #190E2D",
"L'	c #361951",
"M'	c #5A257D",
"N'	c #6E26A1",
"O'	c #6A17B1",
"P'	c #650EB0",
"Q'	c #5E0BA8",
"R'	c #450490",
"S'	c #2F0174",
"T'	c #270164",
"U'	c #210155",
"V'	c #1D024A",
"W'	c #18023F",
"X'	c #1C0247",
"Y'	c #190245",
"Z'	c #160146",
"`'	c #1F015B",
" )	c #2B0173",
".)	c #3A0282",
"+)	c #4C0394",
"@)	c #5803A4",
"#)	c #5C03A5",
"$)	c #57029C",
"%)	c #4D0294",
"&)	c #53039C",
"*)	c #5805A4",
"=)	c #5907A7",
"-)	c #5807A5",
";)	c #5706A1",
">)	c #4F059A",
",)	c #4F049D",
"')	c #5203A5",
"))	c #480397",
"!)	c #2F0276",
"~)	c #23026A",
"{)	c #35058C",
"])	c #470A9B",
"^)	c #48068F",
"/)	c #45028E",
"()	c #450296",
"_)	c #400183",
":)	c #370266",
"<)	c #120249",
"[)	c #12013E",
"})	c #120145",
"|)	c #13014A",
"1)	c #1B0261",
"2)	c #22027F",
"3)	c #1E0175",
"4)	c #220171",
"5)	c #2C0182",
"6)	c #32028A",
"7)	c #38038D",
"8)	c #5509A6",
"9)	c #5709AD",
"0)	c #4302A0",
"a)	c #3A0290",
"b)	c #320280",
"c)	c #570EA3",
"d)	c #7921AD",
"e)	c #291243",
"f)	c #471A6E",
"g)	c #6A2697",
"h)	c #7324AD",
"i)	c #6C18B0",
"j)	c #6B13AE",
"k)	c #6710AA",
"l)	c #570799",
"m)	c #410381",
"n)	c #2F0269",
"o)	c #210252",
"p)	c #1A0248",
"q)	c #1F0160",
"r)	c #280173",
"s)	c #370289",
"t)	c #5104A0",
"u)	c #6205AD",
"v)	c #5602A1",
"w)	c #51039C",
"x)	c #5806A0",
"y)	c #680CAC",
"z)	c #6B0FAE",
"A)	c #630EAA",
"B)	c #580AA0",
"C)	c #450590",
"D)	c #320182",
"E)	c #32027C",
"F)	c #340280",
"G)	c #2B0177",
"H)	c #1E0259",
"I)	c #1A0251",
"J)	c #290376",
"K)	c #3D0695",
"L)	c #420690",
"M)	c #3E0286",
"N)	c #440293",
"O)	c #420287",
"P)	c #370267",
"Q)	c #1E0254",
"R)	c #120245",
"S)	c #11013F",
"T)	c #190154",
"U)	c #20026F",
"V)	c #220281",
"W)	c #1D0270",
"X)	c #1C0161",
"Y)	c #1E016A",
"Z)	c #1F016E",
"`)	c #2A0179",
" !	c #3C0392",
".!	c #4704A1",
"+!	c #43029E",
"@!	c #3C0192",
"#!	c #350291",
"$!	c #5409A8",
"%!	c #6C17AB",
"&!	c #38145D",
"*!	c #49167E",
"=!	c #611C9E",
"-!	c #6A18AE",
";!	c #6A13AF",
">!	c #6915A9",
",!	c #6210A2",
"'!	c #50068E",
")!	c #370271",
"!!	c #250257",
"~!	c #1A0245",
"{!	c #180249",
"]!	c #1E015C",
"^!	c #220163",
"/!	c #20025E",
"(!	c #250172",
"_!	c #2E0185",
":!	c #42029D",
"<!	c #4F03A8",
"[!	c #4F03A4",
"}!	c #4A029E",
"|!	c #4D02A1",
"1!	c #5805AA",
"2!	c #6008AF",
"3!	c #630BAD",
"4!	c #5D0DA5",
"5!	c #4D0A95",
"6!	c #3A0586",
"7!	c #300281",
"8!	c #2C027F",
"9!	c #270177",
"0!	c #220170",
"a!	c #270175",
"b!	c #280177",
"c!	c #1E025D",
"d!	c #200267",
"e!	c #36048F",
"f!	c #3D0392",
"g!	c #3F0288",
"h!	c #470290",
"i!	c #450285",
"j!	c #340262",
"k!	c #190248",
"l!	c #0E013C",
"m!	c #1A0159",
"n!	c #210277",
"o!	c #20027F",
"p!	c #170262",
"q!	c #160256",
"r!	c #1B0163",
"s!	c #270173",
"t!	c #340283",
"u!	c #440497",
"v!	c #5104A5",
"w!	c #5504A4",
"x!	c #5405A2",
"y!	c #4D04A5",
"z!	c #5205AC",
"A!	c #5A0DA3",
"B!	c #351364",
"C!	c #3B107D",
"D!	c #4B0C98",
"E!	c #5E0EAB",
"F!	c #5B0CA5",
"G!	c #4D0992",
"H!	c #3A0483",
"I!	c #280168",
"J!	c #160147",
"K!	c #1C0156",
"L!	c #200161",
"M!	c #20015F",
"N!	c #23016F",
"O!	c #2B0183",
"P!	c #31018E",
"Q!	c #42029E",
"R!	c #4701A5",
"S!	c #5C06AD",
"T!	c #6208AD",
"U!	c #5C07AC",
"V!	c #5205A8",
"W!	c #450399",
"X!	c #3A0388",
"Y!	c #300277",
"Z!	c #29016B",
"`!	c #250263",
" ~	c #1F0165",
".~	c #1B015C",
"+~	c #190155",
"@~	c #1E0161",
"#~	c #18024B",
"$~	c #3E0292",
"%~	c #4A0390",
"&~	c #4E0394",
"*~	c #470285",
"=~	c #330264",
"-~	c #190149",
";~	c #0F0140",
">~	c #110145",
",~	c #130149",
"'~	c #1D025D",
")~	c #23037F",
"!~	c #1D0278",
"~~	c #110253",
"{~	c #1A015D",
"]~	c #1D0161",
"^~	c #2A0275",
"/~	c #380389",
"(~	c #490397",
"_~	c #5A05A6",
":~	c #6908B0",
"<~	c #6607B0",
"[~	c #5E0CA0",
"}~	c #2D0D63",
"|~	c #2D067D",
"1~	c #390492",
"2~	c #4B069E",
"3~	c #44058E",
"4~	c #2F0273",
"5~	c #180146",
"6~	c #1B0156",
"7~	c #200159",
"8~	c #1C0150",
"9~	c #190150",
"0~	c #1B0160",
"a~	c #320193",
"b~	c #30018D",
"c~	c #31018D",
"d~	c #4D03A9",
"e~	c #6708B1",
"f~	c #650BAA",
"g~	c #4A0697",
"h~	c #39028C",
"i~	c #30017B",
"j~	c #270167",
"k~	c #250159",
"l~	c #1C0158",
"m~	c #190159",
"n~	c #13014E",
"o~	c #0E013B",
"p~	c #140244",
"q~	c #1B0257",
"r~	c #1B024F",
"s~	c #2B027A",
"t~	c #40028F",
"u~	c #570598",
"v~	c #5B0497",
"w~	c #4A0282",
"x~	c #2E0262",
"y~	c #17014C",
"z~	c #130249",
"A~	c #130148",
"B~	c #250370",
"C~	c #2B048B",
"D~	c #1D0373",
"E~	c #0F0249",
"F~	c #100249",
"G~	c #17015C",
"H~	c #190262",
"I~	c #1D0269",
"J~	c #29017A",
"K~	c #300184",
"L~	c #3B018D",
"M~	c #51029D",
"N~	c #6506AA",
"O~	c #720BB0",
"P~	c #750BB2",
"Q~	c #690DA6",
"R~	c #240764",
"S~	c #24027A",
"T~	c #38028D",
"U~	c #2F0278",
"V~	c #1F0159",
"W~	c #160144",
"X~	c #0E0133",
"Y~	c #10013B",
"Z~	c #16024B",
"`~	c #1E0153",
" {	c #180151",
".{	c #1F0177",
"+{	c #2D0190",
"@{	c #320293",
"#{	c #2E0189",
"${	c #2A0185",
"%{	c #2C008C",
"&{	c #4E04A7",
"*{	c #4C0493",
"={	c #32027D",
"-{	c #2D0176",
";{	c #2A0167",
">{	c #1E014F",
",{	c #170145",
"'{	c #17015A",
"){	c #1A016D",
"!{	c #24037D",
"~{	c #230276",
"{{	c #1F0273",
"]{	c #120147",
"^{	c #14014D",
"/{	c #1C014E",
"({	c #280273",
"_{	c #3D0484",
":{	c #620A98",
"<{	c #660697",
"[{	c #4E0380",
"}{	c #300269",
"|{	c #190250",
"1{	c #18014A",
"2{	c #21025C",
"3{	c #310387",
"4{	c #2D058B",
"5{	c #1C0364",
"6{	c #0F0243",
"7{	c #170163",
"8{	c #1D0175",
"9{	c #210270",
"0{	c #28017A",
"a{	c #350188",
"b{	c #4E029B",
"c{	c #5E04A7",
"d{	c #730CAF",
"e{	c #7811B0",
"f{	c #6B14A1",
"g{	c #1A025B",
"h{	c #230177",
"i{	c #2E0186",
"j{	c #350187",
"k{	c #2B016F",
"l{	c #1C014F",
"m{	c #13023C",
"n{	c #170149",
"o{	c #1B0150",
"p{	c #1F0250",
"q{	c #1C0152",
"r{	c #1A0165",
"s{	c #23017F",
"t{	c #270189",
"u{	c #2A018C",
"v{	c #290186",
"w{	c #2D018B",
"x{	c #290085",
"y{	c #4B04A3",
"z{	c #50059C",
"A{	c #2A016C",
"B{	c #2D016D",
"C{	c #24015D",
"D{	c #180155",
"E{	c #120157",
"F{	c #1D0173",
"G{	c #1E0272",
"H{	c #1C0262",
"I{	c #1A0257",
"J{	c #14014B",
"K{	c #110147",
"L{	c #0F013C",
"M{	c #1B014D",
"N{	c #390673",
"O{	c #660E93",
"P{	c #5F078E",
"Q{	c #450376",
"R{	c #280264",
"S{	c #210259",
"T{	c #1B024A",
"U{	c #1D0150",
"V{	c #33038B",
"W{	c #240378",
"X{	c #150252",
"Y{	c #0E0242",
"Z{	c #10024E",
"`{	c #160167",
" ]	c #1E0180",
".]	c #1C0173",
"+]	c #230175",
"@]	c #32008B",
"#]	c #4E029D",
"$]	c #6206A8",
"%]	c #7812B0",
"&]	c #7718A8",
"*]	c #5C1986",
"=]	c #2F0184",
"-]	c #350282",
";]	c #280164",
">]	c #1A0147",
",]	c #19024B",
"']	c #1B024B",
")]	c #1D024B",
"!]	c #1C0151",
"~]	c #200176",
"{]	c #2F0294",
"]]	c #2C028E",
"^]	c #22017E",
"/]	c #2A018B",
"(]	c #2C018C",
"_]	c #3B019B",
":]	c #350285",
"<]	c #2A016B",
"[]	c #22015C",
"}]	c #180158",
"|]	c #1A0174",
"1]	c #1A0169",
"2]	c #1D0268",
"3]	c #19024D",
"4]	c #0A012B",
"5]	c #0D0138",
"6]	c #0F0141",
"7]	c #1C024B",
"8]	c #280267",
"9]	c #3E067A",
"0]	c #630C95",
"a]	c #460379",
"b]	c #2B0264",
"c]	c #19024C",
"d]	c #1C024C",
"e]	c #290267",
"f]	c #39028E",
"g]	c #2C0288",
"h]	c #1C0268",
"i]	c #110249",
"j]	c #0F0245",
"k]	c #0F024D",
"l]	c #13015F",
"m]	c #140163",
"n]	c #130155",
"o]	c #180157",
"p]	c #25017A",
"q]	c #390195",
"r]	c #5706A4",
"s]	c #7813AE",
"t]	c #7E15B2",
"u]	c #6B1698",
"v]	c #3C1365",
"w]	c #240172",
"x]	c #310287",
"y]	c #2C026E",
"z]	c #1C0248",
"A]	c #15013A",
"B]	c #1A0247",
"C]	c #1A0246",
"D]	c #190249",
"E]	c #170153",
"F]	c #190160",
"G]	c #230179",
"H]	c #2A0188",
"I]	c #2A028C",
"J]	c #20017D",
"K]	c #23017D",
"L]	c #370193",
"M]	c #31017F",
"N]	c #1D015B",
"O]	c #1A0154",
"P]	c #250165",
"Q]	c #14014F",
"R]	c #170160",
"S]	c #210179",
"T]	c #1D015E",
"U]	c #0D012D",
"V]	c #06011D",
"W]	c #050119",
"X]	c #05011A",
"Y]	c #080125",
"Z]	c #0C0132",
"`]	c #0C0239",
" ^	c #10023D",
".^	c #220254",
"+^	c #320375",
"@^	c #45068D",
"#^	c #50068B",
"$^	c #35026E",
"%^	c #1F015E",
"&^	c #1C0254",
"*^	c #1A024A",
"=^	c #370280",
"-^	c #390395",
";^	c #270285",
">^	c #190263",
",^	c #13024F",
"'^	c #10024C",
")^	c #100251",
"!^	c #110155",
"~^	c #100152",
"{^	c #0D023A",
"]^	c #16014C",
"^^	c #3C0299",
"/^	c #5F0BAA",
"(^	c #7915AF",
"_^	c #700FAB",
":^	c #4F117D",
"<^	c #2D0F56",
"[^	c #2E0183",
"}^	c #330189",
"|^	c #2D0175",
"1^	c #110132",
"2^	c #140248",
"3^	c #200171",
"4^	c #25017C",
"5^	c #250285",
"6^	c #290293",
"7^	c #21017F",
"8^	c #27017F",
"9^	c #320189",
"0^	c #18014F",
"a^	c #1D015A",
"b^	c #140150",
"c^	c #12014E",
"d^	c #260162",
"e^	c #060120",
"f^	c #040115",
"g^	c #02010D",
"h^	c #030113",
"i^	c #0E0135",
"j^	c #270265",
"k^	c #3A038A",
"l^	c #430593",
"m^	c #440583",
"n^	c #1D0061",
"o^	c #1F015C",
"p^	c #1F0255",
"q^	c #36036E",
"r^	c #450493",
"s^	c #380395",
"t^	c #22027A",
"u^	c #180263",
"v^	c #130252",
"w^	c #0F024A",
"x^	c #0F0247",
"y^	c #0F0248",
"z^	c #0C023B",
"A^	c #190152",
"B^	c #2C017D",
"C^	c #40029C",
"D^	c #5707A9",
"E^	c #5809A2",
"F^	c #4D0790",
"G^	c #360D67",
"H^	c #280E4F",
"I^	c #320185",
"J^	c #2F017D",
"K^	c #230161",
"L^	c #100134",
"M^	c #0C0128",
"N^	c #120134",
"O^	c #15013C",
"P^	c #130244",
"Q^	c #170257",
"R^	c #200173",
"S^	c #280284",
"T^	c #260282",
"U^	c #280291",
"V^	c #290396",
"W^	c #21017D",
"X^	c #2A017F",
"Y^	c #28016A",
"Z^	c #18014D",
"`^	c #1B0159",
" /	c #1A0160",
"./	c #25025D",
"+/	c #06011E",
"@/	c #030112",
"#/	c #02010B",
"$/	c #040113",
"%/	c #11013A",
"&/	c #1D0159",
"*/	c #2D0378",
"=/	c #390390",
"-/	c #3C038C",
";/	c #2D0170",
">/	c #24025E",
",/	c #29025D",
"'/	c #47048A",
")/	c #49049D",
"!/	c #370390",
"~/	c #1E0271",
"{/	c #17025E",
"]/	c #0D023D",
"^/	c #0D023E",
"//	c #0D0236",
"(/	c #0E0231",
"_/	c #14013E",
":/	c #1D0256",
"</	c #3F019A",
"[/	c #4B03A1",
"}/	c #410490",
"|/	c #380A73",
"1/	c #32105F",
"2/	c #261049",
"3/	c #3C0189",
"4/	c #34017D",
"5/	c #260161",
"6/	c #15013B",
"7/	c #130238",
"8/	c #14023E",
"9/	c #14024C",
"0/	c #1E026E",
"a/	c #280287",
"b/	c #290286",
"c/	c #240182",
"d/	c #270291",
"e/	c #27028E",
"f/	c #2A017A",
"g/	c #2B0174",
"h/	c #1D0153",
"i/	c #150147",
"j/	c #180161",
"k/	c #180166",
"l/	c #1A016E",
"m/	c #21016B",
"n/	c #240159",
"o/	c #1E014A",
"p/	c #170142",
"q/	c #110136",
"r/	c #080122",
"s/	c #040116",
"t/	c #040114",
"u/	c #06011C",
"v/	c #080124",
"w/	c #1B0155",
"x/	c #2D0278",
"y/	c #2E0279",
"z/	c #29016F",
"A/	c #260063",
"B/	c #2D016A",
"C/	c #28025D",
"D/	c #290161",
"E/	c #3D0281",
"F/	c #440394",
"G/	c #400398",
"H/	c #2F0383",
"I/	c #1A0260",
"J/	c #0E0241",
"K/	c #0C0236",
"L/	c #0E023A",
"M/	c #100233",
"N/	c #15023A",
"O/	c #1B0246",
"P/	c #22025E",
"Q/	c #330181",
"R/	c #430197",
"S/	c #4F049E",
"T/	c #410884",
"U/	c #340E63",
"V/	c #2F1154",
"W/	c #241040",
"X/	c #39017F",
"Y/	c #25025F",
"Z/	c #110238",
"`/	c #13023E",
" (	c #130246",
".(	c #1A025E",
"+(	c #2C028B",
"@(	c #230274",
"#(	c #200177",
"$(	c #230186",
"%(	c #20017A",
"&(	c #240173",
"*(	c #2F017E",
"=(	c #1B014E",
"-(	c #17015B",
";(	c #180167",
">(	c #1E017A",
",(	c #240185",
"'(	c #240156",
")(	c #1C0146",
"!(	c #1C014B",
"~(	c #170140",
"{(	c #0A0128",
"](	c #070121",
"^(	c #070122",
"/(	c #080127",
"((	c #0C0130",
"_(	c #250170",
":(	c #340282",
"<(	c #34037B",
"[(	c #21025D",
"}(	c #310167",
"|(	c #310168",
"1(	c #30016C",
"2(	c #3F0284",
"3(	c #4F039F",
"4(	c #44039D",
"5(	c #35038B",
"6(	c #24026E",
"7(	c #140252",
"8(	c #100246",
"9(	c #0E023D",
"0(	c #0E0235",
"a(	c #0F0231",
"b(	c #110230",
"c(	c #160238",
"d(	c #260261",
"e(	c #3C0288",
"f(	c #52079A",
"g(	c #400D7A",
"h(	c #2F1057",
"i(	c #2B124D",
"j(	c #1C0D35",
"k(	c #280169",
"l(	c #1E0158",
"m(	c #170240",
"n(	c #110241",
"o(	c #18025A",
"p(	c #24027B",
"q(	c #2B0288",
"r(	c #260277",
"s(	c #1D0165",
"t(	c #1F0176",
"u(	c #30017A",
"v(	c #270260",
"w(	c #1A0148",
"x(	c #15014A",
"y(	c #170159",
"z(	c #1E0176",
"A(	c #290190",
"B(	c #320294",
"C(	c #33017C",
"D(	c #250154",
"E(	c #190143",
"F(	c #230157",
"G(	c #210251",
"H(	c #0D0132",
"I(	c #0F0137",
"J(	c #140146",
"K(	c #1B0157",
"L(	c #210169",
"M(	c #270174",
"N(	c #28016E",
"O(	c #29025C",
"P(	c #320166",
"Q(	c #35026C",
"R(	c #360174",
"S(	c #41028B",
"T(	c #4E049F",
"U(	c #4D05A4",
"V(	c #3D0396",
"W(	c #2A027B",
"X(	c #1B025E",
"Y(	c #10023C",
"Z(	c #100234",
"`(	c #10022D",
" _	c #130231",
"._	c #18023B",
"+_	c #20024F",
"@_	c #310271",
"#_	c #450191",
"$_	c #51059E",
"%_	c #4D1090",
"&_	c #3F1670",
"*_	c #2B134F",
"=_	c #22103F",
"-_	c #140A2A",
";_	c #28016C",
">_	c #170144",
",_	c #12013F",
"'_	c #130147",
")_	c #1B026B",
"!_	c #230281",
"~_	c #2E0290",
"{_	c #310289",
"]_	c #220262",
"^_	c #1F0278",
"/_	c #1F0276",
"(_	c #230173",
"__	c #2B0175",
":_	c #2F016C",
"<_	c #270258",
"[_	c #16014D",
"}_	c #1A0161",
"|_	c #250189",
"1_	c #3302A1",
"2_	c #3C029C",
"3_	c #230153",
"4_	c #1B0146",
"5_	c #2C0161",
"6_	c #2C0260",
"7_	c #1D024D",
"8_	c #240170",
"9_	c #2D0277",
"0_	c #250167",
"a_	c #21015B",
"b_	c #25015C",
"c_	c #320168",
"d_	c #3A0273",
"e_	c #410281",
"f_	c #4D0491",
"g_	c #5705A4",
"h_	c #5706AC",
"i_	c #44059E",
"j_	c #2F028A",
"k_	c #210273",
"l_	c #160258",
"m_	c #11024A",
"n_	c #120234",
"o_	c #140234",
"p_	c #1D0248",
"q_	c #270262",
"r_	c #360182",
"s_	c #460396",
"t_	c #4F1197",
"u_	c #4D1D84",
"v_	c #3E1E64",
"w_	c #261542",
"x_	c #150A2D",
"y_	c #390183",
"z_	c #150148",
"A_	c #12014A",
"B_	c #140155",
"C_	c #190267",
"D_	c #220385",
"E_	c #2A0395",
"F_	c #1C0256",
"G_	c #19025D",
"H_	c #1E0274",
"I_	c #300171",
"J_	c #330166",
"K_	c #270253",
"L_	c #14014A",
"M_	c #4104A7",
"N_	c #47039D",
"O_	c #3A027B",
"P_	c #1F0152",
"Q_	c #1D0149",
"R_	c #2E0160",
"S_	c #2E0263",
"T_	c #27025A",
"U_	c #2B026A",
"V_	c #2E0272",
"W_	c #2E0271",
"X_	c #290266",
"Y_	c #2A016A",
"Z_	c #340178",
"`_	c #3C017F",
" :	c #4C048B",
".:	c #590799",
"+:	c #6A0CAB",
"@:	c #610AAF",
"#:	c #4705A6",
"$:	c #330396",
"%:	c #270287",
"&:	c #1D026F",
"*:	c #100241",
"=:	c #110234",
"-:	c #16023A",
";:	c #1F0156",
">:	c #240165",
",:	c #350281",
"':	c #4C0C98",
"):	c #511D8D",
"!:	c #421F6A",
"~:	c #301A4A",
"{:	c #1D1030",
"]:	c #0E0721",
"^:	c #070517",
"/:	c #31017C",
"(:	c #230167",
"_:	c #150152",
"::	c #140156",
"<:	c #170164",
"[:	c #200383",
"}:	c #2C049E",
"|:	c #2E039A",
"1:	c #26027A",
"2:	c #180251",
"3:	c #160159",
"4:	c #1D016C",
"5:	c #1D0169",
"6:	c #2F016B",
"7:	c #350167",
"8:	c #260253",
"9:	c #15014C",
"0:	c #37029E",
"a:	c #4A05AD",
"b:	c #4E039C",
"c:	c #3B017A",
"d:	c #210158",
"e:	c #20014C",
"f:	c #280154",
"g:	c #230251",
"h:	c #240254",
"i:	c #1D014C",
"j:	c #210161",
"k:	c #2A0172",
"l:	c #450195",
"m:	c #540399",
"n:	c #6D0AA3",
"o:	c #6B0CA9",
"p:	c #630DAD",
"q:	c #4E08AD",
"r:	c #3703A3",
"s:	c #2A0294",
"t:	c #21027E",
"u:	c #170260",
"v:	c #100244",
"w:	c #0E0238",
"x:	c #1A0241",
"y:	c #1D0254",
"z:	c #1F0260",
"A:	c #2E0278",
"B:	c #450D8C",
"C:	c #451A7A",
"D:	c #311852",
"E:	c #100922",
"F:	c #0C061D",
"G:	c #230169",
"H:	c #1C015C",
"I:	c #150156",
"J:	c #170162",
"K:	c #1D0179",
"L:	c #29039B",
"M:	c #3304AD",
"N:	c #300395",
"O:	c #260273",
"P:	c #1D025A",
"Q:	c #170254",
"R:	c #1B015D",
"S:	c #1E0164",
"T:	c #340170",
"U:	c #340167",
"V:	c #21024D",
"W:	c #180148",
"X:	c #24016E",
"Y:	c #3E03A0",
"Z:	c #4904AC",
"`:	c #5304A1",
" <	c #4A0389",
".<	c #2F026B",
"+<	c #220154",
"@<	c #290156",
"#<	c #20014A",
"$<	c #1B0147",
"%<	c #160148",
"&<	c #16014B",
"*<	c #300183",
"=<	c #3B0193",
"-<	c #5A04A1",
";<	c #6C0BA9",
"><	c #760EAE",
",<	c #5507A9",
"'<	c #3D05A7",
")<	c #3704A6",
"!<	c #2D0296",
"~<	c #230280",
"{<	c #1A0265",
"]<	c #110248",
"^<	c #0D0237",
"/<	c #0D0231",
"(<	c #100231",
"_<	c #140237",
":<	c #1E0251",
"<<	c #270170",
"[<	c #3B0583",
"}<	c #4B108D",
"|<	c #3F1A6F",
"1<	c #2C174D",
"2<	c #190D31",
"3<	c #20015D",
"4<	c #18015C",
"5<	c #1F0174",
"6<	c #260290",
"7<	c #3305AC",
"8<	c #3204A5",
"9<	c #2E028B",
"0<	c #230267",
"a<	c #18034E",
"b<	c #180154",
"c<	c #1D0157",
"d<	c #380173",
"e<	c #310263",
"f<	c #1E0248",
"g<	c #13013F",
"h<	c #0E013A",
"i<	c #220162",
"j<	c #4A04A4",
"k<	c #3D03A1",
"l<	c #5906A7",
"m<	c #6306A0",
"n<	c #410383",
"o<	c #2B0164",
"p<	c #2A015E",
"q<	c #1A0255",
"r<	c #340181",
"s<	c #4A0394",
"t<	c #5404A0",
"u<	c #6708AA",
"v<	c #6B11AD",
"w<	c #5709A9",
"x<	c #3E04AA",
"y<	c #3403A2",
"z<	c #2C0290",
"A<	c #11023A",
"B<	c #110233",
"C<	c #140239",
"D<	c #190246",
"E<	c #24025B",
"F<	c #330273",
"G<	c #3C028B",
"H<	c #5D169E",
"I<	c #4F1A87",
"J<	c #3A1B60",
"K<	c #271544",
"L<	c #140A2C",
"M<	c #1F015D",
"N<	c #1E0168",
"O<	c #3004A3",
"P<	c #3705AD",
"Q<	c #310299",
"R<	c #2A027A",
"S<	c #22035D",
"T<	c #17024C",
"U<	c #0F0241",
"V<	c #170152",
"W<	c #1D015D",
"X<	c #20015C",
"Y<	c #2F0168",
"Z<	c #2A0255",
"`<	c #19023C",
" [	c #0F013B",
".[	c #370191",
"+[	c #330194",
"@[	c #4C04A0",
"#[	c #6906AD",
"$[	c #4F0398",
"%[	c #31017E",
"&[	c #330178",
"*[	c #40027B",
"=[	c #3B0273",
"-[	c #2C0166",
";[	c #300173",
">[	c #35017C",
",[	c #410387",
"'[	c #58059D",
")[	c #5B05AD",
"![	c #5506A8",
"~[	c #4806A2",
"{[	c #2E019B",
"][	c #2F029B",
"^[	c #1D016A",
"/[	c #13014D",
"([	c #130141",
"_[	c #140238",
":[	c #15023C",
"<[	c #21025A",
"[[	c #3A0283",
"}[	c #5705A1",
"|[	c #6509AD",
"1[	c #6718A9",
"2[	c #6A239E",
"3[	c #411D6E",
"4[	c #2F194F",
"5[	c #1B0E34",
"6[	c #0C0620",
"7[	c #20015E",
"8[	c #290290",
"9[	c #3806AB",
"0[	c #4408AD",
"a[	c #40059A",
"b[	c #2C0273",
"c[	c #110244",
"d[	c #100248",
"e[	c #10024A",
"f[	c #1E0162",
"g[	c #2B016C",
"h[	c #34016A",
"i[	c #26024A",
"j[	c #17013A",
"k[	c #230168",
"l[	c #340190",
"m[	c #2C018B",
"n[	c #3F029A",
"o[	c #5904AB",
"p[	c #5504A5",
"q[	c #4B0598",
"r[	c #4C0490",
"s[	c #560390",
"t[	c #54038C",
"u[	c #440186",
"v[	c #4A0193",
"w[	c #52029A",
"x[	c #5F06A5",
"y[	c #690AAE",
"z[	c #6409B2",
"A[	c #4D04AD",
"B[	c #38029C",
"C[	c #300292",
"D[	c #270187",
"E[	c #240178",
"F[	c #16014A",
"G[	c #180245",
"H[	c #1F024C",
"I[	c #19024A",
"J[	c #1C0252",
"K[	c #3B028A",
"L[	c #6510AB",
"M[	c #8124B4",
"N[	c #6C1BAA",
"O[	c #4F207D",
"P[	c #321B55",
"Q[	c #25153E",
"R[	c #100927",
"S[	c #08061B",
"T[	c #2E0188",
"U[	c #2F0297",
"V[	c #4107AA",
"W[	c #540BB0",
"X[	c #5308A3",
"Y[	c #300371",
"Z[	c #170249",
"`[	c #140258",
" }	c #120250",
".}	c #15014B",
"+}	c #220165",
"@}	c #370169",
"#}	c #250245",
"$}	c #13013A",
"%}	c #140147",
"&}	c #150142",
"*}	c #2D0186",
"=}	c #4702A5",
"-}	c #4F05A6",
";}	c #5E0BA9",
">}	c #670CA8",
",}	c #720BA7",
"'}	c #760AA6",
")}	c #5302A0",
"!}	c #5705A9",
"~}	c #5D07B0",
"{}	c #5F0AB2",
"]}	c #5409AF",
"^}	c #4305A7",
"/}	c #2E0285",
"(}	c #260164",
"_}	c #23025C",
":}	c #1E0252",
"<}	c #1A024D",
"[}	c #1A024C",
"}}	c #380385",
"|}	c #6310AC",
"1}	c #7325A4",
"2}	c #5A1E87",
"3}	c #391D5C",
"4}	c #281643",
"5}	c #1D1136",
"6}	c #0D0824",
"7}	c #340187",
"8}	c #3C0296",
"9}	c #4103A4",
"0}	c #3D04A8",
"a}	c #4806AF",
"b}	c #5107B0",
"c}	c #290268",
"d}	c #190363",
"e}	c #1D0370",
"f}	c #11024C",
"g}	c #34017A",
"h}	c #370167",
"i}	c #29024D",
"j}	c #180143",
"k}	c #120141",
"l}	c #110138",
"m}	c #1D0156",
"n}	c #2A0282",
"o}	c #2C0291",
"p}	c #310190",
"q}	c #370197",
"r}	c #4103A0",
"s}	c #580AAD",
"t}	c #640DAF",
"u}	c #6B0EAE",
"v}	c #6A0DAE",
"w}	c #5C07AE",
"x}	c #5206AE",
"y}	c #5709AF",
"z}	c #600DB1",
"A}	c #5307A9",
"B}	c #44069B",
"C}	c #39038F",
"D}	c #320177",
"E}	c #2A0164",
"F}	c #200157",
"G}	c #1F0258",
"H}	c #1F0161",
"I}	c #20024A",
"J}	c #1C0246",
"K}	c #1E0253",
"L}	c #1F025D",
"M}	c #2B0371",
"N}	c #4A0894",
"O}	c #6515AB",
"P}	c #64248D",
"Q}	c #331750",
"R}	c #251343",
"S}	c #1E1135",
"T}	c #190F2E",
"U}	c #100724",
"V}	c #0E0826",
"W}	c #4D05AA",
"X}	c #5307B1",
"Y}	c #4B06B1",
"Z}	c #4304AF",
"`}	c #4103A7",
" |	c #340288",
".|	c #150257",
"+|	c #1C036C",
"@|	c #1B036A",
"#|	c #100247",
"$|	c #1E0157",
"%|	c #340172",
"&|	c #3A016C",
"*|	c #2B0154",
"=|	c #0D012B",
"-|	c #250277",
";|	c #29028D",
">|	c #280189",
",|	c #29018A",
"'|	c #31019A",
")|	c #4002A8",
"!|	c #4A04AB",
"~|	c #4F06A9",
"{|	c #5909AC",
"]|	c #5A09AC",
"^|	c #5406A3",
"/|	c #4F069D",
"(|	c #4C0696",
"_|	c #3F0489",
":|	c #310273",
"<|	c #2C0162",
"[|	c #2C015C",
"}|	c #1F0257",
"||	c #1B024D",
"1|	c #17023F",
"2|	c #170236",
"3|	c #190238",
"4|	c #1B023D",
"5|	c #210253",
"6|	c #33027A",
"7|	c #400788",
"8|	c #55129A",
"9|	c #6A18AB",
"0|	c #6A12A7",
"a|	c #4C1473",
"b|	c #1C0E36",
"c|	c #190C32",
"d|	c #180E29",
"e|	c #160D27",
"f|	c #170B2D",
"g|	c #1E0A3A",
"h|	c #11092B",
"i|	c #100829",
"j|	c #400595",
"k|	c #5106AD",
"l|	c #570AB3",
"m|	c #4D06B2",
"n|	c #3E02A9",
"o|	c #340294",
"p|	c #250275",
"q|	c #1A025F",
"r|	c #190365",
"s|	c #1F0478",
"t|	c #1F0151",
"u|	c #38016F",
"v|	c #3C0170",
"w|	c #2B015D",
"x|	c #190151",
"y|	c #0A0127",
"z|	c #1D0266",
"A|	c #22027E",
"B|	c #230282",
"C|	c #2A028B",
"D|	c #310199",
"E|	c #3601A0",
"F|	c #37029C",
"G|	c #390396",
"H|	c #460599",
"I|	c #4A0599",
"J|	c #3D0287",
"K|	c #340278",
"L|	c #320372",
"M|	c #2A0264",
"N|	c #1E0249",
"O|	c #23024E",
"P|	c #180241",
"Q|	c #16023D",
"R|	c #0F012D",
"S|	c #120230",
"T|	c #140233",
"U|	c #360271",
"V|	c #4A0290",
"W|	c #53049F",
"X|	c #6614A9",
"Y|	c #7B23B1",
"Z|	c #7920B3",
"`|	c #64189F",
" 1	c #3C1169",
".1	c #150B30",
"+1	c #110920",
"@1	c #220E3B",
"#1	c #331157",
"$1	c #290C50",
"%1	c #12092C",
"&1	c #12072B",
"*1	c #290B69",
"=1	c #440E97",
"-1	c #4E0AAF",
";1	c #4404AF",
">1	c #36019F",
",1	c #2B0185",
"'1	c #20016D",
")1	c #1C016B",
"!1	c #1E0273",
"~1	c #210379",
"{1	c #1E036E",
"]1	c #180250",
"^1	c #1E024D",
"/1	c #350268",
"(1	c #360268",
"_1	c #26025C",
":1	c #0E013D",
"<1	c #060122",
"[1	c #0C0235",
"}1	c #1B025D",
"|1	c #31028C",
"11	c #3B029C",
"21	c #28017E",
"31	c #24017A",
"41	c #270178",
"51	c #27026E",
"61	c #2B0263",
"71	c #240257",
"81	c #1C0240",
"91	c #1B023F",
"01	c #1A023F",
"a1	c #130237",
"b1	c #0D012C",
"c1	c #150238",
"d1	c #56039D",
"e1	c #6106AC",
"f1	c #7113B3",
"g1	c #741AB4",
"h1	c #6216AC",
"i1	c #4B168F",
"j1	c #31145D",
"k1	c #160C2F",
"l1	c #140623",
"m1	c #3F1761",
"n1	c #4F1B7E",
"o1	c #320D60",
"p1	c #150930",
"q1	c #140C2D",
"r1	c #1A0E4F",
"s1	c #391776",
"t1	c #451299",
"u1	c #3C06A2",
"v1	c #350199",
"w1	c #2C0184",
"x1	c #240273",
"y1	c #230178",
"z1	c #200277",
"A1	c #240373",
"B1	c #150242",
"C1	c #35016A",
"D1	c #330265",
"E1	c #100139",
"F1	c #0B0229",
"G1	c #10023A",
"H1	c #1C025A",
"I1	c #210373",
"J1	c #2D0282",
"K1	c #3A0295",
"L1	c #310186",
"M1	c #22016B",
"N1	c #1D015C",
"O1	c #190157",
"P1	c #20025D",
"Q1	c #2B025E",
"R1	c #290256",
"S1	c #18023A",
"T1	c #150234",
"U1	c #12022F",
"V1	c #0F022B",
"W1	c #0A0126",
"X1	c #0B0227",
"Y1	c #0F0130",
"Z1	c #1A0242",
"`1	c #25025B",
" 2	c #370278",
".2	c #680DB2",
"+2	c #620FAF",
"@2	c #52179D",
"#2	c #431F79",
"$2	c #2D194A",
"%2	c #100928",
"&2	c #4C175C",
"*2	c #6A2490",
"=2	c #5B1E90",
"-2	c #330D64",
";2	c #160932",
">2	c #0A0723",
",2	c #1D0F54",
"'2	c #371A62",
")2	c #46197D",
"!2	c #400890",
"~2	c #390193",
"{2	c #2F0183",
"]2	c #260275",
"^2	c #240183",
"/2	c #2C0377",
"(2	c #260264",
"_2	c #1E024F",
":2	c #300169",
"<2	c #300265",
"[2	c #120137",
"}2	c #0E0232",
"|2	c #18024F",
"12	c #21036B",
"22	c #21036F",
"32	c #20026D",
"42	c #2D0284",
"52	c #2C0183",
"62	c #1B0154",
"72	c #120144",
"82	c #1B024E",
"92	c #0E012E",
"02	c #0C022B",
"a2	c #0B0128",
"b2	c #0A0226",
"c2	c #080121",
"d2	c #130239",
"e2	c #1B0249",
"f2	c #260166",
"g2	c #320180",
"h2	c #5106A6",
"i2	c #630EB2",
"j2	c #5913A8",
"k2	c #4A1F89",
"l2	c #3C1F63",
"m2	c #23133E",
"n2	c #0F0924",
"o2	c #20073D",
"p2	c #6F178F",
"q2	c #7C20A8",
"r2	c #591A8E",
"s2	c #2E0F5B",
"t2	c #13092E",
"u2	c #0E082D",
"v2	c #0A071D",
"w2	c #1F1155",
"x2	c #3A1B61",
"y2	c #4B1C78",
"z2	c #48078A",
"A2	c #3D018F",
"B2	c #360185",
"C2	c #290275",
"D2	c #280182",
"E2	c #20017B",
"F2	c #3A0386",
"G2	c #330372",
"H2	c #220160",
"I2	c #28025F",
"J2	c #250253",
"K2	c #110231",
"L2	c #0D0135",
"M2	c #1F0361",
"N2	c #20036C",
"O2	c #220273",
"P2	c #280183",
"Q2	c #23026B",
"R2	c #1F025E",
"S2	c #130245",
"T2	c #12024A",
"U2	c #0B0130",
"V2	c #0B012B",
"W2	c #0C012B",
"X2	c #0B0126",
"Y2	c #0A0123",
"Z2	c #1F024E",
"`2	c #260160",
" 3	c #34027F",
".3	c #3F0295",
"+3	c #5206AC",
"@3	c #5B0FAD",
"#3	c #511C93",
"$3	c #412069",
"%3	c #291642",
"&3	c #37046B",
"*3	c #6F0AA2",
"=3	c #7922A9",
"-3	c #531E80",
";3	c #26134C",
">3	c #110A28",
",3	c #120B35",
"'3	c #0B0820",
")3	c #201154",
"!3	c #3D1B63",
"~3	c #501E79",
"{3	c #4F078F",
"]3	c #410097",
"^3	c #400198",
"/3	c #360186",
"(3	c #2A0183",
"_3	c #4E0495",
":3	c #4D0488",
"<3	c #200256",
"[3	c #16014E",
"}3	c #24025D",
"|3	c #160237",
"13	c #10022E",
"23	c #0C0233",
"33	c #0C0237",
"43	c #16024F",
"53	c #1D0365",
"63	c #18025C",
"73	c #17025A",
"83	c #220177",
"93	c #1F0263",
"03	c #0E022D",
"a3	c #090120",
"b3	c #0D0226",
"c3	c #11022F",
"d3	c #21034A",
"e3	c #30036C",
"f3	c #310179",
"g3	c #350283",
"h3	c #4B049F",
"i3	c #48059C",
"j3	c #390290",
"k3	c #45079F",
"l3	c #52159C",
"m3	c #4A2374",
"n3	c #331C4F",
"o3	c #1D1036",
"p3	c #100823",
"q3	c #38065D",
"r3	c #4B028C",
"s3	c #6B15A5",
"t3	c #6B2CA1",
"u3	c #3F1E6F",
"v3	c #190E3D",
"w3	c #0B0721",
"x3	c #130B39",
"y3	c #0C0823",
"z3	c #26125B",
"A3	c #3F1B68",
"B3	c #4E1C7A",
"C3	c #5B0B9F",
"D3	c #5C05AD",
"E3	c #5402AB",
"F3	c #3A0294",
"G3	c #380198",
"H3	c #6509A5",
"I3	c #600696",
"J3	c #2D0266",
"K3	c #160152",
"L3	c #1C0159",
"M3	c #22025D",
"N3	c #26025F",
"O3	c #230254",
"P3	c #1B023E",
"Q3	c #150236",
"R3	c #100238",
"S3	c #0D023B",
"T3	c #150251",
"U3	c #150255",
"V3	c #12024C",
"W3	c #130253",
"X3	c #140257",
"Y3	c #1A016C",
"Z3	c #19025F",
"`3	c #23025E",
" 4	c #1F0254",
".4	c #120237",
"+4	c #0C0226",
"@4	c #150235",
"#4	c #1C0241",
"$4	c #200348",
"%4	c #310464",
"&4	c #460591",
"*4	c #48049A",
"=4	c #44039B",
"-4	c #47059C",
";4	c #42058F",
">4	c #31057D",
",4	c #421087",
"'4	c #471D75",
")4	c #391D54",
"!4	c #110A26",
"~4	c #09071D",
"{4	c #4D0690",
"]4	c #45038C",
"^4	c #5A1A97",
"/4	c #4D248D",
"(4	c #27135F",
"_4	c #150C3D",
":4	c #130A39",
"<4	c #0E0928",
"[4	c #2A135C",
"}4	c #411D6D",
"|4	c #461975",
"14	c #590C9F",
"24	c #730EB6",
"34	c #700AB2",
"44	c #4902A3",
"54	c #410290",
"64	c #3A0384",
"74	c #5E0998",
"84	c #610896",
"94	c #30026E",
"04	c #180255",
"a4	c #190252",
"b4	c #290165",
"c4	c #2A0262",
"d4	c #200249",
"e4	c #170237",
"f4	c #120238",
"g4	c #0C0136",
"h4	c #110245",
"i4	c #0F0244",
"j4	c #120251",
"k4	c #140256",
"l4	c #17025D",
"m4	c #18025E",
"n4	c #230273",
"o4	c #1F025F",
"p4	c #18024E",
"q4	c #14023D",
"r4	c #240253",
"s4	c #2A025F",
"t4	c #3C0385",
"u4	c #4A049E",
"v4	c #4A03A2",
"w4	c #42029A",
"x4	c #360283",
"y4	c #40038B",
"z4	c #4E108F",
"A4	c #4E1B80",
"B4	c #43205D",
"C4	c #271441",
"D4	c #270471",
"E4	c #37037C",
"F4	c #481488",
"G4	c #3A1A76",
"H4	c #21105A",
"I4	c #160D40",
"J4	c #0C0824",
"K4	c #12093D",
"L4	c #100A2E",
"M4	c #24134A",
"N4	c #422268",
"O4	c #4E2578",
"P4	c #531593",
"Q4	c #6E0EB3",
"R4	c #7C13B4",
"S4	c #7309B1",
"T4	c #57049E",
"U4	c #21016F",
"V4	c #220161",
"W4	c #36036D",
"X4	c #44057B",
"Y4	c #2E026C",
"Z4	c #18024C",
"`4	c #200255",
" 5	c #32016F",
".5	c #3A0178",
"+5	c #320162",
"@5	c #2B0150",
"#5	c #0C0230",
"$5	c #0D0238",
"%5	c #0C0238",
"&5	c #0C013B",
"*5	c #1B0267",
"=5	c #1D0264",
"-5	c #20016C",
";5	c #1E0166",
">5	c #1A025A",
",5	c #16024D",
"'5	c #160247",
")5	c #1D0250",
"!5	c #290265",
"~5	c #310277",
"{5	c #400399",
"]5	c #4703A5",
"^5	c #4A02A2",
"/5	c #4A029D",
"(5	c #44038E",
"_5	c #540A98",
":5	c #64199F",
"<5	c #502076",
"[5	c #361A51",
"}5	c #1D0E36",
"|5	c #100726",
"15	c #2A064F",
"25	c #4B04A2",
"35	c #23006F",
"45	c #270362",
"55	c #481580",
"65	c #3A196B",
"75	c #21115C",
"85	c #140C3E",
"95	c #0E0827",
"05	c #10083C",
"a5	c #120A35",
"b5	c #1D113B",
"c5	c #3A215A",
"d5	c #532A77",
"e5	c #5E1D96",
"f5	c #670DB2",
"g5	c #7914B4",
"h5	c #8B1AB1",
"i5	c #6007A0",
"j5	c #2A0265",
"k5	c #23015D",
"l5	c #1B0259",
"m5	c #300170",
"n5	c #39017E",
"o5	c #35016E",
"p5	c #270250",
"q5	c #0C0231",
"r5	c #09022E",
"s5	c #08022A",
"t5	c #160250",
"u5	c #190257",
"v5	c #1A0256",
"w5	c #19025A",
"x5	c #32017B",
"y5	c #360189",
"z5	c #6204A9",
"A5	c #5C0F9F",
"B5	c #7424A8",
"C5	c #611F94",
"D5	c #411D61",
"E5	c #1F103A",
"F5	c #130929",
"G5	c #2E0647",
"H5	c #690A96",
"I5	c #5204A1",
"J5	c #250656",
"K5	c #4C187C",
"L5	c #381865",
"M5	c #20105B",
"N5	c #130A3C",
"O5	c #120A31",
"P5	c #120840",
"Q5	c #110A36",
"R5	c #1E1339",
"S5	c #2E1C4C",
"T5	c #492368",
"U5	c #71289A",
"V5	c #7E22B5",
"W5	c #8825B2",
"X5	c #9628B3",
"Y5	c #730DA6",
"Z5	c #3A017E",
"`5	c #270261",
" 6	c #270161",
".6	c #21015A",
"+6	c #25016B",
"@6	c #2C0280",
"#6	c #270277",
"$6	c #240264",
"%6	c #260167",
"&6	c #320269",
"*6	c #0C022D",
"=6	c #09012A",
"-6	c #060124",
";6	c #070222",
">6	c #0C022A",
",6	c #140242",
"'6	c #15024F",
")6	c #1A015C",
"!6	c #2E0179",
"~6	c #37018A",
"{6	c #36018A",
"]6	c #350185",
"^6	c #4A0192",
"/6	c #59029B",
"(6	c #6208A4",
"_6	c #6A1DA6",
":6	c #762AA4",
"<6	c #552080",
"[6	c #2F144E",
"}6	c #170C2F",
"|6	c #190637",
"16	c #4E0677",
"26	c #7C0CAF",
"36	c #490391",
"46	c #26016F",
"56	c #2C085C",
"66	c #4A1878",
"76	c #361661",
"86	c #1D0E51",
"96	c #11093B",
"06	c #160B3C",
"a6	c #10073C",
"b6	c #100838",
"c6	c #1F1438",
"d6	c #291A44",
"e6	c #4B2563",
"f6	c #80319E",
"g6	c #9832B6",
"h6	c #9D34B4",
"i6	c #8D2AB1",
"j6	c #580899",
"k6	c #28016F",
"l6	c #20025B",
"m6	c #4203A5",
"n6	c #4405A5",
"o6	c #39048C",
"p6	c #31016E",
"q6	c #260255",
"r6	c #210249",
"s6	c #0E022E",
"t6	c #070224",
"u6	c #0D022B",
"v6	c #0C022E",
"w6	c #15024D",
"x6	c #19015A",
"y6	c #1C0162",
"z6	c #24016C",
"A6	c #320179",
"B6	c #410190",
"C6	c #4A019A",
"D6	c #4D0198",
"E6	c #4E0191",
"F6	c #580298",
"G6	c #6203A0",
"H6	c #680DA8",
"I6	c #6C1DA6",
"J6	c #622293",
"K6	c #42196B",
"L6	c #1F0D3C",
"M6	c #10082B",
"N6	c #1D0548",
"O6	c #4B0385",
"P6	c #6F08AB",
"Q6	c #64099F",
"R6	c #380A72",
"S6	c #441772",
"T6	c #34155D",
"U6	c #1C0D4C",
"V6	c #110A34",
"W6	c #100830",
"X6	c #0E072E",
"Y6	c #1F1437",
"Z6	c #25193E",
"`6	c #4B2263",
" 7	c #7F23A2",
".7	c #9022B5",
"+7	c #8C20B5",
"@7	c #7314AC",
"#7	c #46038C",
"$7	c #27016D",
"%7	c #30017D",
"&7	c #4F06AD",
"*7	c #5A0BB4",
"=7	c #4D06AE",
"-7	c #27016F",
";7	c #20024E",
">7	c #1D0246",
",7	c #0C022F",
"'7	c #09022A",
")7	c #0B022A",
"!7	c #0E022F",
"~7	c #0C0228",
"{7	c #0A0224",
"]7	c #1D0164",
"^7	c #350177",
"/7	c #500392",
"(7	c #6204A6",
"_7	c #6D05AD",
":7	c #7104AE",
"<7	c #6D03AB",
"[7	c #6D04A8",
"}7	c #7A14AD",
"|7	c #7A1FAD",
"17	c #6A20A0",
"27	c #511C83",
"37	c #300F57",
"47	c #170A32",
"57	c #14063C",
"67	c #200357",
"77	c #45027F",
"87	c #6C07A8",
"97	c #6A07AA",
"07	c #54029D",
"a7	c #520C8F",
"b7	c #42186D",
"c7	c #35175F",
"d7	c #1D0D50",
"e7	c #11083B",
"f7	c #110933",
"g7	c #160E2A",
"h7	c #1A122D",
"i7	c #39174F",
"j7	c #691A8D",
"k7	c #6C129D",
"l7	c #7017AA",
"m7	c #7115AD",
"n7	c #490686",
"o7	c #4402A1",
"p7	c #590BB2",
"q7	c #4F07B4",
"r7	c #3B02AB",
"s7	c #310192",
"t7	c #2B0181",
"u7	c #260176",
"v7	c #210164",
"w7	c #12023B",
"x7	c #0E0132",
"y7	c #18024A",
"z7	c #190156",
"A7	c #18015A",
"B7	c #4E0389",
"C7	c #7109A7",
"D7	c #800DB3",
"E7	c #820FB4",
"F7	c #7D0BB3",
"G7	c #6F04AD",
"H7	c #6F08AA",
"I7	c #841DB0",
"J7	c #8227AD",
"K7	c #632098",
"L7	c #411473",
"M7	c #230B48",
"N7	c #130736",
"O7	c #190456",
"P7	c #390180",
"Q7	c #6207A0",
"R7	c #6C09AB",
"S7	c #5E05A5",
"T7	c #591695",
"U7	c #461F71",
"V7	c #2E1856",
"W7	c #170B42",
"X7	c #100736",
"Y7	c #0F0931",
"Z7	c #0C091F",
"`7	c #0C0920",
" 8	c #0D0A21",
".8	c #271A43",
"+8	c #271A40",
"@8	c #5D2C78",
"#8	c #9426B9",
"$8	c #9929B4",
"%8	c #881EB2",
"&8	c #57069A",
"*8	c #2B0076",
"=8	c #2C0276",
"-8	c #3E0396",
";8	c #4704A5",
">8	c #4704AF",
",8	c #4404AE",
"'8	c #4003A2",
")8	c #32018F",
"!8	c #23016A",
"~8	c #240261",
"{8	c #1E0257",
"]8	c #150241",
"^8	c #120233",
"/8	c #150145",
"(8	c #15014D",
"_8	c #2E0170",
":8	c #5A0596",
"<8	c #770DAD",
"[8	c #7D12B3",
"}8	c #7B14B3",
"|8	c #730CB1",
"18	c #5F03A6",
"28	c #6B06A8",
"38	c #7C1BAD",
"48	c #7120A0",
"58	c #501883",
"68	c #300E5C",
"78	c #1A083B",
"88	c #190550",
"98	c #24016A",
"08	c #5B079C",
"a8	c #6708A6",
"b8	c #530B91",
"c8	c #4A1A7E",
"d8	c #3A1D62",
"e8	c #1F123F",
"f8	c #0F092A",
"g8	c #0D0728",
"h8	c #0F0928",
"i8	c #0D0A1F",
"j8	c #0B081F",
"k8	c #09071B",
"l8	c #271A3F",
"m8	c #221838",
"n8	c #572173",
"o8	c #8C13B9",
"p8	c #730CB0",
"q8	c #730CB4",
"r8	c #670AA8",
"s8	c #2A016F",
"t8	c #1D0158",
"u8	c #2D017C",
"v8	c #3F0298",
"w8	c #4A03A7",
"x8	c #4B04AE",
"y8	c #4F06B2",
"z8	c #4605B3",
"A8	c #3601A9",
"B8	c #360195",
"C8	c #2C0180",
"D8	c #230269",
"E8	c #220164",
"F8	c #1D0252",
"G8	c #180149",
"H8	c #120239",
"I8	c #190247",
"J8	c #1E015F",
"K8	c #37017E",
"L8	c #5B049E",
"M8	c #6306AD",
"N8	c #5706AA",
"O8	c #5505A7",
"P8	c #55059E",
"Q8	c #5A0D9C",
"R8	c #6A1DA4",
"S8	c #7026A0",
"T8	c #551F83",
"U8	c #35145F",
"V8	c #1D0C3E",
"W8	c #1A064A",
"X8	c #1C025C",
"Y8	c #1A0252",
"Z8	c #2D0366",
"`8	c #42038F",
" 9	c #5004A0",
".9	c #4D039B",
"+9	c #440A86",
"@9	c #3A1868",
"#9	c #2D1950",
"$9	c #1A0F38",
"  . + @ # $ % & * = - ; > , ' ) ! ~ { * ] ^ / ( _ : < [ } | 1 2 3 4 5 6 7 8 9 0 a b c d e f g h i j c * k l m n o ! & p q r s t ",
"u v s w x & y z A B C D E F G H I J K L M N O P Q R S T U V W X Y Z `  ...+.@.#.$.%.&.*.=.-.;.>.,.'.).!.!.~.{.].^./.y (._.:.<.s ",
"[.}.|.1.2.& 3.K 4.5.6.7.8.9.0.a.b.c.d.e.f.g.h.i.j.k.l.m.n.o.p.q.r.s.t.u.v.w.x.y.z.A.B.C.D.E., F.G.H.I.J.K.G L.c M.N.O.o % P.:.Q.",
"R.S.P.1.P.& (.T.U.V.W.X.Y.Z.`. +.+++@+#+$+%+&+*+=+-+;+>+,+'+)+!+~+{+]+^+/+(+_+:+<+[+F }+|+1+2+3+4+5+6+7+8+9+0+a+b+c+s q * d+1.:.",
"1.x P.e+f+o O.g+h+i+j+k+l+m+n+c.++o+p+q+r+s+t+u+v+w+x+y+z+A+B+C+D+E+F+G+H+I+J+K+L+M+N+O+P+1+Q+R+S+T+U+V+W+X+Y+Z+`+ @.@+@* @@d+#@",
"_.$@%@f+&@! *@=@-@;@>@,@'@)@!@# ~@{@]@^@/@(@_@:@<@[@}@|@1@2@3@4@5@6@7@8@9@0@a@b@c@d@e@f@g@h@i@j@k@l@m@n@o@p@q@r@s@t@u@v@w@ +@@2.",
"_.P.P.$ ! 2.x@y@z@A@B@C@D@E@F@G@H@I@J@K@L@M@N@O@P@Q@R@S@T@U@V@W@X@Y@Z@`@ #.#+#@###$#%#&#*#=#-#;#>#,#'#)#!#~#{#]#^#/#(#_#w@!@@@y ",
":#f+<#[#(.}#|#1#2#3#4#5#y 6#7#8#9#0#a#b#c#d#e#f#g#h#i#j#k#l#m#n#o#p#q#r#s#t#u#v#w#x#y#z#A#B#C#D#E#F#G#H#I#J#K#L#M#N#O#P#Q#)@@@y ",
"2.*@R#w@S#6#T#U#V#W#X#Y#Z#`# $.$+$@$#$$$%$&$*$=$-$;$>$,$'$)$!$~${$]$^$/$($_$:$<$[$}$|$1$2$3$4$5$6$7$8$9$0$a$b$c$d$e$f$g$h$i$j$d+",
"e+k$l$m$n$o$p$q$r$s$t$%@u$v$w$x$y$z$A$B$C$D$E$F$G$H$I$J$K$L$M$F+N$O$P$Q$R$S$T$U$V$W$X$Y$Z$`$ %.%+%@%#%$%%%&%*%=%-%;%>%,%'%&@J % ",
"#@w@)%!%n$o ~%{%]%% ^%/%(%_%:%<%[%}%|%X 1%2%3%4%5%6%7%8%9%0%a%b%c%d%e%f%g%h%i%j%k%l%m%n%o%p%q%r%s%t%u%v%w%x%y%z%A%B%C%D%E%l$o % ",
"F%G%H%* n$c.}.I%J%K%L%M%N%O%P%Q%R%S%T%U%V%W%X%Y%Z%`% &.&+&@&#&$&%&&&*&=&-&;&>&,&'&)&!&~@~&{&]&^&/&(&_&:&<&[&}&|&1&2&3&4&5&6&7&d+",
"8&l$5#J 9&0&K.a&b&c&d&e&f&g&h&i&j&k&l&m&n&o&p&q&r&s&.&t&u&v&w&x&y&z&A&B&C&D&E&F&G&H&I&J&K&L&M&N&O&P&Q&R&; S&T&U&V&W&X&F Y&++w i$",
"H%Z&o n+o ;.`& *.*+*@*#*$*%*&***=*-*;*>*,*'*)*!*~*{*]*^*/*(*_*:*<*[*}*|*1*2*3*##4*5*6*7*8*9*0*a*b*c*d*e*f*g*h*i*j*k*l*W&m*n*p d+",
"H%o*p*q*r*p @@c s*t*u*v*w*x*y*z*A*B*C*D*E*F*G*t&H*I*J*K*L*M*N*O*P*Q*R*S*T*U*V*W*X*Y*Z*`* =.=+=@=#=$=%=&=*===-=;=>=,='=)=!=~=c 5#",
"{=(.]=@@r*p -.^=/=(=_=:=<=[=}=|=1=W*2=3=7%4=5=6=7=8=9=0=a=b=c=d=e=f=g=h=i=j=k=l=m=n=o=p=q=r=s=t=u=v=w=x=y=z=A=B=C=D=E=F=G=H=I=J=",
"&@@@]=(.z K=L=M=N=O=P=Q=R=S=T=U=V=W=X=Y=Z=`= -.-+-@-#-'*$-%-}*&-*-=---;->-,-'-)-!-~-{-t#j#]-^-/-(-_-:-<-[-}-|-1-2-3-4-5-6-7-8-9-",
"(.J 0-% *@s*a-b-c-d-e-f-g-h-i-j-k-l-m-n-o-p-q-`%r-s-t-u-v-w-x-y-z-A-B-C-D-E-F-G-H-I-J-K-*&L-M-N-O-<$P-Q-R-S-T-U-V-W-X-Y-Z-`- ;.;",
")@+;o @;#;$;%;&;*;=;-;;;>;,;';);!;~;{;];^;/;(;_;:;<;[;};|;1;2;3;4;5;6;7;8;9;0;a;b;c;d;e;f;.&g;h;i;j;k;} l;m;n;o;p;q;r;s;G+t;u;v;",
"w;S#5#x;y;z;A;B;<-C;D;E;F;G;H;I;J;K;L;M;N;O;P;Q;R;J;S;T;U;V;W;2;X;Y;Z;`; >.>+>@>#>$>%>&>*>=>->;>>>=$,>'>)>!>~>{>]>^>/>(>{+_>:><>",
"J o ,.[>}>|>1>2>3>4>5>6>7>8>9>0>a>b>c>d>e>f>g>E*h>i>j>k>k>l>9>m>n>o>p>q>r>s>t>u>v>w>x>y>z>7@A>B>'$C>D>E>F>G>H>I>J>K>L>M>N>O>P>Q>",
"J @;R>S>T>U>V>W>X>Y>Z>`> ,.,##+,@,#,$,%,H*k-&,*,=,-,;,>,,,',),!,~,{,],^,/,(,_,:,<,[,},|,1,2,3,q-4,5,6,7,8,9,0,a,b,c,d,e,f,g,h,i,",
"H j,k,l,m,n,o,p,c=q,q.r,+,s,t,u,v,w,x,y,z,A,B,C,D,E,F,G,H,I,J,K,L,M,N,Y*O,P,Q,R,S,T,U,V,W,X,Y,Z,`, '.'+'@'#'$'%'&'*'='-';'>','''",
")'!'~'{']'^'/'('_'W*:'<'['}'|'1'2'3'4'5'6'7'8'9'0'a'b'c'd'e'f'g'h'i'j'J+k'l'm'n'o'p'q'r's'C>`@t'u'v'w'x'y'z'A'B'C'D'E'F'G'H'I'J'",
"K'L'M'N'O'P'Q'R'S'T'U'V'W'x,X'Y'Z'`' ).)+)@)#)$)%)&)*)=)-);)>),)')))!)U*~){)])^)/)()_):);&<)[)})|)1)2)3)4)5)6)7)8)9)0)a)M>b)c)d)",
"e)f)g)h)i)j)k)l)m)n)o)d>p)D+t#($q)r)s)t)u),,v)w)x)y)z)A)B)C)'&D)E)F)G)H)I)J)K)L)M)N)O)P)Q)R)S)|)T)U)V)W)X)Y)Z)`) !.!+!@!k;#!$!%!",
"&!*!=!-!;!>!,!'!)!!!~!{!]!^!/!(>(!_!:!<![!}!|!1!2!3!4!5!6!7!8!9!0!a!b!c!6=d!e!f!g!h!i!j!k!l!t'|)m!n!o!p!q!r!Y)s!t!u!v!w!x!y!z!A!",
"B!C!D!E!F!G!H!I!B&X@J!K!L!M!k-N!O!P!Q!0)R!S!T!U!V!W!X!Y!Z!`!^! ~.~+~@~~;#~R$w#$~%~&~*~=~-~;~>~,~'~)~!~~~u-i;{~]~^~/~(~_~;,:~<~[~",
"}~|~1~2~3~4~s.5~Q;[)6~7~8~9~0~V$a~b~c~U$d~e~f~g~h~i~j~k~o))+l~m~n~o~p~q~^*r~s~t~u~v~w~x~y~z~A~l#B~C~D~E~F~G~H~I~J~K~L~M~N~O~P~Q~",
"R~S~c~T~U~V~W~X~Y~Z~`~A+ {i;.{+{@{#{${%{&{S!*{={-{;{>{,{'{){!{~{{{i;]{^{m#/{({_{:{<{[{}{H)|{1{2{3{4{5{6{E~7{8{W)9{0{a{b{c{d{e{f{",
"g{h{i{j{k{l{m{e%n{o{p{q{r{s{t{u{v{w{x{} y{z{A{.,B{C{D{E{F{G{H{I{J{X%Z=K{L{M{T*N{O{P{Q{R{S{T{U{1=V{W{X{Y{Z{`{ ].]N-+]@]#]$]%]&]*]",
"0~2%=]-];]>]=&,]'])]!]{~~]{]]]^]&$/](]_]:]u#M!<][]}]|]1]2]3]Y@P;4]5]4=6]Y%7]8]9]0]a]b]($c]d]e]f]g]h]i]j]k]l]m]n]o]p]q]r]s]t]u]v]",
"w]x]e,y]z]A]8=B]C]D]E]F]G]H]I]J]K](]L]M]N]O]P]K!Q]R]S]T]-$U]V]W]X]Y]Z]`] ^.^+^@^#^$^%^&^*^M{=^-^;^>^,^'^)^!^~^{^]^S;^^/^(^_^:^<^",
"[^}^|^W@q#1^+&d>b%2^K$3^4^5^6^7^8^9^l;`'0^a^q)b^c^L!d^Y'U]e^f^g^h^{$4]i^,{j^k^l^m^n^o^p^.#q^r^s^t^u^v^w^x^y^z^E+A^B^C^D^E^F^G^H^",
"I^J^K^L^M^N^O^8=P^Q^R^S^T^U^V^W^X^z'Y^Z^]^`^ /E{m-./2@O^6@+/@/#/$/{$_;%/&/*/=/-/;/^!>/D&,/'/)/!/~/{/4%]/^///(/_/:/k;</[/}/|/1/2/",
"3/4/5/6/A>7/8/#-9/0/a/b/c/d/e/R^f/g/h/i/o]j/k/l/m/n/o/p/q/r/s/t/u/v/i^w/x//~y/z/A/B/C/D/E/F/G/H/I/4,J/K/L/M/N/O/P/Q/R/S/T/U/V/W/",
"X/;/Y/d>N;Z/`/ (.(S^+(@(#($(%(&(*(Z!=(]^-(;(>(,(j;'()(!(~({(](^(/(((]^_(:(<([(C+}(|(1(2(3(4(5(6(7(8(9(0(a(b(c(H*d(e(#]f(g(h(i(j(",
"k(l(.#m(%/n(M$o(p(q(r(s(t(%(R^h>u(v(w(x(y(z(A(B(C(D(E(F(G(N;H(I(J(K(L(M(N(Y/O(P(Q(R(S(T(U(V(W(X(u-t-Y(Z(`( _._+_@_#_$_%_&_*_=_-_",
";_7~>_,_'_7()_!_~_{_]_.(^_/_(___:_<_!([_}_|_1_2_X/3_4_5_6_7_1{0@8_q,9_0_a_b_c_d_e_f_g_h_i_j_k_l_m_n(Z/n_o_._p_q_r_s_t_u_v_w_x_h$",
"y_I!z_A_B_C_D_E_+(({F_G_H_0/(!I_J_K_-~L_E${]M_N_O_P_Q_R_S_T_x&U_V_W_X_C{Y_Z_`_ :.:+:@:#:$:%:&:v^*:/;=:-:1'O/;:>:,:':):!:~:{:]:^:",
"/:(:_:::<:[:}:|:1:c!2:3:4:5:N!6:7:8:J*9:&(0:a:b:c:d:e:f:g:G(h:!!i:h/j:k:l;l:m:n:o:p:q:r:s:t:u:v:w:q&n_x:)]y:~+z:A:B:C:D:+*E:F:^:",
"G:H:I:J:K:L:M:N:O:P:Q:7(R:S:z>T:U:V:W:;>X:Y:Z:`: <.<+<@<#<$<Z'%<&<H:8_*<=<-<;<><,<'<)<!<~<{<]<^</<(<_<x,:<|*G:<<[<}<|<1<2<h$o o ",
"3<l~4<5<6<7<8<9<0<a<X{;~b<4;c<d<e<f<g<h<i<j<k<l<m<n<2=o<7:p<c<&/q<3;r<s<t<u<v<w<x<y<z<O-y(z~A<M/B<C<D<']E<F<G<C)H<I<J<K<L<h$~ y ",
":'M<N<%:O<P<Q<R<S<T<]<U<V<W<X<Y<Z<`<E+ [,*.[+[@[#[$[%[&[*[=[-[;[>[,['[#[)[![~[{[][+(^[/[([-&~*_[:[*^($<[[[}[|[1[2[3[4[5[6[5# +! ",
"C{7[0!8[9[0[a[b[p^c[d[e[ 'f[g[h[i[j[S)m#k[l[m[n[o[p[q[r[s[t[u[v[w[x[y[z[A[B[C[D[E[S:F[G[H[#,7_G[I[J[V~j^K[L[M[N[O[P[Q[R[5#f O.S[",
"P]M>T[U[V[W[X[Y[Z[u-`[ }.}+}>[@}#}$}%}&}'+*}(]q]=}-};}>},}'}p;)}!}~}{}]}^}d#/}N!a^3]D+(}5/_}:}B]<}0=[}c<}}|}1}2}3}4}5}6}k -.k c ",
"7}8}9}0}a}b}v.c}c[d}e}f};>j:g}h}i}j}k}l}m}n}o}p}q}r}s}t}u}v}w}x}y}z}A}B}C}e,D}E}F}G}~+H}+_I}%,J}K}H)L}M}N}O}P}Q}R}S}T}n*U}V}j h$",
":!W}X}Y}Z}`} |I{.|+|@|#|E+$|%|&|*|W:L{=|n{-|;|>|,|'|)|!|~|{|]|^|/|(|_|:|R{<|P([|U'}|||1|2|3|4|5|y]6|7|8|9|0|a|b|c|d|e|f|g|h|i|k ",
"j|k|l|m|n|o|p|q|r|s|+|R)%/t|u|v|w|x|o~y|`@z|A|B|C|D|E|F|G|H|I|J|K|L|M|.^N|O|8:S@P|Q|=:R|S|T|p_U|V|W|X|Y|Z|`| 1.1P#+1@1#1$1%1&1M.",
"*1=1-1;1>1,1'1)1!1~1{1]1`/^1/1(1_1D{:1<1[1}1!1/_|111U$T[21314151X_6171f<819101a1b1Y@Y@b1R|c1!!e_d1e1f1g1h1i1j1k1K=l1m1n1o1p1q1g ",
"r1s1t1u1v1w1x1y1z1t^A1H)B1+_C1D1h:v&E1F1G1H1I1G{J1K1L1M1N1l-O1P1Q1R1R@S1T1U1V1^$r/v/W1X1Y1Z1`1 2<@r].2+2@2#2$2%2*@&2*2=2-2;2>2r*",
",2'2)2!2~2{2]2N*^2S~/2(2_>_2:2<28:x:[2}2Z,|212223242523;62z_72F[82L-X@92U]02a2b2r/c2F1d2e2O>f2g2j'h2i2j2k2l2m2n2o2p2q2r2s2t2u2v2",
"w2x2y2z2A2B2C2D2E2F{F2G2D]l#H2I2J21'K2U]L22,M2N2q|O2P2,>Q2R2Z[S2T2s-U2~$V2W2a2X2Y2X2B<Z2`2;_ 3.3Q!+3@3#3$3%3u c.&3*3=3-3;3>3,3'3",
")3!3~3{3]3^3/3k%D[(3_3:3<3[3M<}371%,|313233343536373_*.'839{93:/p^p)d2B<03^$a3b3V1c3d3e3f3g3h3i3j3k3l3m3n3o3p3q3r3s3t3u3v3w3x3y3",
"z3A3B3C3D3E3} I^F3G3H3I3J3K3L3M3N3O3P3Q3R3S37%T3U3V3W3X3u^Y3Z34;]_`3 4I*.4q#+4@4#4$4%4&4*4=4-4;4>4,4'4)4o3!4~4{4]4^4/4(4_4y3:4<4",
"[4}4|41424344454`>6474849404a4}|b4c4d4e4f4L/g4{^c[h4i4i4j4k4l4m4z|n40>o4p4q4d2x,r4s4t4u4v4w4x4y4z4A4B4C4u K=D4j{E4F4G4H4I4J4K4L4",
"M4N4O4P4Q4R4S4T4U4V4W4X4Y4q<Z4`4 5.5+5@5e>}2#523L/$5%5&5d[q!Z3*5Z3=5-5;5>5,5'5)5!5~5{5]5^5/5(5_5:5<5[5}5|515253545556575859505a5",
"b5c5d5e5f5g5h5i55>j5k5R{!+l5|{;&m5n5o5p5c(=:(/q5K/r5s5r5L/8%t5u5u5v5O1o-u5w5I{H2x5y5^^44V-z5A5B5C5D5E5F5G5H5I5o=J5K5L5M5N5O5P5Q5",
"R5S5T5U5V5W5X5Y5Z5`5 6.6+6@6#6$6%6f3n5&6f<01a1*6=6-6e^;6>6q&A<#-e%,6S2'6)6s(L;!6~6{6]6^6/6(6_6:6<6[6}6|616263646566676869606a6b6",
"c6d6e6f6g6h6i6j6k6l6N>b>D)m6n6o6a>k6D}p6q6r691s6v/<1t6X1u602X1p#v6B>w6x6y6z6A6B6C6D6E6F6G6H6I6J6K6L6M6N6O6P6Q6C(R6S6T6U696V6W6X6",
"Y6Z6`6 7.7+7@7#7$7]!s;%7V &7*7=7o|O:-7I;S{;7>7 &,7'7)7!73,~7{7a2%/,5m-]7k[^7/7(7_7:7<7[7}7|717273747576777879707a7b7c7d7e7f7f+f+",
"g7h7i7j7k7l7m7n7t.c<a>f]o7&7p7q7r7s7t7u7v7 4K}[}w7x7}2M/a((<C<1|y7z7A7T]g[B7C7D7E7F7G7H7I7J7K7L7M7N7O7X:P7Q7R7S7T7U7V7W7X7Y7Z7f+",
"`7v2 8.8+8@8#8$8%8&8*8=8={-8;8>8,8'8)8O:!8U*~8{8]8Z/m{ &n_^8N/=&/8(8Q]K(_8:8<8[8}8|81828384858687888/*98/:08a8b8c8d8e8f8g8h8i8f+",
"j8k8@;l8m8n8o8p8q8r8s8h/t8u8v8w8x8y8z8A8B8C8D8E8p^F8G8H8e>K2->Q|I8Z[^*J8K8L8M8N8O8P8Q8R8S8T8U8V8W8X8Y8Z8`8 9.9+9@9#9$9h v2F%e+/."};
