/* XPM */
static char * portal_rot9_xpm[] = {
"64 64 3255 2",
"  	c #100825",
". 	c #100824",
"+ 	c #0F0722",
"@ 	c #0F0824",
"# 	c #09051A",
"$ 	c #08061B",
"% 	c #08061E",
"& 	c #070516",
"* 	c #080618",
"= 	c #060516",
"- 	c #050415",
"; 	c #070519",
"> 	c #0C0525",
", 	c #150636",
"' 	c #320D59",
") 	c #52187C",
"! 	c #4C1475",
"~ 	c #1D0345",
"{ 	c #050410",
"] 	c #03020B",
"^ 	c #050311",
"/ 	c #080518",
"( 	c #0E0720",
"_ 	c #150B29",
": 	c #1C0B36",
"< 	c #210B46",
"[ 	c #310D67",
"} 	c #53108D",
"| 	c #640D96",
"1 	c #670B95",
"2 	c #5B0491",
"3 	c #430282",
"4 	c #330280",
"5 	c #35018A",
"6 	c #4E0599",
"7 	c #4F0596",
"8 	c #380479",
"9 	c #220651",
"0 	c #150732",
"a 	c #0B0518",
"b 	c #0D061D",
"c 	c #060418",
"d 	c #050418",
"e 	c #050318",
"f 	c #050416",
"g 	c #08061D",
"h 	c #0B0820",
"i 	c #0C0822",
"j 	c #08061C",
"k 	c #080519",
"l 	c #070517",
"m 	c #060517",
"n 	c #050516",
"o 	c #050518",
"p 	c #050417",
"q 	c #050414",
"r 	c #050514",
"s 	c #080517",
"t 	c #0E081E",
"u 	c #0C071E",
"v 	c #0E0820",
"w 	c #0F0822",
"x 	c #100826",
"y 	c #050515",
"z 	c #0A081F",
"A 	c #090519",
"B 	c #090619",
"C 	c #070518",
"D 	c #09061B",
"E 	c #0C0721",
"F 	c #140730",
"G 	c #1E0744",
"H 	c #3C0F67",
"I 	c #591883",
"J 	c #400F60",
"K 	c #0B0323",
"L 	c #03020E",
"M 	c #0D071F",
"N 	c #160B2A",
"O 	c #1D0E34",
"P 	c #210E3E",
"Q 	c #280C4E",
"R 	c #3A0A6C",
"S 	c #4C0B8A",
"T 	c #550893",
"U 	c #57058B",
"V 	c #4F0380",
"W 	c #43027C",
"X 	c #35017D",
"Y 	c #34028C",
"Z 	c #36028E",
"` 	c #3F028C",
" .	c #3E028E",
"..	c #41018E",
"+.	c #310177",
"@.	c #290267",
"#.	c #2B0368",
"$.	c #20045A",
"%.	c #1A054E",
"&.	c #1A0B38",
"*.	c #1F0F2D",
"=.	c #200E2C",
"-.	c #1C0D29",
";.	c #160B23",
">.	c #150B24",
",.	c #1E0F30",
"'.	c #210F37",
").	c #230E3B",
"!.	c #220E3A",
"~.	c #200D36",
"{.	c #180A2B",
"].	c #0D061F",
"^.	c #140C25",
"/.	c #09071A",
"(.	c #050513",
"_.	c #050412",
":.	c #0A0618",
"<.	c #0D081D",
"[.	c #0C061D",
"}.	c #110925",
"|.	c #130927",
"1.	c #0F0820",
"2.	c #080617",
"3.	c #060515",
"4.	c #040411",
"5.	c #0A071A",
"6.	c #090618",
"7.	c #060414",
"8.	c #120926",
"9.	c #1D0C3B",
"0.	c #1B083E",
"a.	c #250556",
"b.	c #3A096A",
"c.	c #330952",
"d.	c #180529",
"e.	c #050411",
"f.	c #0B061B",
"g.	c #190D2F",
"h.	c #22103B",
"i.	c #280F46",
"j.	c #2B0C55",
"k.	c #420C73",
"l.	c #570E91",
"m.	c #5E09A0",
"n.	c #570398",
"o.	c #46027F",
"p.	c #2F0163",
"q.	c #290160",
"r.	c #2E0277",
"s.	c #34028A",
"t.	c #310282",
"u.	c #1F0063",
"v.	c #2A016F",
"w.	c #33017B",
"x.	c #2F0173",
"y.	c #2B016C",
"z.	c #36027D",
"A.	c #3A0382",
"B.	c #32057E",
"C.	c #2D066E",
"D.	c #360C67",
"E.	c #300E4F",
"F.	c #2C0D4E",
"G.	c #34105A",
"H.	c #2E104B",
"I.	c #2A0F48",
"J.	c #2F0E53",
"K.	c #300D5B",
"L.	c #250A4F",
"M.	c #190545",
"N.	c #100435",
"O.	c #190B2E",
"P.	c #130B25",
"Q.	c #0B081B",
"R.	c #030310",
"S.	c #060514",
"T.	c #0B071A",
"U.	c #0F081F",
"V.	c #0F0821",
"W.	c #0E081C",
"X.	c #100820",
"Y.	c #040413",
"Z.	c #0E0722",
"`.	c #080516",
" +	c #080514",
".+	c #1D0E38",
"++	c #250F4D",
"@+	c #220953",
"#+	c #240557",
"$+	c #27054D",
"%+	c #050211",
"&+	c #0B0618",
"*+	c #0D071B",
"=+	c #150B28",
"-+	c #22103A",
";+	c #280F47",
">+	c #2E0B58",
",+	c #34076A",
"'+	c #500A8F",
")+	c #610F9E",
"!+	c #520598",
"~+	c #480291",
"{+	c #3B0178",
"]+	c #270157",
"^+	c #1B0151",
"/+	c #210165",
"(+	c #26026D",
"_+	c #20015C",
":+	c #18014B",
"<+	c #20015D",
"[+	c #21015F",
"}+	c #19014E",
"|+	c #1B0150",
"1+	c #300271",
"2+	c #42048D",
"3+	c #41058C",
"4+	c #230467",
"5+	c #200555",
"6+	c #1B0842",
"7+	c #140928",
"8+	c #110825",
"9+	c #130637",
"0+	c #1B0747",
"a+	c #1E0650",
"b+	c #22065C",
"c+	c #290861",
"d+	c #341069",
"e+	c #290664",
"f+	c #2F1442",
"g+	c #0D0822",
"h+	c #100A25",
"i+	c #0A0619",
"j+	c #040410",
"k+	c #0C081B",
"l+	c #040412",
"m+	c #0D071C",
"n+	c #09061F",
"o+	c #0B071E",
"p+	c #05030F",
"q+	c #0E061F",
"r+	c #210E42",
"s+	c #290D5F",
"t+	c #270860",
"u+	c #1B0547",
"v+	c #0D0421",
"w+	c #070513",
"x+	c #0C0618",
"y+	c #180D28",
"z+	c #271540",
"A+	c #301155",
"B+	c #360D64",
"C+	c #400879",
"D+	c #460589",
"E+	c #4C0593",
"F+	c #580D96",
"G+	c #380284",
"H+	c #420190",
"I+	c #3D027D",
"J+	c #290158",
"K+	c #20014E",
"L+	c #210157",
"M+	c #1E0153",
"N+	c #1A0148",
"O+	c #220153",
"P+	c #23015B",
"Q+	c #1A014F",
"R+	c #0F0137",
"S+	c #0C0135",
"T+	c #230161",
"U+	c #3C0389",
"V+	c #3F0590",
"W+	c #2F0577",
"X+	c #21055D",
"Y+	c #1A0649",
"Z+	c #180837",
"`+	c #110823",
" @	c #0D051C",
".@	c #0C0520",
"+@	c #08051D",
"@@	c #080427",
"#@	c #3E0B61",
"$@	c #73278A",
"%@	c #5B1882",
"&@	c #3C194A",
"*@	c #180C2D",
"=@	c #06051A",
"-@	c #0C0719",
";@	c #070514",
">@	c #090617",
",@	c #080616",
"'@	c #070515",
")@	c #060410",
"!@	c #060419",
"~@	c #09061D",
"{@	c #0C071F",
"]@	c #040311",
"^@	c #02020E",
"/@	c #060417",
"(@	c #180839",
"_@	c #25095D",
":@	c #1A0544",
"<@	c #0F0529",
"[@	c #0F081E",
"}@	c #130A22",
"|@	c #28153F",
"1@	c #3D1A65",
"2@	c #47157B",
"3@	c #4A0D85",
"4@	c #4A088F",
"5@	c #450494",
"6@	c #3E0490",
"7@	c #3B058C",
"8@	c #310189",
"9@	c #3A027A",
"0@	c #260252",
"a@	c #1E0242",
"b@	c #22024C",
"c@	c #22014E",
"d@	c #20014C",
"e@	c #250154",
"f@	c #200153",
"g@	c #12013A",
"h@	c #0A012A",
"i@	c #0D0231",
"j@	c #190252",
"k@	c #2E0278",
"l@	c #3A028E",
"m@	c #380388",
"n@	c #2E0479",
"o@	c #250465",
"p@	c #1A0746",
"q@	c #120829",
"r@	c #0D061E",
"s@	c #0F052A",
"t@	c #160831",
"u@	c #190C2C",
"v@	c #180A25",
"w@	c #110820",
"x@	c #0B071F",
"y@	c #1E0E2E",
"z@	c #130A28",
"A@	c #0A071F",
"B@	c #060415",
"C@	c #040310",
"D@	c #08051C",
"E@	c #08051A",
"F@	c #03020F",
"G@	c #170832",
"H@	c #19083F",
"I@	c #050312",
"J@	c #080515",
"K@	c #160B24",
"L@	c #201231",
"M@	c #24123B",
"N@	c #381A58",
"O@	c #4B1A7F",
"P@	c #5A1D91",
"Q@	c #5D1899",
"R@	c #540D9F",
"S@	c #410593",
"T@	c #2E0285",
"U@	c #2A0285",
"V@	c #29017E",
"W@	c #29016E",
"X@	c #26025B",
"Y@	c #180240",
"Z@	c #18023D",
"`@	c #1C0147",
" #	c #1F014B",
".#	c #1F014D",
"+#	c #1E014C",
"@#	c #180142",
"##	c #0D012A",
"$#	c #0C012B",
"%#	c #0F0135",
"&#	c #140142",
"*#	c #1B0155",
"=#	c #1C015B",
"-#	c #290169",
";#	c #2E0274",
">#	c #310277",
",#	c #290A5A",
"'#	c #180A32",
")#	c #0D0520",
"!#	c #0F042F",
"~#	c #19053A",
"{#	c #3B114F",
"]#	c #341148",
"^#	c #260E3B",
"/#	c #1A0C29",
"(#	c #130A23",
"_#	c #140B26",
":#	c #040312",
"<#	c #08061A",
"[#	c #0A061E",
"}#	c #03030F",
"|#	c #0C071C",
"1#	c #130928",
"2#	c #0D071E",
"3#	c #0D081B",
"4#	c #120920",
"5#	c #1C0F2A",
"6#	c #29173A",
"7#	c #311B4B",
"8#	c #3D1A64",
"9#	c #53257E",
"0#	c #6A299F",
"a#	c #6F2CA0",
"b#	c #621E9D",
"c#	c #560F9F",
"d#	c #34028B",
"e#	c #210173",
"f#	c #1F0170",
"g#	c #170156",
"h#	c #130143",
"i#	c #100139",
"j#	c #0C012F",
"k#	c #0F0138",
"l#	c #130145",
"m#	c #150148",
"n#	c #120140",
"o#	c #100137",
"p#	c #0D012D",
"q#	c #0A0126",
"r#	c #0D012E",
"s#	c #150140",
"t#	c #190148",
"u#	c #2C0167",
"v#	c #2D0368",
"w#	c #2E0C58",
"x#	c #1C0D2F",
"y#	c #0B0424",
"z#	c #100434",
"A#	c #1F073C",
"B#	c #4A145A",
"C#	c #3A0F4A",
"D#	c #320D55",
"E#	c #33105A",
"F#	c #2A0F46",
"G#	c #240F3D",
"H#	c #1D0C32",
"I#	c #160829",
"J#	c #0B061E",
"K#	c #0D0621",
"L#	c #03020D",
"M#	c #110822",
"N#	c #110A21",
"O#	c #120A20",
"P#	c #160C26",
"Q#	c #201031",
"R#	c #2B1840",
"S#	c #371C57",
"T#	c #441B71",
"U#	c #5B248C",
"V#	c #7234A0",
"W#	c #722CA5",
"X#	c #6B259F",
"Y#	c #4E0F8F",
"Z#	c #3B028B",
"`#	c #2E0182",
" $	c #20016C",
".$	c #1A0163",
"+$	c #100147",
"@$	c #0B0138",
"#$	c #0B0237",
"$$	c #090231",
"%$	c #0F0142",
"&$	c #140152",
"*$	c #140150",
"=$	c #0F013C",
"-$	c #06011E",
";$	c #07011F",
">$	c #0B0126",
",$	c #0F0133",
"'$	c #11013B",
")$	c #180148",
"!$	c #25015A",
"~$	c #2C0166",
"{$	c #2C016D",
"]$	c #27065E",
"^$	c #240C45",
"/$	c #190838",
"($	c #19063C",
"_$	c #24083F",
":$	c #300A3F",
"<$	c #31093A",
"[$	c #3D0E55",
"}$	c #290860",
"|$	c #250A56",
"1$	c #270B52",
"2$	c #2C0D54",
"3$	c #2F0D59",
"4$	c #240B49",
"5$	c #1E093D",
"6$	c #18092E",
"7$	c #0E0620",
"8$	c #0B081C",
"9$	c #050413",
"0$	c #0A0617",
"a$	c #160B27",
"b$	c #02020A",
"c$	c #09061A",
"d$	c #0B051A",
"e$	c #0F091F",
"f$	c #130B22",
"g$	c #1A0E2F",
"h$	c #291542",
"i$	c #361A5A",
"j$	c #44187A",
"k$	c #4A1387",
"l$	c #641F9B",
"m$	c #7124A3",
"n$	c #6F1FA3",
"o$	c #601498",
"p$	c #460588",
"q$	c #360184",
"r$	c #2E027F",
"s$	c #1F0169",
"t$	c #150155",
"u$	c #0D0244",
"v$	c #0A0139",
"w$	c #0B013A",
"x$	c #0D023C",
"y$	c #0F0143",
"z$	c #150251",
"A$	c #100244",
"B$	c #0A022D",
"C$	c #070224",
"D$	c #070120",
"E$	c #090123",
"F$	c #100136",
"G$	c #18024B",
"H$	c #1A0254",
"I$	c #28016B",
"J$	c #310178",
"K$	c #2C017C",
"L$	c #27056A",
"M$	c #210753",
"N$	c #180547",
"O$	c #180640",
"P$	c #210840",
"Q$	c #22083A",
"R$	c #190529",
"S$	c #390F37",
"T$	c #5D1D53",
"U$	c #632059",
"V$	c #380F4B",
"W$	c #1D054F",
"X$	c #200658",
"Y$	c #25075D",
"Z$	c #29095B",
"`$	c #240853",
" %	c #17053C",
".%	c #130B24",
"+%	c #0B0719",
"@%	c #050310",
"#%	c #0C0619",
"$%	c #130926",
"%%	c #03020C",
"&%	c #090518",
"*%	c #070414",
"=%	c #0D0720",
"-%	c #150B2C",
";%	c #200F3A",
">%	c #3A1D5B",
",%	c #5D298C",
"'%	c #531895",
")%	c #470690",
"!%	c #64189F",
"~%	c #65179F",
"{%	c #620F9F",
"]%	c #540895",
"^%	c #3E0385",
"/%	c #31017F",
"(%	c #270173",
"_%	c #190159",
":%	c #0F0140",
"<%	c #0A0131",
"[%	c #09012C",
"}%	c #0C0231",
"|%	c #0F0235",
"1%	c #11023A",
"2%	c #130240",
"3%	c #13023F",
"4%	c #0F0237",
"5%	c #0D0230",
"6%	c #14013E",
"7%	c #1B0255",
"8%	c #1F0265",
"9%	c #280279",
"0%	c #300183",
"a%	c #26017B",
"b%	c #24036A",
"c%	c #200553",
"d%	c #180644",
"e%	c #1C093A",
"f%	c #200837",
"g%	c #19052D",
"h%	c #2D1232",
"i%	c #4C1E48",
"j%	c #5D2053",
"k%	c #5A1C50",
"l%	c #3B0F42",
"m%	c #210349",
"n%	c #1B0257",
"o%	c #490D7D",
"p%	c #661F8E",
"q%	c #541A7D",
"r%	c #310F5B",
"s%	c #230F36",
"t%	c #0F0922",
"u%	c #0B081E",
"v%	c #0B071D",
"w%	c #020208",
"x%	c #04020E",
"y%	c #0B0520",
"z%	c #100828",
"A%	c #170B2E",
"B%	c #351A4E",
"C%	c #58297C",
"D%	c #672B9C",
"E%	c #5510A0",
"F%	c #560F9E",
"G%	c #5B10A0",
"H%	c #5A0F9D",
"I%	c #4A048F",
"J%	c #30027A",
"K%	c #26016E",
"L%	c #190256",
"M%	c #110140",
"N%	c #0E0232",
"O%	c #0D022B",
"P%	c #100233",
"Q%	c #16023A",
"R%	c #160239",
"S%	c #130235",
"T%	c #150238",
"U%	c #18023B",
"V%	c #1B0243",
"W%	c #1A0248",
"X%	c #160243",
"Y%	c #0F0238",
"Z%	c #0F0136",
"`%	c #19024E",
" &	c #28026F",
".&	c #310287",
"+&	c #240274",
"@&	c #1F0260",
"#&	c #18063E",
"$&	c #180A35",
"%&	c #18092C",
"&&	c #170629",
"*&	c #180824",
"=&	c #45224A",
"-&	c #5A2956",
";&	c #51204B",
">&	c #260827",
",&	c #290633",
"'&	c #3A0C53",
")&	c #1F0256",
"!&	c #380579",
"~&	c #6A1D9F",
"{&	c #692092",
"]&	c #4A1A64",
"^&	c #271038",
"/&	c #0F0823",
"(&	c #0C0720",
"_&	c #02020F",
":&	c #15092F",
"<&	c #1B0B3A",
"[&	c #270F4A",
"}&	c #37125F",
"|&	c #4F2174",
"1&	c #632991",
"2&	c #6C2BA1",
"3&	c #6A28A3",
"4&	c #5E1D9C",
"5&	c #470A8E",
"6&	c #3A0381",
"7&	c #39027E",
"8&	c #38027C",
"9&	c #29026C",
"0&	c #1D0157",
"a&	c #11023F",
"b&	c #15023A",
"c&	c #140238",
"d&	c #16023D",
"e&	c #14023A",
"f&	c #140240",
"g&	c #150245",
"h&	c #180248",
"i&	c #1E024B",
"j&	c #210254",
"k&	c #200154",
"l&	c #1B024A",
"m&	c #14023D",
"n&	c #100236",
"o&	c #180242",
"p&	c #250260",
"q&	c #300278",
"r&	c #2E027E",
"s&	c #27027A",
"t&	c #210564",
"u&	c #1D0A41",
"v&	c #180B2F",
"w&	c #130728",
"x&	c #16082C",
"y&	c #29133C",
"z&	c #41204C",
"A&	c #4A224A",
"B&	c #2F1131",
"C&	c #170428",
"D&	c #280839",
"E&	c #441253",
"F&	c #330B54",
"G&	c #270274",
"H&	c #5909A0",
"I&	c #602085",
"J&	c #461D57",
"K&	c #200E33",
"L&	c #0B0720",
"M&	c #04030F",
"N&	c #160A2F",
"O&	c #341658",
"P&	c #3A146C",
"Q&	c #55178D",
"R&	c #531193",
"S&	c #561895",
"T&	c #59179F",
"U&	c #5B149F",
"V&	c #61209A",
"W&	c #52198C",
"X&	c #2F076C",
"Y&	c #1D015C",
"Z&	c #20015F",
"`&	c #1D0159",
" *	c #15014B",
".*	c #0F023E",
"+*	c #0E0237",
"@*	c #10023A",
"#*	c #16023C",
"$*	c #17023D",
"%*	c #16023E",
"&*	c #15023F",
"**	c #120246",
"=*	c #18015B",
"-*	c #1A0263",
";*	c #190261",
">*	c #1D0164",
",*	c #280176",
"'*	c #28026D",
")*	c #1E0255",
"!*	c #17023F",
"~*	c #27025F",
"{*	c #2F026C",
"]*	c #2C0273",
"^*	c #2A027F",
"/*	c #280670",
"(*	c #210E48",
"_*	c #170734",
":*	c #210D45",
"<*	c #29134B",
"[*	c #2A1440",
"}*	c #210E30",
"|*	c #160528",
"1*	c #200736",
"2*	c #23083F",
"3*	c #210842",
"4*	c #18053A",
"5*	c #390C61",
"6*	c #611A8D",
"7*	c #5D2176",
"8*	c #39184E",
"9*	c #1C0B34",
"0*	c #0D0821",
"a*	c #02020C",
"b*	c #230F3D",
"c*	c #39175F",
"d*	c #4A1B81",
"e*	c #4E1196",
"f*	c #500B9B",
"g*	c #4B0795",
"h*	c #460592",
"i*	c #420490",
"j*	c #41048D",
"k*	c #4B0D8D",
"l*	c #3E0681",
"m*	c #20025D",
"n*	c #16024D",
"o*	c #160150",
"p*	c #12014B",
"q*	c #0F0244",
"r*	c #0E023E",
"s*	c #0F023D",
"t*	c #0F023F",
"u*	c #120240",
"v*	c #14023C",
"w*	c #14023E",
"x*	c #170249",
"y*	c #1F0263",
"z*	c #220173",
"A*	c #240279",
"B*	c #31028A",
"C*	c #3D0493",
"D*	c #380389",
"E*	c #290271",
"F*	c #21025B",
"G*	c #200250",
"H*	c #1F024D",
"I*	c #23015A",
"J*	c #2A0169",
"K*	c #2D0273",
"L*	c #2F0280",
"M*	c #29066B",
"N*	c #200E3A",
"O*	c #19083A",
"P*	c #200851",
"Q*	c #260D55",
"R*	c #220D47",
"S*	c #15062C",
"T*	c #140529",
"U*	c #1D0836",
"V*	c #20083C",
"W*	c #180639",
"X*	c #110433",
"Y*	c #100431",
"Z*	c #290942",
"`*	c #4B1666",
" =	c #4C186B",
".=	c #31104E",
"+=	c #1F0D39",
"@=	c #110827",
"#=	c #09061C",
"$=	c #1C0E34",
"%=	c #371958",
"&=	c #4D1B82",
"*=	c #541598",
"==	c #54099F",
"-=	c #4D0594",
";=	c #3B0283",
">=	c #370281",
",=	c #3B0286",
"'=	c #3D0285",
")=	c #3F0283",
"!=	c #38017A",
"~=	c #250261",
"{=	c #180250",
"]=	c #180153",
"^=	c #180156",
"/=	c #180256",
"(=	c #130249",
"_=	c #10023F",
":=	c #0E023C",
"<=	c #0E0233",
"[=	c #0F0232",
"}=	c #12023A",
"|=	c #170246",
"1=	c #260265",
"2=	c #2A0274",
"3=	c #30027F",
"4=	c #3A0487",
"5=	c #460891",
"6=	c #490994",
"7=	c #330383",
"8=	c #22016C",
"9=	c #210160",
"0=	c #200256",
"a=	c #200253",
"b=	c #280168",
"c=	c #2F017C",
"d=	c #320283",
"e=	c #2C046F",
"f=	c #23094E",
"g=	c #20055D",
"h=	c #240662",
"i=	c #230859",
"j=	c #120626",
"k=	c #180830",
"l=	c #1D083C",
"m=	c #190543",
"n=	c #100433",
"o=	c #0F0525",
"p=	c #0B051C",
"q=	c #0F0520",
"r=	c #1A072E",
"s=	c #280943",
"t=	c #2A0B4F",
"u=	c #210D42",
"v=	c #180B32",
"w=	c #02020B",
"x=	c #100923",
"y=	c #1D0F31",
"z=	c #31174D",
"A=	c #54217C",
"B=	c #67209B",
"C=	c #6316A1",
"D=	c #570A9D",
"E=	c #4E0693",
"F=	c #3A0281",
"G=	c #34017D",
"H=	c #38027D",
"I=	c #39027C",
"J=	c #340275",
"K=	c #2A016A",
"L=	c #230163",
"M=	c #1D025D",
"N=	c #1E025D",
"O=	c #1F0160",
"P=	c #1C0257",
"Q=	c #140244",
"R=	c #0A022B",
"S=	c #09012A",
"T=	c #0B0131",
"U=	c #0E0239",
"V=	c #0F0240",
"W=	c #110245",
"X=	c #1C0253",
"Y=	c #22025F",
"Z=	c #260267",
"`=	c #2E026A",
" -	c #42087B",
".-	c #54108C",
"+-	c #490A8C",
"@-	c #310285",
"#-	c #2A0178",
"$-	c #26026A",
"%-	c #240162",
"&-	c #240164",
"*-	c #2B0175",
"=-	c #310181",
"--	c #290273",
";-	c #20035E",
">-	c #210364",
",-	c #21055B",
"'-	c #180B2E",
")-	c #1A0B32",
"!-	c #1A093E",
"~-	c #1A0647",
"{-	c #1A0548",
"]-	c #1B083C",
"^-	c #1D0C33",
"/-	c #1B0A31",
"(-	c #17092C",
"_-	c #140826",
":-	c #120821",
"<-	c #170837",
"[-	c #210D46",
"}-	c #220F41",
"|-	c #020207",
"1-	c #0F0921",
"2-	c #201134",
"3-	c #32184D",
"4-	c #461D6B",
"5-	c #6C2699",
"6-	c #7E2FA7",
"7-	c #681C9D",
"8-	c #43068E",
"9-	c #30017B",
"0-	c #2D0174",
"a-	c #2B026C",
"b-	c #2D0173",
"c-	c #200164",
"d-	c #220168",
"e-	c #210162",
"f-	c #1E015B",
"g-	c #1C0156",
"h-	c #150242",
"i-	c #0E0231",
"j-	c #090127",
"k-	c #080125",
"l-	c #0A012E",
"m-	c #12024B",
"n-	c #10024C",
"o-	c #0F014B",
"p-	c #11014C",
"q-	c #160252",
"r-	c #1B025B",
"s-	c #23025C",
"t-	c #2E055D",
"u-	c #420C71",
"v-	c #4A0B85",
"w-	c #42058E",
"x-	c #340284",
"y-	c #31017D",
"z-	c #2B016F",
"A-	c #29016C",
"B-	c #2E0178",
"C-	c #230164",
"D-	c #18024A",
"E-	c #1E0352",
"F-	c #200846",
"G-	c #230E3C",
"H-	c #230D43",
"I-	c #290A57",
"J-	c #2B0664",
"K-	c #270563",
"L-	c #2E0861",
"M-	c #2F0D5B",
"N-	c #2E0F5B",
"O-	c #2A0964",
"P-	c #200856",
"Q-	c #1B0A3B",
"R-	c #180B2C",
"S-	c #180835",
"T-	c #200F3E",
"U-	c #120A24",
"V-	c #24113A",
"W-	c #3A1954",
"X-	c #4A1B75",
"Y-	c #5A1B90",
"Z-	c #7128A1",
"`-	c #742BA1",
" ;	c #4D128F",
".;	c #2F027E",
"+;	c #2D017B",
"@;	c #28016D",
"#;	c #26016A",
"$;	c #260169",
"%;	c #2A016C",
"&;	c #250164",
"*;	c #240161",
"=;	c #200255",
"-;	c #190149",
";;	c #170240",
">;	c #0F0231",
",;	c #0C012A",
"';	c #0B012B",
");	c #0E0134",
"!;	c #140146",
"~;	c #1F0168",
"{;	c #18015E",
"];	c #160157",
"^;	c #170158",
"/;	c #1C015F",
"(;	c #1D015A",
"_;	c #1C0250",
":;	c #280457",
"<;	c #360767",
"[;	c #47087F",
"};	c #500892",
"|;	c #450492",
"1;	c #3A0289",
"2;	c #320179",
"3;	c #2A0265",
"4;	c #2C016C",
"5;	c #1A0243",
"6;	c #20054A",
"7;	c #210553",
"8;	c #230561",
"9;	c #36057B",
"0;	c #460392",
"a;	c #4B068D",
"b;	c #38057A",
"c;	c #30037F",
"d;	c #320487",
"e;	c #29066D",
"f;	c #200A4D",
"g;	c #220E43",
"h;	c #1C0D33",
"i;	c #160929",
"j;	c #15082B",
"k;	c #060413",
"l;	c #1F0F33",
"m;	c #3A1856",
"n;	c #5B247C",
"o;	c #621D97",
"p;	c #5D0FA3",
"q;	c #6317A2",
"r;	c #5A1699",
"s;	c #370380",
"t;	c #26026C",
"u;	c #260168",
"v;	c #22015C",
"w;	c #210159",
"x;	c #230158",
"y;	c #240257",
"z;	c #240156",
"A;	c #20014B",
"B;	c #18023F",
"C;	c #1A023F",
"D;	c #150239",
"E;	c #160244",
"F;	c #190150",
"G;	c #1E0258",
"H;	c #260173",
"I;	c #370288",
"J;	c #280171",
"K;	c #29026D",
"L;	c #1F0162",
"M;	c #19015C",
"N;	c #19015F",
"O;	c #180158",
"P;	c #1B0258",
"Q;	c #400773",
"R;	c #560C8B",
"S;	c #560A93",
"T;	c #42038E",
"U;	c #32017D",
"V;	c #290261",
"W;	c #240256",
"X;	c #21025A",
"Y;	c #170245",
"Z;	c #170140",
"`;	c #190153",
" >	c #1E0168",
".>	c #310280",
"+>	c #4A029C",
"@>	c #5E08A2",
"#>	c #54059D",
"$>	c #360185",
"%>	c #300182",
"&>	c #3A0292",
"*>	c #350C74",
"=>	c #270B54",
"->	c #270D53",
";>	c #2D0F4E",
">>	c #230E39",
",>	c #130822",
"'>	c #0C041B",
")>	c #351454",
"!>	c #4B1975",
"~>	c #6E2899",
"{>	c #681EA2",
"]>	c #5B0FA1",
"^>	c #600FA0",
"/>	c #520896",
"(>	c #37027A",
"_>	c #280166",
":>	c #210158",
"<>	c #1F0150",
"[>	c #1C0248",
"}>	c #190242",
"|>	c #190241",
"1>	c #19023F",
"2>	c #150236",
"3>	c #110231",
"4>	c #140139",
"5>	c #200252",
"6>	c #2B0168",
"7>	c #310175",
"8>	c #33017F",
"9>	c #3F028E",
"0>	c #4F0397",
"a>	c #5B059F",
"b>	c #56049D",
"c>	c #4D0296",
"d>	c #46028E",
"e>	c #42028A",
"f>	c #29016F",
"g>	c #22016D",
"h>	c #27017D",
"i>	c #23017B",
"j>	c #210177",
"k>	c #240178",
"l>	c #35037C",
"m>	c #530E85",
"n>	c #661595",
"o>	c #570B96",
"p>	c #2D0164",
"q>	c #240250",
"r>	c #220255",
"s>	c #160142",
"t>	c #170153",
"u>	c #190163",
"v>	c #2A017C",
"w>	c #460296",
"x>	c #5605A0",
"y>	c #4E049A",
"z>	c #3A0189",
"A>	c #41028F",
"B>	c #470398",
"C>	c #3E0B81",
"D>	c #3A1069",
"E>	c #2B0B5B",
"F>	c #2B0E54",
"G>	c #2D0F4C",
"H>	c #210D35",
"I>	c #210A3F",
"J>	c #3F126F",
"K>	c #4C1485",
"L>	c #631A9F",
"M>	c #6110A2",
"N>	c #6614A3",
"O>	c #64149E",
"P>	c #580996",
"Q>	c #450380",
"R>	c #2F026A",
"S>	c #220253",
"T>	c #1C0246",
"U>	c #120235",
"V>	c #16023B",
"W>	c #180141",
"X>	c #110135",
"Y>	c #1B014D",
"Z>	c #200159",
"`>	c #37017E",
" ,	c #40018C",
".,	c #480196",
"+,	c #58029F",
"@,	c #5E049F",
"#,	c #63059F",
"$,	c #6B05A3",
"%,	c #6F06A4",
"&,	c #5D059F",
"*,	c #52049A",
"=,	c #41038B",
"-,	c #350285",
";,	c #31018A",
">,	c #2A0186",
",,	c #280284",
"',	c #2B0288",
"),	c #320289",
"!,	c #4B0C83",
"~,	c #71218A",
"{,	c #671796",
"],	c #480493",
"^,	c #3A0171",
"/,	c #28024C",
"(,	c #230256",
"_,	c #1A024A",
":,	c #130239",
"<,	c #120143",
"[,	c #150156",
"},	c #24016C",
"|,	c #330181",
"1,	c #490294",
"2,	c #54039F",
"3,	c #4B0492",
"4,	c #460785",
"5,	c #450881",
"6,	c #31086D",
"7,	c #2C0C5C",
"8,	c #2A0D4E",
"9,	c #230A4E",
"0,	c #310C6E",
"a,	c #3E0A85",
"b,	c #530C9A",
"c,	c #5A0D9E",
"d,	c #540C96",
"e,	c #4F0C8D",
"f,	c #470584",
"g,	c #37026D",
"h,	c #270259",
"i,	c #1D0248",
"j,	c #15023D",
"k,	c #160242",
"l,	c #1A014B",
"m,	c #1D0151",
"n,	c #17024B",
"o,	c #2C0173",
"p,	c #3C027E",
"q,	c #4A028F",
"r,	c #4E0296",
"s,	c #530296",
"t,	c #530291",
"u,	c #4D028E",
"v,	c #530292",
"w,	c #5B0398",
"x,	c #5F0598",
"y,	c #5B079C",
"z,	c #5B09A0",
"A,	c #5C0AA2",
"B,	c #53089E",
"C,	c #3F0393",
"D,	c #2F0285",
"E,	c #2C0281",
"F,	c #370486",
"G,	c #4B0A85",
"H,	c #631486",
"I,	c #6C1894",
"J,	c #5A0999",
"K,	c #4A0281",
"L,	c #35025C",
"M,	c #29025C",
"N,	c #180151",
"O,	c #0F0130",
"P,	c #0F022D",
"Q,	c #130151",
"R,	c #1A0159",
"S,	c #21016C",
"T,	c #2B017D",
"U,	c #2D0177",
"V,	c #3F0285",
"W,	c #60099A",
"X,	c #6808A0",
"Y,	c #540296",
"Z,	c #45018D",
"`,	c #3B0284",
" '	c #2D0370",
".'	c #24065F",
"+'	c #2B0C5A",
"@'	c #1D0554",
"#'	c #260473",
"$'	c #320385",
"%'	c #450592",
"&'	c #45058A",
"*'	c #370377",
"='	c #2C026B",
"-'	c #170242",
";'	c #130236",
">'	c #150146",
",'	c #1F015D",
"''	c #1E0158",
")'	c #200161",
"!'	c #30017E",
"~'	c #41028E",
"{'	c #5A059F",
"]'	c #57039A",
"^'	c #530298",
"/'	c #530293",
"('	c #3D0183",
"_'	c #4A028C",
":'	c #4D0293",
"<'	c #4D0396",
"['	c #480393",
"}'	c #54069A",
"|'	c #58089D",
"1'	c #610CA2",
"2'	c #5608A0",
"3'	c #450397",
"4'	c #3C0290",
"5'	c #2C017D",
"6'	c #30037D",
"7'	c #4C0B86",
"8'	c #570D85",
"9'	c #5B0C8D",
"0'	c #5C0897",
"a'	c #520288",
"b'	c #3F026C",
"c'	c #2C0266",
"d'	c #1A0255",
"e'	c #0D0130",
"f'	c #0E012E",
"g'	c #0F023C",
"h'	c #180154",
"i'	c #250176",
"j'	c #2A0183",
"k'	c #27016C",
"l'	c #420281",
"m'	c #7817A2",
"n'	c #6E0DA2",
"o'	c #500290",
"p'	c #42018C",
"q'	c #31017A",
"r'	c #18024C",
"s'	c #1E0654",
"t'	c #0B0528",
"u'	c #1A025B",
"v'	c #200171",
"w'	c #2D0182",
"x'	c #340282",
"y'	c #2C0270",
"z'	c #200157",
"A'	c #18014A",
"B'	c #0C0130",
"C'	c #16014A",
"D'	c #1A0151",
"E'	c #1C0154",
"F'	c #1A0251",
"G'	c #1F0161",
"H'	c #23016E",
"I'	c #2A017D",
"J'	c #3A028F",
"K'	c #470299",
"L'	c #4A0298",
"M'	c #4A0294",
"N'	c #490292",
"O'	c #510695",
"P'	c #5D099D",
"Q'	c #610CA0",
"R'	c #5E0C9F",
"S'	c #5A0A9D",
"T'	c #510693",
"U'	c #420387",
"V'	c #46038E",
"W'	c #4A0398",
"X'	c #480396",
"Y'	c #360282",
"Z'	c #300277",
"`'	c #270171",
" )	c #28027D",
".)	c #450A89",
"+)	c #520A83",
"@)	c #4F0689",
"#)	c #510495",
"$)	c #490283",
"%)	c #390267",
"&)	c #290263",
"*)	c #190253",
"=)	c #0F0236",
"-)	c #0D022E",
";)	c #0F0146",
">)	c #13014E",
",)	c #1D016B",
"')	c #25017B",
"))	c #2C026F",
"!)	c #4D0985",
"~)	c #6C13A1",
"{)	c #650EA1",
"])	c #430292",
"^)	c #16014D",
"/)	c #0F0539",
"()	c #18015C",
"_)	c #230171",
":)	c #2B017B",
"<)	c #2D0176",
"[)	c #22015E",
"})	c #170146",
"|)	c #100239",
"1)	c #0F0139",
"2)	c #1E014F",
"3)	c #140148",
"4)	c #180159",
"5)	c #250178",
"6)	c #2C0186",
"7)	c #2C0183",
"8)	c #39028E",
"9)	c #3C0191",
"0)	c #410197",
"a)	c #50049A",
"b)	c #51059A",
"c)	c #53059F",
"d)	c #5806A3",
"e)	c #59099F",
"f)	c #5B0D9B",
"g)	c #510C92",
"h)	c #410686",
"i)	c #2A0278",
"j)	c #2E0179",
"k)	c #320278",
"l)	c #39027F",
"m)	c #1B0253",
"n)	c #29027A",
"o)	c #420991",
"p)	c #420582",
"q)	c #440282",
"r)	c #440293",
"s)	c #3B017B",
"t)	c #31015B",
"u)	c #24025C",
"v)	c #170251",
"w)	c #0F0239",
"x)	c #0D0134",
"y)	c #0D013A",
"z)	c #1C016C",
"A)	c #1E016E",
"B)	c #220167",
"C)	c #430881",
"D)	c #60159F",
"E)	c #6519A3",
"F)	c #5E14A0",
"G)	c #53099D",
"H)	c #340185",
"I)	c #21015E",
"J)	c #1C014D",
"K)	c #190650",
"L)	c #200166",
"M)	c #270174",
"N)	c #2B016D",
"O)	c #15013F",
"P)	c #150144",
"Q)	c #180149",
"R)	c #1B014A",
"S)	c #18014C",
"T)	c #150153",
"U)	c #170160",
"V)	c #1F0174",
"W)	c #2B0187",
"X)	c #30028B",
"Y)	c #29017C",
"Z)	c #2A017F",
"`)	c #4A029E",
" !	c #6008A3",
".!	c #5B099E",
"+!	c #4F0599",
"@!	c #430296",
"#!	c #3C0289",
"$!	c #36027E",
"%!	c #2C0274",
"&!	c #28026C",
"*!	c #260270",
"=!	c #210168",
"-!	c #27016E",
";!	c #160247",
">!	c #24026C",
",!	c #3A058B",
"'!	c #400685",
")!	c #3A027C",
"!!	c #3F028A",
"~!	c #3B017D",
"{!	c #34025E",
"]!	c #0E013A",
"^!	c #0D013B",
"/!	c #120148",
"(!	c #1D016C",
"_!	c #1B016F",
":!	c #3A0782",
"<!	c #5B189B",
"[!	c #651EA3",
"}!	c #6B1EA5",
"|!	c #56109D",
"1!	c #3A0287",
"2!	c #310173",
"3!	c #2C0168",
"4!	c #23015F",
"5!	c #230369",
"6!	c #2F017D",
"7!	c #18013D",
"8!	c #13023A",
"9!	c #150240",
"0!	c #170243",
"a!	c #180244",
"b!	c #18014D",
"c!	c #1E0170",
"d!	c #22017B",
"e!	c #24017E",
"f!	c #280182",
"g!	c #29017F",
"h!	c #28017D",
"i!	c #27017C",
"j!	c #320188",
"k!	c #4E049E",
"l!	c #58069D",
"m!	c #4C068C",
"n!	c #2D027A",
"o!	c #2C0176",
"p!	c #280169",
"q!	c #23015D",
"r!	c #260256",
"s!	c #210250",
"t!	c #1E0152",
"u!	c #1C015D",
"v!	c #1C015C",
"w!	c #210166",
"x!	c #18024F",
"y!	c #130140",
"z!	c #1F0264",
"A!	c #330387",
"B!	c #370383",
"C!	c #3F0286",
"D!	c #3C027A",
"E!	c #31025D",
"F!	c #1C024D",
"G!	c #0F0141",
"H!	c #100142",
"I!	c #160253",
"J!	c #1F0275",
"K!	c #1B016D",
"L!	c #1E0169",
"M!	c #290276",
"N!	c #3D038F",
"O!	c #440895",
"P!	c #5B12A2",
"Q!	c #6618A4",
"R!	c #490996",
"S!	c #3D028B",
"T!	c #300170",
"U!	c #200162",
"V!	c #2C017B",
"W!	c #0F012C",
"X!	c #0E012B",
"Y!	c #120236",
"Z!	c #16023F",
"`!	c #160241",
" ~	c #150149",
".~	c #160153",
"+~	c #1D0169",
"@~	c #290284",
"#~	c #290285",
"$~	c #220179",
"%~	c #200174",
"&~	c #24017B",
"*~	c #26017D",
"=~	c #3B028E",
"-~	c #490495",
";~	c #410385",
">~	c #2D016F",
",~	c #250169",
"'~	c #280165",
")~	c #220154",
"!~	c #16013F",
"~~	c #15014D",
"{~	c #18015A",
"]~	c #150151",
"^~	c #0F0144",
"/~	c #0F013A",
"(~	c #190255",
"_~	c #1C0259",
":~	c #12023C",
"<~	c #1F025D",
"[~	c #330287",
"}~	c #390282",
"|~	c #400282",
"1~	c #420286",
"2~	c #3D0273",
"3~	c #290253",
"4~	c #0E0139",
"5~	c #0F013B",
"6~	c #110145",
"7~	c #17024E",
"8~	c #1D0268",
"9~	c #1E0274",
"0~	c #1B026A",
"a~	c #1E0164",
"b~	c #2D027F",
"c~	c #370285",
"d~	c #52099C",
"e~	c #540CA0",
"f~	c #410296",
"g~	c #3A0286",
"h~	c #2E016C",
"i~	c #2D0171",
"j~	c #31017E",
"k~	c #31017B",
"l~	c #1E0155",
"m~	c #0E012F",
"n~	c #090121",
"o~	c #130136",
"p~	c #110240",
"q~	c #13014F",
"r~	c #20016F",
"s~	c #210174",
"t~	c #270282",
"u~	c #1E0174",
"v~	c #1E0171",
"w~	c #24017D",
"x~	c #2B0184",
"y~	c #31027E",
"z~	c #300272",
"A~	c #270163",
"B~	c #250163",
"C~	c #290164",
"D~	c #220159",
"E~	c #110148",
"F~	c #13015B",
"G~	c #180168",
"H~	c #1C026B",
"I~	c #20026F",
"J~	c #1E026A",
"K~	c #17025B",
"L~	c #16024E",
"M~	c #13013E",
"N~	c #1D0255",
"O~	c #300282",
"P~	c #410187",
"Q~	c #4E038B",
"R~	c #49028A",
"S~	c #3C026D",
"T~	c #21024D",
"U~	c #0C0136",
"V~	c #100143",
"W~	c #1A0258",
"X~	c #200276",
"Y~	c #1B0271",
"Z~	c #160259",
"`~	c #1A0161",
" {	c #1D0165",
".{	c #430591",
"+{	c #470599",
"@{	c #3B0291",
"#{	c #33027F",
"${	c #250168",
"%{	c #300275",
"&{	c #520F93",
"*{	c #350179",
"={	c #300172",
"-{	c #100133",
";{	c #0E012C",
">{	c #120238",
",{	c #140251",
"'{	c #1C0166",
"){	c #210172",
"!{	c #22027D",
"~{	c #250288",
"{{	c #1E0175",
"]{	c #29017D",
"^{	c #330186",
"/{	c #2A0170",
"({	c #1A0154",
"_{	c #18014F",
":{	c #20015B",
"<{	c #170166",
"[{	c #150161",
"}{	c #1A0266",
"|{	c #19025D",
"1{	c #170253",
"2{	c #14014A",
"3{	c #0F013F",
"4{	c #140140",
"5{	c #310279",
"6{	c #4B0588",
"7{	c #5B058E",
"8{	c #4F0283",
"9{	c #360266",
"0{	c #19024B",
"a{	c #120144",
"b{	c #1E0263",
"c{	c #20027D",
"d{	c #150264",
"e{	c #0D0241",
"f{	c #150154",
"g{	c #18015D",
"h{	c #290172",
"i{	c #360284",
"j{	c #3F0292",
"k{	c #3C018E",
"l{	c #350281",
"m{	c #29017A",
"n{	c #38028A",
"o{	c #5B0F9D",
"p{	c #23015E",
"q{	c #1D024A",
"r{	c #120237",
"s{	c #0E022D",
"t{	c #110239",
"u{	c #10023B",
"v{	c #13024D",
"w{	c #1E026C",
"x{	c #24027B",
"y{	c #26028A",
"z{	c #230285",
"A{	c #1F0173",
"B{	c #2E027C",
"C{	c #1A0150",
"D{	c #160149",
"E{	c #1A0153",
"F{	c #1E0159",
"G{	c #130148",
"H{	c #0E0146",
"I{	c #160159",
"J{	c #1A015B",
"K{	c #11013A",
"L{	c #0A0128",
"M{	c #080121",
"N{	c #080129",
"O{	c #0E013F",
"P{	c #0C0139",
"Q{	c #30046B",
"R{	c #540A82",
"S{	c #5E088A",
"T{	c #4D027B",
"U{	c #320265",
"V{	c #1D0253",
"W{	c #150248",
"X{	c #130243",
"Y{	c #140145",
"Z{	c #1E025B",
"`{	c #260377",
" ]	c #21037D",
".]	c #0F024E",
"+]	c #0C023D",
"@]	c #460393",
"#]	c #52049C",
"$]	c #500596",
"%]	c #440392",
"&]	c #3A0296",
"*]	c #52089F",
"=]	c #16013D",
"-]	c #0C0131",
";]	c #0F023B",
">]	c #12024A",
",]	c #1C0265",
"']	c #25027A",
")]	c #20016E",
"!]	c #200179",
"~]	c #26028B",
"{]	c #1E0272",
"]]	c #280173",
"^]	c #1C0151",
"/]	c #140144",
"(]	c #140149",
"_]	c #180155",
":]	c #160154",
"<]	c #0F014A",
"[]	c #15014C",
"}]	c #1F0159",
"|]	c #050118",
"1]	c #040115",
"2]	c #050119",
"3]	c #080127",
"4]	c #0B0231",
"5]	c #0B0137",
"6]	c #180243",
"7]	c #23025D",
"8]	c #340468",
"9]	c #5D0C89",
"0]	c #52057D",
"a]	c #3D026C",
"b]	c #27025C",
"c]	c #170145",
"d]	c #1F0255",
"e]	c #2B0278",
"f]	c #2A0481",
"g]	c #1F036B",
"h]	c #0E0242",
"i]	c #0D023F",
"j]	c #120251",
"k]	c #16015B",
"l]	c #18025C",
"m]	c #200269",
"n]	c #2B0277",
"o]	c #350280",
"p]	c #4A0390",
"q]	c #6007A2",
"r]	c #5605A1",
"s]	c #56069F",
"t]	c #25015E",
"u]	c #170144",
"v]	c #0F013D",
"w]	c #100242",
"x]	c #13024F",
"y]	c #1E026B",
"z]	c #27027E",
"A]	c #27027B",
"B]	c #270175",
"C]	c #2B0171",
"D]	c #1F0154",
"E]	c #130141",
"F]	c #150159",
"G]	c #13015A",
"H]	c #14015A",
"I]	c #1E0257",
"J]	c #1C0145",
"K]	c #100132",
"L]	c #090125",
"M]	c #02010F",
"N]	c #02010C",
"O]	c #030114",
"P]	c #060120",
"Q]	c #0B0232",
"R]	c #42057F",
"S]	c #4F0782",
"T]	c #380269",
"U]	c #230259",
"V]	c #18024E",
"W]	c #1E0151",
"X]	c #2E0275",
"Y]	c #2D027E",
"Z]	c #210270",
"`]	c #140250",
" ^	c #0D023D",
".^	c #0E0244",
"+^	c #14015B",
"@^	c #19016C",
"#^	c #190266",
"$^	c #280174",
"%^	c #44028C",
"&^	c #59049A",
"*^	c #6708A2",
"=^	c #6B09A5",
"-^	c #60089C",
";^	c #150147",
">^	c #11014A",
",^	c #130255",
"'^	c #1A026B",
")^	c #20027C",
"!^	c #280282",
"~^	c #2D0281",
"{^	c #230267",
"]^	c #180253",
"^^	c #1A0166",
"/^	c #1B0269",
"(^	c #2A0168",
"_^	c #180245",
":^	c #14014C",
"<^	c #16005F",
"[^	c #1C0174",
"}^	c #1D016E",
"|^	c #22015A",
"1^	c #1D0147",
"2^	c #090126",
"3^	c #040117",
"4^	c #02010D",
"5^	c #040116",
"6^	c #0A0129",
"7^	c #1A024B",
"8^	c #2A026B",
"9^	c #37037F",
"0^	c #400583",
"a^	c #3C0374",
"b^	c #26015D",
"c^	c #1B0153",
"d^	c #170244",
"e^	c #1E0250",
"f^	c #2D026F",
"g^	c #340287",
"h^	c #250279",
"i^	c #16025A",
"j^	c #0D023B",
"k^	c #0C023C",
"l^	c #0E0247",
"m^	c #13015F",
"n^	c #1B0176",
"o^	c #180167",
"p^	c #19015B",
"q^	c #21016D",
"r^	c #2E017D",
"s^	c #48028E",
"t^	c #560399",
"u^	c #680AA0",
"v^	c #6D0BA4",
"w^	c #640D9A",
"x^	c #11014B",
"y^	c #11014F",
"z^	c #1A0272",
"A^	c #240388",
"B^	c #28028C",
"C^	c #27027D",
"D^	c #240269",
"E^	c #1C026C",
"F^	c #1D026C",
"G^	c #26016C",
"H^	c #290166",
"I^	c #250257",
"J^	c #190165",
"K^	c #20017B",
"L^	c #270287",
"M^	c #250170",
"N^	c #250155",
"O^	c #180143",
"P^	c #14013C",
"Q^	c #090124",
"R^	c #030113",
"S^	c #05011C",
"T^	c #080124",
"U^	c #0E0131",
"V^	c #16014B",
"W^	c #240266",
"X^	c #2F027D",
"Y^	c #36027B",
"Z^	c #280264",
"`^	c #1C0157",
" /	c #1C0252",
"./	c #19024A",
"+/	c #220251",
"@/	c #30026B",
"#/	c #350282",
"$/	c #2D0283",
"%/	c #1F026F",
"&/	c #140254",
"*/	c #0F0245",
"=/	c #0E0245",
"-/	c #0E024B",
";/	c #100157",
">/	c #110158",
",/	c #12014F",
"'/	c #230173",
")/	c #2F0084",
"!/	c #4B0293",
"~/	c #5C069C",
"{/	c #710FA3",
"]/	c #6F169C",
"^/	c #5A1585",
"//	c #120152",
"(/	c #160160",
"_/	c #1A0273",
":/	c #23028E",
"</	c #2D039C",
"[/	c #2A0289",
"}/	c #200268",
"|/	c #140249",
"1/	c #140255",
"2/	c #1A0160",
"3/	c #220169",
"4/	c #2B0167",
"5/	c #2D015C",
"6/	c #23024B",
"7/	c #180144",
"8/	c #120145",
"9/	c #17015A",
"0/	c #20017A",
"a/	c #2B028F",
"b/	c #33028E",
"c/	c #320279",
"d/	c #250151",
"e/	c #15013A",
"f/	c #0B022A",
"g/	c #080122",
"h/	c #070122",
"i/	c #090128",
"j/	c #0D0133",
"k/	c #180150",
"l/	c #390387",
"m/	c #2A0272",
"n/	c #2A026F",
"o/	c #1E005B",
"p/	c #240160",
"q/	c #220259",
"r/	c #200251",
"s/	c #1C014B",
"t/	c #36026C",
"u/	c #410386",
"v/	c #3A038C",
"w/	c #190264",
"x/	c #130253",
"y/	c #0F0248",
"z/	c #0E0248",
"A/	c #0E014A",
"B/	c #0D0142",
"C/	c #420393",
"D/	c #5D099C",
"E/	c #7211A2",
"F/	c #7313A0",
"G/	c #611589",
"H/	c #37115B",
"I/	c #190162",
"J/	c #1F0276",
"K/	c #26028D",
"L/	c #2D049A",
"M/	c #2D0295",
"N/	c #29027C",
"O/	c #13024B",
"P/	c #1A015F",
"Q/	c #1B0160",
"R/	c #210164",
"S/	c #2D0161",
"T/	c #31015E",
"U/	c #200247",
"V/	c #110144",
"W/	c #1E016C",
"X/	c #2B028C",
"Y/	c #390399",
"Z/	c #3D028E",
"`/	c #31016F",
" (	c #1D0148",
".(	c #280159",
"+(	c #250254",
"@(	c #15013C",
"#(	c #11013F",
"$(	c #15014A",
"%(	c #190155",
"&(	c #23016B",
"*(	c #2D0275",
"=(	c #2E0271",
"-(	c #1F0156",
";(	c #29015D",
">(	c #2B0161",
",(	c #35026E",
"'(	c #400283",
")(	c #420392",
"!(	c #350287",
"~(	c #20026C",
"{(	c #16025B",
"](	c #0B0238",
"^(	c #0D0135",
"/(	c #120142",
"((	c #1F0163",
"_(	c #4B0696",
":(	c #630E9F",
"<(	c #6C109F",
"[(	c #5F0F8F",
"}(	c #420F69",
"|(	c #200B40",
"1(	c #200273",
"2(	c #29028D",
"3(	c #2F049C",
"4(	c #2D0296",
"5(	c #1A0253",
"6(	c #14024A",
"7(	c #100245",
"8(	c #120147",
"9(	c #1A0157",
"0(	c #24015C",
"a(	c #300164",
"b(	c #2B0158",
"c(	c #1A0242",
"d(	c #260176",
"e(	c #360299",
"f(	c #45049F",
"g(	c #45028A",
"h(	c #2E0164",
"i(	c #1D0144",
"j(	c #2E0160",
"k(	c #1C0155",
"l(	c #210169",
"m(	c #28016F",
"n(	c #24016A",
"o(	c #220165",
"p(	c #1F015A",
"q(	c #200155",
"r(	c #240254",
"s(	c #2B015B",
"t(	c #2E015E",
"u(	c #2C0163",
"v(	c #30016A",
"w(	c #47028F",
"x(	c #280274",
"y(	c #150254",
"z(	c #10024A",
"A(	c #0C023E",
"B(	c #08022F",
"C(	c #0C023A",
"D(	c #160245",
"E(	c #37028A",
"F(	c #460397",
"G(	c #4C0595",
"H(	c #4B078B",
"I(	c #3C0971",
"J(	c #2B0B53",
"K(	c #160731",
"L(	c #21017C",
"M(	c #2F0499",
"N(	c #3A06A1",
"O(	c #360392",
"P(	c #290275",
"Q(	c #20025B",
"R(	c #29015E",
"S(	c #310264",
"T(	c #10013B",
"U(	c #2E027D",
"V(	c #3E029B",
"W(	c #47039C",
"X(	c #450285",
"Y(	c #2C0164",
"Z(	c #1A014A",
"`(	c #200146",
" _	c #24014F",
"._	c #21024F",
"+_	c #20024E",
"@_	c #290264",
"#_	c #29026A",
"$_	c #240260",
"%_	c #1F0152",
"&_	c #250157",
"*_	c #2F0260",
"=_	c #330168",
"-_	c #35026F",
";_	c #3A0279",
">_	c #430289",
",_	c #450496",
"'_	c #290274",
")_	c #1C025B",
"!_	c #110249",
"~_	c #0E0240",
"{_	c #0C0237",
"]_	c #0B0230",
"^_	c #0C0230",
"/_	c #120233",
"(_	c #2E0177",
"__	c #39018B",
":_	c #420293",
"<_	c #3C0385",
"[_	c #33086D",
"}_	c #2F0D5C",
"|_	c #250D49",
"1_	c #0B041E",
"2_	c #300286",
"3_	c #3A059B",
"4_	c #4B0AA2",
"5_	c #4C0799",
"6_	c #2C026C",
"7_	c #1B024B",
"8_	c #0E023D",
"9_	c #180157",
"0_	c #280253",
"a_	c #1B023F",
"b_	c #110138",
"c_	c #3A0285",
"d_	c #3D0296",
"e_	c #490498",
"f_	c #4F048E",
"g_	c #3C0274",
"h_	c #220157",
"i_	c #21014C",
"j_	c #14013A",
"k_	c #190144",
"l_	c #180147",
"m_	c #200158",
"n_	c #22015B",
"o_	c #2D0170",
"p_	c #330175",
"q_	c #390175",
"r_	c #3C027C",
"s_	c #4D0589",
"t_	c #590796",
"u_	c #53059E",
"v_	c #4D059D",
"w_	c #37028C",
"x_	c #2A027D",
"y_	c #1D0263",
"z_	c #12024D",
"A_	c #0F0246",
"B_	c #0E0236",
"C_	c #0E022E",
"D_	c #0D0229",
"E_	c #140234",
"F_	c #24025D",
"G_	c #34017C",
"H_	c #42028E",
"I_	c #3B0876",
"J_	c #2F0C5B",
"K_	c #2B0F4E",
"L_	c #210E3D",
"M_	c #40039D",
"N_	c #3A039D",
"O_	c #4205A2",
"P_	c #4C07A2",
"Q_	c #45058E",
"R_	c #280262",
"S_	c #120241",
"T_	c #100249",
"U_	c #110250",
"V_	c #290167",
"W_	c #300163",
"X_	c #240246",
"Y_	c #160135",
"Z_	c #0E0137",
"`_	c #1C0158",
" :	c #2F0180",
".:	c #300189",
"+:	c #470395",
"@:	c #5F059C",
"#:	c #4A0386",
"$:	c #24015A",
"%:	c #2B015A",
"&:	c #240151",
"*:	c #130144",
"=:	c #17014D",
"-:	c #25016C",
";:	c #310180",
">:	c #3D018A",
",:	c #49028D",
"':	c #55048E",
"):	c #650A97",
"!:	c #610B9C",
"~:	c #5F0BA1",
"{:	c #48059E",
"]:	c #350291",
"^:	c #270283",
"/:	c #210274",
"(:	c #0F022C",
"_:	c #0F022B",
"::	c #140233",
"<:	c #17023A",
"[:	c #20024F",
"}:	c #30026E",
"|:	c #420189",
"1:	c #470985",
"2:	c #360C66",
"3:	c #2B0F4F",
"4:	c #260F45",
"5:	c #180A2F",
"6:	c #4F08A4",
"7:	c #4204A3",
"8:	c #3E03A0",
"9:	c #3D029A",
"0:	c #2F0276",
"a:	c #1A024F",
"b:	c #100247",
"c:	c #17025F",
"d:	c #0F0243",
"e:	c #310172",
"f:	c #30015C",
"g:	c #1F023C",
"h:	c #10013E",
"i:	c #12013E",
"j:	c #200160",
"k:	c #2F0184",
"l:	c #290181",
"m:	c #5C05A0",
"n:	c #4B0391",
"o:	c #310278",
"p:	c #2D016D",
"q:	c #37026C",
"r:	c #210156",
"s:	c #1F0158",
"t:	c #33027D",
"u:	c #340085",
"v:	c #510393",
"w:	c #61089A",
"x:	c #6B0B9F",
"y:	c #62099E",
"z:	c #4A079B",
"A:	c #45069D",
"B:	c #350397",
"C:	c #21027D",
"D:	c #11024E",
"E:	c #0D0236",
"F:	c #0E0230",
"G:	c #10022F",
"H:	c #130233",
"I:	c #130234",
"J:	c #370180",
"K:	c #46088A",
"L:	c #421576",
"M:	c #301356",
"N:	c #250F44",
"O:	c #1C0D36",
"P:	c #0D0722",
"Q:	c #4E08A6",
"R:	c #3C02A2",
"S:	c #340296",
"T:	c #1C025D",
"U:	c #12024C",
"V:	c #1A0369",
"W:	c #0C0138",
"X:	c #31016B",
"Y:	c #2F0256",
"Z:	c #200142",
"`:	c #13013D",
" <	c #14013F",
".<	c #210163",
"+<	c #39018E",
"@<	c #49029B",
"#<	c #4D0499",
"$<	c #48058E",
"%<	c #440384",
"&<	c #45017E",
"*<	c #3E0175",
"=<	c #32016C",
"-<	c #320172",
";<	c #310174",
"><	c #390279",
",<	c #480389",
"'<	c #530494",
")<	c #58059B",
"!<	c #5D089D",
"~<	c #600E9F",
"{<	c #42059E",
"]<	c #340399",
"^<	c #2F0393",
"/<	c #290288",
"(<	c #200279",
"_<	c #120250",
":<	c #0F022F",
"<<	c #140237",
"[<	c #3B0485",
"}<	c #490E8E",
"|<	c #4A1D7D",
"1<	c #422066",
"2<	c #291743",
"3<	c #180B31",
"4<	c #4004A2",
"5<	c #330299",
"6<	c #290185",
"7<	c #17025D",
"8<	c #190267",
"9<	c #1F0374",
"0<	c #11024A",
"a<	c #0B012E",
"b<	c #23015C",
"c<	c #3A016E",
"d<	c #300256",
"e<	c #10013F",
"f<	c #0D0131",
"g<	c #200260",
"h<	c #270280",
"i<	c #290184",
"j<	c #32018A",
"k<	c #4C0699",
"l<	c #5A0A9C",
"m<	c #610999",
"n<	c #6B0896",
"o<	c #60058E",
"p<	c #490287",
"q<	c #47028C",
"r<	c #4F0291",
"s<	c #570596",
"t<	c #5E079F",
"u<	c #6106A5",
"v<	c #4C029F",
"w<	c #440496",
"x<	c #3F0594",
"y<	c #290190",
"z<	c #2B028B",
"A<	c #180161",
"B<	c #110248",
"C<	c #0B022E",
"D<	c #0C022C",
"E<	c #0E022C",
"F<	c #100231",
"G<	c #17023C",
"H<	c #1A0247",
"I<	c #1C024F",
"J<	c #27026A",
"K<	c #3E0982",
"L<	c #491880",
"M<	c #3A1B5B",
"N<	c #281440",
"O<	c #1D0F2F",
"P<	c #100829",
"Q<	c #39088E",
"R<	c #31018E",
"S<	c #1C0167",
"T<	c #1C016B",
"U<	c #1D026E",
"V<	c #160250",
"W<	c #16013E",
"X<	c #290159",
"Y<	c #3A026C",
"Z<	c #2E0159",
"`<	c #0A0125",
" [	c #250280",
".[	c #260281",
"+[	c #28017E",
"@[	c #2C0189",
"#[	c #400399",
"$[	c #5408A1",
"%[	c #680DA0",
"&[	c #5F089D",
"*[	c #500498",
"=[	c #4C0398",
"-[	c #52059F",
";[	c #5807A2",
">[	c #5808A3",
",[	c #4D06A0",
"'[	c #3C0397",
")[	c #2F028C",
"![	c #23017D",
"~[	c #220175",
"{[	c #200169",
"][	c #0F022E",
"^[	c #25025E",
"/[	c #240167",
"([	c #340477",
"_[	c #410D7E",
":[	c #3A1569",
"<[	c #29134A",
"[[	c #1A0734",
"}[	c #11092B",
"|[	c #3D0782",
"1[	c #340186",
"2[	c #2A017A",
"3[	c #22026C",
"4[	c #220274",
"5[	c #1F0272",
"6[	c #1F0270",
"7[	c #20026B",
"8[	c #1B0254",
"9[	c #12023D",
"0[	c #2A025A",
"a[	c #310262",
"b[	c #260255",
"c[	c #170152",
"d[	c #0E0140",
"e[	c #0B012C",
"f[	c #17024F",
"g[	c #200176",
"h[	c #230185",
"i[	c #310196",
"j[	c #42039E",
"k[	c #45039C",
"l[	c #53089F",
"m[	c #5708A1",
"n[	c #4E059E",
"o[	c #49059F",
"p[	c #580CA4",
"q[	c #5208A1",
"r[	c #49079B",
"s[	c #400599",
"t[	c #360291",
"u[	c #2D0282",
"v[	c #250171",
"w[	c #190243",
"x[	c #190244",
"y[	c #17023E",
"z[	c #130238",
"A[	c #180249",
"B[	c #1B024F",
"C[	c #340273",
"D[	c #410281",
"E[	c #42038A",
"F[	c #420587",
"G[	c #551390",
"H[	c #47157D",
"I[	c #341959",
"J[	c #251442",
"K[	c #120929",
"L[	c #2B0954",
"M[	c #14082F",
"N[	c #08051B",
"O[	c #41037F",
"P[	c #360183",
"Q[	c #2E0175",
"R[	c #210268",
"S[	c #24017A",
"T[	c #1F0175",
"U[	c #200258",
"V[	c #1F024A",
"W[	c #310164",
"X[	c #2E025D",
"Y[	c #20024C",
"Z[	c #140243",
"`[	c #0E0136",
" }	c #0A022E",
".}	c #160251",
"+}	c #1C0269",
"@}	c #1C0270",
"#}	c #28027E",
"$}	c #30028D",
"%}	c #310191",
"&}	c #310290",
"*}	c #32028C",
"=}	c #420591",
"-}	c #4D0697",
";}	c #48058F",
">}	c #45048D",
",}	c #48058C",
"'}	c #410488",
")}	c #2C0272",
"!}	c #2A016D",
"~}	c #2F016F",
"{}	c #290162",
"]}	c #1F0153",
"^}	c #1A024E",
"/}	c #1D024E",
"(}	c #180247",
"_}	c #170247",
":}	c #19024C",
"<}	c #2E026F",
"[}	c #46058A",
"}}	c #5C0E9C",
"|}	c #62119F",
"1}	c #5F1998",
"2}	c #591E87",
"3}	c #391861",
"4}	c #291546",
"5}	c #1B0E33",
"6}	c #0B051F",
"7}	c #110521",
"8}	c #3D0E73",
"9}	c #1C0B3C",
"0}	c #48058B",
"a}	c #3B018D",
"b}	c #370185",
"c}	c #2C0177",
"d}	c #250179",
"e}	c #29025F",
"f}	c #29015F",
"g}	c #29025A",
"h}	c #200249",
"i}	c #0F0131",
"j}	c #0A0228",
"k}	c #190254",
"l}	c #1A0267",
"m}	c #3A0290",
"n}	c #300185",
"o}	c #260177",
"p}	c #290279",
"q}	c #34027D",
"r}	c #320275",
"s}	c #2B0169",
"t}	c #2D0269",
"u}	c #2A0263",
"v}	c #1D0246",
"w}	c #230250",
"x}	c #2C015B",
"y}	c #2A0158",
"z}	c #1B0252",
"A}	c #1A0156",
"B}	c #1B0248",
"C}	c #1E0247",
"D}	c #1B0245",
"E}	c #170147",
"F}	c #270169",
"G}	c #4E0892",
"H}	c #6A1B9F",
"I}	c #6A1C9E",
"J}	c #541A86",
"K}	c #411B67",
"L}	c #2A1649",
"M}	c #1E0F35",
"N}	c #3D125C",
"O}	c #3A0B72",
"P}	c #050517",
"Q}	c #5A089D",
"R}	c #52039F",
"S}	c #3B018F",
"T}	c #2D017D",
"U}	c #2B027D",
"V}	c #470385",
"W}	c #37026A",
"X}	c #150145",
"Y}	c #17014C",
"Z}	c #240253",
"`}	c #1F0247",
" |	c #0D022C",
".|	c #0B022B",
"+|	c #17024A",
"@|	c #1B0264",
"#|	c #220270",
"$|	c #1D015D",
"%|	c #190156",
"&|	c #1D015F",
"*|	c #20025E",
"=|	c #25025B",
"-|	c #27025A",
";|	c #19023E",
">|	c #1D0243",
",|	c #20024A",
"'|	c #1E0245",
")|	c #15023E",
"!|	c #120234",
"~|	c #13022E",
"{|	c #170233",
"]|	c #180238",
"^|	c #1A0241",
"/|	c #1D024F",
"(|	c #1D0254",
"_|	c #1C0254",
":|	c #1A0158",
"<|	c #32027A",
"[|	c #570B9D",
"}|	c #662096",
"||	c #551D7D",
"1|	c #3D1A60",
"2|	c #2B1649",
"3|	c #201139",
"4|	c #130A29",
"5|	c #09051C",
"6|	c #501274",
"7|	c #371268",
"8|	c #1C1037",
"9|	c #640CA3",
"0|	c #6B0BA6",
"a|	c #470298",
"b|	c #390287",
"c|	c #31027D",
"d|	c #310186",
"e|	c #530596",
"f|	c #5A0690",
"g|	c #3E0370",
"h|	c #17014E",
"i|	c #1E0256",
"j|	c #1D0247",
"k|	c #0C0132",
"l|	c #130245",
"m|	c #1E0260",
"n|	c #1C0262",
"o|	c #18025B",
"p|	c #28017B",
"q|	c #110141",
"r|	c #1D0252",
"s|	c #290254",
"t|	c #1C0242",
"u|	c #180239",
"v|	c #170236",
"w|	c #150234",
"x|	c #150237",
"y|	c #0D012B",
"z|	c #0D0128",
"A|	c #12022F",
"B|	c #260259",
"C|	c #2E0170",
"D|	c #3B067D",
"E|	c #420A88",
"F|	c #581196",
"G|	c #61109E",
"H|	c #581D7E",
"I|	c #281341",
"J|	c #22103F",
"K|	c #1E0F32",
"L|	c #190E2E",
"M|	c #65258A",
"N|	c #301B5A",
"O|	c #0B0727",
"P|	c #600AA4",
"Q|	c #7211A6",
"R|	c #6705A5",
"S|	c #510295",
"T|	c #24016B",
"U|	c #500787",
"V|	c #5C088E",
"W|	c #39026D",
"X|	c #210257",
"Y|	c #19023D",
"Z|	c #120231",
"`|	c #0A0230",
" 1	c #160257",
".1	c #1F026B",
"+1	c #220174",
"@1	c #1F0258",
"#1	c #10023E",
"$1	c #140242",
"%1	c #150139",
"&1	c #0D0129",
"*1	c #0D0227",
"=1	c #0C0226",
"-1	c #0B0226",
";1	c #080120",
">1	c #0B0127",
",1	c #0E0129",
"'1	c #230254",
")1	c #41027D",
"!1	c #500393",
"~1	c #520498",
"{1	c #63159D",
"]1	c #7320A3",
"^1	c #6D1CA4",
"/1	c #5B1292",
"(1	c #3D0F62",
"_1	c #170A2E",
":1	c #160B2D",
"<1	c #160C27",
"[1	c #110726",
"}1	c #0D0723",
"|1	c #532E8E",
"11	c #170B48",
"21	c #100831",
"31	c #610DA5",
"41	c #7012A6",
"51	c #7C14A3",
"61	c #550592",
"71	c #280170",
"81	c #28025B",
"91	c #420474",
"01	c #25015C",
"a1	c #25025A",
"b1	c #0C0236",
"c1	c #0C0238",
"d1	c #120249",
"e1	c #140252",
"f1	c #1B025A",
"g1	c #130244",
"h1	c #0B0130",
"i1	c #080128",
"j1	c #0B0129",
"k1	c #0A0227",
"l1	c #080220",
"m1	c #06011D",
"n1	c #0B0227",
"o1	c #28025F",
"p1	c #430283",
"q1	c #4C0291",
"r1	c #5B07A0",
"s1	c #6D16A7",
"t1	c #6A17A6",
"u1	c #5B149D",
"v1	c #49137E",
"w1	c #290E4D",
"x1	c #10091F",
"y1	c #1A0C2E",
"z1	c #1C0A35",
"A1	c #1B0937",
"B1	c #0E0824",
"C1	c #2E0E56",
"D1	c #351774",
"E1	c #1B0C51",
"F1	c #120B38",
"G1	c #09071D",
"H1	c #7620A6",
"I1	c #8425A4",
"J1	c #851EA4",
"K1	c #5B0792",
"L1	c #26025C",
"M1	c #18024D",
"N1	c #150246",
"O1	c #1F024F",
"P1	c #2E0166",
"Q1	c #33016C",
"R1	c #290154",
"S1	c #200241",
"T1	c #0D0233",
"U1	c #0A0130",
"V1	c #100248",
"W1	c #0F0247",
"X1	c #14025A",
"Y1	c #180164",
"Z1	c #1D0250",
"`1	c #190246",
" 2	c #110236",
".2	c #090122",
"+2	c #110233",
"@2	c #180241",
"#2	c #1D024D",
"$2	c #250162",
"%2	c #57089F",
"&2	c #630DA7",
"*2	c #540C9F",
"=2	c #46158C",
"-2	c #391964",
";2	c #1A0D37",
">2	c #140623",
",2	c #3C1560",
"'2	c #340E5F",
")2	c #1E093E",
"!2	c #310C62",
"~2	c #341765",
"{2	c #1C0E51",
"]2	c #120B3A",
"^2	c #0A0720",
"/2	c #8C2AA6",
"(2	c #9533A6",
"_2	c #7419A2",
":2	c #460384",
"<2	c #26025F",
"[2	c #25015B",
"}2	c #1C0152",
"|2	c #200163",
"12	c #180257",
"22	c #2D016B",
"32	c #330172",
"42	c #2D015D",
"52	c #210245",
"62	c #0A022F",
"72	c #0D0235",
"82	c #0D023E",
"92	c #0F024A",
"02	c #150256",
"a2	c #180255",
"b2	c #1F025B",
"c2	c #200259",
"d2	c #1C024B",
"e2	c #08011D",
"f2	c #0A0222",
"g2	c #0B0223",
"h2	c #1F024C",
"i2	c #230159",
"j2	c #31027C",
"k2	c #460496",
"l2	c #5609A1",
"m2	c #46158E",
"n2	c #3F1E70",
"o2	c #30194B",
"p2	c #0F0828",
"q2	c #0B071C",
"r2	c #1C0828",
"s2	c #4D1761",
"t2	c #5F248D",
"u2	c #3C0E71",
"v2	c #1C0A3B",
"w2	c #09051D",
"x2	c #40136E",
"y2	c #351660",
"z2	c #200F5A",
"A2	c #110938",
"B2	c #0C0824",
"C2	c #801DA5",
"D2	c #7A19A6",
"E2	c #550795",
"F2	c #290070",
"G2	c #340286",
"H2	c #310195",
"I2	c #290277",
"J2	c #250165",
"K2	c #31026A",
"L2	c #21024A",
"M2	c #150235",
"N2	c #0A0231",
"O2	c #09022E",
"P2	c #09022F",
"Q2	c #130251",
"R2	c #150258",
"S2	c #1A025F",
"T2	c #20026A",
"U2	c #110237",
"V2	c #19023A",
"W2	c #250250",
"X2	c #31026D",
"Y2	c #2E0172",
"Z2	c #3F038B",
"`2	c #40038E",
" 3	c #3C0291",
".3	c #45049B",
"+3	c #520C9F",
"@3	c #4C168E",
"#3	c #3F1C6E",
"$3	c #31194F",
"%3	c #1E0F37",
"&3	c #190631",
"*3	c #500F6B",
"=3	c #742095",
"-3	c #621F92",
";3	c #340B67",
">3	c #090423",
",3	c #491674",
"'3	c #34155B",
")3	c #1D0E53",
"!3	c #0F083A",
"~3	c #0E0829",
"{3	c #59098C",
"]3	c #62099D",
"^3	c #4F058A",
"/3	c #1C0255",
"(3	c #2F027C",
"_3	c #3F029A",
":3	c #4D06A7",
"<3	c #45069A",
"[3	c #2C027B",
"}3	c #2B016E",
"|3	c #31016D",
"13	c #230251",
"23	c #1B0241",
"33	c #09022A",
"43	c #070128",
"53	c #050121",
"63	c #060122",
"73	c #08022C",
"83	c #150253",
"93	c #170257",
"03	c #160254",
"a3	c #1A025D",
"b3	c #1D0163",
"c3	c #1B025C",
"d3	c #120239",
"e3	c #20024B",
"f3	c #340371",
"g3	c #42048E",
"h3	c #450495",
"i3	c #400588",
"j3	c #3D088A",
"k3	c #4A148B",
"l3	c #44206C",
"m3	c #311A4E",
"n3	c #1F1036",
"o3	c #120525",
"p3	c #310361",
"q3	c #630990",
"r3	c #731A9E",
"s3	c #531780",
"t3	c #2B1055",
"u3	c #130A2D",
"v3	c #110435",
"w3	c #451472",
"x3	c #36155B",
"y3	c #190C48",
"z3	c #0E0737",
"A3	c #0F0830",
"B3	c #0E0731",
"C3	c #0E063A",
"D3	c #2C0D61",
"E3	c #2E0F5C",
"F3	c #280856",
"G3	c #3B0290",
"H3	c #46049D",
"I3	c #560AA5",
"J3	c #4F09A4",
"K3	c #350296",
"L3	c #23026E",
"M3	c #220261",
"N3	c #290168",
"O3	c #1F0246",
"P3	c #1D0241",
"Q3	c #05011E",
"R3	c #05021E",
"S3	c #080222",
"T3	c #120242",
"U3	c #16024C",
"V3	c #150250",
"W3	c #130248",
"X3	c #1F0252",
"Y3	c #27025E",
"Z3	c #300274",
"`3	c #3C028A",
" 4	c #420294",
".4	c #410292",
"+4	c #3A0288",
"@4	c #35027D",
"#4	c #38047B",
"$4	c #330974",
"%4	c #401377",
"&4	c #401B64",
"*4	c #311A47",
"=4	c #180D31",
"-4	c #100925",
";4	c #0A061A",
">4	c #3C0566",
",4	c #460185",
"'4	c #64119A",
")4	c #682896",
"!4	c #421E69",
"~4	c #1B0F3B",
"{4	c #0C0820",
"]4	c #26035C",
"^4	c #40146C",
"/4	c #341457",
"(4	c #1D0D4C",
"_4	c #0F073A",
":4	c #0F0831",
"<4	c #0E0634",
"[4	c #0B0535",
"}4	c #200E4E",
"|4	c #3C1C66",
"14	c #3A185D",
"24	c #39087B",
"34	c #590A9D",
"44	c #5D0B9D",
"54	c #4C039F",
"64	c #4805A3",
"74	c #4605A5",
"84	c #37029F",
"94	c #2D0189",
"04	c #260174",
"a4	c #1D0249",
"b4	c #070121",
"c4	c #070222",
"d4	c #090225",
"e4	c #0B0228",
"f4	c #0B0229",
"g4	c #0C012D",
"h4	c #0F0233",
"i4	c #10023C",
"j4	c #110243",
"k4	c #1B0154",
"l4	c #280167",
"m4	c #330284",
"n4	c #3D0293",
"o4	c #440294",
"p4	c #400288",
"q4	c #3F0382",
"r4	c #4E0C8C",
"s4	c #521784",
"t4	c #441A69",
"u4	c #34194B",
"v4	c #1F0F35",
"w4	c #100632",
"x4	c #260559",
"y4	c #49048D",
"z4	c #410780",
"A4	c #571B8E",
"B4	c #4A2783",
"C4	c #170B47",
"D4	c #0F082E",
"E4	c #570397",
"F4	c #3E1366",
"G4	c #3A195D",
"H4	c #200E54",
"I4	c #0E0637",
"J4	c #0E0732",
"K4	c #0B0629",
"L4	c #0F082C",
"M4	c #311C4F",
"N4	c #542F74",
"O4	c #51207C",
"P4	c #5705A2",
"Q4	c #5F08A6",
"R4	c #8718A7",
"S4	c #5F0899",
"T4	c #390293",
"U4	c #31028C",
"V4	c #30018C",
"W4	c #2B017E",
"X4	c #22016B",
"Y4	c #1C024C",
"Z4	c #0A022A",
"`4	c #090228",
" 5	c #0C022A",
".5	c #0D022A",
"+5	c #0A0224",
"@5	c #110242",
"#5	c #15014F",
"$5	c #1E015C",
"%5	c #5C029D",
"&5	c #4F0492",
"*5	c #5F1796",
"=5	c #5D1795",
"-5	c #4F1C77",
";5	c #381854",
">5	c #24103B",
",5	c #130929",
"'5	c #16052E",
")5	c #2D0468",
"!5	c #2C0277",
"~5	c #2C0174",
"{5	c #390975",
"]5	c #3F1579",
"^5	c #2E1467",
"/5	c #180C4A",
"(5	c #0F0930",
"_5	c #2C0652",
":5	c #580597",
"<5	c #4E207A",
"[5	c #311C53",
"}5	c #0E082B",
"|5	c #0E072B",
"15	c #0C0629",
"25	c #0F0829",
"35	c #241542",
"45	c #372054",
"55	c #511F77",
"65	c #6E17A8",
"75	c #5C0AA3",
"85	c #922BA5",
"95	c #7D11A5",
"05	c #3E0083",
"a5	c #200254",
"b5	c #28015E",
"c5	c #1B0157",
"d5	c #23025E",
"e5	c #21015B",
"f5	c #100237",
"g5	c #0E0130",
"h5	c #0F0230",
"i5	c #15024A",
"j5	c #1B015C",
"k5	c #240165",
"l5	c #320175",
"m5	c #3E0185",
"n5	c #42018D",
"o5	c #41018A",
"p5	c #3D0180",
"q5	c #470186",
"r5	c #52028D",
"s5	c #580395",
"t5	c #5B1296",
"u5	c #7729A1",
"v5	c #5A2085",
"w5	c #3A185B",
"x5	c #200F39",
"y5	c #110826",
"z5	c #4F086F",
"A5	c #2F0176",
"B5	c #3A0F6D",
"C5	c #3A156B",
"D5	c #28115A",
"E5	c #170C44",
"F5	c #0E082D",
"G5	c #3F066D",
"H5	c #3C0E74",
"I5	c #3E1C64",
"J5	c #1E1140",
"K5	c #0E0828",
"L5	c #0A071C",
"M5	c #291842",
"N5	c #24143E",
"O5	c #5A2B71",
"P5	c #8E34AA",
"Q5	c #8B2CA5",
"R5	c #9937A6",
"S5	c #2B0075",
"T5	c #3C0297",
"U5	c #460697",
"V5	c #2A0279",
"W5	c #100232",
"X5	c #160246",
"Y5	c #1B0159",
"Z5	c #260164",
"`5	c #3C0278",
" 6	c #560490",
".6	c #5F049B",
"+6	c #63049F",
"@6	c #61029D",
"#6	c #5A0294",
"$6	c #5A0291",
"%6	c #5D0496",
"&6	c #600C9A",
"*6	c #631A99",
"=6	c #5F218D",
"-6	c #461A6D",
";6	c #240F41",
">6	c #13092A",
",6	c #12052B",
"'6	c #3A055D",
")6	c #730B9E",
"!6	c #451473",
"~6	c #371661",
"{6	c #23105A",
"]6	c #140A3F",
"^6	c #0D0828",
"/6	c #38027B",
"(6	c #3A0B71",
"_6	c #2C174B",
":6	c #231542",
"<6	c #0E0827",
"[6	c #0A081C",
"}6	c #0A081D",
"|6	c #080619",
"16	c #23173D",
"26	c #23173A",
"36	c #55286E",
"46	c #8822AA",
"56	c #8D25A6",
"66	c #801CA7",
"76	c #550696",
"86	c #27006D",
"96	c #20025C",
"06	c #3C0198",
"a6	c #5308A4",
"b6	c #5B0EA6",
"c6	c #3C02A6",
"d6	c #310296",
"e6	c #130142",
"f6	c #1A0152",
"g6	c #2F016C",
"h6	c #5C058F",
"i6	c #740CA1",
"j6	c #760DA6",
"k6	c #790EA6",
"l6	c #63029C",
"m6	c #68059D",
"n6	c #7719A2",
"o6	c #6F1D9E",
"p6	c #5F1D91",
"q6	c #4A1877",
"r6	c #2E0F51",
"s6	c #180931",
"t6	c #0F0629",
"u6	c #1D0447",
"v6	c #48037D",
"w6	c #69089D",
"x6	c #240166",
"y6	c #290756",
"z6	c #43156E",
"A6	c #31145A",
"B6	c #1B0D4F",
"C6	c #0F0838",
"D6	c #120834",
"E6	c #480197",
"F6	c #3D0B71",
"G6	c #271742",
"H6	c #221642",
"I6	c #0E0923",
"J6	c #09071C",
"K6	c #1F1532",
"L6	c #501E69",
"M6	c #8010AA",
"N6	c #6A0AA2",
"O6	c #690AA6",
"P6	c #5E089A",
"Q6	c #260165",
"R6	c #19014B",
"S6	c #190151",
"T6	c #3A028C",
"U6	c #430299",
"V6	c #4403A0",
"W6	c #4805A4",
"X6	c #4004A5",
"Y6	c #31019C",
"Z6	c #32018E",
"`6	c #29017B",
" 7	c #1F0262",
".7	c #1D0150",
"+7	c #17014B",
"@7	c #220160",
"#7	c #39027A",
"$7	c #5B0598",
"%7	c #6C0BA4",
"&7	c #6E0FA4",
"*7	c #7311A6",
"=7	c #6605A2",
"-7	c #570296",
";7	c #6B0A9E",
">7	c #8323A5",
",7	c #6F249C",
"'7	c #511983",
")7	c #350F60",
"!7	c #1B093A",
"~7	c #0E0723",
"{7	c #160446",
"]7	c #4B0383",
"^7	c #67089E",
"/7	c #550590",
"(7	c #360278",
"_7	c #370C6B",
":7	c #3C1465",
"<7	c #2C1153",
"[7	c #160A42",
"}7	c #0F0834",
"|7	c #180649",
"17	c #5301A0",
"27	c #450C73",
"37	c #1C1235",
"47	c #221440",
"57	c #0D0820",
"67	c #090719",
"  . + @ # $ % & * * = - ; > , ' ) ! ~ { ] ^ / ( _ : < [ } | 1 2 3 4 5 6 7 8 9 0 a b c d e f g h i j k l m n o p q = r s t u v w ",
"x x @ u r y z A B C = D E F G H I J K L & M N O P Q R S T U V W X Y Z `  ...+.@.#.$.%.&.*.=.-.;.>.,.'.).!.~.{.].^./.(._.:.<.[.v ",
"}.|.1.2.3.4.5.6.5.7.:.8.9.0.a.b.c.d.e.e.f.g.h.i.j.k.l.m.n.o.p.q.r.s.t.u.v.w.x.y.z.A.B.C.D.E.F.G.H.I.J.K.L.M.N.O.P.Q.R.{ S.T.U.V.",
"W.X.S.r Y.6.Z.T.`. +X..+++@+#+$+%+{ &+*+=+-+;+>+,+'+)+!+~+{+]+^+/+(+_+:+<+[+}+|+1+2+3+4+5+6+7+8+9+0+a+b+c+d+e+f+g+h+i+j+{ S.W.k+",
"6.&+S.l+(.m+n+o+3.p+q+r+s+t+u+v+3.w+x+y+z+A+B+C+D+E+F+G+H+I+J+K+L+M+N+O+P+Q+R+S+T+U+V+W+X+Y+Z+`+ @.@+@@@#@$@%@&@*@=@-@;@4.(.>@2.",
":.,@'@r )@!@~@{@]@^@/@(@_@:@<@;@`.[@}@|@1@2@3@4@5@6@7@8@ .9@0@a@b@c@d@e@f@g@h@i@j@k@l@m@n@o@p@q@r@s@t@u@v@w@x@y@z@A@B@)@{ S.`.:.",
":.2.B C@q D@$ E@F@q ( G@H@I@/ J@K@L@M@N@O@P@Q@R@S@T@U@V@W@X@Y@Z@`@ #.#+#@###$#%#&#*#=#-#;#>#,#'#)#!#~#{#]#^#/#(#_#`+/ & :#& `.&+",
">@* * q <#[#C :#}#|#|.1#2#3#4#5#6#7#8#9#0#a#b#c#d#e#f#g#h#i#j#k#l#m#n#o#p#q#r#o#i#s#t#O+u#v#w#x#y#z#A#B#C#D#E#F#G#G#!.H#I#J#p 3.",
"`.B m & v K#^ L#q 1.M#N#O#P#Q#R#S#T#U#V#W#X#Y#Z#`# $.$+$@$#$$$%$&$*$=$h@-$;$>$,$'$)$!$~${$]$^$/$z#($_$:$<$[$}$|$1$2$3$4$5$6$7$1.",
"* 8$9$0$a$7.b$C@c$d$J@e$f$g$h$i$j$k$l$m$n$o$p$q$r$s$t$u$v$w$x$y$z$*$A$B$C$D$E$F$G$H$I$J$K$L$M$N$O$P$Q$R$S$T$U$V$W$X$Y$Z$`$ %{..%",
"i++%@%#%$%p+%%3.&%*%9$=%-%;%>%,%'%)%!%~%{%]%^%/%(%_%:%<%[%}%|%1%2%3%1%4%|%i@5%6%7%8%9%0%a%b%c%d%e%f%g%h%i%j%k%l%m%n%o%p%q%r%s%t%",
"u%v%C@w%7.x%^ = / E@y%z%A%B%C%D%E%F%G%H%7 I%J%K%L%M%N%O%O%P%Q%R%S%T%U%V%W%X%Y%Z%`% &.&T@+&@&#&$&%&&&*&=&-&;&>&,&'&)&!&~&{&]&^&/&",
"[#(&R._&I@L 9$s (&:&<&[&}&|&1&2&3&4&5&6&7&8&9&0&a&1%b&Q%c&d&e&f&g&h&i&j&k&l&m&n&o&p&q&r&s&t&u&v&w&x&y&z&A&B&C&D&E&F&G&H&I&J&K&L&",
"$ J#F@e.M&q c$M N&O&P&Q&R&S&T&U&V&W&X&Y&Z&`& *.*+*@*#*$*%*&***=*-*;*>*,*'*)*b&!*W%~*{*]*^*/*(*{._*:*<*[*}*|*1*2*3*4*5*6*7*8*9*0*",
"$ C a*_.q D }.b*c*d*e*f*g*h*i*j*k*l*m*n*o*p*q*r*s*t*u*v*e&w*x*y*z*A*B*C*D*E*F*G*H*I*J*K*L*M*N*O*P*Q*R*S*T*U*V*W*X*Y*Z*`* =.=+=@=",
"#=M&a*- k /&$=%=&=*===-=;=>=,='=)=!=~={=]=^=/=(=_=:=<=[=|%}=|=1=2=3=4=5=6=7=8=9=0=a=b=c=d=e=f=g=h=i=t@j=k=l=m=n=o=p=q=r=s=t=u=v=",
"/ w=C@/ x=y=z=A=B=C=D=E=F=G=H=I=J=K=L=M=N=O=P=Q=<=R=S=T=U=V=W=X=Y=Z=`= -.-+-@-#-$-%-&-*-=---;->-,-6+'-)-!-~-{-]-^-/-(-_-:-<-[-}-",
"_.|-& 1-2-3-4-5-6-7-8- .9-0-a-b-W@c-d-e-f-g-h-i-j-k-l-V=m-n-o-p-q-r-s-t-u-v-4@w-x-y-z-A-B-C-D-E-F-G-H-I-J-K-L-M-N-O-P-Q-R-. S-T-",
"w+w%U-V-W-X-Y-Z-`- ;.;+;@;#;$;A-%;&;*;=;-;;;>;,;';);!;N=~;{;];^;=*/;(;_;:;<;[;};|;1;2;3;4;*;}=5;6;7;8;9;0;7 a;b;c;d;e;f;g;h;i;j;",
"k;b$l;m;n;o;p;q;r;s;t;u;v;w;x;y;z;A;B;Y@Z@C;D;E;F;G;H;,=I;J;t;K;L;M;.$N;O;P;Q;R;S;T;U;V;W;X;Y;Z;)$`; >.>+>@>#>$>%>&>*>=>->;>>>,>",
"C@'>)>!>~>{>]>^>/>(>_>:><>[>}>|>1>2>3>4>}>5>6>7>8>9>0>a>b>c>d>e>f>g>h>i>j>k>l>m>n>o>'=p>q>r>l&#*s>t>u>v>w>x>y>z>A>B>C>D>E>F>G>H>",
"L I>J>K>L>M>N>O>P>Q>R>S>T>U>V>W>Y@X>o#Y>Z>y.`> ,.,+,@,#,$,%,&,*,=,-,;,>,,,',),!,~,{,],^,/,(,_,:,X><,[,},|,9>9>z>1,2,3,4,5,6,7,8,",
"^ 9,0,a,b,c,d,e,f,g,h,i,j,k,l,m,D-n,`;u;o,p,q,r,s,t,u,v,w,x,y,z,A,B,C,d#D,E,F,G,H,I,J,K,L,M,N,O,P,=$Q,R,S,T,U,V,W,X,Y,Z,`, '.'+'",
"q @'#'$'%'&'*'='v;-';'6%>'*#,'''P=)'},!'~'{']'^'/'('_':'<'['}'|'1'2'3'4'I;5'6'7'8'9'0'a'b'c'd'e'f'g'Q,h'i'j'k'l'm'n'o'p'q'_+r's'",
"t'u'v'w'x'y'z'A'g@B'k#C'D'0&E'F'G'H'I'J'K'L'M'M'N'O'P'Q'R'S'T'U'V'W'X'Y'Z'`' ).)+)@)#)$)%)&)*)=)-)s*;)>),)')))!)~){)r,])/%^)k#}=",
"/)()_):)<)[)})|)e'1)Q=|+2)6%3)4)5)6)7)8)9)0)a)b)c)d)e)f)g)h)6&i)j)k)l)9&_;m)n)o)p)q)r)s)t)u)v)w)x)y)%$4)z)A)B)C)D)E)F)G)H)I)J))$",
"K)L)M)j)N)L+O)1%3%P)Q)R)S)T)U)V)W)X)Y)Z);,`) !.!+!@!#!$!%!K;&!*!g>=!-!K%E';!>!,!'!)!!!~!{!a=p*i#]!^!/!(!_!,)},:!<![!}!|!1!2!3!4!",
"5!L*6!%;5>7!8!9!0!a!)$b!=*c!d!e!f!g!h!i!j!k!l!m!n!o!p!q!r!s!t!`&u!^=v!w!x!y!z!A!B!I=C!D!E!F!V=1)G!H!I!J!K!L!M!N!O!P!Q!R!S!!=T!U!",
"V!5'W@N+W!X!Y!;;Z!`! ~.~+~@~#~$~%~&~*~w'=~-~;~>~,~'~)~@#!~~~{~_%]~^~/~(~_~:~<~[~}~|~1~2~3~h-4~5~6~7~8~9~0~a~M)b~c~d~e~f~g~h~i~j~",
"k~W@l~m~n~W!o~#*}=p~q~{;r~s~t~u~v~w~x~j!y~z~A~B~C~D~F;E~F~G~H~I~J~K~:%p~L~M~N~O~P~Q~R~S~T~=$U~:%V~W~X~Y~Z~O;`~ {k@.{+{@{#{${%{&{",
"*{={f@-{;{-{>{1%p~,{'{){s~!{~{{{e#]{^{/{({_{:{Z>^+]~<{[{}{|{1{L~2{*$E~G!3{4{m*5{6{7{8{9{0{3{:%H!a{b{c{d{e{f{g{a~h{i{j{k{l{m{n{o{",
"v;p{q{r{s{|%t{u{v{w{x{A*!{y{z{A{m{B{v.C{D{E{F{G{H{I{c!J{m#K{L{M{N{y).*O{P{s><+Q{R{S{T{U{V{W{X{Y{Z{`{ ].]+]Q,^;h'/+5{@]#]$]%]&]*]",
"S)Q)=]n&-]u{;]>],]#~'])]!]~]{] $]]u;^]/](]_]:]<][]}]z'Z!,;M{|]1]2]3]4]P{5]6]7]8]9]0]a]b]V{h&c]d]e]f]g]h]i]j]k]l]m]n]o]p]a>q]r]s]",
"t]u]1)v]w]x]l]y]z]A]z!=*!]{{()B]C]D]E]3)[,F]G]H]I]O+J]K]L]|]M]N]O]P]S=Q]w*S>{*R]S]T]U]V]h&o&W]X]Y]Z]`] ^.^+^@^#^m]$^y-%^&^*^=^-^",
"_>;^%$>^,^'^)^!^~^{^]^^^u~/^S,*-(^_^E]:^+^<^[^}^|^1^Z;F$2^3^4^N]5^P]6^Z%7^8^9^0^a^b^c^D-d^e^f^g^h^i^j^k^l^m^n^o^p^q^r^s^t^u^v^w^",
"R,x^y^G]z^A^B^C^D^F'I!E^F^~;G^H^I^a!h#>)J^K^L^M^N^7!O^P^Q^|]R^5^S^T^U^V^W^X^1!Y^Z^`^ /./+/@/#/$/%/&/*/=/-/;/>/,/t>'/)/!/~/{/]/^/",
"o*//(/_/:/</[/}/j@|/1//^2/3/4/5/6/7/8/9/0/a/b/c/d/e/+#q{f/g/h/h/i/j/k/K%l/m/n/o/p/q/r/s/t/u/v/s&w/x/y/=/z/A/B/.*J{T,C/D/E/F/G/H/",
"h'I/J/K/L/M/N/@&{=O/Q,P/Q/R/S/T/U/u*V/W/X/Y/Z/`/ (@#.(+(@(%#1)#($(%(&(*(=()*-(;(>(h,f@,('()(!(~({(n-i]k^k^](^(/(((t._(:(<([(}(|(",
"=#1(2(3(4(@~>!5(6(7(8(]=9(0(a(b(c(n#[]d(e(f(g(h(n#i(j(M,H*l,k(l(m(n(o(p(q(r(s(t(u(v(9@w(9>!(x(y(z(A(B(C(4]O%Z%D(m(E(F(G(H(I(J(K(",
"((L(M(N(O(P(Q(x*w]x$V/x!D'R(S(0@Y@T(_{U(V(W(X(Y(Z(`( _._+_j&@_#_a-$_f@%_&_*_=_-_;_>_-~,_n{'_)_!_~_{_]_^_s{/_B;V{(___:_<_[_}_|_1_",
"2_X/3_4_5_6_7_8_h]h]/!9_g-R(0_a_b_^(F;c_d_e_f_g_h_i_`(j_k_q{q{l_k&m_n_o_p_q_r_s_t_u_v_w_x_y_z_A_.*B_C_D_P,E_Y@F_G_H_I%I_J_K_L_]@",
"M_N_O_P_Q_R_S_T_U_y/8(=#V_W_X_Y_Z_^(`_ :.:+:@:#:'~$:%:&:Q)>'*:=:Y&-:;:>:,:':):!:~:{:]:^:/:Z~A_V=B_>;(:_:::<:[:}:|:3,1:2:3:4:5:- ",
"6:7:8:9:0:a:b:w/c:d:/(&-e:f:g:,$h:i:j:k:l:=~m:n:o:p:q:S(r:s:{==#f>t:u:v:w:x:y:z:A:B:2(C:/^D:j^E:F:G:H:I:B;[>V_J:~+K:L:M:N:O:P:r ",
"Q:R:S:E,T:U:{(V:1/W:h:9=X:Y:Z:`:/~ <.<Y)l:+<@<#<$<%<&<*<=<-<;<><,<'<)<!<~<D={<]<^</<(<#^_<j^]_-):<<<Y@o&7^s:9&[<}<|<1<2<3<P:L&= ",
"4<5<6<S,=*7<8<9<0<a<K{b<c<d<i(e<f<U^g<h<i<j<&>k<l<m<n<o<p<q<r<s<t<u<v<w<x<y<4(z<A*A<&$B<+*C<D<E<F<G<H<I<''_~J<K<L<M<N<O<V.[.P<C ",
"Q<R<V@S,S<T<U<F^V<Y%W<X<Y<Z<Y>:%`<2^_~ [.[+[@[#[$[Q'%[&[*[=[-[;[>[,['[)[@~![~[{[t>H!'$}=U>][:<U>Z!o&l&^[u;/[([_[:[<[*@1.f.[[}[k ",
"|[1[2[3[4[5[6[7[8[9[o&0[a[b[c[d[g/e[f[1((<g[h[i[j[k[l[m[n[o[p[q[r[s[t[u[v[/;]=S)l_w[T>x[y[z[&*A[B[0=C[D[E[F[G[H[I[J[K[k k;L[M[N[",
"O[P[Q[R[S[T[I~K;U[:~V[W[X[Y[Z[`[g/ }.}+}@}#}$}%}&}*}=}-};}>},}'}z.)}!}~}{}]}^}Q+Z>P+0=/}(}|=_}:}m_<}[}}}|}1}2}3}4}5}6}C 7}8}9}m ",
"0}a}b}c}d}A{ $Y^e}4%A'f}g}h}e&i}j}4%k}y]l}r&m}n}Y)o}p}q}r}s}t}u}r>v}w}x}y}K+V{z}A}B}C}D}B;0!(}Y;E}F}G}H}I}J}K}L}M}Z.k m N}O}O*P}",
"Q}R}S}T}U}g!}~V}W}X}Y}m_Z}`}/_ |.|`[+|m]@|#|@-$^$|%|_%&|*|=|-|[:V%;|>|,|'|!*-')|!|~|{|]|^|/|(|_|:|<|[|}|||1|2|3|4|5|m - 6|7|8|g ",
"9|0|a|b|c|d|e|f|g|}+h|i|a=j|2>(:';k|l|m|n|o|p|i'%(/]q|G{r|s|6/t|u|v|w|x|i}$#m~y|z|_:A|1>B|C|k)D|E|F|G|H|I|J|K|L|L&p N[y M|N|O|s ",
"P|Q|R|S|T|K;U|V|W|c^7~X=X|[:Y|Z|-)`|.*/=o| 1.1+1L)@1x*#1*:$1%1G:&1*1=1-1;1D$k-q#>1,1S%'1)1!1~1{1]1^1/1(1_1:1<1^.w [1}1Q$|11121<#",
"3141516171k(81913;L~>'./01a1t|::[=b1c1d1e1T_&/-*W/7[f1x*g1r*h1i1L{j1k1Q^l1m1;1L]n1O,}>o1p1q1r1s1t1u1v1w1P<V.x1y1z1A1B1C1D1E1F1G1",
"H1I1J1K1;<X@q(L1s-M1N1O1P1Q1R1S1>;T1U1{_d:V1W1n-X1Y1o|*)Z1`1 2;{q#T^E$.2;1;1q#+2@2#2:>$2b-!!%2&2*2=2-2;2@ / >2,2'2)2E !2~2{2]2^2",
"/2(2_2:2<2[2r:}2|212D-k&22324252][.|R=6272b1C(8292U_02a2b2c2d2b&:<`<e2f2g2=12>h2i2*;A-j2=~k2l2]>m2n2o2p2q2r2s2t2u2v2w2x2y2z2A2B2",
"C2D2E2F25(l~L+0&G2H2I2:{J2;<K2L2M2:<.| }N2O2P2#$q*Q2R2i^S2T2g<`%U2][=1Z|u|V2W2X2Y2q&Z2`2 3.3+3@3#3$3%30*&3*3=3-3;3S->3,3'3)3!3~3",
"{3]3^3L=/3`^W@(3_3:3<3[3G'}3|31323T%O%3343536373U=W=839303a3b3c3f[:~d3c(e3r!f3g3%]Z/h3i3$^j3k3l3m3n3/&o3p3q3r3s3t3u3v3w3x3y3z3A3",
"B3C3D3E3F3.<y-G3H3I3J3K3L3M3N3r>O3P3][D$Q3S^R3S3D<4%T3|/U3^)c[t>V3W3D(X3Y3Z3`3 4.4+4@4#4$4%4&4*4=4-4;4>4,4'4)4!4~4{4]4^4/4(4_4:4",
"<4[4}4|414243444546474849404&(F{a4c(Y!6^b4c4d4n1e4f4g4h44%i4j4O/4)]=k4l4Q[m4n4@!o4p4q4r4s4t4u4v4@ w4x4y4z4A4B4C4D4* E4F4G4H4I4J4",
"K4~3L4M4N4O4P4Q4R4S4T4U4V4W4X4,'/|Y4d^h4Z4`4 5.5+5l1M{j-T1@5#5g#Q/$5A-y-/%r^ .!/%5&5*5=5-5;5>5,5'5)5!5~5{5]5^5/5(5_5:5<5[5}5|515",
"* 8$253545556575859505a5b5v;c5-!d5e5:}f5g5>;h5O%E<:<i}1%i5t>p^j5k5l5m5n5o5p5q5r5s5t5u5v5w5x5y5w2z5I%A5g-B5C5D5E5F5G5H5I5J5K5* * ",
"L58$g+M5N5O5P5Q5R5%[S5V]-(:>j:T5:3U5V5Q=f5g@W5P,G:;'8!X5o*.~Y5Z5`5 6.6+6@6#6$6%6&6*6=6-6;6>6,6'6)6n:h{|=!6~6{6]6^6/6(6_6:6<6[6* ",
"}6|6u%162636465666768696=:W@-,06a6b6c6d6B]L)7~P%(:+2d3e66~E~f6g6h6i6j6k6%,l6m6n6o6p6q6r6s6t6u6v6w6^3x6y6z6A6B6C6D6E6F6G6H6I68$* ",
"J6* D 26K6L6M6N6O6P6Q6R6S6h{T6U6V6W6X6Y6Z6`6 7U!0=.7E;h-Z[+7@7#7$7%7&7*7=7-7;7>7,7'7)7!7~7{7a5]7^7/7(7_7:7<7[7}7|71727374757* 67"};
