/* XPM */
static char * rot11_xpm[] = {
"64 64 857 2",
"  	c #5B3314",
". 	c #583213",
"+ 	c #502D11",
"@ 	c #43250E",
"# 	c #49280F",
"$ 	c #5B3413",
"% 	c #532F12",
"& 	c #563112",
"* 	c #3D220C",
"= 	c #2E1808",
"- 	c #271305",
"; 	c #3B200B",
"> 	c #311909",
", 	c #351D0A",
"' 	c #46260E",
") 	c #522E11",
"! 	c #48280E",
"~ 	c #46270E",
"{ 	c #2C1707",
"] 	c #46280E",
"^ 	c #45260E",
"/ 	c #391F0B",
"( 	c #271306",
"_ 	c #301A0A",
": 	c #3B200C",
"< 	c #4A290E",
"[ 	c #4B2A0F",
"} 	c #4F2C10",
"| 	c #4C2A10",
"1 	c #4F2C11",
"2 	c #4E2B10",
"3 	c #4D2A10",
"4 	c #47270E",
"5 	c #43250D",
"6 	c #44250E",
"7 	c #4C2B10",
"8 	c #3F220C",
"9 	c #4A290F",
"0 	c #522D10",
"a 	c #42240D",
"b 	c #3D210B",
"c 	c #190B04",
"d 	c #3C200B",
"e 	c #3A1F0B",
"f 	c #49280E",
"g 	c #391E0A",
"h 	c #4A280E",
"i 	c #41240D",
"j 	c #553012",
"k 	c #4D2B10",
"l 	c #4A280F",
"m 	c #331B0A",
"n 	c #311B09",
"o 	c #261305",
"p 	c #3A200B",
"q 	c #381E0A",
"r 	c #532F11",
"s 	c #301B0E",
"t 	c #271B14",
"u 	c #2B1B12",
"v 	c #371F0C",
"w 	c #43240D",
"x 	c #4D2A0E",
"y 	c #4D2B0F",
"z 	c #502D12",
"A 	c #4B2A10",
"B 	c #4C2B0F",
"C 	c #4E2B0F",
"D 	c #512C11",
"E 	c #48270E",
"F 	c #42240C",
"G 	c #40230C",
"H 	c #4F2C0F",
"I 	c #44260E",
"J 	c #512D11",
"K 	c #211004",
"L 	c #3B1F0B",
"M 	c #3C200C",
"N 	c #41240C",
"O 	c #4E2C10",
"P 	c #48280F",
"Q 	c #3F230C",
"R 	c #532E11",
"S 	c #512E11",
"T 	c #4E2B11",
"U 	c #351C09",
"V 	c #221105",
"W 	c #311A09",
"X 	c #44250D",
"Y 	c #43240C",
"Z 	c #42240F",
"` 	c #39261C",
" .	c #2F2824",
"..	c #1C1A1A",
"+.	c #1E150F",
"@.	c #311B0D",
"#.	c #40230D",
"$.	c #4B2A0E",
"%.	c #49290F",
"&.	c #4C2A0F",
"*.	c #40220C",
"=.	c #502C11",
"-.	c #512D10",
";.	c #45250D",
">.	c #45260D",
",.	c #4B290F",
"'.	c #47280E",
").	c #361D09",
"!.	c #542F11",
"~.	c #231105",
"{.	c #341B0A",
"].	c #44240D",
"^.	c #42240B",
"/.	c #3D2516",
"(.	c #372923",
"_.	c #2A2524",
":.	c #201F1F",
"<.	c #1B1A19",
"[.	c #1D1613",
"}.	c #29170D",
"|.	c #46260D",
"1.	c #3E220C",
"2.	c #3D210C",
"3.	c #3B200A",
"4.	c #583112",
"5.	c #361D0A",
"6.	c #3F210B",
"7.	c #542F12",
"8.	c #371E0A",
"9.	c #391F0A",
"0.	c #412717",
"a.	c #3D2E27",
"b.	c #312926",
"c.	c #242120",
"d.	c #1F1D1C",
"e.	c #1F1E1D",
"f.	c #1D1B1A",
"g.	c #17100D",
"h.	c #241207",
"i.	c #341B09",
"j.	c #3B1F0A",
"k.	c #341C0A",
"l.	c #583313",
"m.	c #502C10",
"n.	c #3E210B",
"o.	c #3D220B",
"p.	c #351C0A",
"q.	c #2A1505",
"r.	c #3A1F0A",
"s.	c #3A1F0D",
"t.	c #3B2920",
"u.	c #382E2B",
"v.	c #2F2B2A",
"w.	c #2C2A2A",
"x.	c #1F1C1C",
"y.	c #1D1A19",
"z.	c #1E1817",
"A.	c #24150D",
"B.	c #291607",
"C.	c #291606",
"D.	c #311A07",
"E.	c #42230C",
"F.	c #3D200B",
"G.	c #2C1708",
"H.	c #321B09",
"I.	c #3E210C",
"J.	c #3E220D",
"K.	c #45250E",
"L.	c #41230C",
"M.	c #361C0A",
"N.	c #3D281B",
"O.	c #352B26",
"P.	c #2C2724",
"Q.	c #2C2928",
"R.	c #282625",
"S.	c #181312",
"T.	c #1F150E",
"U.	c #2C1706",
"V.	c #2F1807",
"W.	c #41230D",
"X.	c #4D2A0F",
"Y.	c #3F230D",
"Z.	c #371D0A",
"`.	c #3A2417",
" +	c #3B2D27",
".+	c #312A27",
"++	c #242220",
"@+	c #1F1C1B",
"#+	c #191716",
"$+	c #1C120D",
"%+	c #2A170A",
"&+	c #251205",
"*+	c #311908",
"=+	c #47270D",
"-+	c #40240C",
";+	c #4F2B10",
">+	c #43260E",
",+	c #3B210B",
"'+	c #341C0D",
")+	c #362924",
"!+	c #342D2B",
"~+	c #282524",
"{+	c #22201F",
"]+	c #201E1D",
"^+	c #1F1815",
"/+	c #2A180C",
"(+	c #42240E",
"_+	c #2E1807",
":+	c #281406",
"<+	c #311907",
"[+	c #3E220B",
"}+	c #46270D",
"|+	c #4F2B0E",
"1+	c #321B08",
"2+	c #42250E",
"3+	c #3F240F",
"4+	c #3C2B22",
"5+	c #38302C",
"6+	c #2D2928",
"7+	c #242221",
"8+	c #211F1F",
"9+	c #211F1E",
"0+	c #201B19",
"a+	c #28190F",
"b+	c #3A200C",
"c+	c #42250D",
"d+	c #301908",
"e+	c #2B1607",
"f+	c #241205",
"g+	c #43240E",
"h+	c #3F220B",
"i+	c #311A08",
"j+	c #331B09",
"k+	c #47290E",
"l+	c #4E2C11",
"m+	c #442A1A",
"n+	c #3B2E28",
"o+	c #302C28",
"p+	c #262423",
"q+	c #23201F",
"r+	c #221F1F",
"s+	c #211E1C",
"t+	c #221812",
"u+	c #361F0D",
"v+	c #4B2B0F",
"w+	c #301907",
"x+	c #3F230B",
"y+	c #49290E",
"z+	c #43250C",
"A+	c #47280F",
"B+	c #522F12",
"C+	c #573113",
"D+	c #4A2B12",
"E+	c #422E24",
"F+	c #342B27",
"G+	c #221F1D",
"H+	c #1E1815",
"I+	c #25150A",
"J+	c #361E0A",
"K+	c #2D1707",
"L+	c #3E230D",
"M+	c #2F1908",
"N+	c #563214",
"O+	c #522E12",
"P+	c #452712",
"Q+	c #422C1F",
"R+	c #312C2A",
"S+	c #2D2C2B",
"T+	c #1E1B1B",
"U+	c #211B19",
"V+	c #28170F",
"W+	c #30190A",
"X+	c #2D1808",
"Y+	c #351C08",
"Z+	c #4A2910",
"`+	c #442A1B",
" @	c #3A2C27",
".@	c #2D2826",
"+@	c #312F2F",
"@@	c #1D1B1B",
"#@	c #1A1615",
"$@	c #24170F",
"%@	c #371F0D",
"&@	c #2F1907",
"*@	c #41230B",
"=@	c #3D220D",
"-@	c #2A1607",
";@	c #281506",
">@	c #392315",
",@	c #42312A",
"'@	c #332B28",
")@	c #242322",
"!@	c #1B1917",
"~@	c #1E130E",
"{@	c #2D190B",
"]@	c #291506",
"^@	c #4C2A0E",
"/@	c #502D10",
"(@	c #40230B",
"_@	c #3A2111",
":@	c #382B25",
"<@	c #34302D",
"[@	c #2B2725",
"}@	c #231F1F",
"|@	c #201A17",
"1@	c #2C190D",
"2@	c #3D210D",
"3@	c #371D09",
"4@	c #381F0D",
"5@	c #391F0C",
"6@	c #321B0A",
"7@	c #251306",
"8@	c #331B08",
"9@	c #351B09",
"0@	c #3C210C",
"a@	c #502E12",
"b@	c #45260F",
"c@	c #452C1F",
"d@	c #3D332E",
"e@	c #252322",
"f@	c #221D1B",
"g@	c #251811",
"h@	c #3B210E",
"i@	c #312119",
"j@	c #2A1D17",
"k@	c #28180F",
"l@	c #26170E",
"m@	c #241712",
"n@	c #201916",
"o@	c #20130B",
"p@	c #2B1606",
"q@	c #512E12",
"r@	c #462A1A",
"s@	c #42332C",
"t@	c #362F2C",
"u@	c #292625",
"v@	c #201E1C",
"w@	c #231813",
"x@	c #39200E",
"y@	c #4C2C10",
"z@	c #482811",
"A@	c #41291B",
"B@	c #352D2C",
"C@	c #282525",
"D@	c #1A1716",
"E@	c #1E1A18",
"F@	c #221F20",
"G@	c #241A17",
"H@	c #29170A",
"I@	c #341B08",
"J@	c #522E10",
"K@	c #3C210B",
"L@	c #2D1708",
"M@	c #4F2D12",
"N@	c #4B2A11",
"O@	c #432D22",
"P@	c #372C28",
"Q@	c #24211F",
"R@	c #1B1716",
"S@	c #1E120A",
"T@	c #4A2A0F",
"U@	c #4F2C12",
"V@	c #4D2C11",
"W@	c #4A2A10",
"X@	c #432612",
"Y@	c #372C27",
"Z@	c #393535",
"`@	c #302D2C",
" #	c #171515",
".#	c #120F0E",
"+#	c #1E1713",
"@#	c #201C1B",
"##	c #262323",
"$#	c #140E0C",
"%#	c #1D0E04",
"&#	c #3D200A",
"*#	c #482810",
"=#	c #391F0E",
"-#	c #40291D",
";#	c #3B2D26",
">#	c #2D2827",
",#	c #242222",
"'#	c #201F1E",
")#	c #211C1A",
"!#	c #24170E",
"~#	c #2F1909",
"{#	c #553114",
"]#	c #492910",
"^#	c #432712",
"/#	c #39261B",
"(#	c #2C2929",
"_#	c #16110F",
":#	c #1E1007",
"<#	c #281507",
"[#	c #281A12",
"}#	c #27211F",
"|#	c #1B1715",
"1#	c #170C05",
"2#	c #261205",
"3#	c #4E2C0F",
"4#	c #533013",
"5#	c #3A261A",
"6#	c #382C28",
"7#	c #2E2927",
"8#	c #333030",
"9#	c #343131",
"0#	c #1F1B19",
"a#	c #271B15",
"b#	c #341C0C",
"c#	c #48290F",
"d#	c #3D2310",
"e#	c #2C1F19",
"f#	c #1B110A",
"g#	c #321E12",
"h#	c #28211E",
"i#	c #201B1B",
"j#	c #201107",
"k#	c #241105",
"l#	c #2A1606",
"m#	c #422814",
"n#	c #443127",
"o#	c #332C28",
"p#	c #252424",
"q#	c #282626",
"r#	c #1B1717",
"s#	c #1D1510",
"t#	c #311B0E",
"u#	c #2E231C",
"v#	c #272321",
"w#	c #201005",
"x#	c #37261D",
"y#	c #312C2B",
"z#	c #211D1C",
"A#	c #28170C",
"B#	c #281405",
"C#	c #301807",
"D#	c #39200F",
"E#	c #332823",
"F#	c #3D332F",
"G#	c #201E1E",
"H#	c #1F1916",
"I#	c #2C190E",
"J#	c #40240E",
"K#	c #543012",
"L#	c #2D1809",
"M#	c #26170F",
"N#	c #2B2726",
"O#	c #1D1918",
"P#	c #1E110A",
"Q#	c #371F12",
"R#	c #352924",
"S#	c #2B2828",
"T#	c #241C19",
"U#	c #2C170A",
"V#	c #2B1707",
"W#	c #361C09",
"X#	c #40220B",
"Y#	c #3F240D",
"Z#	c #3F281A",
"`#	c #382D28",
" $	c #302C29",
".$	c #292725",
"+$	c #211D1B",
"@$	c #241812",
"#$	c #371E0D",
"$$	c #3C200A",
"%$	c #2C1A0E",
"&$	c #2B231F",
"*$	c #262221",
"=$	c #231E1D",
"-$	c #241C1A",
";$	c #282322",
">$	c #292524",
",$	c #241F1E",
"'$	c #27170E",
")$	c #1F1005",
"!$	c #2A1707",
"~$	c #49270E",
"{$	c #402615",
"]$	c #3B2C24",
"^$	c #312A28",
"/$	c #262422",
"($	c #241914",
"_$	c #2F1A0C",
":$	c #532E12",
"<$	c #351C0B",
"[$	c #2D1A0F",
"}$	c #241B17",
"|$	c #24201F",
"1$	c #211E1D",
"2$	c #251B17",
"3$	c #301D11",
"4$	c #1F1712",
"5$	c #29190E",
"6$	c #361E0B",
"7$	c #3A200A",
"8$	c #3E2412",
"9$	c #3D2C24",
"0$	c #352C29",
"a$	c #282423",
"b$	c #252221",
"c$	c #1E1917",
"d$	c #24160D",
"e$	c #381F0B",
"f$	c #301B0B",
"g$	c #28170D",
"h$	c #22150C",
"i$	c #25160C",
"j$	c #311B0B",
"k$	c #3D220E",
"l$	c #30231C",
"m$	c #251F1F",
"n$	c #1C1817",
"o$	c #1F140E",
"p$	c #311B0A",
"q$	c #432C1F",
"r$	c #3A2F2A",
"s$	c #2A2626",
"t$	c #262424",
"u$	c #1E1C1B",
"v$	c #241F1D",
"w$	c #281910",
"x$	c #44270E",
"y$	c #553112",
"z$	c #381F0A",
"A$	c #2D1807",
"B$	c #3E240E",
"C$	c #412A1F",
"D$	c #322825",
"E$	c #1B1817",
"F$	c #1E1612",
"G$	c #2B170A",
"H$	c #4C301F",
"I$	c #463831",
"J$	c #36302D",
"K$	c #312D2D",
"L$	c #2D2B2B",
"M$	c #1F1D1B",
"N$	c #261B15",
"O$	c #593315",
"P$	c #583314",
"Q$	c #522D11",
"R$	c #533012",
"S$	c #382315",
"T$	c #332722",
"U$	c #2A2423",
"V$	c #170D08",
"W$	c #3B220F",
"X$	c #46332A",
"Y$	c #3E3532",
"Z$	c #1C1A19",
"`$	c #1B130F",
" %	c #3E210D",
".%	c #573112",
"+%	c #583214",
"@%	c #502F12",
"#%	c #4B290E",
"$%	c #3E2411",
"%%	c #37261E",
"&%	c #2A2421",
"*%	c #181716",
"=%	c #1F1B1B",
"-%	c #201612",
";%	c #231207",
">%	c #3F230E",
",%	c #3A281F",
"'%	c #392F2C",
")%	c #2E2A28",
"!%	c #241F1F",
"~%	c #1F1917",
"{%	c #24160C",
"]%	c #351D0B",
"^%	c #522D12",
"/%	c #573214",
"(%	c #3A1F0C",
"_%	c #442710",
":%	c #3B281F",
"<%	c #302724",
"[%	c #232020",
"}%	c #2D190D",
"|%	c #432B1C",
"1%	c #3D312B",
"2%	c #312B28",
"3%	c #262322",
"4%	c #281B14",
"5%	c #361E0D",
"6%	c #40240D",
"7%	c #41240E",
"8%	c #3E230C",
"9%	c #372317",
"0%	c #342823",
"a%	c #1B1918",
"b%	c #1B1613",
"c%	c #211209",
"d%	c #462811",
"e%	c #423028",
"f%	c #352D2B",
"g%	c #282424",
"h%	c #221E1D",
"i%	c #211915",
"j%	c #351F0F",
"k%	c #381E09",
"l%	c #46280F",
"m%	c #4B2B11",
"n%	c #4C2B11",
"o%	c #392214",
"p%	c #322722",
"q%	c #2C2624",
"r%	c #1F1B1A",
"s%	c #21160F",
"t%	c #2B1709",
"u%	c #422612",
"v%	c #432F24",
"w%	c #3D312C",
"x%	c #2C2726",
"y%	c #22150E",
"z%	c #4F2B0F",
"A%	c #512D12",
"B%	c #3D220F",
"C%	c #3A2921",
"D%	c #201D1C",
"E%	c #241A15",
"F%	c #311B0C",
"G%	c #3E281B",
"H%	c #3C312C",
"I%	c #332D2C",
"J%	c #1F1D1D",
"K%	c #251913",
"L%	c #40281B",
"M%	c #332824",
"N%	c #262321",
"O%	c #28160A",
"P%	c #352012",
"Q%	c #392C26",
"R%	c #332C29",
"S%	c #312F2E",
"T%	c #312E2E",
"U%	c #21201F",
"V%	c #221814",
"W%	c #311C0D",
"X%	c #351D09",
"Y%	c #522C10",
"Z%	c #341C09",
"`%	c #452815",
" &	c #3A2821",
".&	c #2C2523",
"+&	c #201712",
"@&	c #362012",
"#&	c #3B2C26",
"$&	c #37302E",
"%&	c #2A2725",
"&&	c #2E2C2B",
"*&	c #1B1B1A",
"=&	c #1B1512",
"-&	c #4E2A0F",
";&	c #43250F",
">&	c #3A271C",
",&	c #2B221F",
"'&	c #272424",
")&	c #241B16",
"!&	c #2C180A",
"~&	c #3D210A",
"{&	c #45270E",
"]&	c #3D230C",
"^&	c #2C1B12",
"/&	c #352C28",
"(&	c #302B2A",
"_&	c #1D1A18",
":&	c #20140E",
"<&	c #4D2C10",
"[&	c #5A3415",
"}&	c #2E1707",
"|&	c #4A2A12",
"1&	c #412A1D",
"2&	c #312723",
"3&	c #282422",
"4&	c #2A2828",
"5&	c #171514",
"6&	c #1F1713",
"7&	c #2F1B0C",
"8&	c #382113",
"9&	c #30221C",
"0&	c #211813",
"a&	c #2F1A0B",
"b&	c #4F2E12",
"c&	c #3A2518",
"d&	c #3D3029",
"e&	c #1B1714",
"f&	c #27170C",
"g&	c #2A1A10",
"h&	c #211B17",
"i&	c #1E1916",
"j&	c #28180E",
"k&	c #3B2211",
"l&	c #312520",
"m&	c #211F1D",
"n&	c #231711",
"o&	c #331C0A",
"p&	c #25170F",
"q&	c #1D120A",
"r&	c #291608",
"s&	c #4C290F",
"t&	c #44260D",
"u&	c #3D220A",
"v&	c #3D230F",
"w&	c #39281F",
"x&	c #342B28",
"y&	c #252321",
"z&	c #242020",
"A&	c #201D1D",
"B&	c #251C17",
"C&	c #2C190C",
"D&	c #371E0B",
"E&	c #271406",
"F&	c #301A08",
"G&	c #3C1F0A",
"H&	c #3A2416",
"I&	c #312621",
"J&	c #211B18",
"K&	c #2A190E",
"L&	c #3D230E",
"M&	c #472914",
"N&	c #37271E",
"O&	c #292320",
"P&	c #1F1610",
"Q&	c #4C2C11",
"R&	c #4F2D11",
"S&	c #402A1F",
"T&	c #2F1B0D",
"U&	c #542F10",
"V&	c #3E230B",
"W&	c #3F281B",
"X&	c #272221",
"Y&	c #1A1717",
"Z&	c #1F1714",
"`&	c #2B190D",
" *	c #2A1506",
".*	c #563012",
"+*	c #422817",
"@*	c #3E2E26",
"#*	c #2E2824",
"$*	c #191412",
"%*	c #28170E",
"&*	c #2F1808",
"**	c #45250C",
"=*	c #361F0F",
"-*	c #30241F",
";*	c #312927",
">*	c #341C0B",
",*	c #261306",
"'*	c #3E281C",
")*	c #302824",
"!*	c #221F1E",
"~*	c #251C18",
"{*	c #190B03",
"]*	c #432A1B",
"^*	c #392C28",
"/*	c #242121",
"(*	c #201D1B",
"_*	c #321F12",
":*	c #402412",
"<*	c #302826",
"[*	c #211D1D",
"}*	c #1D1511",
"|*	c #1C0E04",
"1*	c #4B2910",
"2*	c #432510",
"3*	c #3D281D",
"4*	c #332825",
"5*	c #231B18",
"6*	c #231209",
"7*	c #311B08",
"8*	c #251206",
"9*	c #3C210A",
"0*	c #462B1A",
"a*	c #372822",
"b*	c #211B1A",
"c*	c #331C09",
"d*	c #46260F",
"e*	c #382111",
"f*	c #3D2A20",
"g*	c #2C2421",
"h*	c #1C1715",
"i*	c #24160E",
"j*	c #3A2212",
"k*	c #34261F",
"l*	c #211E1E",
"m*	c #221712",
"n*	c #351E0B",
"o*	c #46250E",
"p*	c #3F281D",
"q*	c #352A27",
"r*	c #251D1A",
"s*	c #2C1709",
"t*	c #4C290E",
"u*	c #3D2517",
"v*	c #2E2826",
"w*	c #211C1B",
"x*	c #281A11",
"y*	c #39200B",
"z*	c #391E0B",
"A*	c #512D0F",
"B*	c #351B0A",
"C*	c #462915",
"D*	c #211814",
"E*	c #271509",
"F*	c #301A09",
"G*	c #532D10",
"H*	c #432C1E",
"I*	c #382C27",
"J*	c #221B17",
"K*	c #28170B",
"L*	c #47260E",
"M*	c #382419",
"N*	c #392C27",
"O*	c #2D2725",
"P*	c #32302F",
"Q*	c #291A11",
"R*	c #2A1605",
"S*	c #301B0F",
"T*	c #191614",
"U*	c #20140D",
"V*	c #180B03",
"W*	c #563011",
"X*	c #271C17",
"Y*	c #292422",
"Z*	c #211712",
"`*	c #512C10",
" =	c #301C10",
".=	c #281D17",
"+=	c #221C1B",
"@=	c #2C1A0F",
"#=	c #301909",
"$=	c #170A03",
"%=	c #4B280E",
"&=	c #381E0B",
"*=	c #45270D",
"==	c #371F0A",
"-=	c #2B1B11",
";=	c #39200A",
">=	c #281407",
",=	c #231205",
"'=	c #512C0F",
")=	c #3B210C",
"!=	c #2F1B0F",
"~=	c #22160E",
"{=	c #221208",
"]=	c #2C1809",
"^=	c #2E1809",
"/=	c #261307",
"(=	c #1B0E04",
"_=	c #532D11",
":=	c #251307",
"<=	c #2A1608",
"[=	c #281607",
"}=	c #2B1708",
"|=	c #150A03",
"  . + @ # $ % & * = - ; > , * ' ) ! ~ { ] ^ ~ / ( _ : ^ ! < [ } + | 1 2 3 ! ' 4 ! ' 5 6 7 8 9 4 0 6 a ' b c d e f 7 2 g @ & ) h ",
"[ + 4 i 2 j k l m n o p q / e ! r ! ~ { ~ 5 5 b s t u v w x y } z 7 A k B < C D x E ' F 5 G < H C } I J a K L M N [ O ] I } ! ; ",
"P + Q b R } S T U g V , n W b 2 1 P ~ d X X Y Z `  ...+.@.#.f $.$.%.9 &.< *.' =.-.&.4 ;.a G >.} ,.} @ 9 '.).; @ d ~ 2 r ^ d X q ",
"@ 2 / ' !.! y ! b b ~./ {.n ^ !.A I ~ ' ].;.^./.(._.:.<.[.}.e |.^ 6 # k y ' b 1.,.J '.~ '.X w '.[ # 2.e 5 ~ 3.] @ ' y 4.w / X 5.",
"N } 6.] 7.X ' @ a b - G 8.g F N 9.>.3 < X a 0.a.b.c.d.e.f.g.h.q G w 4 O =.&.Q i.j.4 ^ 5 '.9 l 5 ] T / k.e a 8 l ! ' ! l.F 4 m.n.",
"@ r 6 5 + o.~ ' A p.q.6 p @ *.r., r.' < |.s.t.u.v.w.x.y.z.A.B.C.D.E.X &.D B a e 9.b a *.F.f } k '.f 6 b , d 8.9 f i ' & a f R a ",
"[ 2 ^ Q I / ! 5 S G.H.I.J.i K.;.L.M.9.^.I N.O.P.Q.R.d.S.T.m b 5.U.V.g ~ =.R ! X ' W.Y |.a L.! m.X.f ^ >.b 9.H.8 h p ; } i w R a ",
"r h Y.' i d O ^ k W.i e / M Y.~ ' F.Z.).`. +.+++d.@+#+$+%+9.a w r.V.&+*+' R ) y 2 k < X '.9 L.f h f =+F F.; L 8 S -+W G ' e ) w ",
";+w 1.~ ' N %.5.] >+,+p M J.I.N ~ X r.'+)+!+~+{+]+@+^+/+5.L (+~ w L _+:+<+[+# y ,.k } '.a ~ ~ ' X ' w F F.r.G }+k i p.b &., |+X ",
"4 ' '.8 C ! ~ 1+b I ~ 2+2+' #.b f f 3+4+5+6+7+8+9+0+a+b+a a c+] ! w Z.d+e+f+U N ~ ~ K.K.a g+K.~ i '.~ L.b b h+N ~ b 9 g+R U ! 4 ",
"i < w 6 } y '.[+i+j+k+z =.l+~ a '.< m+n+o+p+q+r+s+t+u+'.v+! a 6 &.&.Q 8.m { :+w+x+~ b r.d ^ f y+i a f l i h+X Y |.z+R ! !.g a |.",
"e m / Q &.1 A+' Q 1+1+^ B+C+} '.~ D+E+F+7+r+q+G+H+I+J+y+R + ~ Q X f f >.8 e j+f+K+N N G 2.i f J 2 a a &.,.~ ' E h ' m.,.r L+~ w ",
"/ q 5.d &.} ^ a ^ ~ ; M+9.N+O+f P+Q+n+R+S+T+x.U+V+W+5.[+9 1 2 6 [+~ |.>.~ ^ i 9.X+{ Y+F f 4 ^ } J ! Q 8 ~ &.< ! [ f [ ,.S >+) N ",
"p.k.n e ,.-.h N 1.O Z+8 *+5.c+P `+ @.@w.+@@@#@$@%@N h+e ; 5 [ f G 6 ' N b g+6 a e &@f+<+*@! < < O &.a b 5 h h X >.~ f A ~ =@+ a ",
"-@8.{.Z.5 B $.' a ' '.a g Z.;@>@,@'@++)@q+!@~@{@* h 4 8 q 9.b F * 2.5 6 p./ 2.b F.9.j+{ ]@9.h f ^@/@7 ! ! X.,.#.5.F.' 3 , p.' ~ ",
"o r./ L a '.[ h f h ! I b (@_@:@<@[@}@9+}@|@1@2@a ^ ^ 6 i 3.g 3@q G ! '.Q r.b b e 4@5@6@e+7@8@(@'.^@} ) < h -.! 2.L ^ &.8.m * ! ",
"8@9@#.0@a@O 2 B &.y C | ! b@c@d@v.e@q+9+f@g@%@6 A P 6 l '.a 8 9.q [+! /@&.f < |.h@i@j@k@l@m@n@o@g F >.[ } C < 9 4 1.a 2 4 n d ^ ",
"9@p@N p.~ q@q@< < ^@y =.,.r@s@t@u@7+r+v@w@x@I ! 1 y@9 y O '.Q G 3., b '.7 7 | z@A@B@C@D@E@7+c.F@G@H@I@b 5 m.J@< h ~ ^ 4 ^ ; ; 8.",
"K@L@p.j+H.,+M@z ~ F 5 h N@O@P@~+Q@c.]+R@S@; T@U@V@W@9 h 2 } a K@p 5.p.9.i '.W@X@Y@Z@`@8+ #.#+#@###$#%#8@&#! -.) y 4 h h a Q j+W ",
"9 {.9.8 N U K@*#l+P 8.=#-#;#>#,#'#r+)#!#~#I@8.M@{#]#| X.9 l ! i b L / p.Z.b I ^#/#>#(#8+_#:#<#[#}#|#1#2#V.[+f } 3#f X.} [ c+2.F.",
"7 6 #.^ f [ ! 9.c+4#] 5#6#7#8#9#@@0#a#b#Q F 9@p c#M@B+% } h < 3 ,.! 5 * r.Z.q 0@d#e#c.#+f#X+8.g#h#i#j#{ k#l#r.w X a '.} /@[ Y ! ",
"9 f *.F 5 f q@! q b m#n#o#p+p#q#r#s#t##.' ' >.[+i+,+M@C+% O O } m.J 2 c+o.L p.1+m u#v#|#w#j+Y.x#y#z#A#m W ;@B#C#g 5.; ;.' 4 *.! ",
"! ' 2.; d a ! f X D#E#F#>#r+e.G#H#I#J#l 9 ' ^ 6 9._+9.%.K#% =.S m./@;+^ -+a L., L#M#N#O#P#%+Q#R#S#T#U#9./ i.V#V :+{ W#X#;.K.K.>.",
"I @ Y#0@; b '.' *@Z#`# $.$e@8++$@$#$9 } } &.l 6 b $$r.]@I 1 1 =.R J 2 ' Q ~ &.1.p.%$&$*$=$-$;$>$,$'$Z.L.a 8 9.d+o )$!$r.;.f h ~$",
"o.[ ! ' ~ 6 X a {$]$^$p+~+/$d.($_$J.! k ) R 1 '.c+4 f a 9.8.K@9 :$R m.h X ~ [ ^ / <$[$}$|$1$i#2$3$9.*.X 4 h ~ j.H.M#4$5$6$F ~ h ",
"7$a 9 } 1 &.E 8$9$0$a$q+b$q+c$d$L+P @ ~ < R % J ,.h X.O A o.l#b k ) =.^@! f 2 } L.9.e$f$g$h$i$j$(+h ' d a K.f ;.k$l$m$n$o$p$F.N ",
"i 3.$$&.% } 9 q$r$s$t$u$q+v$w$_ 1+x$l++ y y m.R } m.m.m.=.} ~ r.).9 y$+ f X # O k ' b e z$H.A$U X O } h K.a o.B$C$D$c.d.E$F$G$5.",
"(+1.9.b ~ V@H$I$J$K$L$@@M$N$=#! < b 1.O$P$% y f ~ 9 m.Q$} } :$$.j+i.%.R$q@'.@ f ,.[ < ' 5 b q , r.5 } R 2 ~ Y S$T$U$r+d.e.E$V$f+",
"9 5 1./ 9.W$X$Y$Q.S#C@Z$`$%$ %y .%J b i U@+%7.! e 2.Q H &.,.} } '.d M.b R$@%9 [ h >.' [ X.f w F.i.j+h+#%C 4 $%%%&%t$)@*%=%-%;%f+",
") ~ @ 5 >%,%'%)%p+}@!%~%{%]%1.~ O ^%y a U ] /%1 J.(%e i h < f m.0 ,.w U d ] + % } f F G h h 4 ;.b j+i+r.(@_%:%<%|$C@[%E$4$}%p.j+",
"[ 9 '.^ |%1%2%3%|$r+v$4%5%6%5 X ] f '.! L.9.Q %.V@7%2@; ! y '.| D m.h X 8 1+8%K#% } h X 5 a a N ~ 1.z$5.p.9%0%a$9+T+a%b%c%Z.G b ",
"Q ^ < d%e%f%g%q+q+h%i%j%~ ! [ < '.6 a K.h ! k%_+l%m%n%] f T@9 ^ < R C ~ P F g b I T@1 k 9 ~ w 1.a X F 2.o%p%q%7+9+d.r%s%t%8.G a ",
"d b u%v%w%x%r+'#q+0+y%b+9 } k } 1 # g+K.,.z%< &#U 0@n%C+O+k y 5 X y m.< ' ] ! 9.e+r.1 % A%k [ h 4 6 F B%C%b.3%c.q+D%E%F%/ 9.b b ",
"9.9.G%H%I%g%J%d.s+K%j$9.o.! n%A J + 9 4 ! C m.z%X K+i.A q@+ } h ^ ! } #%' ! &.! &#8@K@l+C+=.&.2 ;+#%P L%M%N%9+++Q@c$O%F.^ F b e ",
"r.P%Q%R%S%T%U%E$V%W%L+X 1.; 6%! =.1 X.$.f ,.} R H ;.g X%o.1 7.Y%< ! y C h f f #%< a *+Z%9 1 1 y ,.9 `% &.&8+d.++|$+&-@9.|.f Q e ",
"@&#&$&%&p+&&*&=&I##.9 A ~ Y.5.r.1 O+&.&.< f f 2 D ;+^ a <+r.l+j 7.&.f -&-&@ #.6 ! ' a g i.; M@% 4 ;&>&,&g%'&Z$@#)&!&M+i.~&~ {&]&",
"^&/&(&p+8+]+_&:&p$a y j <&I e q 8%P 1 =.X.~ I.K.k 1 ! a 8 G 9.~ [&& f f X.4 G b * 2.8 a b }&9.T@|&1&2&3&4&R.5&6&7&; * b r.r.N ~ ",
"8&9&m$r+c.G+0&a&9.b 5 [ + l+a 2.5 8%c+J :$} ^ x+' } /@{&5.f f 9.@ b&q@P ! } < '.i ; * a G r.q i+c&d&q%r+9+]+e&f&8.a f l Q U 5.r.",
"! =#g&h&@+i&j&/ a a Q N ! z 1 ~ '.] @ 5 9 K#-.< K.C + &.a a '.l x+i+Z+l+] | 2 } O ! i ~ ^ 3.h+k&l&P.7+}@m&+$n&o&a a 4 X.! [+p.W ",
"[ a p.%$p&q&r&; ^ ] a i I ! 9 s&h # Z+] o.t&3#0 m.H ) } ~ g+' k } f u&* 9 % 1 } [ + k C &.4 v&w&x&y&++z&A&B&C&e 6 '.' 6 h f / W ",
"9 9 a e D&-@E&F&d 5 ^ 6 c+^ ! h l ! # [ ! F x+< 7.H =.1 '.w ;.< 2 } 3#G&V.l+C+j O [ 2 Q$m.~ H&I&3&r+|$q+J&K&L&6%a ! ~ a w w d p.",
"} [ f ! ^ Q H.{ { g g+~ 6 6 '.# '.I 6 9 } ! * b ~ k J 1 Z+7%-+h+K.' ! ;.j.3.c+% j f 5 h } M&N&O&r+9+8+v$P&)$Y#Q&A < ~ a #.[+q q ",
"m.2 ~ ~ 9 l 6%5.{ { Z%1.(+6 ! [ 4 G L a f h ' N * G B % 1 P {&N a K.a a N ~ 9.,+O R&Z+@ P+S&2&u@{+@+1$B&T&i+j+o.1 q@< @ N d m r.",
"E U&! {&! 2 y @ p.K+E&}&9.Q w f h ^ d M ' &.h I 7%b V&] O ) J < ^ f h ! c+! < F q 2+O+Z+W&R#X&w.t$Y&Z&`&e$1.2.V.8.~ k 7 ^ d p.r.",
"8 m.^ 6 ~ &.% J 2.q i+ *{ H.q b ^ ! a d ~ O y ^ 1.* K@z$[+=..*} l f h ^@&.T@&.y ^.D.=@+*@*#*c.e@8+$*%*e @ 2+a 1.9.U 2.U@<&9.q q ",
"* h h (+^ h z%R 1 A ! 1.= f+<#&*/ X ^ Q i 9 0 h ; / d b j.N h J } '.w 5 ^ f ,.} C **=*-*;*g%r+d.@+n&>*' [ < @ N ' b { 9.i z${ 5.",
"i X w 4 '.f C -.% j % k #.i.:+,*d+F.a 2.9.a y 2 6 p / Q 6 a 9.~ + [ 6 2.d b a h &.*#'*)*6+C@7+!*~*G$9.6 ^@y 4 a }+;.9.}&_+i+{*Z.",
"y ' G X B ~ l 7 m.R O+1 9 a 5.:+f+i+j.F.L d 5 &.[ ~ o.1.' '.5 G F ~ ! i e 8.e a ~ ]*^*q%b$3%/*(*_*L+(+a X ! h K.F a Z.{.5., o V.",
"} E 9.|.7 (+1.1.a &.+ } k B ~ K@i+l#}&Z.j.; F.'.k } H h '.9 < ! N 8.8 ~ ^ a 2.2.:*9$<*}@'#9+[*}*j$P z l n.N '.X L.2., q G r.> |*",
"~ ' g #%r a 9.q q i y R R + J [ ' i. *;@d+j+q i f 3 m.[ } m.1 } < (@9.[+1*O+T@2*3*4*a$r+=%}@5*6*V 7*q@q@~ 2.d b b L q W g+M p.f+",
"1.p.F R } 9 ^ o.#.* a X..%-.h ,.X.w H.<#f+8*&*1.~ l h ' ! } Q$J } &.w 9.9*f O 0*a*3&S#q#Y&b*w$p$W V#c*a A ^ 1./ 9.5.e 5./ / n G.",
"g+j+a R ! d*&.h + [ ' ' &.m.C 4 f ^ 9.m { o :+9@F ' E ~ Q I k l+} J 2 ~ j.z$e*f*g*q+~+'#h*i*k.b b 3.9.w+z$l%Z+6 ; : 5.; W ; n G.",
"a j+Q 2 ~ 7 }+! } ) % k h h Q$H ,.'.a #.8%d M+( K+9.*.a [+8 ^ '.< C 2 y ' j*k*q%|$l*}@!*m*p$N ~ ~ ;.4 w r.8@6%n%/ @ k.n*p${.H.8.",
"e 8.a #%5 } G y 1 &.1 } ,.h &.} } B < '.! [ a j+E&:+*+j.G a L.F o*f ! }+6 p*q*a$q+|$!*r*%$b+^ ! 4 ;.' ' 6 W ;@, , 9.5.s*-@b 4 b ",
"#.G w h G } G &.R y ~ K.~ 4 h 2 1 1 y &.t*2 9 -+i+f+V K+r.w a [+1.' #%g+u*^*v*y&c.q+w*x*y*I ' 4 a 8 L.W.*.g { { -@}&z*1.#.y d d ",
"! ' h '.d H C ' ^@A*K.F.a ' f #%[ [ [ f #%R =.f n.B*_+;@{ q G [+p.b h C*9$^$*$9+r+9+D*E*o.9 &.f w 8 F.8 F., H.F*M+H.; k *@'.g F ",
"' N R ' L 2 + k *.#%h ;.' | $.~ F |.4 w G ,.Q$G*#%;.w $$:+]@U 9.8.q J#H*I*a$r+u$m&J*K*m 8.8%%.O f N e M e {.5.5.! 6 4 m.b N j+Y ",
"#%d & ' X#h } !.8.a }+X L*:$R y ' ~ ! ~ a a &..%j &.k y F i+-@_+5.D&M*N*O*P*q#..~%Q*J+* b 5.9.~ [ 9 Y.q Z.f+U 8.4 h m.J 9.F.6@w ",
"h L.j ~ ~ g /@& W Y.^ a F 3#j r m.^@< X.,.4 ! 3 J Q$} $.^@L.j+]@R*S*p%>#7+q+{+T*U*<$5 ~ X b q 9.Q 9 t&; j+V*g e h W*C l W d J+5 ",
"^ a ) @ b p.y S 8%b < ].F.< & J Q$y h f 4 ' ~ 6 5 l } #%C &.a i.G$X*Y*c.q+G#@+Z*G$e ~ $.&.^ L 9.8.k.^ F.{.V*[+Y ! !.6 G W / x w ",
"/ a R L.i.d k ! B j+&.~ F.h `*l '.! X w N (@' 5 ; d N 4 ^@Q$) -+g  =.=b*]+9++=@=e b b >.h f i k.1.#=g+e {.$=[+y h + F i H.g %=w ",
"H.w m.G ; h '.&==.K+q G r.4 -.'.# i #.K.~ ~ h $.*=K@==G ~ [ Q$m.! i x@-=H#Z$o$p$8 [+5.Z%1.;=I m 2.#=; n m V*d y 4 1.L.G W ! ~ ' ",
"p.w E ^ F.C ' j+l >=,=W.U 8 [ f < ~ 2.a y C '=R m.! F N '.C } z%y t&I )=!=~={=W b 0@H.M+e+V.2.]=n*W ; W ^=$=j.C K.; 5 i #=y f L.",
"q w F B i [ I #=a /=(=2@L 9.K.h X } ' a a 4 } G*_=y '.L.' J R } ,.t&-+i Y.p$>=e+z*F*q ~#:=e+z*<=[=}=p.= B.|=r.h w F.h a #=! P 8."};
