/* XPM */
static char * rot10_xpm[] = {
"64 64 882 2",
"  	c #603616",
". 	c #5E3515",
"+ 	c #553012",
"@ 	c #47280F",
"# 	c #4D2B11",
"$ 	c #603715",
"% 	c #593213",
"& 	c #5B3414",
"* 	c #41240D",
"= 	c #311A09",
"- 	c #2A1506",
"; 	c #3F230C",
"> 	c #341B0A",
", 	c #391F0C",
"' 	c #4A2910",
") 	c #573112",
"! 	c #4D2A10",
"~ 	c #4A2A0F",
"{ 	c #2F1808",
"] 	c #4B2A10",
"^ 	c #49290F",
"/ 	c #4A2A10",
"( 	c #3F230D",
"_ 	c #42240D",
": 	c #47270E",
"< 	c #3A1E0A",
"[ 	c #25150C",
"} 	c #2D1B10",
"| 	c #40230E",
"1 	c #4E2B10",
"2 	c #4E2C10",
"3 	c #512E11",
"4 	c #543012",
"5 	c #533012",
"6 	c #522E12",
"7 	c #512D12",
"8 	c #4A290F",
"9 	c #45260E",
"0 	c #41240C",
"a 	c #44250D",
"b 	c #48280E",
"c 	c #40240C",
"d 	c #47280E",
"e 	c #3A1F0B",
"f 	c #3F220C",
"g 	c #4D2B10",
"h 	c #46260D",
"i 	c #4B2A0F",
"j 	c #47270D",
"k 	c #3E220C",
"l 	c #512E12",
"m 	c #532E12",
"n 	c #3C200C",
"o 	c #5B3413",
"p 	c #502D11",
"q 	c #4C2A0F",
"r 	c #5A3313",
"s 	c #4E2B11",
"t 	c #361E0B",
"u 	c #341D0A",
"v 	c #291506",
"w 	c #3E230C",
"x 	c #3B200C",
"y 	c #3C210C",
"z 	c #593212",
"A 	c #47290F",
"B 	c #48280D",
"C 	c #34241A",
"D 	c #281F1C",
"E 	c #2B1C13",
"F 	c #3B210E",
"G 	c #49280E",
"H 	c #522D10",
"I 	c #532F11",
"J 	c #512D11",
"K 	c #4E2A10",
"L 	c #4D2A0F",
"M 	c #4A290E",
"N 	c #4E2C11",
"O 	c #43250D",
"P 	c #522E11",
"Q 	c #3E210C",
"R 	c #40230D",
"S 	c #45260D",
"T 	c #532F12",
"U 	c #48290F",
"V 	c #593112",
"W 	c #542F12",
"X 	c #563112",
"Y 	c #381E0A",
"Z 	c #241205",
"` 	c #391F0B",
" .	c #351D0A",
"..	c #341C0A",
"+.	c #48290E",
"@.	c #40230B",
"#.	c #4A280E",
"$.	c #49280F",
"%.	c #452710",
"&.	c #412A1D",
"*.	c #392C26",
"=.	c #2A2524",
"-.	c #1E1C1A",
";.	c #231711",
">.	c #361E0D",
",.	c #512D10",
"'.	c #4F2D11",
").	c #512C10",
"!.	c #45250D",
"~.	c #45270E",
"{.	c #49290E",
"].	c #40230C",
"^.	c #3D210C",
"/.	c #4D2B0F",
"(.	c #251205",
"_.	c #371E0B",
":.	c #583112",
"<.	c #4C2A10",
"[.	c #522D12",
"}.	c #472610",
"|.	c #442C1E",
"1.	c #3C3029",
"2.	c #302927",
"3.	c #262423",
"4.	c #22201F",
"5.	c #1B1A19",
"6.	c #211712",
"7.	c #351E0D",
"8.	c #502C11",
"9.	c #563012",
"0.	c #522D11",
"a.	c #4E2D11",
"b.	c #48270E",
"c.	c #4B290F",
"d.	c #5E3514",
"e.	c #3A1F0C",
"f.	c #43240C",
"g.	c #44250E",
"h.	c #47270F",
"i.	c #46250D",
"j.	c #391E0B",
"k.	c #41230C",
"l.	c #412717",
"m.	c #40302A",
"n.	c #352D2A",
"o.	c #2A2626",
"p.	c #242221",
"q.	c #1F1E1D",
"r.	c #211E1E",
"s.	c #1C1714",
"t.	c #21120A",
"u.	c #331B09",
"v.	c #46260E",
"w.	c #48280F",
"x.	c #44260F",
"y.	c #5E3615",
"z.	c #42240C",
"A.	c #502D12",
"B.	c #361D09",
"C.	c #46270F",
"D.	c #3E220D",
"E.	c #47260F",
"F.	c #3D200B",
"G.	c #3B210B",
"H.	c #43250C",
"I.	c #432918",
"J.	c #3D2E26",
"K.	c #352E2A",
"L.	c #312E2C",
"M.	c #353333",
"N.	c #282525",
"O.	c #1B1818",
"P.	c #211C1B",
"Q.	c #271811",
"R.	c #2F190A",
"S.	c #351C08",
"T.	c #44240C",
"U.	c #4F2C10",
"V.	c #3B200B",
"W.	c #4F2C11",
"X.	c #4F2D10",
"Y.	c #311A08",
"Z.	c #391E0A",
"`.	c #3D2514",
" +	c #412F25",
".+	c #39302C",
"++	c #2A2725",
"@+	c #23201F",
"#+	c #211F1E",
"$+	c #181412",
"%+	c #1F140E",
"&+	c #341D0C",
"*+	c #301908",
"=+	c #331B08",
"-+	c #43240D",
";+	c #43250E",
">+	c #44260E",
",+	c #371E0A",
"'+	c #43260E",
")+	c #3F220B",
"!+	c #371E0C",
"~+	c #392A24",
"{+	c #39302D",
"]+	c #2D2A28",
"^+	c #252423",
"/+	c #1E1A18",
"(+	c #21160F",
"_+	c #2D180A",
":+	c #311908",
"<+	c #271405",
"[+	c #5C3314",
"}+	c #3D220C",
"|+	c #42250D",
"1+	c #47260E",
"2+	c #3F220D",
"3+	c #351C09",
"4+	c #4D2C11",
"5+	c #512F12",
"6+	c #46270E",
"7+	c #442712",
"8+	c #402E24",
"9+	c #3D3430",
"0+	c #322E2C",
"a+	c #292524",
"b+	c #242120",
"c+	c #221F1E",
"d+	c #241B16",
"e+	c #331D0D",
"f+	c #2E1808",
"g+	c #2B1607",
"h+	c #3D210B",
"i+	c #502D10",
"j+	c #4E2A0F",
"k+	c #361E0A",
"l+	c #381E0B",
"m+	c #532E10",
"n+	c #3C210B",
"o+	c #391F0A",
"p+	c #543013",
"q+	c #593314",
"r+	c #573113",
"s+	c #472E1E",
"t+	c #3E322C",
"u+	c #332E2B",
"v+	c #2A2625",
"w+	c #252422",
"x+	c #232120",
"y+	c #23201E",
"z+	c #211916",
"A+	c #301D0E",
"B+	c #351D09",
"C+	c #4F2B10",
"D+	c #4B290E",
"E+	c #301A08",
"F+	c #3C220C",
"G+	c #3B210C",
"H+	c #4F2E12",
"I+	c #5B3515",
"J+	c #4D2F18",
"K+	c #443128",
"L+	c #332C2A",
"M+	c #262323",
"N+	c #252322",
"O+	c #252321",
"P+	c #221C19",
"Q+	c #2A190F",
"R+	c #40240D",
"S+	c #251306",
"T+	c #321A08",
"U+	c #552F11",
"V+	c #351E0A",
"W+	c #2F1908",
"X+	c #583214",
"Y+	c #4C2A11",
"Z+	c #472B19",
"`+	c #453229",
" @	c #3B302B",
".@	c #33302E",
"+@	c #2B2A29",
"@@	c #231F1F",
"#@	c #261811",
"$@	c #301A0B",
"%@	c #583113",
"&@	c #502C10",
"*@	c #492A0F",
"=@	c #42250E",
"-@	c #482B18",
";@	c #453127",
">@	c #382F2B",
",@	c #2F2A2A",
"'@	c #312F2F",
")@	c #302E2E",
"!@	c #1F1918",
"~@	c #381E0D",
"{@	c #2C1708",
"]@	c #2D1807",
"^@	c #3C200B",
"/@	c #341D0E",
"(@	c #3F332E",
"_@	c #2C2826",
":@	c #242220",
"<@	c #282524",
"[@	c #1B1614",
"}@	c #241711",
"|@	c #381F0D",
"1@	c #3E220B",
"2@	c #573012",
"3@	c #47260D",
"4@	c #41240E",
"5@	c #301808",
"6@	c #4D2D12",
"7@	c #553013",
"8@	c #532E11",
"9@	c #482913",
"0@	c #433129",
"a@	c #3B3532",
"b@	c #312D2B",
"c@	c #272423",
"d@	c #241F1E",
"e@	c #241914",
"f@	c #341D0D",
"g@	c #3B1F0B",
"h@	c #3B200A",
"i@	c #2B1707",
"j@	c #3B1F0A",
"k@	c #4E2B0F",
"l@	c #391E0C",
"m@	c #4E2C12",
"n@	c #5B3516",
"o@	c #492F21",
"p@	c #433530",
"q@	c #373130",
"r@	c #2B2827",
"s@	c #262422",
"t@	c #24201E",
"u@	c #261D18",
"v@	c #301C0E",
"w@	c #3C200A",
"x@	c #4A2A0E",
"y@	c #522F12",
"z@	c #4D2C12",
"A@	c #533013",
"B@	c #4C2E1B",
"C@	c #43322A",
"D@	c #37302C",
"E@	c #2A2726",
"F@	c #211B18",
"G@	c #352012",
"H@	c #3B210D",
"I@	c #381E0C",
"J@	c #2C1707",
"K@	c #351D08",
"L@	c #45270F",
"M@	c #3D220D",
"N@	c #4A2D19",
"O@	c #473329",
"P@	c #2B2726",
"Q@	c #1F1B19",
"R@	c #20150F",
"S@	c #381F0C",
"T@	c #462811",
"U@	c #37251C",
"V@	c #2D221D",
"W@	c #2B1B11",
"X@	c #2C190E",
"Y@	c #1C120D",
"Z@	c #2D190C",
"`@	c #4B2A0E",
" #	c #583314",
".#	c #3B2413",
"+#	c #3D2D25",
"@#	c #362D29",
"##	c #302C2B",
"$#	c #2F2C2C",
"%#	c #232020",
"&#	c #24201F",
"*#	c #241E1D",
"=#	c #351B09",
"-#	c #573214",
";#	c #563114",
">#	c #4C2A12",
",#	c #472C1B",
"'#	c #3C3431",
")#	c #2E2B2A",
"!#	c #1E1B1B",
"~#	c #1F1A18",
"{#	c #272220",
"]#	c #272424",
"^#	c #231E1E",
"/#	c #2C1D15",
"(#	c #4F2B0F",
"_#	c #492B16",
":#	c #493327",
"<#	c #38302B",
"[#	c #2E2A28",
"}#	c #343030",
"|#	c #1E1C1C",
"1#	c #201B1A",
"2#	c #2A1D17",
"3#	c #371E0D",
"4#	c #44250C",
"5#	c #482A14",
"6#	c #3B2E29",
"7#	c #3A3635",
"8#	c #353232",
"9#	c #262424",
"0#	c #1B1918",
"a#	c #191615",
"b#	c #1E1B19",
"c#	c #252221",
"d#	c #1B120C",
"e#	c #2E1807",
"f#	c #542F11",
"g#	c #3C2311",
"h#	c #3A2C24",
"i#	c #443933",
"j#	c #312C2A",
"k#	c #242222",
"l#	c #201E1E",
"m#	c #1D1818",
"n#	c #221710",
"o#	c #371F0F",
"p#	c #45260F",
"q#	c #5A3314",
"r#	c #472912",
"s#	c #3F291A",
"t#	c #2F2926",
"u#	c #242322",
"v#	c #181312",
"w#	c #1E1108",
"x#	c #241206",
"y#	c #2A2624",
"z#	c #181614",
"A#	c #1C0E06",
"B#	c #3F210B",
"C#	c #553011",
"D#	c #432B1E",
"E#	c #39302B",
"F#	c #332F2D",
"G#	c #231F1E",
"H#	c #241A16",
"I#	c #341E0F",
"J#	c #4F2B11",
"K#	c #371D09",
"L#	c #5A3414",
"M#	c #583213",
"N#	c #3B1F0C",
"O#	c #40240F",
"P#	c #30241E",
"Q#	c #1C120C",
"R#	c #2E1909",
"S#	c #321F14",
"T#	c #2A2320",
"U#	c #211B1A",
"V#	c #1E1008",
"W#	c #281405",
"X#	c #2F1807",
"Y#	c #3D220B",
"Z#	c #432A1C",
"`#	c #3E302A",
" $	c #342D2A",
".$	c #2A2826",
"+$	c #251E1A",
"@$	c #2D1B11",
"#$	c #593214",
"$$	c #302520",
"%$	c #282423",
"&$	c #1D1714",
"*$	c #251307",
"=$	c #382419",
"-$	c #2F2927",
";$	c #211D1C",
">$	c #271508",
",$	c #261305",
"'$	c #3F302A",
")$	c #282424",
"!$	c #292625",
"~$	c #1E1918",
"{$	c #2E1B10",
"]$	c #3C220E",
"^$	c #30190A",
"/$	c #291D17",
"($	c #1E1817",
"_$	c #241207",
":$	c #331C0B",
"<$	c #412514",
"[$	c #3A2E29",
"}$	c #2F2C2A",
"|$	c #231C19",
"1$	c #301A0C",
"2$	c #2A1607",
"3$	c #43240E",
"4$	c #4C2C16",
"5$	c #45332B",
"6$	c #362E2C",
"7$	c #2A2727",
"8$	c #232121",
"9$	c #241E1C",
"0$	c #1F1510",
"a$	c #341D0B",
"b$	c #2C1B12",
"c$	c #2E2825",
"d$	c #221B18",
"e$	c #291E18",
"f$	c #312824",
"g$	c #2F2C2B",
"h$	c #292422",
"i$	c #271912",
"j$	c #2D1808",
"k$	c #231205",
"l$	c #4F3019",
"m$	c #4E3A2F",
"n$	c #423733",
"o$	c #35302F",
"p$	c #343131",
"q$	c #282626",
"r$	c #201E1D",
"s$	c #25211E",
"t$	c #2E1E17",
"u$	c #3D230F",
"v$	c #351D0C",
"w$	c #2E1E16",
"x$	c #261F1D",
"y$	c #252120",
"z$	c #231E1C",
"A$	c #2E1E15",
"B$	c #3D2412",
"C$	c #463B36",
"D$	c #36312F",
"E$	c #2B2928",
"F$	c #302C2C",
"G$	c #191614",
"H$	c #201812",
"I$	c #351E0E",
"J$	c #532F13",
"K$	c #45250E",
"L$	c #2F1B0E",
"M$	c #23160E",
"N$	c #2A1B12",
"O$	c #381F0F",
"P$	c #3A1E0B",
"Q$	c #24170F",
"R$	c #29190F",
"S$	c #402A1E",
"T$	c #3B302C",
"U$	c #2A2827",
"V$	c #252222",
"W$	c #221712",
"X$	c #301B0C",
"Y$	c #4B2A11",
"Z$	c #5E3617",
"`$	c #5C3414",
" %	c #351E0B",
".%	c #331C09",
"+%	c #362113",
"@%	c #2B221E",
"#%	c #1E1B18",
"$%	c #261810",
"%%	c #502E11",
"&%	c #4A2A11",
"*%	c #482F20",
"=%	c #41332D",
"-%	c #352E2B",
";%	c #262322",
">%	c #252220",
",%	c #281E1A",
"'%	c #311D10",
")%	c #341C09",
"!%	c #563013",
"~%	c #442A18",
"{%	c #3D2D26",
"]%	c #1D1918",
"^%	c #251811",
"/%	c #4A2F1E",
"(%	c #47352E",
"_%	c #3A3130",
":%	c #311E12",
"<%	c #44250F",
"[%	c #502E12",
"}%	c #3F240D",
"|%	c #542E12",
"1%	c #402512",
"2%	c #382820",
"3%	c #322A26",
"4%	c #22201E",
"5%	c #1C1919",
"6%	c #341B09",
"7%	c #422714",
"8%	c #3B302D",
"9%	c #292525",
"0%	c #242121",
"a%	c #241811",
"b%	c #3F240E",
"c%	c #4E2D12",
"d%	c #472810",
"e%	c #3A1F0A",
"f%	c #47280D",
"g%	c #432510",
"h%	c #3E291D",
"i%	c #302724",
"j%	c #1E1C1B",
"k%	c #211D1B",
"l%	c #221105",
"m%	c #392213",
"n%	c #413029",
"o%	c #3B332F",
"p%	c #383433",
"q%	c #2C2A2A",
"r%	c #281B14",
"s%	c #321D0D",
"t%	c #40220C",
"u%	c #472812",
"v%	c #402A1F",
"w%	c #352A27",
"x%	c #292423",
"y%	c #1E1D1C",
"z%	c #261912",
"A%	c #2C180A",
"B%	c #2B1708",
"C%	c #3C2D26",
"D%	c #3B322F",
"E%	c #302B2A",
"F%	c #333030",
"G%	c #353231",
"H%	c #251914",
"I%	c #361E0E",
"J%	c #543011",
"K%	c #5A3415",
"L%	c #593313",
"M%	c #3A251A",
"N%	c #372A25",
"O%	c #2C2625",
"P%	c #1C1A19",
"Q%	c #1C1817",
"R%	c #21150E",
"S%	c #35251C",
"T%	c #3B312D",
"U%	c #342E2D",
"V%	c #1E1611",
"W%	c #351D0D",
"X%	c #2D1707",
"Y%	c #3F2618",
"Z%	c #352A25",
"`%	c #2E2927",
" &	c #211813",
".&	c #2A180B",
"+&	c #32231A",
"@&	c #312A28",
"#&	c #201916",
"$&	c #29180D",
"%&	c #3A200C",
"&&	c #3A200B",
"*&	c #4F2D12",
"=&	c #44260D",
"-&	c #3F2718",
";&	c #3D2F28",
">&	c #302A28",
",&	c #241B17",
"'&	c #2D1A0D",
")&	c #351D0B",
"!&	c #41240F",
"~&	c #321F16",
"{&	c #271E1B",
"]&	c #24211F",
"^&	c #221D19",
"/&	c #29180F",
"(&	c #5C3514",
"_&	c #512C11",
":&	c #4D2B13",
"<&	c #3F2B21",
"[&	c #231C18",
"}&	c #2F1A0D",
"|&	c #3C210D",
"1&	c #241810",
"2&	c #351E0C",
"3&	c #492A10",
"4&	c #5D3515",
"5&	c #381F0A",
"6&	c #492A12",
"7&	c #422A1D",
"8&	c #352823",
"9&	c #26221F",
"0&	c #211610",
"a&	c #321B09",
"b&	c #46270D",
"c&	c #321C0D",
"d&	c #25160C",
"e&	c #261508",
"f&	c #5E3817",
"g&	c #4A2A14",
"h&	c #3F2A1E",
"i&	c #332925",
"j&	c #302D2D",
"k&	c #1F1D1C",
"l&	c #26201E",
"m&	c #522F11",
"n&	c #2C1808",
"o&	c #4C2B10",
"p&	c #3A2D27",
"q&	c #2B2624",
"r&	c #2A2828",
"s&	c #201F1E",
"t&	c #1D1816",
"u&	c #291A13",
"v&	c #3C220B",
"w&	c #532F10",
"x&	c #44260C",
"y&	c #3C220D",
"z&	c #352B27",
"A&	c #312B28",
"B&	c #1F1D1B",
"C&	c #23170F",
"D&	c #311B0C",
"E&	c #593312",
"F&	c #593215",
"G&	c #3C2F2A",
"H&	c #301C0D",
"I&	c #2A1507",
"J&	c #331A09",
"K&	c #5D3514",
"L&	c #412510",
"M&	c #322A27",
"N&	c #271E19",
"O&	c #2E1C0F",
"P&	c #351E09",
"Q&	c #4D2C15",
"R&	c #3F2A1F",
"S&	c #231E1B",
"T&	c #28190F",
"U&	c #43260F",
"V&	c #301909",
"W&	c #583212",
"X&	c #492A13",
"Y&	c #472D1E",
"Z&	c #362A24",
"`&	c #242020",
" *	c #27211E",
".*	c #231710",
"+*	c #241307",
"@*	c #4F2C12",
"#*	c #432A1D",
"$*	c #3A2C26",
"%*	c #2B2424",
"&*	c #2A1D15",
"**	c #41230D",
"=*	c #4C2A0E",
"-*	c #341B08",
";*	c #3F230E",
">*	c #472C1C",
",*	c #41312A",
"'*	c #302A27",
")*	c #2F2B2B",
"!*	c #1B1816",
"~*	c #261812",
"{*	c #281406",
"]*	c #382417",
"^*	c #352A24",
"/*	c #322B29",
"(*	c #201D1C",
"_*	c #211510",
":*	c #341C0B",
"<*	c #361E09",
"[*	c #4D2A11",
"}*	c #361D0A",
"|*	c #492A14",
"1*	c #3D2C24",
"2*	c #242321",
"3*	c #261D19",
"4*	c #2F1B0D",
"5*	c #321B08",
"6*	c #583012",
"7*	c #492B17",
"8*	c #433028",
"9*	c #352C2A",
"0*	c #261F1C",
"a*	c #331F12",
"b*	c #2D1708",
"c*	c #3D200C",
"d*	c #271506",
"e*	c #271406",
"f*	c #432511",
"g*	c #412C21",
"h*	c #392F2A",
"i*	c #2B2725",
"j*	c #231E1D",
"k*	c #25180F",
"l*	c #43270F",
"m*	c #321A09",
"n*	c #291406",
"o*	c #462B1B",
"p*	c #372A24",
"q*	c #282625",
"r*	c #262121",
"s*	c #1E1007",
"t*	c #1E0F04",
"u*	c #271306",
"v*	c #482910",
"w*	c #4C301D",
"x*	c #2D2624",
"y*	c #2E2A2A",
"z*	c #2D2B2B",
"A*	c #261C16",
"B*	c #2E1A0C",
"C*	c #4A280F",
"D*	c #372317",
"E*	c #382A24",
"F*	c #2D2724",
"G*	c #231812",
"H*	c #231105",
"I*	c #251206",
"J*	c #442916",
"K*	c #2E2826",
"L*	c #231A15",
"M*	c #331B0A",
"N*	c #1E0F05",
"O*	c #291507",
"P*	c #432817",
"Q*	c #271F1D",
"R*	c #2E1C11",
"S*	c #4E2A11",
"T*	c #371D0A",
"U*	c #4A2A12",
"V*	c #402D23",
"W*	c #362E2A",
"X*	c #3D230C",
"Y*	c #311B0B",
"Z*	c #301A0A",
"`*	c #311A0A",
" =	c #5B3313",
".=	c #291505",
"+=	c #483022",
"@=	c #3C302A",
"#=	c #2D2826",
"$=	c #251913",
"%=	c #2C1809",
"&=	c #3E291E",
"*=	c #3D302B",
"==	c #322B2A",
"-=	c #252323",
";=	c #251A14",
">=	c #321B0A",
",=	c #552F12",
"'=	c #2B1705",
")=	c #362217",
"!=	c #362B27",
"~=	c #2E2B2B",
"{=	c #311C0C",
"]=	c #361D0B",
"^=	c #381F0B",
"/=	c #5B3312",
"(=	c #553112",
"_=	c #2B190E",
":=	c #2D2420",
"<=	c #2C2726",
"[=	c #1F1611",
"}=	c #1A0C03",
"|=	c #351C0A",
"1=	c #391F0E",
"2=	c #2F1E17",
"3=	c #221F1F",
"4=	c #251D19",
"5=	c #190C03",
"6=	c #502B0F",
"7=	c #301E12",
"8=	c #241C18",
"9=	c #211E1D",
"0=	c #221D1B",
"a=	c #2B1A11",
"b=	c #331E11",
"c=	c #241814",
"d=	c #201611",
"e=	c #361C0A",
"f=	c #2F1A0A",
"g=	c #39200C",
"h=	c #180C03",
"i=	c #321C0B",
"j=	c #331C0A",
"k=	c #281508",
"l=	c #2D1809",
"m=	c #2B1808",
"n=	c #2E1809",
"o=	c #170B03",
"  . + @ # $ % & * = - ; > , * ' ) ! ~ { ] ^ / ( _ : < [ } | ^ 1 2 3 4 5 6 7 1 8 9 0 a b c : 5 d e f g h a i j k g l m n @ o ) 1 ",
"p + q 9 m r 6 s t u v w x y k ! z ! ~ { ~ A : ^ j B * C D E F G H I 4 4 7 6 + J p K K L M : N g O ^ g P Q : d R S p T ] U 4 L ; ",
"# + O 0 V W X m Y n Z `  ...0 m 4 # +.@.#.~ 8 $.: %.&.*.=.-.;.>.b ,.J p '.p 3 g 1 W + ).q G : d !.+ L V ~.i {.: ].i m z ^ ].b x ",
"@ m ^.8 z /.P ! 0 0 (.y _. .^ :.<.Q e 0 ! [.i h }.|.1.2.3.4.5.6.7.S i ^ ] 8.J q !.d ) 9.! 8 : a h P 0.4 '.a.p b.@ c.P d.: y b e.",
"S 4 f.] % b 8 @ : 0 - a x ^.g.h.: i.^.j.O 7 /.k.l.m.n.o.p.q.r.s.t.u.O : $.8.+ P v.e G T p i ~ w.: i J J g x.l ^ g 8 /.y.h q + z.",
"@ z w.d + 0 i 8 A.j.B.^ C.( D.R E.q 8 F.G.H.+.I.J.K.L.M.N.O.P.Q.R.Z S.T.b U.4 T U x V.v.i b ~ W.! h 2 A.g.e.O ^ g 9 8 o v.g V : ",
"p m ^ O U y g b X.Y.] U * w f R _ : 8 !.V.Z.`. +.+++p.@+#+$+%+&+; V.*+=+f i + + ~ 0 Q Q : z.-+g T N i # h., x a 8 w ; T 9 : V : ",
"z 1 ;+8 9 >++ 1 i ,+0 U U * '+: -+-+i M )+!+~+{+]+^+@+r./+(+_+x v.b f :+<+V.W.[+P q q : : b h a g + J q <.: _.; }+|+..a 8 k ) : ",
"m 1+k 2+; h.T T <.0 3+e 4+5+N N 6+* ! L 7+8+9+0+a+p.b+c+d+e+}+f h.~ : ^.f+g+h+i++ T T m W.: ! i f.P H j+c.{._ }+k+k l+0 J ` m+b ",
"n+Y x e.^.a 6 T / ^ _ *+o+p+q+r+1 b L N s+t+u+v+w+x+y+z+A+;+^ : @ ] <.!.j.*+f+B+: W.C+7 T i d ! i c.i L D+j ].].f 0 N h.:.Y L q ",
"E+f+F+l+ ._ + T h.: i 6+Y G+H+I+4 q i J+K+L+M+N+N+O+P+Q+R+2 I g 6+8 J 1 k  .u.S+T+z.~ ^ ^ 8 : h.^ 8 : ^ : h k.}+!.q U+L z n v.M ",
"l+- V+_. ._ 3 T q !.b 6 / e W+4+X+Y+Z+`+ @.@+@r.@@P.#@$@}+! %@+ @ * q &@q 0 n ..g+=+H.^ 0 f 0 ] q *@_ L <.a 0 0 f.j i+8.z =@i : ",
"^.3+= ^.e.k.^ U.&@b 9 ! # _ B+3+0 -@;@>@,@'@)@O.!@Q.~@y G.0 '.+ W.v.S i q i : _ ` {@]@G S _ k w.P P ^ : g 1 6+a : j M 8.X A ) S ",
"_ k ]@9 x v.] '.8.g ! ! i _ ^.^@/@~+(@_@:@<@p.[@}@|@: M !.k 0 ^ s i -+<.8 ; ~ ~ : x f+*+1@d i ^ g 2@T h.3@8.m w.8 L q W.i 4@+ v.",
"^ ].5@0 ].6@7@+ 6 J J 8@J ! : 9@0@a@b@c@b+b+d@e@f@* : q b z.g@h@!.: k v.^ ].; g.: _ e *+i@j@k@&@q T + w.R 9 g &@! 1 U.C+, l@8 ~ ",
"s : *+Y y u m@n@g 2 i+I 4 J L o@p@q@r@s@p.t@u@v@* # *@w.8 ^ -+k ^@^@; d <.O e ^.].k.k.y E+v w@x@/.,.m W.6+S q C+L b 1 /.^.t * ! ",
"i y@= _.f  .V+z@A@N b +.U.6 B@C@D@E@<@p.p.F@G@4@^ 7 y@# s W.^ S c V.k L 4 W.S v.O ].H@F I@*+J@K@j k@,.9.T 8 p m $.].].b i  .].^ ",
"i 6 9 * 9 8 a 0 L@p+4+x M@N@O@.+P@O+N+b+Q@R@S@N T l y@p 1 r+W.-+~.; V.0 2 T T p 1 T@U@V@W@X@Q+Y@Z@!.`@,.) 8@).8@W.g.n -+<.; ; V.",
"p W.! v.: ! 6 I j@~. #U .#+#@###$#%#&#*##@$@=#x -#;#Y+A.1 J m ^ * ; x j.].^ A.A.>#,#'#)#!#~#{#]#^#/#j.z.8 0.+ (#8.s f 9 J 6+k+..",
"T 1 <.k._ a i 4 g V.O _#:#<#[#}#M.|#1#2#3#-+4#3+'+A@A@y@W J ! g : ; k x k+^.v.# 5#6#7#8#9#0#a#b#c#c@d#e#Q z.f#9.i+C+8 b ! 6+* k.",
"^ ^ @ * w ; !.<.! : g#h#i#j#k#l#]#m#n#o#p#^ 8 : k }+4+q+q#+ U.W.[.2 8 !.k V.y O r#s#t#$#u#v#w#x#e@y#z#A#:+B#`@C#:.P q L q 9 j L ",
"k 6+<.: O O z.i 8 z.D#E#F#r@3.b+G#H#I#@ J#J#8 8 w.K#*+# L#M#T T T 9.+ W.6+].N#Y y O#P#3.O.Q#R#Y S#T#U#V#W#X#0 g 4 5 ! 0.8@i O L ",
"0 Y#N m 1 # i : h.Z#`# $r@.$<@x++$@$* J 9.T 1 ! 9 ].,+,+*@X+#$+ 9.+ + m : O _ e 3+&+$$%$&$*$,+0 =$-$;$>$T+,$J@].G 8 ^ J + T 2 {.",
"^ ].H.2 + + J ' Z#'$K.a+)$!$O+~${$]$h.# T :.2@7 @ a : !.B+0 r+y@9.:.+ J : h i : e ^$/$r@($_$:$<$[$}$|$1$j. .2$]@K#Q k S C+p J M ",
"] 3$f 0 g M#I 4$5$6$7$8$:@s@9$0$a$'+m@/ g P r ) 7 i 1 J ^ e ` 9 m %@2@8@{.v.q p ]._.b$c$c@d$e$f$g$h$i$ .].^.B+j$k$5@3+Q h b : c.",
"8.U _ x V.q l$m$n$o$p$q$r$s$t$u$0 B.6@q+T U.+ :.9.P 8@T T g 0 3+: % :.I /.i W.J 9 y v$w$x$]#c#y$z$A$I@z.b G * ` j$Z 2$Y !.M q q ",
"+ 1 @ ;+0 B$K+C$D$E$F$p.G$H$I$<.o {.0 J$I+L#4 J U.3 9.2@W + 9.z.B+i + X W.q g T W.K$e.e.L$M$0$N$O$* h 3@G ! ! v.P$f+Q$R$x j k@J ",
"J 7 ^ w.w.S$T$0+U$V$c@;$W$X$D.i 9.% U.; Y$Z$`$8.* =@! 9.W m 9.T 0 Y @ q+X+<.: s 4 6 H.].y  %*+.%a U.p w.-+: 8 1 S +%@%#%$%, a i ",
"g.g %%&%*%=%-%v+;%p.>%,%'%( O : N m 9.<.)%] I+!%p#n R w.&@8.J 4 U._ f+@ I+5 / <.W.W.g q d _ x ,+h+i + 9.! b * >+~%{%c$@+]%^%v$0 ",
"]._ ^ /%(%_%E@u#O+b+|$:%<%/ ! 8 ~ <.i ] : ; |+5+[%}%R+w L ,.i |%9.8.1+< 9 5+5 T J i : p 8@L 6+k Y y i + + 1 b 1%2%3%c@4%4.5%Q#6%",
"^.f 7%0@8%9%0%4.O+9$a%b%N P P P U.w.h.b 1 L o+ .5+c%d%=@`@J g W.9.9.1 j f B+p I+) &@: !.1 1 L b.f 3+e%f%J k@g%h%i%E@^+j%4.k%Q#l%",
"y m%n%o%p%q%#+c+t@r%s%y : l T m ) A.w.$.8.8@L < G+/ 7@5 p '.W.w.U.V P 8 ] h+V.A.M#4 U.{.: d : b b N#)%Y t%u%v%w%x%7$U$y%~#z%A%B%",
"B$C%D%E%F%G%4.~$H%I%4@: f z.4+l + + U.q g 8@J%C+0 B+@ K%L%m P d w.T + 1 ] ~ f.V.c # 4 6 g ^ !.0 ^ : 0 h+Z.M%N%O%0%c+P%Q%R%..}+e ",
"S%T%U%<@3.^+0#V%W%h.N # @ f k i + W J i+1 J + V 8.k X%@ 5 + W 1 $.1 m 1 8 g W.* J@x 7@#$+ J 1 $.b : j * Y%Z%`%]#b+c+r. &.&^.!.-+",
"+&@&7$c@p.b+#&$&%&i 5 9.# ;+&&w *&#$8.J 1 ! p + 4 ! z.e ; y@L%+ /.! + ).L 1 J 1 f.B+=&7@& W 0.m 8.q : -&;&>&)$c@p.G#,&'&)&n -+K$",
"!&~&{&]&b+^&/&, c -+<.9.r+U k k O N 4 + U.^ : 1 W 6 : : Z.B+M#(&9.g _&m C+8 i 1 k@!.,+o++ r+3 P 8@&@:&<&3%s@p.c@O+[&}&].=&].0 k ",
"q |&{$,&/+1&2&g.b O O ] 4 6 3&h.@ d ~ ) M#U.0 =&J 9.] a : 0 =&6 4&9.L &@_&v.; v.i 8 a B.5&4+9.T ! 6&7&8&%$4.@+<@9&0&a&1+q b&* ^.",
"6 !.e.c&d&e&_.g.*@U 9 : # A.6 g # 4+|+^ X :.2 G g + 6 : -+<.L e a.f&<.g m ! !._ * ; K$-+j@Y *@q+g&h&i&y#j&@+k&l&z%A%u.1@G q O y ",
"m&g +.a g@{ n&` v.~ w.6+~ i 8.C+# N g : d U.2@4 8@9.+ ! -+6+T b&e%z@H+o&1 6 J g 6+; S v.0 V.T+h s+p&q&E@r&s&t&u&!+k y ^@k ^ o&w ",
"L q ! g <.y *+J@e K$^ w.@ ] g # <.<.8.p d v&J z w&9.+ 1 w.$.8.T X.x&; *&5 [.8@4 T : 8 ~ O z.y&=$z&A&3.@+@+B&C&D&* 8 ] !.V.k j S ",
"g q ^ g W.^ ; u.*+k+_ w.w.q W.] @ !.! T 1 _ z.g T + 5 m@@ : ! P + E&j@y F&#$%@6 T T T J L !.Y%G&[#<@;%b+t@,&H&].6+c.8.g 0 j.l+y ",
"4 p ~ q 8@4 ] ` = I&J&0 9 i U.g v.; -+! C+8 a 0 : + !%6 @ >+_ : i 1 M 1@0 l K&2@1 8.:.9.g L&2%M&s@s@M+&#N&O&%&6+<.8 8 J i n > :+",
"+ C#h.8 &@:.%@_ x a&- Y.x 0 d ! i 0 f ^ J 1 ^ >+].+.T + %%o&: !.$.: v.b&S P&'.4&p ^ ! W Q&R&i%%$p.p.;%S&T&U&=@9 L q v.$.! _ l+V&",
"L z w.8 1 8@:.+ A.8 k { {@a&N#9 /.d k.i T ,.U >+_ c a 2 W&:.U.^ L ! / >+# d w / 5 l @ X&Y&Z&=.p.@+`& *.*+** H+@*1 i : 9 !.].P$ .",
"-++ q g 1 8@9.% q+) N n f+x#j$y d @ * 6+3 + i ; ; ; y n+m r W 1 K &@P g g %%x@e%* 7@*&#*$*%*j&N+j%z$&*2&k+k+* p+4 ! : =&0 ` y ,+",
"* k@k@g U ! '.2@%@r+T / k *+v T+].a **k ^ + m _ G+R+O 0 f.1 + I q $.q 1 8.m I =*-*;*>*,*'*)$)*^+!*~*I$R+_ * T+n+7 T <.: t%_.0 !.",
"9 b : $._ k 0 M P + m W.<.k.{ {*T+t%k.^.0 g J i _ w 9 ^ : _ ~ M#g ;+]._ : 2 8@P b ]*^*/*y#b+r$(*_*:*v.] @ 9 _ <*n+[*4 ] }+j.f q ",
"P 8 a b.: n y k ^ :.:.+ + p >+}*X%-*g@k ; v.p T p L a <.g d 0 {.g w._ k k S ! 2 |*1*>&b@o.2*O+3*4*0 ! J g d 6+: n+5*/ '.B+n+V.G ",
"T L ^.D+T S 6+|+0 &@6*z 4 J J b }*g+J@3+j.].] [.+ W U.8.J U.8 z.f : / * ^.y 1+7*8*9*=.!$9%N+0*a*y&;+^ &@0.8 S k@h -*b*}+]@{ x h ",
"i 8 c*&@W 1 T T ! G 1 2@W c.J 8.^.*+d*e*f+n b ! J 1 g W 2@4 8@~ h@y @*[.] a f*g*h*i*b+b+0%j*k*l**&8 >+b k@q : : -+l+m* .*+(.f i.",
"_ j.h V 0.g p 9.r T ! U.2@8.g q _ %&..n&n*6%a L 1 ! S 2 9.9.+ 6 {.].0 2 4 [%o*p*q&q*|#b+r*e@s*F+y@r+] -+d M : O k t * ; _.t*Y#q ",
"h.k+1+:.L 6 4 P 4 4 J C+8@W m W.~ 9 9 _ a&u*3+0 1+^ O 9 g 6 T + 4 q f V.v*w*J.x*y*z*l#k%A*B*V&f+G+[%7@O ^.0 0 k.y )&O -+N#I&T+b ",
"1+k+O m i T 2@I q C*! L g m W T J g g W.d }*g+f+P$_ O _ 6+i g 8@T I G h+D*E*F*;%<@N+Q@G*$@y k ` *+5*# Y+h.R ^.x y x n 3$` a&H*0 ",
"k x v.&@d 6 C+2@$.k.v.i g J T T 6 J J m W.a a&I*n*Y f.: v.h G g g L 8 J*~+K*c#b+0%;%L*X$* d b : S )+o+|+*&Y+w R+l@* ..;  .M*N*,+",
"g.a : 1 a 4 a &@L : w.1 1 L i g U.<.U.) + q k m*O*J@Z.K$: z.0 8 U.: P*n%D@++3.;%b+Q*R*G+b ! q c.q i : W+w A@}+6+e.G+t x _.V&e*B+",
"L 8 C+q ].f#c.d `@$.S*2@4 q v.b q 1+-+J :.+ q -+^@=+{@T*-+0 j.* ,.U*V*W*P@s@N+V$z$W@X*@ ^ <.b S w.d 1+_.i@_.e k e.Y*Z*`*^@a n 3@",
"c.S :.8 f m I : G !.: :.r + 1 /.g <.: ^ T  =6*! 6 ~ *+.=}*}+e n u%+=@=#=b+4.p.d@$=%=|+3 U.q : _ _ a _ x E+*+f+u.N#)&0 I 0 S k+j ",
"&@].o c.T.k@4 f#! a h 4 o W&+ 0.&@8.J 8 ! W r T 6 5 j }*f+=+e%F &=*===G%-=y%t@;=X$l+V.d p p 8 -+]._ f t k+>={@..C*k@,=9.^.k. %: ",
"1 !.r i i n + M#C+: z.W 9.W.4 1 L i i 8 8 8 W.T T &@&@h  .J@'=)=!=-$3.~=8$]%$={=; _ ; G+|+l l d G+k ^.]=^=H*n k k@/=8@J#..].%&d ",
"^ v.) @ 0 j.P (=b ].a + 0.w.] d : : !.3@8 g.}+: U.i++ P * 3+_=:=<=c@b+%#j%[=B** i ! S ^.e%0 N g O j.9 k._.}=z.3@L z w.a |=^.H : ",
"^.1+:.!.,+].6 g $.^.].1 J g g * v.! `@q p q w }+O x@P 2@3 O 1=2=x$3=p.%#4='&I@S g J ! a ^.V.z.4@_ M*h.k _.5=z.P 1 + h 9  .n 6=: ",
" .: ,=a ; 1 <.x J -+e 6+_&b T a ].U.J f#2@+ g =&* : 2 P ) 6 +.c 7=8=9=0=a=x 0 0 a i 1 6+w G+U t * M*;  .t }=].P q _ !.a ..L i 8 ",
"j.: L ^ k.8@8 k+J#**x a ! b 2 &@q @ : 8@6*V W q a ^ T + f#m q U 4@b=c=d=$@0 !.x e=y e a&f+T+* f=g=..; ..`*h=f 8@$.; d 9 M*P g !.",
"x : h 3 9 p U M*v.^=_ 1+q b v.T 5 J l+H.L J H /.3@: P :.+ 8.i =&6+;+i=_$2$k **x n j=x >=k=f+n l=m=n=j.= n&o=k 1 : k.1 : M*L # x "};
