/* XPM */
static char * rot1_xpm[] = {
"64 64 1236 2",
"  	c #9A5B29",
". 	c #965927",
"+ 	c #8A5124",
"@ 	c #74441E",
"# 	c #7E4A21",
"$ 	c #9B5C28",
"% 	c #8E5425",
"& 	c #935726",
"* 	c #6C3F1C",
"= 	c #533015",
"- 	c #472810",
"; 	c #683D1B",
"> 	c #563116",
", 	c #5E3719",
"' 	c #784620",
") 	c #8C5324",
"! 	c #7C4820",
"~ 	c #79471F",
"{ 	c #563215",
"] 	c #7B4920",
"^ 	c #77451E",
"/ 	c #7F4B21",
"( 	c #75441F",
"_ 	c #5D3517",
": 	c #754520",
"< 	c #77461F",
"[ 	c #653A1A",
"} 	c #854E22",
"| 	c #814B21",
"1 	c #71411D",
"2 	c #78451E",
"3 	c #452710",
"4 	c #784720",
"5 	c #73441E",
"6 	c #683D1C",
"7 	c #63391A",
"8 	c #693C1C",
"9 	c #73431E",
"0 	c #71421D",
"a 	c #603819",
"b 	c #633A19",
"c 	c #77461E",
"d 	c #73431D",
"e 	c #683C1A",
"f 	c #70411C",
"g 	c #6C3E1B",
"h 	c #593315",
"i 	c #70411D",
"j 	c #6E401C",
"k 	c #75441E",
"l 	c #824C21",
"m 	c #8E5324",
"n 	c #6B3E1C",
"o 	c #693C1A",
"p 	c #8C5223",
"q 	c #7F4A20",
"r 	c #814C21",
"s 	c #895123",
"t 	c #7B471F",
"u 	c #915525",
"v 	c #834C22",
"w 	c #5C3518",
"x 	c #583317",
"y 	c #4C2B12",
"z 	c #673C1A",
"A 	c #6A3E1C",
"B 	c #6C3F1B",
"C 	c #71421E",
"D 	c #814B20",
"E 	c #663B1B",
"F 	c #653B1A",
"G 	c #41250F",
"H 	c #7F4C23",
"I 	c #895124",
"J 	c #7F4A21",
"K 	c #834D21",
"L 	c #7F4A1F",
"M 	c #6A3D1B",
"N 	c #76451E",
"O 	c #76441E",
"P 	c #492911",
"Q 	c #794820",
"R 	c #7A4820",
"S 	c #663C1C",
"T 	c #643B1B",
"U 	c #653A19",
"V 	c #603818",
"W 	c #7A471F",
"X 	c #72421D",
"Y 	c #79461E",
"Z 	c #532F13",
"` 	c #7F491F",
" .	c #8F5424",
"..	c #854D21",
"+.	c #6F401C",
"@.	c #7A471E",
"#.	c #74431D",
"$.	c #7B471E",
"%.	c #7C481F",
"&.	c #7C4921",
"*.	c #824D22",
"=.	c #844D22",
"-.	c #864F22",
";.	c #7E4A20",
">.	c #643A19",
",.	c #522F14",
"'.	c #5E3718",
").	c #5D3618",
"!.	c #673C1B",
"~.	c #74431E",
"{.	c #875023",
"].	c #834D22",
"^.	c #6B3F1B",
"/.	c #4B2B12",
"(.	c #7D4B22",
"_.	c #925727",
":.	c #7A461F",
"<.	c #6D3F1C",
"[.	c #804B21",
"}.	c #4D2B12",
"|.	c #76461F",
"1.	c #875125",
"2.	c #72421E",
"3.	c #6F411D",
"4.	c #6E401D",
"5.	c #5A3416",
"6.	c #71411C",
"7.	c #7D481F",
"8.	c #643919",
"9.	c #4C2B11",
"0.	c #73421D",
"a.	c #8A5123",
"b.	c #874F22",
"c.	c #854E21",
"d.	c #76441D",
"e.	c #623819",
"f.	c #7B4820",
"g.	c #8F5425",
"h.	c #8E5325",
"i.	c #864F23",
"j.	c #70421D",
"k.	c #593417",
"l.	c #4D2C13",
"m.	c #593416",
"n.	c #643A1A",
"o.	c #884F23",
"p.	c #663B19",
"q.	c #71421C",
"r.	c #7C4920",
"s.	c #663B1A",
"t.	c #7E481F",
"u.	c #5E3616",
"v.	c #73451F",
"w.	c #8E5526",
"x.	c #804B22",
"y.	c #814C22",
"z.	c #72431E",
"A.	c #965929",
"B.	c #77451F",
"C.	c #6F401D",
"D.	c #72421C",
"E.	c #6F411B",
"F.	c #78461E",
"G.	c #78451D",
"H.	c #693D1B",
"I.	c #543014",
"J.	c #6F411C",
"K.	c #79461F",
"L.	c #854D22",
"M.	c #824C20",
"N.	c #6D401C",
"O.	c #603719",
"P.	c #7D491F",
"Q.	c #874F23",
"R.	c #5F3718",
"S.	c #502E14",
"T.	c #573217",
"U.	c #633919",
"V.	c #7E4920",
"W.	c #895023",
"X.	c #75441D",
"Y.	c #653B1B",
"Z.	c #71421B",
"`.	c #683E1B",
" +	c #8C5326",
".+	c #834C21",
"++	c #7D4920",
"@+	c #573115",
"#+	c #6C401C",
"$+	c #9B5D2A",
"%+	c #683C1B",
"&+	c #6F401B",
"*+	c #5D3617",
"=+	c #885023",
"-+	c #5B3416",
";+	c #40240F",
">+	c #663C1B",
",+	c #72411D",
"'+	c #864E21",
")+	c #895022",
"!+	c #6D3E1A",
"~+	c #6B3E1B",
"{+	c #8A5122",
"]+	c #844D21",
"^+	c #5C3516",
"/+	c #512E14",
"(+	c #673B1A",
"_+	c #8E5323",
":+	c #653B19",
"<+	c #73431C",
"[+	c #6A3D1C",
"}+	c #895024",
"|+	c #7E4A1F",
"1+	c #633A1A",
"2+	c #905628",
"3+	c #613A19",
"4+	c #995C29",
"5+	c #673B19",
"6+	c #5E3617",
"7+	c #77441D",
"8+	c #3E230E",
"9+	c #844E21",
"0+	c #6A3E1B",
"a+	c #6D3F1B",
"b+	c #854D20",
"c+	c #603718",
"d+	c #563114",
"e+	c #7B481F",
"f+	c #7D4820",
"g+	c #905425",
"h+	c #7B4720",
"i+	c #5D3717",
"j+	c #955A29",
"k+	c #864E22",
"l+	c #623919",
"m+	c #5F3617",
"n+	c #543114",
"o+	c #905626",
"p+	c #7C491F",
"q+	c #633819",
"r+	c #6D401A",
"s+	c #693C19",
"t+	c #71411B",
"u+	c #73411A",
"v+	c #71401A",
"w+	c #73421B",
"x+	c #553014",
"y+	c #3B210D",
"z+	c #8D5323",
"A+	c #593214",
"B+	c #884F22",
"C+	c #6D401B",
"D+	c #915626",
"E+	c #7E491F",
"F+	c #78461F",
"G+	c #533014",
"H+	c #945929",
"I+	c #8B5122",
"J+	c #673B18",
"K+	c #48280E",
"L+	c #75431B",
"M+	c #79461D",
"N+	c #814C1F",
"O+	c #6B3E1D",
"P+	c #613A1F",
"Q+	c #573721",
"R+	c #643F27",
"S+	c #73492D",
"T+	c #5E402E",
"U+	c #6E4B38",
"V+	c #6F4F3F",
"W+	c #684838",
"X+	c #6A4C3D",
"Y+	c #56433A",
"Z+	c #3D2E27",
"`+	c #76451F",
" @	c #8B5123",
".@	c #583215",
"+@	c #683D1A",
"@@	c #905525",
"#@	c #6E3F1B",
"$@	c #6E3F1A",
"%@	c #46260B",
"&@	c #8C5425",
"*@	c #613818",
"=@	c #5F3819",
"-@	c #844D23",
";@	c #7C4925",
">@	c #774929",
",@	c #784B2F",
"'@	c #6A4836",
")@	c #4D3C33",
"!@	c #7B5640",
"~@	c #6E4E3D",
"{@	c #72513F",
"]@	c #785745",
"^@	c #725648",
"/@	c #6C574F",
"(@	c #6B5B54",
"_@	c #665955",
":@	c #63554F",
"<@	c #65544D",
"[@	c #5A4E4A",
"}@	c #61544F",
"|@	c #5E524E",
"1@	c #544844",
"2@	c #534945",
"3@	c #494240",
"4@	c #342C28",
"5@	c #663B1C",
"6@	c #75431D",
"7@	c #854C20",
"8@	c #543015",
"9@	c #543013",
"0@	c #6B3D1A",
"a@	c #6B3D19",
"b@	c #824B1E",
"c@	c #79461C",
"d@	c #693D1A",
"e@	c #5E371A",
"f@	c #834F27",
"g@	c #7D4C2A",
"h@	c #764A2D",
"i@	c #66422D",
"j@	c #704931",
"k@	c #6A4937",
"l@	c #6F4D3B",
"m@	c #574943",
"n@	c #805E4B",
"o@	c #695349",
"p@	c #63514A",
"q@	c #715548",
"r@	c #70584D",
"s@	c #6E5B53",
"t@	c #715E56",
"u@	c #6F625D",
"v@	c #5B5452",
"w@	c #675953",
"x@	c #5B4F4B",
"y@	c #594D48",
"z@	c #564A45",
"A@	c #514844",
"B@	c #4E4745",
"C@	c #4E4846",
"D@	c #4F4948",
"E@	c #4C4745",
"F@	c #454140",
"G@	c #433F3E",
"H@	c #464240",
"I@	c #585554",
"J@	c #413E3D",
"K@	c #403C3C",
"L@	c #3C3938",
"M@	c #2B2624",
"N@	c #60381A",
"O@	c #814A20",
"P@	c #8B5223",
"Q@	c #824D21",
"R@	c #553116",
"S@	c #50311E",
"T@	c #69442D",
"U@	c #5A3E2F",
"V@	c #6C4935",
"W@	c #6C4D3C",
"X@	c #795643",
"Y@	c #775849",
"Z@	c #725649",
"`@	c #6A5348",
" #	c #685851",
".#	c #7E675D",
"+#	c #7B675F",
"@#	c #72615A",
"##	c #655752",
"$#	c #61524C",
"%#	c #61534E",
"&#	c #5D514C",
"*#	c #5C5553",
"=#	c #60534E",
"-#	c #544C49",
";#	c #4D4744",
">#	c #4B4340",
",#	c #484240",
"'#	c #494442",
")#	c #4A4544",
"!#	c #464241",
"~#	c #44403F",
"{#	c #403C3B",
"]#	c #423E3D",
"^#	c #625F5E",
"/#	c #4E4B4A",
"(#	c #3E3B39",
"_#	c #413E3C",
":#	c #413D3B",
"<#	c #3F3B3A",
"[#	c #3D3938",
"}#	c #393533",
"|#	c #5C5958",
"1#	c #3A3736",
"2#	c #393635",
"3#	c #3B3837",
"4#	c #2A2626",
"5#	c #5B351A",
"6#	c #834B20",
"7#	c #865023",
"8#	c #5D381E",
"9#	c #584C48",
"0#	c #6B5E59",
"a#	c #625753",
"b#	c #655751",
"c#	c #60544F",
"d#	c #625550",
"e#	c #615551",
"f#	c #5A504C",
"g#	c #554C49",
"h#	c #514B49",
"i#	c #57504E",
"j#	c #524B49",
"k#	c #4E4948",
"l#	c #494545",
"m#	c #444140",
"n#	c #4B4745",
"o#	c #474342",
"p#	c #3F3C3B",
"q#	c #6B6666",
"r#	c #54504F",
"s#	c #3D3A39",
"t#	c #433F3D",
"u#	c #443F3D",
"v#	c #3E3A38",
"w#	c #3C3836",
"x#	c #565352",
"y#	c #3F3C3C",
"z#	c #373433",
"A#	c #423E3C",
"B#	c #403C3A",
"C#	c #3D3A38",
"D#	c #3E3A39",
"E#	c #343130",
"F#	c #363332",
"G#	c #2C2A29",
"H#	c #3A3635",
"I#	c #3C3937",
"J#	c #292727",
"K#	c #59341B",
"L#	c #804A1F",
"M#	c #844E22",
"N#	c #623A1C",
"O#	c #483D39",
"P#	c #494443",
"Q#	c #484342",
"R#	c #595656",
"S#	c #4B4848",
"T#	c #403D3C",
"U#	c #413D3C",
"V#	c #585454",
"W#	c #5C5858",
"X#	c #3C3837",
"Y#	c #46413F",
"Z#	c #484442",
"`#	c #464140",
" $	c #373333",
".$	c #4F4A4A",
"+$	c #3C3939",
"@$	c #383534",
"#$	c #3F3B39",
"$$	c #2C2928",
"%$	c #363232",
"&$	c #3F3A38",
"*$	c #3C3734",
"=$	c #3B3533",
"-$	c #39322F",
";$	c #2C2421",
">$	c #2D2421",
",$	c #372D29",
"'$	c #352B26",
")$	c #231D1A",
"!$	c #543118",
"~$	c #8B5324",
"{$	c #5C3619",
"]$	c #41342E",
"^$	c #646160",
"/$	c #4C4949",
"($	c #423D3B",
"_$	c #433E3E",
":$	c #33302F",
"<$	c #3F3C3A",
"[$	c #3E3B3A",
"}$	c #363231",
"|$	c #2B2827",
"1$	c #3C3735",
"2$	c #413C39",
"3$	c #3B3633",
"4$	c #373331",
"5$	c #38312F",
"6$	c #3F3531",
"7$	c #3D332F",
"8$	c #362923",
"9$	c #32241D",
"0$	c #3A2A22",
"a$	c #3E2C22",
"b$	c #37271F",
"c$	c #36251C",
"d$	c #442C1C",
"e$	c #4B2F1C",
"f$	c #4E301B",
"g$	c #4B2D18",
"h$	c #462A17",
"i$	c #523119",
"j$	c #3A2210",
"k$	c #613919",
"l$	c #79471E",
"m$	c #553117",
"n$	c #3F3028",
"o$	c #3E3A3A",
"p$	c #312F2E",
"q$	c #363433",
"r$	c #3F3B3B",
"s$	c #413C3B",
"t$	c #403B3A",
"u$	c #433D3B",
"v$	c #3D3735",
"w$	c #2D2725",
"x$	c #342E2B",
"y$	c #423A36",
"z$	c #403733",
"A$	c #332D2A",
"B$	c #352B27",
"C$	c #3C2E29",
"D$	c #3A2E28",
"E$	c #3C2B21",
"F$	c #3E291D",
"G$	c #422D20",
"H$	c #432D20",
"I$	c #452C1C",
"J$	c #362317",
"K$	c #482C19",
"L$	c #5E381E",
"M$	c #55331B",
"N$	c #5D361B",
"O$	c #5C361A",
"P$	c #61391B",
"Q$	c #693D1C",
"R$	c #5B3418",
"S$	c #6A3E1A",
"T$	c #553114",
"U$	c #74441D",
"V$	c #7A4720",
"W$	c #5D3619",
"X$	c #432F24",
"Y$	c #3E3936",
"Z$	c #3E3735",
"`$	c #312B28",
" %	c #2B231F",
".%	c #382E2A",
"+%	c #3C312C",
"@%	c #3A2F29",
"#%	c #352A24",
"$%	c #3D2C23",
"%%	c #473124",
"&%	c #442D20",
"*%	c #432A1B",
"=%	c #442B1B",
"-%	c #4F311D",
";%	c #5C381E",
">%	c #4A2D17",
",%	c #4C2D17",
"'%	c #643B1D",
")%	c #59351A",
"!%	c #693D1D",
"~%	c #70411E",
"{%	c #552F13",
"]%	c #6E401B",
"^%	c #75451E",
"/%	c #8B5224",
"(%	c #573215",
"_%	c #502D12",
":%	c #452917",
"<%	c #2E2119",
"[%	c #3F291C",
"}%	c #462C1D",
"|%	c #462C1A",
"1%	c #5A351B",
"2%	c #5F381C",
"3%	c #5A361B",
"4%	c #523017",
"5%	c #633A1B",
"6%	c #784721",
"7%	c #6D3F1D",
"8%	c #7F4B22",
"9%	c #824C22",
"0%	c #673A18",
"a%	c #8F5527",
"b%	c #854E23",
"c%	c #623918",
"d%	c #4A2A10",
"e%	c #693C1B",
"f%	c #4C2B13",
"g%	c #452811",
"h%	c #7F4920",
"i%	c #8D5325",
"j%	c #6E3F1C",
"k%	c #925625",
"l%	c #885125",
"m%	c #5B3517",
"n%	c #955929",
"o%	c #804C22",
"p%	c #73421E",
"q%	c #8F5526",
"r%	c #5A3316",
"s%	c #42250E",
"t%	c #8A5023",
"u%	c #8C5122",
"v%	c #623818",
"w%	c #532F15",
"x%	c #482912",
"y%	c #6F421D",
"z%	c #915524",
"A%	c #553215",
"B%	c #985C2A",
"C%	c #844E23",
"D%	c #5C3517",
"E%	c #3D220D",
"F%	c #8C5224",
"G%	c #905424",
"H%	c #884F21",
"I%	c #5A3417",
"J%	c #885022",
"K%	c #573216",
"L%	c #482911",
"M%	c #73441D",
"N%	c #875024",
"O%	c #8D5224",
"P%	c #512F13",
"Q%	c #9D5E2B",
"R%	c #4C2C12",
"S%	c #8D5324",
"T%	c #6B3E1A",
"U%	c #593316",
"V%	c #6F3F1B",
"W%	c #955726",
"X%	c #8E5424",
"Y%	c #7C471E",
"Z%	c #915625",
"`%	c #5B3417",
" &	c #7A481F",
".&	c #72431D",
"+&	c #774620",
"@&	c #8D5425",
"#&	c #9C5E2B",
"$&	c #935626",
"%&	c #442610",
"&&	c #8D5426",
"*&	c #663A18",
"=&	c #844D20",
"-&	c #945726",
";&	c #613718",
">&	c #955826",
",&	c #884E22",
"'&	c #6B3D1B",
")&	c #70421E",
"!&	c #62391A",
"~&	c #885024",
"{&	c #804A21",
"]&	c #9A5C2B",
"^&	c #935625",
"/&	c #824B21",
"(&	c #8B5325",
"_&	c #945727",
":&	c #8C5123",
"<&	c #804A20",
"[&	c #5D3518",
"}&	c #3C220E",
"|&	c #663A19",
"1&	c #925626",
"2&	c #8D5424",
"3&	c #512E15",
"4&	c #613817",
"5&	c #874E22",
"6&	c #925525",
"7&	c #844C20",
"8&	c #7C471F",
"9&	c #844C22",
"0&	c #663C19",
"a&	c #70401C",
"b&	c #5F3719",
"c&	c #603717",
"d&	c #6D3E1B",
"e&	c #915526",
"f&	c #553115",
"g&	c #422510",
"h&	c #663A1A",
"i&	c #71431D",
"j&	c #8B5225",
"k&	c #4A2A11",
"l&	c #8B5326",
"m&	c #885124",
"n&	c #7E4921",
"o&	c #693E1B",
"p&	c #643B19",
"q&	c #653A18",
"r&	c #613819",
"s&	c #3E230F",
"t&	c #8C5124",
"u&	c #42250F",
"v&	c #7D4A21",
"w&	c #693E1A",
"x&	c #824B20",
"y&	c #814D23",
"z&	c #412510",
"A&	c #6E3E1B",
"B&	c #8B5124",
"C&	c #6A3D1A",
"D&	c #7D4921",
"E&	c #6C401B",
"F&	c #7E4B22",
"G&	c #8E5223",
"H&	c #663C1A",
"I&	c #5E3618",
"J&	c #462811",
"K&	c #804B20",
"L&	c #6F421C",
"M&	c #8D5223",
"N&	c #5A3315",
"O&	c #6E411C",
"P&	c #5F3618",
"Q&	c #5B3415",
"R&	c #472811",
"S&	c #673D1B",
"T&	c #8E5527",
"U&	c #8A5125",
"V&	c #7F4B20",
"W&	c #502E12",
"X&	c #76451D",
"Y&	c #70401B",
"Z&	c #945625",
"`&	c #492912",
" *	c #3F2410",
".*	c #5F3818",
"+*	c #975A29",
"@*	c #8A5022",
"#*	c #563115",
"$*	c #7B4821",
"%*	c #7E491E",
"&*	c #482910",
"**	c #75431E",
"=*	c #75451D",
"-*	c #6A3D19",
";*	c #8F5323",
">*	c #8F5525",
",*	c #7D4B25",
"'*	c #654533",
")*	c #6F5448",
"!*	c #59463E",
"~*	c #4E372A",
"{*	c #653A1B",
"]*	c #553015",
"^*	c #43250F",
"/*	c #814A1F",
"(*	c #74421D",
"_*	c #4A2A12",
":*	c #70421C",
"<*	c #73421C",
"[*	c #4D2C12",
"}*	c #925627",
"|*	c #744827",
"1*	c #494342",
"2*	c #6A6566",
"3*	c #545051",
"4*	c #39312E",
"5*	c #583318",
"6*	c #3F230D",
"7*	c #844C21",
"8*	c #532F14",
"9*	c #482811",
"0*	c #673C19",
"a*	c #874E21",
"b*	c #895223",
"c*	c #462810",
"d*	c #8E5426",
"e*	c #985B2A",
"f*	c #5B3516",
"g*	c #643F24",
"h*	c #443D3B",
"i*	c #615C5C",
"j*	c #4B4747",
"k*	c #302C2B",
"l*	c #3F2A1D",
"m*	c #533017",
"n*	c #7D481E",
"o*	c #79451D",
"p*	c #78451F",
"q*	c #482810",
"r*	c #6A3C1A",
"s*	c #653B18",
"t*	c #45270F",
"u*	c #905526",
"v*	c #865024",
"w*	c #673B1B",
"x*	c #522F15",
"y*	c #513018",
"z*	c #4F4139",
"A*	c #474343",
"B*	c #393636",
"C*	c #2B2928",
"D*	c #311C0D",
"E*	c #8E5225",
"F*	c #44260F",
"G*	c #643A18",
"H*	c #4B2A11",
"I*	c #955828",
"J*	c #8F5324",
"K*	c #8F5627",
"L*	c #834E23",
"M*	c #513017",
"N*	c #40312A",
"O*	c #534E4D",
"P*	c #363331",
"Q*	c #2D2A28",
"R*	c #272422",
"S*	c #201B18",
"T*	c #45403F",
"U*	c #2E2724",
"V*	c #70401A",
"W*	c #894F23",
"X*	c #61381A",
"Y*	c #4C2C14",
"Z*	c #522F13",
"`*	c #915727",
" =	c #935525",
".=	c #894F22",
"+=	c #4C2A11",
"@=	c #854F23",
"#=	c #834E22",
"$=	c #4C2F1C",
"%=	c #504847",
"&=	c #3C3838",
"*=	c #2C1D14",
"==	c #362010",
"-=	c #3F2513",
";=	c #3D2310",
">=	c #2D1E15",
",=	c #322F2F",
"'=	c #693C18",
")=	c #864E23",
"!=	c #512F15",
"~=	c #39200E",
"{=	c #512F14",
"]=	c #6B3F1C",
"^=	c #854F22",
"/=	c #7E4A22",
"(=	c #955827",
"_=	c #7F4921",
":=	c #7D4A20",
"<=	c #4C2D18",
"[=	c #4A4342",
"}=	c #383332",
"|=	c #3A200C",
"1=	c #402512",
"2=	c #474140",
"3=	c #353233",
"4=	c #5B3314",
"5=	c #8A5224",
"6=	c #573114",
"7=	c #855025",
"8=	c #945828",
"9=	c #864D21",
"0=	c #7C4A20",
"a=	c #433B39",
"b=	c #3F3A3A",
"c=	c #412C21",
"d=	c #613716",
"e=	c #6F3F19",
"f=	c #4E3C34",
"g=	c #292625",
"h=	c #79451E",
"i=	c #432510",
"j=	c #884E21",
"k=	c #854C21",
"l=	c #593318",
"m=	c #382720",
"n=	c #46403D",
"o=	c #584238",
"p=	c #654D43",
"q=	c #594B45",
"r=	c #4C4542",
"s=	c #373230",
"t=	c #22170F",
"u=	c #452711",
"v=	c #965826",
"w=	c #77451C",
"x=	c #844F24",
"y=	c #462812",
"z=	c #362822",
"A=	c #403A39",
"B=	c #474546",
"C=	c #4F4D4E",
"D=	c #4B4949",
"E=	c #3A3634",
"F=	c #352319",
"G=	c #39200D",
"H=	c #522E13",
"I=	c #854F24",
"J=	c #834C20",
"K=	c #633818",
"L=	c #512E13",
"M=	c #502F15",
"N=	c #50321F",
"O=	c #433129",
"P=	c #3D322D",
"Q=	c #3B2D27",
"R=	c #41291A",
"S=	c #502E15",
"T=	c #4B2A12",
"U=	c #45260F",
"V=	c #432610",
"W=	c #75431C",
"X=	c #77451D",
"Y=	c #673A19",
"Z=	c #583316",
"`=	c #5E3517",
" -	c #40240E",
".-	c #874F21",
"+-	c #905524",
"@-	c #955725",
"#-	c #432611",
"$-	c #995C2A",
"%-	c #9A5C2A",
"&-	c #3A200D",
"*-	c #70411B",
"=-	c #64391A",
"--	c #693D19",
";-	c #4E2D12",
">-	c #381F0C",
",-	c #603716",
"'-	c #4B2B11",
")-	c #995B29",
"!-	c #44270F",
"~-	c #8F5426",
"{-	c #583216",
"]-	c #351D0C",
"^-	c #8A4F22",
"/-	c #5C3416",
"(-	c #583315",
"_-	c #42260F",
":-	c #6C3E1C",
"<-	c #361E0C",
"[-	c #935524",
"}-	c #5C3618",
"|-	c #5D3516",
"1-	c #643918",
"2-	c #381F0D",
"3-	c #65391A",
"4-	c #8D5222",
"5-	c #43260F",
"6-	c #5F3717",
"7-	c #834D23",
"8-	c #5F3615",
"9-	c #78451C",
"0-	c #361F0F",
"a-	c #72411C",
"b-	c #512E12",
"c-	c #824E23",
"d-	c #4F2C0F",
"e-	c #6F4120",
"f-	c #6B4124",
"g-	c #643E27",
"h-	c #593A28",
"i-	c #6A452F",
"j-	c #684632",
"k-	c #674633",
"l-	c #5E4336",
"m-	c #674C40",
"n-	c #674E43",
"o-	c #54453E",
"p-	c #3A322F",
"q-	c #4B2E1C",
"r-	c #6F401A",
"s-	c #6C3E1A",
"t-	c #79451C",
"u-	c #804A1E",
"v-	c #7C481D",
"w-	c #512D11",
"x-	c #814C23",
"y-	c #704220",
"z-	c #7F4B25",
"A-	c #7C4A26",
"B-	c #6A4126",
"C-	c #623F29",
"D-	c #6C4835",
"E-	c #584136",
"F-	c #664A3C",
"G-	c #705141",
"H-	c #62483C",
"I-	c #63483A",
"J-	c #634E45",
"K-	c #61514B",
"L-	c #5D4F49",
"M-	c #564B47",
"N-	c #584B47",
"O-	c #564945",
"P-	c #4F4541",
"Q-	c #49403D",
"R-	c #4B4240",
"S-	c #4B4441",
"T-	c #453F3E",
"U-	c #353231",
"V-	c #492D1C",
"W-	c #573113",
"X-	c #613717",
"Y-	c #7F491D",
"Z-	c #7A461C",
"`-	c #6C3D19",
" ;	c #6F411E",
".;	c #57341A",
"+;	c #714423",
"@;	c #83502A",
"#;	c #74472A",
"$;	c #6C462F",
"%;	c #724D39",
"&;	c #714E3C",
"*;	c #6D4D3C",
"=;	c #57443C",
"-;	c #60493E",
";;	c #705446",
">;	c #675248",
",;	c #654E44",
"';	c #604A41",
");	c #544640",
"!;	c #534743",
"~;	c #5B4E4A",
"{;	c #544B49",
"];	c #524946",
"^;	c #564B48",
"/;	c #453D3A",
"(;	c #423B38",
"_;	c #423D3C",
":;	c #44403E",
"<;	c #474443",
"[;	c #4D4949",
"};	c #32302F",
"|;	c #442A19",
"1;	c #4D3529",
"2;	c #5F4132",
"3;	c #694837",
"4;	c #76523F",
"5;	c #725344",
"6;	c #664F45",
"7;	c #6A534A",
"8;	c #665249",
"9;	c #574944",
"0;	c #5B4B44",
"a;	c #624D44",
"b;	c #5B4941",
"c;	c #584A44",
"d;	c #5C4F4B",
"e;	c #594E4A",
"f;	c #524A47",
"g;	c #4F4643",
"h;	c #484140",
"i;	c #3F3A39",
"j;	c #4D4948",
"k;	c #595554",
"l;	c #383433",
"m;	c #464342",
"n;	c #2F2C2A",
"o;	c #343131",
"p;	c #3F281C",
"q;	c #6C3D1A",
"r;	c #71401C",
"s;	c #4D372C",
"t;	c #4D4745",
"u;	c #564D4B",
"v;	c #574C48",
"w;	c #554B47",
"x;	c #504846",
"y;	c #4E4744",
"z;	c #46403F",
"A;	c #413B3A",
"B;	c #413C3A",
"C;	c #42403F",
"D;	c #474241",
"E;	c #4E4847",
"F;	c #605B5A",
"G;	c #45403E",
"H;	c #3B3836",
"I;	c #43403F",
"J;	c #2E2C2B",
"K;	c #3B3736",
"L;	c #393535",
"M;	c #2D2A2A",
"N;	c #353130",
"O;	c #333130",
"P;	c #39261C",
"Q;	c #4E3322",
"R;	c #565252",
"S;	c #3D3837",
"T;	c #45413F",
"U;	c #524F4E",
"V;	c #474444",
"W;	c #484341",
"X;	c #393534",
"Y;	c #433E3D",
"Z;	c #393634",
"`;	c #2E2A29",
" >	c #322D2C",
".>	c #403937",
"+>	c #463F3C",
"@>	c #40332D",
"#>	c #3C302B",
"$>	c #362924",
"%>	c #312219",
"&>	c #402C21",
"*>	c #3E2A20",
"=>	c #302018",
"->	c #311D10",
";>	c #51331F",
">>	c #373332",
",>	c #413D3D",
"'>	c #534F4F",
")>	c #302D2C",
"!>	c #423E3B",
"~>	c #302D2D",
"{>	c #393432",
"]>	c #2F2926",
"^>	c #332B27",
"/>	c #3E3532",
"(>	c #423834",
"_>	c #413631",
":>	c #322A27",
"<>	c #463327",
"[>	c #3F2F26",
"}>	c #42291A",
"|>	c #402919",
"1>	c #442A18",
"2>	c #382112",
"3>	c #442712",
"4>	c #4B2C14",
"5>	c #522F16",
"6>	c #472912",
"7>	c #351E0C",
"8>	c #70401D",
"9>	c #50311D",
"0>	c #35312F",
"a>	c #302E2E",
"b>	c #2E2B2A",
"c>	c #3D3937",
"d>	c #3C3736",
"e>	c #423A37",
"f>	c #362D28",
"g>	c #342822",
"h>	c #3F322C",
"i>	c #40342E",
"j>	c #3A2D27",
"k>	c #2E2521",
"l>	c #523624",
"m>	c #482F20",
"n>	c #452B1B",
"o>	c #4A2C17",
"p>	c #533119",
"q>	c #502F18",
"r>	c #512F17",
"s>	c #311C0B",
"t>	c #6C401D",
"u>	c #61391A",
"v>	c #371E0C",
"w>	c #7A461E",
"x>	c #52311B",
"y>	c #342D2A",
"z>	c #3F342F",
"A>	c #34241B",
"B>	c #3C2A20",
"C>	c #442F24",
"D>	c #412B1F",
"E>	c #3E281B",
"F>	c #382416",
"G>	c #56341B",
"H>	c #4D2E17",
"I>	c #502F17",
"J>	c #573318",
"K>	c #321C0B",
"L>	c #7C4A22",
"M>	c #5A3317",
"N>	c #3B200D",
"O>	c #6D3E1C",
"P>	c #311D0F",
"Q>	c #452813",
"R>	c #553016",
"S>	c #553217",
"T>	c #38200D",
"U>	c #663B18",
"V>	c #3D220E",
"W>	c #613719",
"X>	c #834D20",
"Y>	c #8A5325",
"Z>	c #633918",
"`>	c #5D3616",
" ,	c #74421C",
".,	c #492A11",
"+,	c #5C3617",
"@,	c #41240F",
"#,	c #7C481E",
"$,	c #864F21",
"%,	c #4E2C12",
"&,	c #5A3518",
"*,	c #542F13",
"=,	c #472812",
"-,	c #563217",
";,	c #6F3F1C",
">,	c #7B4921",
",,	c #593317",
"',	c #834B21",
"),	c #76431E",
"!,	c #895122",
"~,	c #673D1A",
"{,	c #543016",
"],	c #4F2F16",
"^,	c #523016",
"/,	c #71431C",
"(,	c #895225",
"_,	c #4E2C13",
":,	c #824D23",
"<,	c #5B3518",
"[,	c #543117",
"},	c #573317",
"|,	c #563117",
"1,	c #482A13",
"2,	c #5A3418",
"3,	c #533016",
"4,	c #7F4C24",
"5,	c #4D2D15",
"6,	c #643A1B",
"7,	c #462813",
"8,	c #4C2C15",
"9,	c #492B14",
"0,	c #523015",
"a,	c #2A1809",
"  . + @ # $ % & * = - ; > , * ' ) ! ~ { ] ^ / ( _ : < [ } | 1 2 1 3 4 5 6 7 8 9 0 a b < ! c d e f g 3 h i j k l m | n f o l p q ",
"r s t 0 } u v ! w x y z A < ^ t B C ~ D | 9 E F G H I J K L M N O P Q R S T E i O U V ^ W X Y o e M - Z d < 2 `  ...+.@.#.$.%.z ",
"&.*.=.-.u ;.>.,.'.'.).!.~.{.].W V ^.^ Y d +.~.X /.(._.} | :.<.[.J }.|.1.2.3.A 4.:.g 5.6.t d 7.6.8.o P 9.0.# W Y a.b.O c.D <.d.e.",
"W f.g.h.i.j.k.l.m.b a n.O o.].f.p.q.r.j s.+.t.l u.v.w.[.K q @ x.y.,.z.A.=.B.n C.7.D.5.E.D F.t G.H.+.I.- J.J K.0 D L.~.M.c.N.d.O.",
"0 P.p a.Q.X R.I.S.).T.U.V.W.J @ p.X.=.j Y.s.#.W.Z.`. +%.K .+V.! ++@+#+$+o.k %+X %.&+*+N =+t ^ @.q.X.-+;+s.t ~ >+j %.,+F.'+k )+!+",
"~+q {+]+=.O H.^+/+7 w (+M._+J i :+<+W.^ [+[ 9 }+|+1+2+0..+'+]+@ s.-+3+4+K k j q @.5+6+<+K X.#.F.X.7+-+8+>.^ 9+0+).1 ^ a+b+2 _+d ",
"<.l W.@.t k f c+d+g e.o e+p f+4.U.q.g+.+B.* h+v ;.i+j+F #.a.k+^ l+m+n+o+7.Y p+l d.q+_ r+p+s+t+u+v+w+x+y+p.0 ]+j %+0.| p.` Y z+d ",
"0.;.-.D.Y K.~ 5.A+,+U.M X B+X 0 '.C+D+o.J X E+F+F.G+H+O.s.I+K ! d J+K+c.L+M+N+r.O+P+Q+R+S+T+U+V+W+X+Y+Z+6 k `+f [.t W.s.X.^  @#.",
"O X.e+^.W W r = .@#.c+n N.-.X %.s.+@@@]+7.#@G.$@w+%@&@*@=@-@;@>@,@'@)@!@~@{@]@^@/@(@_@:@<@[@}@|@1@2@3@4@5@V.~.d W.D p j k 6@7@d.",
"k d 0 ~+[.W ]+8@9@&+h 0@a@b@L+c@d@e@f@g@h@i@j@k@l@m@n@o@p@q@r@s@t@u@v@w@x@y@z@A@B@C@D@E@F@G@H@I@J@K@L@M@N@O@e+W c.l P@< r X.$.t ",
"i F+#.6.} e+Q@R@S@T@U@V@W@X@Y@Z@`@ #.#+#@###$#%#&#*#=#-#;#>#,#'#)#D@!#~#{#]#^#/#(#_#:#{#<#[#}#|#1#2#3#4#5#6#l | ]+l ]+`+} Y X M+",
"0.k t ^ 7#[.]+8#9#0#a#b#c#d#e#f#g#h#i#j#k#l#J@]#m#n#o#p#<#q#r#s#t#t#u#v#v#w#x#y#z#A#B#C#D#L@E#F#G#H#I#J#K#L#]+a.)+M#B.!.F+W ~ 6@",
"r.* k K.i.k+l N#O#k#P#Q#R#S#T#T#]#_#u#U#V#W#K@X#Y#Z#`#[# $.$+$@$:#D#{#[#:##$F#$$%$[#v#&$*$=$-$;$>$,$'$)$!$%.c.~$Q.k+z.w H.B.k+6.",
"|+:+z k =.B+F.{$]$]#U#X#^$/$%$3#D#($#$D#_$+$:$<$~#U#[$<##$}$|$1$2$3$4$5$6$7$8$9$0$a$b$c$d$e$f$g$h$i$!$j$G+^ L M#*.-.++U.k$X l X ",
"l$k$F N q } 6.m$n$s#]#H#o$p$q$r$s$t$v#u$v$w$x$y$z$A$B$C$D$E$F$G$H$I$J$K$L$M$N$O$P$Q$R$G+S$c d o V <.<.l.T$O U$r.r } B+#.7 H.+.~ ",
"#.'.; V$t ;.N W$X$F#Y$Z$`$ %.%+%@%#%$%%%&%*%=%-%;%>%,%'%)%!%~%4.A M {%V ].0.B.k X E+]%V ^%/%l d N.< k (%_%6@#.++r =.b.q M ).R.! ",
"g w 1+< e+l$;.n :%<%[%}%|%K$1%2%3%4%5%6%7%M [ i =.D.m.8%1 9%{.| t 2 0%V a%J b%x.@ q d c%< g.].z.@ ~ X.h d%d.W =.k+q %.]+d [ s.^ ",
"e%z n 0 p+^ [.@ f%g%a M z l+Y h%d +@J.i%V.B.j%t k%k+{ l%9 |  .]+W K.&+m%n%o%I x.p%k +.c+|.q%r ~+e+! D.r%s%6.D t%s ^ j%u%L#2 X.v%",
"k %.f.j.W e+K z.w%x%g W @ M l i%] y%~+/%q K 9 q g./%T$n%e+t z%c.Y F+d A%B%4 C%++;.! +.D%6.+ r.(+D .+a+r%E%f F%t%} #.U G%H%t.$.I%",
"s J%l ~.K.K P@j.K%L%B f.@ ~+;.D+f.M%>.N%l ) k V.W.O%P%Q%b.e+u W..+p%1 R%H+4 ].t S%f+X *+T%l k H.;...e.U%y+V%W%k+^ 5+R.X%H%Y%$.g ",
". P@K F+V.b.Z%0 `%P a+ &.&~+f.D++&* h / =.@&#.F.p+k+/.#&g+q $&W.`+H.e %&&&I a.:.g.^ d 8.*&! B k @.=&`%`%E%t+-&h%g _ ;&S%.+t 2 %.",
">&]+++r.'+,&g+1+-+- '&e+.&0.&.D+)&!&D%~&Q.g.< @ J.{&L%]&^&/&^& @W +.H.;+(&_& @Y :&6.d s.h H.k$<&d.D U.[&}&p.u .+^ 8.|&k+V.~ #.$.",
"1&k <.! )+ @2&n.3&%&%+ &z.~ R @&4.s.4&@&5& @W ~.:..+d%n%6&7.7&W.8&V.K.3 &&_.k+t 9&A J.0&6+j * ++B %.a&b&}&c&.+L...&+d&O B.W 0.G.",
"@@+.s.n k+g.e&! f&g&h&~ i&F+W J%N k :+j&L...%.K.=..+k&l&i%j @ W...]+| y m&q%L.{&n&!.o&p&q&<&q N r&O 2 >.s&^+Y /&t&Y 6@#@X ++d D.",
"/%J.n.m%<&g.g+) (+u&R.z.@ e+V..+++v&w&{.=.M.;.V.B+x&9.y&y&l+!.k+:&W.} I.r.q%a.} k+.&1+).c%K b.B `%.&e+H.z&c&%.! a.P.Y 6.f K ^ A&",
"<&r.0+R.Y W.% B&C&3 D%j V.| # {&D&o%E&M#a.D q K {+]+Z Q F&n.!&<&G&o.Q.6+H&i./%)+p D '&).V / s q.I&~+O <.J&c%e+j K&%.~ ^ #@b.%.C&",
"V$W.++F V.a.i.M#* J&= H.++| ~ t r.o%L&K&G%q ~ ]+M&'+N&O&y&Q$Y.e+:&k+/%e f&o%)  @p W.d P&P&~ =+q j (+a+M /.Q&F.s.k ^ N P.+. @| M ",
"v F%W.~+D z%} [.* R&g%k$e+K&0 1 f.9%.&p+& %.j%| S%5&^+S&T&C s.P.l .+g.D.K%U&% :&W.b.X.z m+d ].K V&(+C&z R%W&X&[ (+d 0.q #.p l Y&",
"5&a.@@k q Z& @=.~+`& *'.F.++H.s.;.W.U$U$^&%.F [.F%]+u..*+*y.f @*%... .<+#*% m :&| F+<.%+6+6.y.$*%*e.5%; /+&*W X F f+**7.6@c.` 6.",
"h%| g.q h%^&I+ @1 R&R&s.F.W [ s.++b.=*-*;*D o r  @<&5+{ +*+ ++J%O '+W.o W&>*=+,&F+* a+e m%a+,*'*)*!*~*{*]*^*7.E+~+} K.O X.$./*(*",
"X ^ k+/&L#G&7.k+~ _*L%g F+@ %+~.<&E+:*T%^&'+^ } a.~.<*[*}*J%} V.K.:&b.a+[*A.Q.O@F.0+<&a+K%p.|*1*2*3*4*5*> 6*|+K&k m J 0+@.0.L#Y&",
"M +.! q 7*:&~.k+q 8*9*'&C.; i K ..%.f 0*u a*5&)+b*z 2 c*d*k+a*d :.u k+d.L%e*I t P.F+B+3.= f*g*h*i*j*k*l*m*y+n*` q Z%[.!.l ,+o*5+",
"p*,+W e+=.M&^ =+e+8*q*r*H.!&c O%]+t .&s*O%7&m @*r a %.t*u*t%..0+V.G%/&@.c*n%v*~.q =+W w*x*y*z*D#A*B*C*Y#$%D*G.E+K S%W +.)+#@6.*@",
"E*f+V.| } )+<&K.(+/+F*|&H.U.p+G%W z.z.G* @k+m k+~ l+Q.H*I*J*<&f .._+t %.- K*L*+.J /%1 7 M*N*O*P*Q*R*S*}$T*U*V*%*B+l * 6.@*B a+l+",
"-&B+p+K W*Q.K X X*Y*s&*+z z D P@j.H.0 >.s I C%e+k H.F%Z*`* =7.V..=@*Y f++=@=#=k [./%* U.$=%=&=*===-=;=>=l#,='=E+p J s.g k+U$6.e ",
"-&p d ^ )=Q.]+O n !=~={=e.+.]+l ]=Y.N.c%^=j&/=X O N W.d+l&(=%.7*5&` ^ _=Z :=/%[.K&W.+.b <=[=}=|=K%>.6+1=2=3=4=M+S%=.1 j l %.6@Y&",
"m M&O 0 q } ]+%.~ I&}&l.7 O i.# F 1+; 6+V&5=< * N .+b.6=7=8=$.9=9=@.d.[.Q&0=(=5&@.l #.8.y*a=b=c=d=e=6+f=Y#g=q*#@)+b.t E+.+h%h=o*",
"L.p <&Y W t .+<&K j i=f&f ~ b%{.B s.J.c&@.X%/ j 6..+ .J+(.&&#.j=k=7.D .+6+9 (='+D.W ! o l=m=b=n=o=p=q=r=s=t=t*|&D )+h%B+7.8&q L#",
".+5&.+D K.j%<&)+k+X u=h Y V.} z+Y <.F+5+%.v=W.0 ~+t G%w=]=x=F+B+^ ^ M.D D%6+}+..D.X&5&6@R.y=z=A=B=C=D=E=F=G=q*0@%.:&` W*+.6.l P.",
"7*t L#]+++M q J*l j L%H=d.| | ]+K&~.f.B X&^&]+X.6@O .+G.R.I=^ B+f 0+E+J=K=L==.k+N 0..=h=U.G+M=N=O=P=Q=R=S=T=U=Y&` m 8&)=(+>.%.7.",
"v (*7+q l X l k%V.!.V=P d&7.t Y b.q r.f d @@<&! 7.~.O W=m%_.V.B+X=h&W J=Y=I.}*=+%.j 7*%.e%Z=p.~ d@^+@+`=l+x* -<*.-+-! | U.*@d.b+",
"..t a+<*V.t B+@-t.e.#-i=(+^ #.^ M&b.J .&O&@@%.V.x&K.g d.{ $-.+a*D [ 0 V.r*P%%-+ <&i N 7.d&`%]%s P.f d.j%7 = &-*-)+u ++7.=-d t )+",
"@*.=6@a&K.t B+v=x&e l.G 5+6.e N O%:&]+U$--m k ^ 7&K H.W ;-$+O%c.W.3.=@#.<.k&+*/%.+^ z 7.&+U%C+S%l (+$.t [ f&>-Y&E+a.t %.f ]+k+E+",
"h%t%L#7.F+J.| >&V.W ]*;+|&0.M F+a.a.b.=*,-a*j.M E+b.N.} '-)-m J /%4.F i i !-~-)=]+E+1+! e l.-*X%B+M 6@.+n {-]-q&U$q 7.V.^ ..^-#.",
"1 )+u%B+K.V F+D+f.>*/-u&M h=a&F.l W.} q.(-W j%!.1 k+W m '-8=B+q O%.&K.X f _-(&=.k+..:-h+d@S.J+M&W.O j c.i U%<-h V k k+..O (*x&7+",
"j ..[-;*e+}-0 {+E++-|-G C&^ j X.V. @a.6.6+[.~+s.F D k+K - d*r K.O%'+h%<.d&^*l&{.]+B+O Y 6.-+1-'+]+%.e K&X 5.2-y U%X {+a..&3-j O ",
"1 2 4-p :=r&B D D 7&;&5-p.J.U 0.V.B+B&1 6-=+k O.s.P..=x&d%&&7-X  @t%7*g #@P m&~&K&'+h%a&f U 8-9-L+G.1-W=a&T.0-_*q&a-J=a.i&[ r&d ",
"]+i <&'+p+M B 7.@*D e.3 v%(+D%2 V.q J%X 6+s =.[ 0+e+5&..b-c-C%i B+a*L !+V*d-@.K&#.7.| e-f-g-h-i-j-k-l-m-n-o-p-q-r-W=6@]+~ n.w k ",
"b.X ^ n*#.D.k ++ ./&c+3 |-*@).E+` X=D q.^+r + +.s-t-u-v-w-.&x-y-z-A-B-C-D-E-F-G-H-I-F-J-K-L-M-N-O-P-Q-R-S-T-U-V-t+t #.7.=.^.b&;.",
"W ^ 2 #.j%^ c.| O%K&I%R&W-X-J+Y-Z-`-X. ;.;+;@;#;$;%;&;*;=;-;;;>;,;';);!;~;{;];^;R-/;(;u$_;_;:;:;p#[#<;[;@$(#};*%&+D 7.6@k+^ o ]+",
"<.#.K&D.#@`  .)+P@} *+|;1;2;3;4;5;6;7;8;9;0;a;b;c;d;e;2@f;-#g;h;u$_;i;s${#<#A#U#X#j;k;L@3#D#A#_#I#l;T#m;n;#$o;p;q;E+7.|&%.7.r;J=",
"~.j <&a-V%'+G%)+B+l d@s;t;u;v;y@w;x;y;B@z;A;B;U#!#C;s#[$D;E;]#L@j;F;<#v#v#:#G;C#H;(#I;J;K;G;:;D#K;L;,=M;N;D#O;P;e X=e+D%0 V.#.<&",
"0.[ #.g d. @b.<&.+W d Q;2#U#{#<;R;D#[#A#t##$S;T;U;V;%$D#:#W;<#1#X;[#C*3#<#Y;B#3#B#Z;`; >.>+>Y$p-@>#>$>%>&>*>=>->p.a&t ).* / #.t ",
"s.[ ~+e.@. @V.B.~ +.N ;>>>{#[#,>'>)>[#D#A#!>D#($3#~>l;Y;[$<#C#s${>]>^>/>(>_>:><>[>&>}>|>f$1>2>3>[&T.4>5>8.I%6>7>|&o $.~+X K 6.D.",
"C.f 8>R.k k+%.++J.g `+9>0>[$s#F#a>b>t$D#c>d>e>e>f>g>h>i>j>k>l>m>n>o>p>q>r>3&s>t>k.u>~+r&2.F S.Q&Y d R.(+6@z w%v>4&8.Y w>O@B+#@0@",
"%.^ #@r&0 D l$l A !.|.x>y>p-z>N*A>B>C>D>E>F>G>H>I>J>T.x*Y*K>L>3.Y.+.t d n ~+8+L*#+0 ! i %.X ).X-<&c H.g 7+M M>N>r%l+G.7&,&k+(+s.",
"w>f O>%+0.E+#.]+1 s.0 m$P>Q>R>).S>l+s.!&'.G+4 j 3.N X (+I%T>l&r i Y b.{&8>f 5-l&4 ^ h%k l [.d@U>D X :-s.0.g I&V>-+e w>M&..K.W>l+",
"x&e%K.#.w>%.+.X>J=X.%+K%z&6+#@0.e c ! 0.~+f*].e+~ q %.6.R.&-T&I 3.Y '+q i 0.- Y>{.7.%.X ..7.v%Z>:=<.e%R.j j O.;+`> ,8&@*V.1 *@P&",
"h%a&<&^ .+7.g <&)+=.!.r%.,>.i M F W ..Y e +,b%l W :.$.Y d&@,N%b%o X..+W +.**}.] W.#,6@a&O@:.R.V  &* s.R.M j%a V=h %.D D 2 f l+e ",
"^ ,+x&X 5&D a&$.$,z+j `%%,s.<.&,T.#.k+e+e D%V&l N j 0.$.7.*,< &.%+Y <&#.#.@.Z 9 ~&N i +.V.p*D%D%U$<.n.a e.n.R$=,L=Y <&X j%X 7 <.",
"[ 0.k+(*} ..2 +.P. .@ = _*U.H.I&-,0+D ^ [ +, &=.X '&;,O [.c&]=>,l+f F.6.Y 7.T$i&d*k J.J.a&%+,,8@p.>+{$, '.r&-,u=H*d.q 8>f F.z e ",
",,#.',),l K d s.U$!,:=R.L%_ z , ,,U.N X s.6+N -.+.!.j%1 O -+~,m&]=(+&++.X a&H=+@d*k '&n.v%c+{,l.`%b&],^,T.[&x*x%y f w>f H.%.d 6.",
"P&6@2 1 <&l M v%k r V&d [*.@(+w T.r&~+s.F c+/,@=H.n.j%:-n S.V (,[+7 o '&7 R$_,Z=:,%+<,[,},I&|,1,x 2,R$5>3,V>1-L (*%+X.0 m$]+V.a&",
"l+6@g (+++l M a+r.@ 2.K.R&T=s.F r&~+M b&n.c+:+R r&e.%+a 2,6>= 4,, b&I&R$5,>+U%x*6,-,a [,7,;-7 8,9,5,I&0,4>a,p.q 6@M q d R@%.D&r&"};
