/* XPM */
static char * rot14_xpm[] = {
"64 64 59 1",
" 	c #420000",
".	c #400000",
"+	c #360000",
"@	c #250000",
"#	c #2D0000",
"$	c #420300",
"%	c #3A0000",
"&	c #3C0000",
"*	c #1B0000",
"=	c #000000",
"-	c #170000",
";	c #090000",
">	c #280000",
",	c #370000",
"'	c #2B0000",
")	c #2A0000",
"!	c #270000",
"~	c #2C0000",
"{	c #2F0000",
"]	c #320000",
"^	c #310000",
"/	c #330000",
"(	c #2E0000",
"_	c #240000",
":	c #200000",
"<	c #0D0000",
"[	c #100000",
"}	c #390000",
"|	c #120000",
"1	c #3B0000",
"2	c #150000",
"3	c #260000",
"4	c #210000",
"5	c #350000",
"6	c #1D0000",
"7	c #190000",
"8	c #290000",
"9	c #1F0000",
"0	c #060000",
"a	c #050000",
"b	c #080000",
"c	c #1C0000",
"d	c #220000",
"e	c #160000",
"f	c #030000",
"g	c #0B0000",
"h	c #400300",
"i	c #300000",
"j	c #180000",
"k	c #020000",
"l	c #110000",
"m	c #220300",
"n	c #1F0900",
"o	c #230000",
"p	c #1E0000",
"q	c #130000",
"r	c #1A0000",
"s	c #040000",
"t	c #140000",
" .+@#$%&*==-=;*>,'>=)!**>~{]^{^//(>!@_@)(':<[--==*#)>(&_(}@|@&,(",
"{+):/1](===2[|2'%'!|34~55]]]{'(^5/#)>''))))672<==|(#:@}_!}!8@5'-",
"'+9*%5,/0|=;ab-#8c6_)(^//^{{(!:9>#(!@)(5/''>d*|7:7!#*2>!9^'5!7@[",
"@/|>1']3e6@]':=_f==|:>(]{''{/]!2|*_:d:!{]{#>_*-9@__{)[2!:>#+@|@;",
":+>ddg2=[*#}'!fd0=====7@>@!(/5(:7*:_>@!>>))>_976d!@((*6))*'/d)+6",
"h},[==2<<-{5#>:_*;======29d>^+]#>'(')!>)>!!>>_6d@>'>_d{#/-_~d#%_",
"1/{[;====*5/>!@_*0========;-_^++]]]/(!_!>@_!'{'>)'(#@_,(}*)@:@%_",
"++/9-==<f6{(>!_d*=======[====0@##(()>_:!#^'_@>']{')>'!/{,!5@!2,@",
"/(#_6ff7|6>((>:6|======7_d-0====|6@>*77d!+,(_69'()9*9!{{{_{)#;/@",
"/!>!@f=:|-*!{'d-f======-@>!:;=====;:99d!>#]/'@@'^#_77>({!|9>]0')",
"]9)){==d-|[29__-======26_!##_7[[0====|6@#({]]/^{]^(!d@)#@;<:i|d>",
">|#@+=|_@_92<<2[=====;_>@_)#''>_d92f===0*_>'{]/+/^^#)))'!:f*36)@",
"d*^)(*79d!!d-;;f=====-(/(!d_>)@_@_9-|f====f76dd>^/,/(#^](#2-;_,:",
">_{(!62-6:@)_*2======2)]+^!:_!_2-*77-;=========|9'55^'^5]{_<fj+d",
"!))'_7-6d9d''_[======<*d'#'_*d@92*:9<============2_>!dd>)>_69e>>",
"-*7@@__!#!@)#@;=====[6*2|7:92_^#>)()*==============0<;;7_>')):*'",
":_;-7>^,}]'>):======d>@9222|[9'^^^{)*[==================7_)#)d7!",
"{):;=2*{&,])d|=====0d>!!@_9-2|2:@>')-=====f[====<2<=======29d9-<",
"5(>d9*;0*_)!:;=====*!))#{)@6-|;<[79:9<====0-;===*d@d-0======;[k=",
"^^>_>'>:f=<[<======:(^((]](d*-22||[;;f=========2d)')>d<=======27",
"^+#_@>'@*2-|;=====7'^](((({')'#>d*7|0=========[ddd@_d9|=======c'",
">]]#!>')@_@:[=====9{5+(]+]({]5+5):d>:<=======0_(()>@:2=======f-'",
"6!#{({]]^#!6======0;)^{+&}5/5++5(@_'':|0=====;:(+5/#d|======[*c_",
"6'^]^{^]5(@|=====;67--*@{%%,++,,])!#^#_6||[<;;|*_#^':[======-:97",
"6{%5^#!_>>9f=====6!>>*;;;*(((^,}+^''(/](@!@_9*-f=[6*7f======|*7a",
"[-@{]{':<|<=====<!')>_7*6-2|-6#}++])_)^^>#^^'>_*<<[<0======796-;",
"<<0|@!(^!*f=====:{/^{)_!#^'d:|<d#,}/#'{(!!!')!d@@:*2f=====fd)@6l",
"-d')>:999_======@],},/{(^////#_<0_'{5555^#>@@_d_@@:-=======|@>_:",
"9@)(5'@2;[=====<_'{]}%+]5,+5/5]'d6779>/+]^]^{(#(#)@-=======;27:d",
"d99:)'>97======7!(]^]5^''(]]{^/+/(@96;7_:)+}}/]]]{>[=====0*d6[<<",
"_*2-d!@9|======[d(+&1+(_7-9)({#5+5{)>!d20[d/1/5/()6======2@##d-0",
"@:9d@@_6;=====7_d!_{&&}'*77:#{')(+/(>)^>d*0;9_{5/>[======6!){#_-",
">'({^'@*======!+,]d6-@/##>!@{^^!@#/^''(((>d6<f76@![=====;d>>@!@*",
"9)^++]'m======:(5+#)d-7-d>/+,5/{'){]]#!@@_:::7|<;f======|_>)@:9-",
"769>/{#n=====<9!''!!#(!*-;2'^/,,5^({]{>:997*dd9*2<=====0:'#(>d92",
"462[*6d<=====6!'')@@)^]^#d[<29)/&%+^#^]#''>:>#):2f======:(^5^>@-",
"_@::*-[=====7){]/](')#]++/{@7-*-'/+}('(]/]]^/5]@<=======f26!#/(6",
"!(!@@90=====*#/]/+/^{#({]5/(@9__@2:{@{]5,+^]55/><======-*|[|;:!*",
"*{#'!:======|9@>'/5/{{#!@'/,#_9@])@>*6>/}%+{)'(_0=====-d_d::-===",
"gd@)!6=====09:9[-){5+/]#d_)/5(@@'^5/'_<7>(/+{'!7=====f@(#!_!_2=0",
"_-*99<=====6##!*[7d>#/,+^{{/,/'@!'(()!_9:9:_(^!2=====<!^^#!_d|0*",
"]j[22=====f@]5/)66d!__#{^+,++5{!::d@!@d_#)!-072;=====2_!)(>d9|=7",
"+o||0======9){55(')''>@d_)(555/(!!@@'#{##^]^!2======<>'_:_d672<;",
"')<|======<6:_>(^^(##({#@96_){//++^'#(({'#{/{d0=====['/]!6*-|<2[",
"9#========9@_:d!>#('>>(^#!_97:_!5%,/(>d999@)>9=======[:#(@!_7-|;",
"*~70======6_!@@_@'#)_*:>{(>_67--9!{/^(@*-276:-=========;|6>>d7*=",
":@#!-======|6d!@@)##!6-d(](d7--6d6:!>)>__ddd60=====0776_60;02f;;",
"]>^]>622;====<-6:_!)'>:9!^5#:--9!>!_:6-:({^{9======*!!>)):f====[",
"/'3//#>>!:2f====0[|7:!@9*@(]#@_!!'{{(!729_'!-=====0_'>@_d:|===*d",
")>*'])))#{#_[f======f*d*--:#^]]/(/5+5](!6--[======-@)!:99*[ff<@)",
"6;4d(')>'^%+)!)@|=====[--2-:)^/]'{5+55+5(@*;======d'')_6--[26[d(",
"@=_:@@'!>#/,,,,5#_-0=====ff[9)((>@!#{{^{():[======9#{{'@*[[-)_'/",
"_=9{):@)>)^5+%}+/{#>d70=====|:!>@:6_!!)')_7f======|2d)'()=|<)#++",
"2<d](6_/]##(({]5+55/{{![=====f<2769_d9:!(@7======-*2[27:|=f[),5(",
"::@#)9!+5#!9*6d(}%}5(('922-2=====07dd6[2!!-=====[_>_7||-;==*>+{d",
"'>(!*2',(!@*22*:>{,5^{#)@@){!2=====02-[<-*f=====7){(!-79[==@#](:",
"):}!:;!+)#d#d_#{''{^5//^{({]])6|<;====f;;0======7d@)@||:[==_^)::",
"{7&)_=9^>]6)##/+,5{({]5/]{(/,5^')#>*f==========[62[-<2f7===9]!7@",
"(:1)6[:#!^!6>#]]]^#'#{]^('!>{,%,5]]{@7=========29|[d=|=-===2{!7#",
"!d,@p:@'_']#!)55{@d!'#)!>)!__{5++/]^]{@*[0=====;2==7===<=kgq*ri@",
"|_}:c)'(_@55)7(/5>d!^]#)>#{##)'>!>##555]'d6|=======;==|!8+d:=|{@",
"=@+:p!>+!d^++f2@#(>>/%%5]{{'>>!_7-*_#]+5{!_9*|sa<=q===7])6::=')>",
";@'!c#91)!*+1;=f6!@d'}1,5()@d@'#!d*:)],+^_jt<s*=;=-===-/!-@:=]#:",
"[@d^:(d})d[(5>==-!>:d]+{(>_!)#]++{)33)8_[=[===|===;===2(@7(_=''<"};
