/* XPM */
static char * rot12_xpm[] = {
"64 64 789 2",
"  	c #552F12",
". 	c #532F11",
"+ 	c #4B2A0F",
"@ 	c #3F220C",
"# 	c #44250E",
"$ 	c #553011",
"% 	c #4E2B10",
"& 	c #502D11",
"* 	c #391F0B",
"= 	c #2B1607",
"- 	c #241105",
"; 	c #371E0A",
"> 	c #2D1708",
", 	c #321B09",
"' 	c #41230D",
") 	c #4C2B0F",
"! 	c #43250D",
"~ 	c #41240C",
"{ 	c #281406",
"] 	c #42250D",
"^ 	c #40230C",
"/ 	c #391E0A",
"( 	c #45260D",
"_ 	c #49280E",
": 	c #47270E",
"< 	c #49280F",
"[ 	c #45260E",
"} 	c #47260D",
"| 	c #47260E",
"1 	c #44250C",
"2 	c #42230C",
"3 	c #3F210B",
"4 	c #3F220B",
"5 	c #3C210B",
"6 	c #40230B",
"7 	c #4C2A0E",
"8 	c #46260E",
"9 	c #4C2A0F",
"0 	c #45270E",
"a 	c #3E220B",
"b 	c #2D1808",
"c 	c #2F1908",
"d 	c #170A03",
"e 	c #381E0A",
"f 	c #361D0A",
"g 	c #44250D",
"h 	c #47280E",
"i 	c #351B09",
"j 	c #502D10",
"k 	c #45250D",
"l 	c #46270E",
"m 	c #42240C",
"n 	c #4F2C10",
"o 	c #48280E",
"p 	c #45250E",
"q 	c #231105",
"r 	c #361E0A",
"s 	c #341B09",
"t 	c #351C0A",
"u 	c #4E2B0F",
"v 	c #2A1606",
"w 	c #26150A",
"x 	c #2E1A0D",
"y 	c #381E0B",
"z 	c #4A2A0F",
"A 	c #46280E",
"B 	c #42250C",
"C 	c #46260D",
"D 	c #4A290E",
"E 	c #42240D",
"F 	c #41230C",
"G 	c #3C200B",
"H 	c #3E210B",
"I 	c #351C09",
"J 	c #160A03",
"K 	c #371D0A",
"L 	c #3F230C",
"M 	c #43250C",
"N 	c #43250E",
"O 	c #3B200B",
"P 	c #4A280E",
"Q 	c #311A08",
"R 	c #1F0F04",
"S 	c #321B08",
"T 	c #2E1808",
"U 	c #4A290F",
"V 	c #3A1F0A",
"W 	c #3D210B",
"X 	c #341C0B",
"Y 	c #271B16",
"Z 	c #1E1815",
"` 	c #25170E",
" .	c #311B0B",
"..	c #48270E",
"+.	c #3D210C",
"@.	c #321A09",
"#.	c #150903",
"$.	c #4F2B0F",
"%.	c #200F04",
"&.	c #301908",
"*.	c #392316",
"=.	c #322621",
"-.	c #231F1E",
";.	c #1A1817",
">.	c #1A1310",
",.	c #25140B",
"'.	c #351D0B",
").	c #341C08",
"!.	c #3F230B",
"~.	c #341C09",
"{.	c #301A08",
"].	c #351D09",
"^.	c #140803",
"/.	c #361C09",
"(.	c #532E11",
"_.	c #3B1E0A",
":.	c #4F2B10",
"<.	c #331B09",
"[.	c #48280D",
"}.	c #3C210D",
"|.	c #37261D",
"1.	c #2C2522",
"2.	c #211F1E",
"3.	c #1D1B1B",
"4.	c #1A1818",
"5.	c #181413",
"6.	c #1F1109",
"7.	c #3B1F0A",
"8.	c #49290E",
"9.	c #4A280F",
"0.	c #321A08",
"a.	c #3C1F0B",
"b.	c #1F0F05",
"c.	c #351B08",
"d.	c #4B290E",
"e.	c #3A1E0A",
"f.	c #391F0A",
"g.	c #271305",
"h.	c #3D210D",
"i.	c #3C281D",
"j.	c #342925",
"k.	c #262221",
"l.	c #201E1E",
"m.	c #191817",
"n.	c #1D1B1A",
"o.	c #191513",
"p.	c #1E1108",
"q.	c #211105",
"r.	c #2B1706",
"s.	c #331B08",
"t.	c #3B1F0B",
"u.	c #3A1F0B",
"v.	c #41230B",
"w.	c #291507",
"x.	c #372011",
"y.	c #352822",
"z.	c #2F2827",
"A.	c #2F2B2B",
"B.	c #292727",
"C.	c #1A1614",
"D.	c #21140E",
"E.	c #2E1809",
"F.	c #2F1807",
"G.	c #241104",
"H.	c #2C1706",
"I.	c #351C08",
"J.	c #361D09",
"K.	c #2C1607",
"L.	c #341B08",
"M.	c #40240E",
"N.	c #38251B",
"O.	c #2F2723",
"P.	c #252120",
"Q.	c #252221",
"R.	c #1E1C1B",
"S.	c #191716",
"T.	c #140E0B",
"U.	c #251409",
"V.	c #2B1606",
"W.	c #291406",
"X.	c #49290F",
"Y.	c #3C1F0A",
"Z.	c #41240B",
"`.	c #391E0B",
" +	c #382316",
".+	c #362A25",
"++	c #2B2523",
"@+	c #201E1D",
"#+	c #1B1A19",
"$+	c #1A1412",
"%+	c #1F120B",
"&+	c #2C1707",
"*+	c #261305",
"=+	c #3F210C",
"-+	c #49280D",
";+	c #47280D",
">+	c #361C0A",
",+	c #301B0C",
"'+	c #322520",
")+	c #302A28",
"!+	c #1F1D1C",
"~+	c #1D1A19",
"{+	c #201712",
"]+	c #2F1A0B",
"^+	c #3E220C",
"/+	c #2B1506",
"(+	c #40220C",
"_+	c #45250C",
":+	c #4D2B0F",
"<+	c #3B210B",
"[+	c #37251B",
"}+	c #352E2A",
"|+	c #2B2725",
"1+	c #1E1D1C",
"2+	c #1E1D1B",
"3+	c #1D1815",
"4+	c #28180C",
"5+	c #1E0F04",
"6+	c #301907",
"7+	c #3F230D",
"8+	c #3E210C",
"9+	c #40240F",
"0+	c #382922",
"a+	c #2F2B28",
"b+	c #252121",
"c+	c #201E1C",
"d+	c #1F1E1C",
"e+	c #1F1511",
"f+	c #311B09",
"g+	c #41240D",
"h+	c #311A07",
"i+	c #3A200B",
"j+	c #2D1706",
"k+	c #40250C",
"l+	c #48280F",
"m+	c #4C2B10",
"n+	c #412A1C",
"o+	c #352A25",
"p+	c #1F1D1D",
"q+	c #1F1C1B",
"r+	c #1B1614",
"s+	c #21130A",
"t+	c #2F1808",
"u+	c #351D0A",
"v+	c #251205",
"w+	c #42240B",
"x+	c #46270D",
"y+	c #2F1907",
"z+	c #47280F",
"A+	c #543013",
"B+	c #4D2B10",
"C+	c #412614",
"D+	c #3C2B22",
"E+	c #302825",
"F+	c #2B2A28",
"G+	c #1E1B1B",
"H+	c #1B1919",
"I+	c #1E1817",
"J+	c #24160E",
"K+	c #2F1909",
"L+	c #221105",
"M+	c #3B200A",
"N+	c #47270D",
"O+	c #331B0A",
"P+	c #2E1807",
"Q+	c #3E230C",
"R+	c #41240F",
"S+	c #3B271C",
"T+	c #332824",
"U+	c #292626",
"V+	c #2C2A2A",
"W+	c #252323",
"X+	c #161312",
"Y+	c #1B1310",
"Z+	c #301B0B",
"`+	c #381D0A",
" @	c #351C0B",
".@	c #261306",
"+@	c #4C290E",
"@@	c #3C200A",
"#@	c #3E2719",
"$@	c #3B2E28",
"%@	c #232121",
"&@	c #1C1B1A",
"*@	c #191311",
"=@	c #21130B",
"-@	c #321B0B",
";@	c #2B1D15",
">@	c #27180E",
",@	c #25150C",
"'@	c #22150E",
")@	c #1E1816",
"!@	c #251811",
"~@	c #371D09",
"{@	c #2C180B",
"]@	c #302521",
"^@	c #322B28",
"/@	c #242120",
"(@	c #1F1D1B",
"_@	c #1F1B1B",
":@	c #211611",
"<@	c #42250F",
"[@	c #37251D",
"}@	c #2B2624",
"|@	c #211E1D",
"1@	c #191414",
"2@	c #1E1A19",
"3@	c #23201F",
"4@	c #211E1E",
"5@	c #1C1614",
"6@	c #2A1406",
"7@	c #4F2C0F",
"8@	c #3F210D",
"9@	c #3C281F",
"0@	c #352E2B",
"a@	c #2A2625",
"b@	c #201917",
"c@	c #28180D",
"d@	c #44260D",
"e@	c #3F2513",
"f@	c #352B26",
"g@	c #353232",
"h@	c #282625",
"i@	c #141111",
"j@	c #1C140F",
"k@	c #1F1918",
"l@	c #110D0B",
"m@	c #170B03",
"n@	c #281405",
"o@	c #412511",
"p@	c #3E2D25",
"q@	c #272423",
"r@	c #1E1B19",
"s@	c #381F0C",
"t@	c #3D2312",
"u@	c #2F241E",
"v@	c #2E2A29",
"w@	c #282525",
"x@	c #140E0C",
"y@	c #1E1005",
"z@	c #281A11",
"A@	c #241E1C",
"B@	c #1B1514",
"C@	c #1C0E06",
"D@	c #221104",
"E@	c #4B2B11",
"F@	c #4F2C11",
"G@	c #4B290F",
"H@	c #3F2A1E",
"I@	c #372B27",
"J@	c #282422",
"K@	c #21201E",
"L@	c #1E1B1A",
"M@	c #191413",
"N@	c #1B0F08",
"O@	c #4B2A10",
"P@	c #492910",
"Q@	c #42250E",
"R@	c #3C210E",
"S@	c #372112",
"T@	c #271D18",
"U@	c #171413",
"V@	c #1B0F09",
"W@	c #2C1807",
"X@	c #301C0F",
"Y@	c #282220",
"Z@	c #1C1919",
"`@	c #231308",
" #	c #2A1506",
".#	c #251305",
"+#	c #4C2B11",
"@#	c #43250B",
"##	c #432814",
"$#	c #3C2B23",
"%#	c #2F2825",
"&#	c #221F1E",
"*#	c #1E1A18",
"=#	c #2A1608",
"-#	c #4E2C11",
";#	c #321B0A",
">#	c #2B201A",
",#	c #24201E",
"'#	c #1C0E05",
")#	c #3A200C",
"!#	c #35251E",
"~#	c #2C2825",
"{#	c #201B1A",
"]#	c #26150B",
"^#	c #271406",
"/#	c #211004",
"(#	c #2D1807",
"_#	c #46280F",
":#	c #321C0B",
"<#	c #38261C",
"[#	c #322722",
"}#	c #292625",
"|#	c #1D1A18",
"1#	c #211814",
"2#	c #2E190B",
"3#	c #45280E",
"4#	c #512E11",
"5#	c #2A1607",
"6#	c #25170D",
"7#	c #272322",
"8#	c #1C1918",
"9#	c #1B110B",
"0#	c #241408",
"a#	c #2F1C11",
"b#	c #2F2522",
"c#	c #272524",
"d#	c #1F1814",
"e#	c #2B1507",
"f#	c #1B0C04",
"g#	c #211208",
"h#	c #2F190B",
"i#	c #40220B",
"j#	c #3A2519",
"k#	c #342B26",
"l#	c #2A2524",
"m#	c #2D2B2B",
"n#	c #2F2C2C",
"o#	c #181717",
"p#	c #1B1412",
"q#	c #26160C",
"r#	c #2E1806",
"s#	c #28160B",
"t#	c #281F1C",
"u#	c #24201F",
"v#	c #1F1A18",
"w#	c #1F1917",
"x#	c #2B190E",
"y#	c #381D09",
"z#	c #28180E",
"A#	c #1D1511",
"B#	c #25140A",
"C#	c #381E09",
"D#	c #3A210F",
"E#	c #422F24",
"F#	c #302927",
"G#	c #22201E",
"H#	c #1B1817",
"I#	c #351E0B",
"J#	c #2D1707",
"K#	c #4C2A10",
"L#	c #2A160A",
"M#	c #241914",
"N#	c #211B1A",
"O#	c #1F1B1A",
"P#	c #1B1715",
"Q#	c #231814",
"R#	c #301B0E",
"S#	c #302119",
"T#	c #282120",
"U#	c #1C1A19",
"V#	c #1F140E",
"W#	c #29170B",
"X#	c #361D0B",
"Y#	c #32231B",
"Z#	c #352D29",
"`#	c #2A180D",
" $	c #301A0A",
".$	c #2A1708",
"+$	c #3A2315",
"@$	c #342621",
"#$	c #25211E",
"$$	c #181616",
"%$	c #150F0C",
"&$	c #231206",
"*$	c #3A2111",
"=$	c #2E2927",
"-$	c #282523",
";$	c #242121",
">$	c #241711",
",$	c #371E09",
"'$	c #3B210D",
")$	c #2F211B",
"!$	c #2B2422",
"~$	c #1B110D",
"{$	c #1C0E04",
"]$	c #1D0E04",
"^$	c #3F220E",
"/$	c #39271C",
"($	c #322925",
"_$	c #1A1411",
":$	c #2F1B0C",
"<$	c #40230D",
"[$	c #361D08",
"}$	c #4F2D11",
"|$	c #382114",
"1$	c #2E221E",
"2$	c #242221",
"3$	c #161413",
"4$	c #1E1714",
"5$	c #28160A",
"6$	c #3B2417",
"7$	c #362B25",
"8$	c #4D2A0F",
"9$	c #44260E",
"0$	c #3D2311",
"a$	c #35251F",
"b$	c #21201F",
"c$	c #191818",
"d$	c #181411",
"e$	c #22130A",
"f$	c #422510",
"g$	c #3C2A22",
"h$	c #302826",
"i$	c #262424",
"j$	c #211F1F",
"k$	c #1C1B19",
"l$	c #201D1B",
"m$	c #241A15",
"n$	c #351E0C",
"o$	c #522E11",
"p$	c #4D2C11",
"q$	c #352117",
"r$	c #2F2521",
"s$	c #1B1918",
"t$	c #1B120E",
"u$	c #261408",
"v$	c #452E20",
"w$	c #3F332E",
"x$	c #2F2A28",
"y$	c #2D2A2A",
"z$	c #181515",
"A$	c #1C1814",
"B$	c #28170D",
"C$	c #3F240D",
"D$	c #532E12",
"E$	c #4B280E",
"F$	c #331F13",
"G$	c #2F2420",
"H$	c #282221",
"I$	c #23140B",
"J$	c #3D2310",
"K$	c #433128",
"L$	c #38312E",
"M$	c #262322",
"N$	c #181414",
"O$	c #1F130C",
"P$	c #381F0A",
"Q$	c #40250D",
"R$	c #3C210C",
"S$	c #371E0B",
"T$	c #37251C",
"U$	c #2C2623",
"V$	c #361E0B",
"W$	c #35251D",
"X$	c #382E2B",
"Y$	c #2B2726",
"Z$	c #22201F",
"`$	c #201D1D",
" %	c #1C1613",
".%	c #2A180B",
"+%	c #40240D",
"@%	c #3F220D",
"#%	c #4E2B11",
"$%	c #3B2416",
"%%	c #25211F",
"&%	c #1B1714",
"*%	c #3E2413",
"=%	c #372A24",
"-%	c #2E2826",
";%	c #232120",
">%	c #211C1A",
",%	c #281911",
"'%	c #371D08",
")%	c #39200B",
"!%	c #44250F",
"~%	c #3A251B",
"{%	c #2B2421",
"]%	c #211E1C",
"^%	c #1E140F",
"/%	c #251206",
"(%	c #3F2B20",
"_%	c #342B27",
":%	c #262222",
"<%	c #1E1613",
"[%	c #341E0E",
"}%	c #3C2314",
"|%	c #2F211C",
"1%	c #231A15",
"2%	c #2B180B",
"3%	c #412819",
"4%	c #3E302A",
"5%	c #1E130C",
"6%	c #4B2B10",
"7%	c #49270E",
"8%	c #32251E",
"9%	c #28211F",
"0%	c #181817",
"a%	c #27160B",
"b%	c #3A200E",
"c%	c #3B2A21",
"d%	c #332A26",
"e%	c #1E1C1C",
"f%	c #211813",
"g%	c #2D180B",
"h%	c #41220B",
"i%	c #3F281B",
"j%	c #302723",
"k%	c #201D1C",
"l%	c #2D1809",
"m%	c #372C28",
"n%	c #2F2B29",
"o%	c #161514",
"p%	c #311E13",
"q%	c #2E2521",
"r%	c #2A2521",
"s%	c #1E1814",
"t%	c #28170B",
"u%	c #311908",
"v%	c #351E0E",
"w%	c #342824",
"x%	c #2F2928",
"y%	c #312F2E",
"z%	c #3F240C",
"A%	c #502F12",
"B%	c #36261E",
"C%	c #23201E",
"D%	c #42230D",
"E%	c #35261E",
"F%	c #342C29",
"G%	c #292525",
"H%	c #1C1A18",
"I%	c #171210",
"J%	c #23140A",
"K%	c #351D08",
"L%	c #362114",
"M%	c #312521",
"N%	c #1E1813",
"O%	c #2F1B0B",
"P%	c #2D190B",
"Q%	c #2C211B",
"R%	c #1F1B19",
"S%	c #3A200A",
"T%	c #45260C",
"U%	c #4C290F",
"V%	c #3F2310",
"W%	c #1D120D",
"X%	c #281506",
"Y%	c #4A2B10",
"Z%	c #331E10",
"`%	c #291B14",
" &	c #211B18",
".&	c #1C1713",
"+&	c #3F2616",
"@&	c #2E221D",
"#&	c #221E1D",
"$&	c #221A16",
"%&	c #29180B",
"&&	c #1B1511",
"*&	c #1C1109",
"=&	c #2B1708",
"-&	c #3B210A",
";&	c #4B2A0E",
">&	c #361E09",
",&	c #3F2514",
"'&	c #38271F",
")&	c #2A2220",
"!&	c #282626",
"~&	c #25150B",
"{&	c #2C1606",
"]&	c #2B1709",
"^&	c #221106",
"/&	c #41250D",
"(&	c #40240C",
"_&	c #3B271B",
":&	c #2F2622",
"<&	c #2A2727",
"[&	c #331B0B",
"}&	c #43240C",
"|&	c #4D2A0E",
"1&	c #2B1707",
"2&	c #2F1806",
"3&	c #3C2414",
"4&	c #392A22",
"5&	c #2A2421",
"6&	c #1B1410",
"7&	c #2B170A",
"8&	c #180B03",
"9&	c #291506",
"0&	c #502C11",
"a&	c #341B0B",
"b&	c #2B201B",
"c&	c #2E2725",
"d&	c #23160F",
"e&	c #3C2517",
"f&	c #292524",
"g&	c #272422",
"h&	c #232020",
"i&	c #412513",
"j&	c #392922",
"k&	c #3D220C",
"l&	c #241205",
"m&	c #3C261A",
"n&	c #322824",
"o&	c #180D06",
"p&	c #4D2B11",
"q&	c #3C2212",
"r&	c #352721",
"s&	c #222120",
"t&	c #1B1818",
"u&	c #201A18",
"v&	c #21140B",
"w&	c #3D2619",
"x&	c #2C231F",
"y&	c #191615",
"z&	c #231811",
"A&	c #2D1806",
"B&	c #47270F",
"C&	c #271405",
"D&	c #3D2514",
"E&	c #26211E",
"F&	c #1B1A18",
"G&	c #1B130F",
"H&	c #2A170A",
"I&	c #2B1808",
"J&	c #2D1908",
"K&	c #281507",
"L&	c #321B0C",
"M&	c #2F221C",
"N&	c #292321",
"O&	c #211D1D",
"P&	c #23150D",
"Q&	c #311909",
"R&	c #271407",
"S&	c #39200A",
"T&	c #43240D",
"U&	c #392317",
"V&	c #231A16",
"W&	c #341B0A",
"X&	c #251105",
"Y&	c #3C2313",
"Z&	c #382A24",
"`&	c #2D2725",
" *	c #23211F",
".*	c #27170D",
"+*	c #3A1E0B",
"@*	c #211005",
"#*	c #302824",
"$*	c #1E1612",
"%*	c #251308",
"&*	c #422817",
"**	c #3A2B25",
"=*	c #2A2422",
"-*	c #24140B",
";*	c #312825",
">*	c #2B2827",
",*	c #1B1816",
"'*	c #3D210A",
")*	c #46250D",
"!*	c #4D2B0E",
"~*	c #502C10",
"{*	c #332015",
"]*	c #272221",
"^*	c #181716",
"/*	c #1A120E",
"(*	c #2D221E",
"_*	c #2B2625",
":*	c #22140B",
"<*	c #502C0F",
"[*	c #251306",
"}*	c #25160E",
"|*	c #251E1A",
"1*	c #44240D",
"2*	c #2C1708",
"3*	c #48270D",
"4*	c #2E1B0F",
"5*	c #231812",
"6*	c #1D1816",
"7*	c #1D1B19",
"8*	c #1D1817",
"9*	c #3D200B",
"0*	c #46250C",
"a*	c #201511",
"b*	c #19120F",
"c*	c #241307",
"d*	c #241106",
"e*	c #281608",
"f*	c #2B1608",
"g*	c #140903",
"h*	c #231106",
"i*	c #190C04",
"j*	c #351B0A",
"k*	c #251406",
"l*	c #281407",
"m*	c #261406",
"n*	c #130803",
"  . + @ # $ % & * = - ; > , * ' ) ! ~ { ] ^ * / @ ~ ] ( _ ) : < _ _ [ } | } 1 2 3 4 5 6 7 8 9 ! [ 0 a b c d e f g h _ i @ j ) k ",
"l + m 5 _ n o p c b q r s t f ! u ! ~ { a v w x y 2 : l _ z _ A : o B C D 7 _ E F 3 G H ( : : m y m ~ m I J K y 5 l _ ] L D M ; ",
"N + O / u P ) < Q i R S T b / _ U N ~ V W X Y Z `  .5 1 ..: [ p l l F G G _ 9 [ m ~ ~ 4 H ( l +.@.t 5 ~ K #.; @ e m _ u ^ e 4 s ",
"@ _ t F $.M o ! e / %.t &.T ^ $.h @ F H 4 *.=.-.;.>.,.'.4 m L ' 8 D o 3 ).e F ( ^ !.[ l ! B E # ~.{.].e S ^./.B @ 2 o (.3 t 4 , ",
"5 D _.] :.4 F @ H / - G <.i 4 [.^ F @ 3 }.|.1.2.3.4.5.6.= 7.3 @ k 8.9.! K 0.i H a.G 5 ( 9 _ E ! F G r <.T b.c.p ! F M . W m d.e.",
"@ u @ 4 + f.m F l 0.g.@ <.V W M : B W h.i.j.k.l.m.n.o.p.q.r.s.G F _ 9 0 H t.G a.3 m u.W k _ C 1 v.W * I K / s.[ g 5 F j W g u H ",
"l _ ^ O L t ! 4 ) w.{ H I 0.S G 8 ( W x.y.z.A.B.m.C.D.E.I F.G.H.I.m d.u o 1 ..p m ~ ] g H m m m v.G e J.W m V ^ k r ; _ 5 3 u H ",
"u k O F 5 e _ ^ + K.K @ 3 u.I L.V !.M.N.O.P.Q.R.S.T.U.e H W L.V.- W.W _ D _ o X._ ~ 5 E m F 3 F 4 Y.V ; 7.W Z.G ) 5 b G F f ) 3 ",
"_ 3 u.E F 5 + m E y `.G @ m @ c.S L. +.+++@+n.#+$+%+T K @ ~ H K &+*+W.&.G m 1 B E F H =+F ^ G F g F u.7.3 3 v.H + 5 Q / : S -+4 ",
"m F ] u.k ^ ;+] 5 f >+y u.4 F W I.,+'+)+Q.!+R.~+{+]+t.O ^+~ ! 4 s T /+q { s.H ~ / K e @ g h E 5 ^ _ g F (+m _+B L / [ =+:+Q M m ",
"5 : 1 S <+~.] L y r y G t.u.m M t.[+}+|+2.1+2+3+4+5 M B H @ : : H ; 0.&.{ 5+6+W 5 O `.G ^ 9 9 ] W H ! o C M ( k @ 5 :+M $.i W v.",
"5 _ !.^+~ F.V @ N 7+L N 8+t.m k 9+0+a+b+c+d+R.e+f+] ) 8.g+5 H M _+M 3 G e &.{ { h+W B m B 0 D _ 5 e i+g ( 2 4 ^ 1 6 d.8 u i+m 3 ",
"g+N _ o ] O j+V.k+l+m+m+8 F ~ 0 n+o+b+p+!+q+r+s+t+5 0 9 U ~ / 4 m 6 H ~ m W u+V.v+V.I.w+x+1 o _ [ ^ @ ( o @ J.f G ~ : 8 ) L ) 5 ",
"; G p ) # ~ t.0.y+I z+A+B+0 Z.C+D+E+F+G+H+I+J+K+I I e ] l k 4 G ^ F I `.G 5 / /.0.{ L+6+M+w+_+N+) 9 ( } _ : @ I u.[ x+l m * + W ",
"O+f E < [ H 4 g 5 P+Q Q+h z R+S+T+U+V+W+X+Y+Z+4 6 G J.).e 3 3 f 5 @ u.S t K e `+ @, = .@5+c 5 v._+_ D +@1 l p H W m g < , @.F ~ ",
"0.0.(+u o H G ! l # i { F.@@#@$@++2.%@&@*@=@ @4 M (+5 t I.c.c.I ^ ..! G W a O -@;@>@,@'@Z )@!@&+~@e 4 ..P D ( M m F F ] <.c * ! ",
"t+T G : _ k 3 5 ] E u.L.s.{@]@^@/@(@R._@:@ .@ L ^ (+E 4 G e s.L.W 0 _ _ : ..<@[@}@|@1@2@q+3@4@5@p.6@c.W x+7@7 l 1 C 8 @ m T e ^ ",
"s , e H g C ! g g ! @ a.8@9@0@a@2.!+G+b@c@y N h [ ] _ d@4 G * J.s.e ~ [ l p e@f@g@h@4.i@T.j@k@4@l@m@n@s.H x+_ h ! _ 9 _ ( ; ; s.",
"G t O [ h o h : _ _ h M o@p@0@q@2.!+r@!@s@] p X.h g o _ : t.; r S 0.<.* 4 [ t@u@v@w@n.x@y@= z@A@B@C@- D@W./ 3 H 5 ^ N+: 8 W c b ",
"L.O * E@F@_ [ ( ;+o G@[ H@I@J@K@@+L@M@N@O l O@P@Q@l k k : E O y K f S s.I V R@S@T@l.U@V@W@I.X@Y@Z@`@T  #q .#V.L.&./.G 4 3 @@`.e ",
"{ / V.; N +#< ^ 5 W @###$#%#&#R.@+*#'@=#6+S z+-#z+< 9 o g k : 8 k ^ 5 e s &.0.;#>#,#o.'#t+)#!#~#{#]#, t t+^#/#- *+F.e.v.1 ! F M ",
"= 0.I s.(#G _#l+N ~.:#<#[#}#B.3.|#1#2#t.H c.I i+3#-#4#) o o _ d.9 9.@ O e.f &.5#6#7#8#9#0#a#b#c#d#e#e O u.I P+v+f#g#h#* i#1 ! M ",
"t e W g m 4 c.L +#Q@j#k#l#m#n#o#p#q#y ^ F 2 3 r#c 5 X.4#B+G@9 d.+ _ E G 4 k `.&.s#t#u#4@v#-.-.w#x#y#W 1 k m u.0.z#1#A#B#O+t.3 a ",
"] 5 3 m 8 m+] C#J.D#E#F#G#G+l.H#D.I#E [ E F @ e s.J#P+l O@K#U ) :+U g G @ k E u+;#L#M#N#O#P#Q#R#u.3 G G F m M W S#T#U#5.V#W#i e ",
"[ a.u.u.W g [ ! X#Y#Z#|+2.1+G+3+`#@ _ d.o 8 ] i+G 3 e c.S <+! G@u 9 ..B m : o W K ,  $W#s+g#.$G ( o ! H W u.5 +$@$#$R.G+$$%$&$P+",
"^ G r u+; 6 ~ 4 *$0+=$-$;$@+r@>$-@@ o ) u 9 l ] m k o ! ,$Q S ^ B+m+_ k m g _ _ # C#~@t , t+y+I.~ U ) _ k 4 '$)$!$&#n.#+~+~${$]$",
"~ @ 5 5 W H 3 ^$/$($Q./@/@q+_$:$+.<$L k o :.n 9.8 o _ < _ x+[$y+W o }$K#] W E h _ g ! ^ H `.~.S s G k +@_ =+|$1$3@2$2.3$4$5$b  #",
"H [ : k : ! H 6$7$++p+|@2.*#9#T e _#K#o 8 _ d._ o 9 8$P 9.9 _ H t+F.z+F@O@9$] [ M H ( ..| m 3 e.t+V.L.H i#0$a$T#R.b$c$d$e$S f.I ",
"L.H l + ) o f$g$h$i$j$k$l$m$n$3 s.5 z+4#o$) ( @ W ] : d...8 9 o F /.c.e A p$8.U : i#H 3 g ! m 6 t.S Q 0.0.q$r$-.G+s$H#t$u$~@W G ",
"t.~@e F ) D v$w$x$y$W+z$A$B$+.) ) ( 0.C$}$D$% E t t ; M ( _+8 E$d.[ i#S L.i+A 4#B+o g 3 4 5 G u.m 3 V e F$G$H$2.R.n.Z I$t+i e.u.",
"@ u.I s M+J$K$L$M$h@j$N$O$h#G l B+:.! P$r Q$4#X.R$y S$i+1 ..F _ 9 E$k ^ @ S 0.] l h _ o [ ! F G 3 3 H e T$U$3@4@c+r@>$~.G u./ u+",
"[ @ 5 G V$W$X$Y$Z$`$l$ %.%f G ^ g 8 g # @@s.P$+%l+Q@@%O M l g F ( :+_ ! E ~ W 0.H.u.U #%K#_ : ..8 ! ^ $%=.%%R.2.|@&%B#e m m V K ",
"9 ] L i#*%=%-%;%|@q+>%,%V$@ B m F ^ W ^ k _+'%V.)%Q@O@m+U : ..4 4 8 D C F ] : @ L.F.e l+(.G@o o _ : !%~%{%@+3.@+]%^%/%F.@@1 !.i+",
"! [ 0 M.(%_%:%4@c+q+<%[%[ [ o _ o E 8+@ [ _ : 4 I r.O m+-#9 _ C F m _ N+M ! x+C ( W P+S H l +#D k E }%|%|@;$m.8#1%2%c S I.e 4 B ",
"e 5 w+3%4%z.4@R.@+*#5%;#F _ < o m+U [ m ] : 7 +@( e F.s.5 6%B+9 N+g ( _ 7%m @ m k m H e P+(#9$+ _ e@8%9%w@U+0%$+a%f H @ e.s.~.e ",
"K e b%c%d%:%e%&@q+f%g%].J.W g+[ U U _ N+g ( _ 9 7 ..h%,$F.e ! & 4#P M C ..g O y u.G t.W t.S &.s.] i%j%-.k%R.H#5%l%i+m 8 g V 0.T ",
"L.O+[+m%n%n#l.o%Z c@* ^ a O s.C#o + _ l C g F ( _ P [ 4 G t.F.^ m+4#m+E k P M 3 W e ; 5 W / e &.p%q%r%@+R.L@s%t%y (+^ m ..! u.u%",
"~@v%w%x%b+y%b$U@D. @# U [ <$; S u.] K#G@_ k 4 u.F _ ) g+u.^ F !.L.z%A%A ] g o _ o [ 5 @ m a 7.y B%}@C%|@!+r@!@b O ] m 4 @ D%4 i ",
"T E%F%G%4@R.H%I%J%r ] G@K#< +.t `.u.L [ ) % _ 5 W ! D _ ~ e @ _ 4 K%<+5 h o _ _ _ _ o _ _ o H L%M%%%c+4@!+N%O%i+^+4 M ^ G 5 V s ",
"P%Q%|+;$4@@+R%'@K+e u.@ : m+h g+@ ] g+S%m _ ) d...( d.9 8 @ =+g _ ) T%L.* 9$F@& 9 k o d.U%_ V%Y#T#|@R.@+R%W%X%^+Y%o l m W O K t+",
"H Z%`% &L@n..&W#u.4 5 O W # z+_ k # [ ] !.O H D :+d.d.9 _ ^ 3 ~ 8 _ P k @@V.@ m+& + M F k P +&@&#&!+G+q+$&2%v c 5 A m+h ^ W K Q ",
"o E X#%&:@&&*&=&t.^ g+W W ^ ~ k k k ! [ h B -&G m ;&G@G@l+Q@5 5 t.(+@ (+i#M+e >&a F@X.N 3 ,&'&)&!&R.S.Z ~&<.`.e {&{.W 0 O@! f S ",
"d._ H t h#]&^&q c * 4 ^ L a L ! # ] ^ F l _ M O C#H g D m+l+/&L 5 H ^ @ H O [ (&,$e ] +#0 _&:&u#<&%@X+'@[&W 8+W O C#{.P+# [ J.F.",
"}&|&l B 4 5 I 1&{ V.i W F @ L ! [ E G `+H g k m H i+~@!.h U 9 ;&( ^ g k l ! ! 0 x+C#2&* 3&4&5&!+3.s$6&7&H [ ( L 5 F W 6+H.t+S 8&",
"t.d.E ! ! [ ] * 0.9&W.P+f 5 H m ( k 4 ,$; ^ o k ^ +.u.e ,$W 9 0&G@[ g k k ..[ .._ _ i#a&b&c&k.@+R.O#d&S 3 : o g 4 4 F / P+V.&.v+",
"* _+1 B ^ ! o l ^+0.= q.{ c I * W m g H y L o P B e y e J.I.5 M 9 9 1 H 5 O W 6 x+_ [ e&r$f&g&h&R.1%:$* W 4 M C 2 W W t Q e f c ",
"5 4 3 g ~ m 8 % 9 W f 0.&+.@^#1&c ; 4 ~ 5 * ] 9 o H r t u.3 G e ^ l o g u.K t ; W m i&j&++4@&#4@*#z#k&_ g G 5 v.i#W u.~.T 5 t.<.",
"o F G 3 @ ^ g _ 9 9 < o m i  #l&q.1&e H u.f u.B _ [ 5 u+`.@ ] ^ 5 e 4 m @ 5 ; f >+5 m&n&%%G+R.!+ %o&u+A p&: u.; e e K I , , G Q ",
"_ }&I v.o ~ m ..d.:+F@% + ! O t+- - J#c./ e t f.g h h ( 1 4 ! [ g 6 f.I.* : : ] 3 q&r&5&s&t&G+u&v&^#{ v ^+X.g++.* u+<.0.`.t+s S ",
"m F i C j : g g o _ u m++ o ! 4 J.1&q n@0.c.f f G g _ ;&d.x+_ P P _ M f.I.5 d@+ X.w&x&b+h@e%y&z&T I S F.A&s.y _#B&* * u+s O+t+I ",
"u.0.W u P [ m 5 u.G m o 9 P 8.D l @ J./+*+C&&+t+I 3 g | k F o 9 9 G@_ 8 4 I ).W D&B%E&j$Q.F&G&H&y H H H v.7.P+>&^++%r W I&J&K&c ",
"=+c H :+M +.F `.I s u+8++@$.:+7 : ..8 K  #L+q.q P+G B k g 4 H ! _ < D 9 _ B e.L&M&N&O&G+@+R%P&<.6 ! m 2 m m t.= q.S t+s.Q&R&S&m ",
"H c O _ m h 5 [ t.e O * i#k :.d.T&k ( 5 <.T 9&L+v+&.C#W 3 a e G m ] ( h l x+' U&r$3@@+@+q+V&P%O F ! 4 5 H W G <.9&v .@{ W&M $.6 ",
"f <.W C 4 _ ; g ( [ U _ ! 2 8 _ P x+g F G G G u.t+X&- J#i V O W W W F ! M 3 Y&Z&`& *4@@+*#.*y ! B m W u.+*t.e Q t+b w.L e.N+g / ",
"G G 3 k G D G `+1 ! U ) B+8.8 k P P _ l g ] g o L s.^#@*v+F./ 3 H f./ !.N+4 N.#*P.d+!+R.$*%*>&! o l F G f y K Q Q &.; l 5 o e e ",
"M F k B e P _ H m h 9.8 _ : k 1 k _ 9.< o : : _ : 4 S  #l&.#V.I G V 0.f m &***=*R.U#R.w#-*c ).].^+o : ] u.W&<.<.1 <.; o @@B i H ",
"2 5 :+F K _ + o Q _ ) _ F W 3 m g : _ h h g k 9 9 o i#e.J.S L+{ &.I ~.s.y i.;*>*!&#+,*!@{.u.u.I s.e 4 h ! Q J.s.M @ m d./ 5 c 3 ",
"C e j 2 Y._+D $.c '*)*!*m G 5 E k M 4 ~ m @ G m D ~*9 k l [ W j+.@{ 0., {*=.]*;$W+^*/*7&O E m 5 u+s.s.C#<.J 0.<.m _+E$9 I e c 3 ",
"k G n m m i ;&j b  #V m ( m 2 9.d.[ F 4 B ! 4 5 g 7 :.:+_ h _ H s. #C&a%(*_*&#G+G+r+:*{.H ( o g W t e ; c J i f _+<*_ p b e , 4 ",
"^ W ) @ / 0.o ) i+[*= * v.3 3 : n 7@D N+( ..[ [ m g p G@9...N+: m s = }*|*k%R.!+G+1#h#e u.5 6 1*5 2*^ e &.J V 3 M $.@ G T t 3*3 ",
"t H :+G &.e o ! h J#v+5 ~ @ e.6 u n 9 d.C _+m F F 4 5 * @ 1 ( 7 7 d@O X 4*5*6*7*8*-*s 9*f T f.{.u.2*=+f &.#.V o k + W 5 t+i 0*3 ",
"t+3 E$G ; k ] W&G@ #]$~@o k t.W d.d.# l m 4 H G 3 ] 4 u+u+* 4 k _ :+_ B 5 n$x#a*b*c*I t.f <.L c y 2*; T c J e o m u.G G b M m F ",
"0.3 }&^ e _ F c p /%f#i E g H 7.d.o F E O 5 }&m 1 _ _ ! 5 e W [ o d._ [ a L i+O%[*d*= {.{ V.`.e*;#b ; b f*g*~@_ (+; 4 5 2*o g G ",
"s 3 W h 5 l L 2*W h*i*c j*9*I ~@! _ m o G `.m 8 P 7 <*d.( 4 3 g ) :+_ k W O O O s 5#s =&^&{ j*R&k*l*0.= m*n*J.k 3 e k H 2*M N <."};
