/* XPM */
static char * rot15_xpm[] = {
"64 64 45 1",
" 	c #350000",
".	c #330000",
"+	c #260000",
"@	c #080000",
"#	c #180000",
"$	c #2B0000",
"%	c #2E0000",
"&	c #000000",
"*	c #0F0000",
"=	c #280000",
"-	c #150000",
";	c #120000",
">	c #0C0000",
",	c #0E0000",
"'	c #170000",
")	c #190000",
"!	c #1E0000",
"~	c #200000",
"{	c #1C0000",
"]	c #040000",
"^	c #220000",
"/	c #1A0000",
"(	c #2D0000",
"_	c #070000",
":	c #1F0000",
"<	c #0B0000",
"[	c #240000",
"}	c #140000",
"|	c #110000",
"1	c #160000",
"2	c #020000",
"3	c #060000",
"4	c #030000",
"5	c #090000",
"6	c #290000",
"7	c #0D0000",
"8	c #130000",
"9	c #010000",
"0	c #310000",
"a	c #100000",
"b	c #1B0000",
"c	c #050000",
"d	c #0A0000",
"e	c #2A0000",
"f	c #210000",
" .+@# $%&&&&&&&*=-*&;>&&,')!~~{;*>>@@--#&&&&&&&@#]&@;&>!,!^&@%=/",
"{+;&^(~/&&&&&&&-$-*&_;-:^~-{~++/;>-//{#-;]&&&&&&;/&&&;&~<{^;@[-&",
"-+&&$[=^&&&&&&&^[}|1^+~!!!;]&*##*]]*!^!/->&&&&]>]+&&&^&>;|^$>&@&",
"@^&*(-~-&&&&&2_13*#{~^!/{!{;&&&&&&]&@-#;;>&&&&]*>#&;-[>&>*~.@&@&",
"&[&;(@*@]43&&]&&&&@;{{#*-!^~>&&&&>**#>*>**>&&@*##*&#^^~&-]-.&;+&",
"@$@@+&,<:!;&&&&&&&&&&&@@>/^+/*>/{/;]>**]@*#{--###;;;[!+>+&,%&#$]",
"{^5&2&&&![;&&&&&&&&&&&&&&]#[6[!~^!-@]>-#*]@*-{/;]&@*{{/&/*]^&@$]",
"[2&&&&&&~^;*&@&&&&&&&&&&&&&&#{//#*&&&@-++#&&&-{*&&&*/{@&&><&*&=@",
"{&&&&&&&=~*>@&&&&&&&&&&&&&&&&&&&@>&&&&*{^^->>#~!-&&@-#>&&&7&!&^@",
"~&&&&&&&{#*>]&&&&&&&&&]@&&&&&&&&&&&&>*-/{~~[^!^/{#***->>&&&_6&-;",
"!&&&&&&&>#{;&&&&&&&&&&]*;>&&&&&&&&&&&&]>-#/~^~[^[!/#{~{/&&&*(&&*",
"-@&&&&&&&]/-@&&&&&&&&&]@-!->@]&&&&&&&&&&&&&&&&;{6=~/!^^!;&&,$&;@",
"**/&&&&&&&&&&&&&&&&&&;;@]>-->]@@&&&&&&&&&&&&&&&&-/#>]>;*]&&|=@=&",
"*>[&&&@&&&&&&&&&&&&&;+^/@&]**&&&&&&&&&&&&&&&&&&&&&&&&&&>#-;-8&+&",
">-{]&&&@>@&&&&&&&&&&&/[~#>&&@&&&&&&&&&&&&&&&&&&&&&&&&&&&]**>2&**",
">~;@&&&&&;-&&&&&&&&&&&&>>@&&*{;;#{>&&&&&&&&&&&&&&&&&&&&&&&&&&&&-",
"@~;&&&&&&>#;&&&&&&&&&&&&&&&&@{~!{/@&&&&&&&&&&&&&&&&&&&&&&&&&9&&>",
"&;>&&&**@>-;&&&&&&&@*@&&&&&&&&]>*#@&&&&&&&&&&&&&;#*]&&&&&&&&&&&&",
"&&&>;{++!-*@&&&&&&&]*>;*@&&&&&&&&&&&&&&&&&&&&&&&]*>@&&&&&&&&&&&&",
"&&&&&>^0+~*&&&&&&&&>;;{!/*&&&&&&&&&&&&&&&&&&&&>>@&&&&&&&&&&&&&&&",
";]&&&&&&@*@&&&&&&&&/!//~!{*]@;>&&&&&&&&&&&&&&>{~~!-&&&&&&&&&&&,-",
"{*];>&&&&&&&&&&&&&*{^#{{{//!~[[-&&->&&&&&&&&&&;{~+!]&&&&&&&&&&a-",
"~;]@-#>&&&&&&&&&&&/[+{~=+~~^++[{>&*/;&&&&&&&&&&&&@]&&&&&&&&&&&4]",
"=!;]]-;@]>]&&&&&&&&>{/[$$6=++==^#>;!~{#&&]]&&&&&&&&&&&&&&&&]]&&&",
"{!{-#{!!/*&&&&&&&&&&&&&]#+++~+$=^#;-/!~#-/!#*>]&&&&&&&&&&&&>-@&&",
"&#!!!!~^!*&&&&&&&]>;]&&&&&&&&-[=++{>*##*>**->&&*@&&&&&&&&&&&&&>2",
">~[!/-*>;]&&&&&&&;;*>&&]]]&&&&&*{=6^!!^!-;@>@>&>*>&&&&&&&&&&&&&&",
"]~^+~;>&&&&&&&&&>!!{/*>-!!{~#]&&&@]/~!(6~!!!{{!!{#@&&&&&&&]>]&&&",
"&&&@//!;&&&&&&&&-[=6+^!{^+[[+[{*&&&&&&*#;{=6=^~~!;&&&&&&&&;/{;&&",
"&&&]&&@&]&&&&&&&*{~^$$^~[[[^{~^+~/>@&&&&&&>[=^+[{>&&&&&&&&>*-;>&",
"&>-{~>&&&&&&&&&&>-!!^^/@@>-///{[+[{-;;-]&&&&&&#^{>&&&&&&&];*@&&&",
"&@>*/#*&&&&&&&&&;~+((+{&&&&]/{--/[^{*;{{/*&&&&&&&&&&&&&&&]>->&&&",
"&&&&@*@&&&&&&&&&&>;~%(${&&&&-{{>@#~!/#;*;>&&&&&&&&&&&&&&&/!!#>&&",
"]&&&&@]&&&&&&&&~[/&&&&/;!;/^+^^{#-/!^{*&&&&&&@&&&&&&&&&&&>#^!{/&",
">]@;#;]&&&&&&&&!=6/*]&&&&&@{6++=+^!#{!!;>**&>//>&&&&&&&&&&&&&@/>",
">/!~+~-]&&&&&&&>#/;*;/-@&&&&&&-!%%$[-#{!^~~!^[[-&&&&&&&&&&&&&&&&",
"&&;/[+/]&&&&&&&>;*>]*/~[[{@&&&&&]{!=^-{~^+^!^^~!&&&&&&&&@]&>]&&&",
"&&&&&&]&&&&&&&*/~~/;;;{[==^/>&&&>&&&&]-~($6^-;;*&&&&&&&-/-@@>&&&",
"2&&&&&&&&&&&&#{~~+[~!//#/{~^!@&&;{-/;&&&>!~6[{-]&&&&&&&-!{#>&&&&",
"4#@&@&&&&&&&&&#//~[[~{{-]&;![~;&@#~[[/@&&&&&@#;&&&&&&&&]>*->&&&&",
"]^#;*@&&&&&&&&&&&]{~++^^{&>#[=~*@>*;*>@&>->]&&&&&&&&&&;-&&&&&&&&",
"~'#-;>&&&&&&&@@&&&&]-/^+++[^+=[#@&&&@>*;;#{!!>&&&&&&&&/[^>&&&&&&",
"+b&&]&&&&&&&@~{#&&&&>&@;*/^^++[^/*;*>#//!#/!^/&&&&&&&&&&-;@#-&&&",
"-=&&&&&&&&&&@~+[!-*;--;*@&&@-/~[^==^/#->]&&@**&&&&&&&&&&&&&&]&&&",
"&+c&&&&&&&&&&];{!!~/#-/!{;&&&&&>>~=++~;]&&&&&&&&&&&&&&&&@&&&&&&&",
"&/,&&&&&&&&&&&&&;;//-*>;//->&&&&&&];/!/*&&&&&&&&&&&&&&>*;*&&&&&&",
"&@3&&&&&&&&&@>]]@@;#-@&&]#!#@&&&&]&&&&]&&{{{!>&&&&&&&;;>]&&&&&&&",
"~*&&&&&&&&&&&]>@@@*##;&&&*~[#&&&&@;;;>&&&&@;*&&&&&&&&;;&&&&&&&&&",
"^-&d&&&&&&&&&&&&&&@*;-#@&&*~~/@&@>;{~~!;@&&&&&&&&&&&*;-@&&&&&>&&",
";*&!!;&&&&&&&&&&&&&&&&]>&&&&-{!!~~!^++[^^!;&&&&&&&&&>!{/;&&&&&;#",
"&&&e^[#;>*>&&&&&&&&&&&&&&&&&&>/~^{;{~[^~^!/>&&&&&&&&&&>;-/&&&&#+",
"@&]6a[/-;-{!/]&&&&&&&&&&&&&&&&@-{#>&@;;-##*&&&&&&&&&&&&&&&&&&&#$",
"]&&^_-/-**#^=[~^^/@&&&&&&&&&&&&@*>@&&]&&@;#]&&&&&&&&@&&&&&&&&&-[",
"&&&{c&**->*/^=6($+!#-*]&&&&&&&&&&&&&&]&&&&;>&&&&&&&*/#@&&&&&&>!#",
"&&@/&*>&@-*;!^[6++[^[^{!>&&&&&&&&&&&&&&&&&&&&&&&&&&>;->&&&&&&&!>",
"-*/;&f#&]^~/-;>>-!6$6[#/#]&&];&&&&&&&&&&&&&&&&&&&&&&&&&&&&&&&&!*",
";&6*&~-&]+[#>&&&&]/!6[~{/#;;#~{;&&&&&&&&&&&&&&&&&&&&&&&&&&&&&&<*",
"{&%;&'&&*6/@>&&&&>;;/!^[^~!!{~+[~#-{#*&&&&&&&&&&&&&&&&&&&&&a&&&@",
"/&(;;&&&&+#/]-;-~[[[!/{!^^~{--{+(6+^!~/-&&&&&&&&&&&&&&&&,+f/&&&@",
">&=@&&|&&#-/>&*#{[^^{--/!/-;>&]#[[+[!{^=~{-@&&&&&&&&&&&@-(@&&&~@",
"&]6&&&-&&*-*{]&-~[!-&];/->>*-;;--;@&>*-![+~-]&&&&&_&&&&~/+&&&&{@",
"&@+&&/*&&*-&[^-&![+#]]#^~{//{{-*>@&&&&@/^=^/4&3&&&&&&&&~;&&&&-;*",
"&@->&^*<*/-&/[+&&>//-*#[($+^{->&>#/*]&]-^!|2&&&&&&&&&&&^>&@&&~#&",
"&@&!&{@7@!!]*!6#&&&]*@]#$$~!;]>*#^6+{d44&&&&&&&&&&&&&&&/@&/]&--&"};
