/* XPM */
static char * rot13_xpm[] = {
"64 64 375 2",
"  	c #4D2000",
". 	c #4A2000",
"+ 	c #421800",
"@ 	c #340800",
"# 	c #3A0F00",
"$ 	c #4D2100",
"% 	c #451A00",
"& 	c #471D00",
"* 	c #2D0100",
"= 	c #1A0000",
"- 	c #0D0000",
"; 	c #2A0000",
"> 	c #1D0000",
", 	c #240000",
"' 	c #360B00",
") 	c #431A00",
"! 	c #390F00",
"~ 	c #360D00",
"{ 	c #160000",
"] 	c #370E00",
"^ 	c #350A00",
"/ 	c #300500",
"( 	c #310600",
"_ 	c #370D00",
": 	c #3B1200",
"< 	c #3F1500",
"[ 	c #3D1400",
"} 	c #3F1600",
"| 	c #3C1100",
"1 	c #3E1300",
"2 	c #3F1300",
"3 	c #3D1300",
"4 	c #390D00",
"5 	c #320600",
"6 	c #330600",
"7 	c #3C1300",
"8 	c #2E0100",
"9 	c #2F0400",
"0 	c #330800",
"a 	c #350B00",
"b 	c #200000",
"c 	c #310400",
"d 	c #441A00",
"e 	c #2C0000",
"f 	c #3D1500",
"g 	c #3B0F00",
"h 	c #380D00",
"i 	c #461B00",
"j 	c #3E1500",
"k 	c #1E0000",
"l 	c #130000",
"m 	c #290000",
"n 	c #2D0300",
"o 	c #350E00",
"p 	c #350D00",
"q 	c #380E00",
"r 	c #2E0800",
"s 	c #320700",
"t 	c #3B1100",
"u 	c #411800",
"v 	c #3F1700",
"w 	c #3A1100",
"x 	c #411700",
"y 	c #250000",
"z 	c #3E1400",
"A 	c #260400",
"B 	c #150100",
"C 	c #230000",
"D 	c #270000",
"E 	c #150000",
"F 	c #180000",
"G 	c #350800",
"H 	c #380F00",
"I 	c #280000",
"J 	c #320400",
"K 	c #2F0200",
"L 	c #060000",
"M 	c #210000",
"N 	c #2F0100",
"O 	c #2D0000",
"P 	c #421700",
"Q 	c #2E0400",
"R 	c #3D1100",
"S 	c #431800",
"T 	c #1B0000",
"U 	c #310800",
"V 	c #290D00",
"W 	c #1B0B04",
"X 	c #010000",
"Y 	c #000000",
"Z 	c #110000",
"` 	c #380B00",
" .	c #340600",
"..	c #2E0000",
"+.	c #2E0B00",
"@.	c #251101",
"#.	c #150B06",
"$.	c #411500",
"%.	c #340B00",
"&.	c #320B00",
"*.	c #2E1501",
"=.	c #23130D",
"-.	c #0F0806",
";.	c #040000",
">.	c #170000",
",.	c #360A00",
"'.	c #2C0800",
").	c #28150B",
"!.	c #201715",
"~.	c #1D1817",
"{.	c #0F0B0B",
"].	c #3B1300",
"^.	c #330B00",
"/.	c #2A0D00",
"(.	c #20130B",
"_.	c #0F0604",
":.	c #0D0604",
"<.	c #320800",
"[.	c #29170B",
"}.	c #1A0F0B",
"|.	c #0F0000",
"1.	c #270D00",
"2.	c #231813",
"3.	c #130B08",
"4.	c #080000",
"5.	c #2C0100",
"6.	c #3A1300",
"7.	c #280600",
"8.	c #271811",
"9.	c #1D1511",
"0.	c #0B0604",
"a.	c #2F0600",
"b.	c #370C00",
"c.	c #2D1100",
"d.	c #251A13",
"e.	c #170F0D",
"f.	c #080100",
"g.	c #381300",
"h.	c #2E1706",
"i.	c #1D110B",
"j.	c #0B0401",
"k.	c #2E0600",
"l.	c #381100",
"m.	c #351700",
"n.	c #2A180B",
"o.	c #0D0606",
"p.	c #451B00",
"q.	c #350F00",
"r.	c #2F1500",
"s.	c #23150D",
"t.	c #1A1515",
"u.	c #151111",
"v.	c #2F0800",
"w.	c #230800",
"x.	c #150600",
"y.	c #391100",
"z.	c #331500",
"A.	c #180D0B",
"B.	c #0D0808",
"C.	c #080604",
"D.	c #321100",
"E.	c #271A13",
"F.	c #201B1A",
"G.	c #2C0600",
"H.	c #2C1506",
"I.	c #241811",
"J.	c #2F0F00",
"K.	c #1E1A18",
"L.	c #110B0B",
"M.	c #0B0000",
"N.	c #340900",
"O.	c #240600",
"P.	c #231711",
"Q.	c #1A130F",
"R.	c #060100",
"S.	c #250800",
"T.	c #210100",
"U.	c #330400",
"V.	c #311A0B",
"W.	c #251D18",
"X.	c #130D0B",
"Y.	c #2D0400",
"Z.	c #170100",
"`.	c #0B0100",
" +	c #2C0400",
".+	c #250F01",
"++	c #18130D",
"@+	c #351300",
"#+	c #2F1B11",
"$+	c #201713",
"%+	c #0D0804",
"&+	c #110806",
"*+	c #1D0B06",
"=+	c #331801",
"-+	c #281811",
";+	c #110804",
">+	c #310100",
",+	c #0D0100",
"'+	c #250600",
")+	c #170601",
"!+	c #350C00",
"~+	c #361300",
"{+	c #2E1808",
"]+	c #1E150F",
"^+	c #110B08",
"/+	c #3A0D00",
"(+	c #280F00",
"_+	c #170801",
":+	c #2B0600",
"<+	c #2A0F00",
"[+	c #231308",
"}+	c #1A1311",
"|+	c #1A1717",
"1+	c #270600",
"2+	c #3E1700",
"3+	c #310F00",
"4+	c #29180D",
"5+	c #1A110D",
"6+	c #15110F",
"7+	c #171111",
"8+	c #441800",
"9+	c #341A01",
"0+	c #291A11",
"a+	c #130B06",
"b+	c #2E0D00",
"c+	c #200B01",
"d+	c #27170D",
"e+	c #110B06",
"f+	c #270B00",
"g+	c #1A0B04",
"h+	c #280100",
"i+	c #2D0F00",
"j+	c #25170D",
"k+	c #18110F",
"l+	c #080101",
"m+	c #360800",
"n+	c #240400",
"o+	c #1E0B04",
"p+	c #110604",
"q+	c #320D00",
"r+	c #291504",
"s+	c #360F00",
"t+	c #1A0F08",
"u+	c #2B0100",
"v+	c #2E1100",
"w+	c #481E00",
"x+	c #421500",
"y+	c #2D0B00",
"z+	c #240F04",
"A+	c #0F0601",
"B+	c #2E1708",
"C+	c #1E1311",
"D+	c #040100",
"E+	c #481D00",
"F+	c #2E0F00",
"G+	c #1B0D06",
"H+	c #3A1D04",
"I+	c #32231B",
"J+	c #201815",
"K+	c #1B1717",
"L+	c #0B0606",
"M+	c #2A0100",
"N+	c #441B00",
"O+	c #340D00",
"P+	c #392113",
"Q+	c #2C231E",
"R+	c #130D08",
"S+	c #130F0D",
"T+	c #1B0600",
"U+	c #130B0B",
"V+	c #150F0F",
"W+	c #2C0D00",
"X+	c #2F1E18",
"Y+	c #1E1713",
"Z+	c #0B0601",
"`+	c #271104",
" @	c #130601",
".@	c #3C1200",
"+@	c #2A1504",
"@@	c #231713",
"#@	c #2C0F00",
"$@	c #201106",
"%@	c #341300",
"&@	c #2A180D",
"*@	c #1A0F0D",
"=@	c #0B0101",
"-@	c #431700",
";@	c #471E00",
">@	c #250100",
",@	c #200D01",
"'@	c #361100",
")@	c #341B08",
"!@	c #281A13",
"~@	c #130808",
"{@	c #280B00",
"]@	c #1E0D06",
"^@	c #0D0601",
"/@	c #2B0000",
"(@	c #331300",
"_@	c #2E1A0D",
":@	c #20130F",
"<@	c #3B1500",
"[@	c #3D1700",
"}@	c #230B00",
"|@	c #2D1300",
"1@	c #1E1817",
"2@	c #110D0D",
"3@	c #1D0800",
"4@	c #28150D",
"5@	c #201513",
"6@	c #1B1715",
"7@	c #181515",
"8@	c #180801",
"9@	c #170D0D",
"0@	c #080401",
"a@	c #251104",
"b@	c #150806",
"c@	c #371000",
"d@	c #231104",
"e@	c #1E1511",
"f@	c #0F0808",
"g@	c #391300",
"h@	c #1B0F06",
"i@	c #1E0400",
"j@	c #170600",
"k@	c #3C1500",
"l@	c #170B06",
"m@	c #1B0400",
"n@	c #1D110D",
"o@	c #300200",
"p@	c #471B00",
"q@	c #320F00",
"r@	c #230F04",
"s@	c #150D0B",
"t@	c #290100",
"u@	c #2F1501",
"v@	c #1E1108",
"w@	c #281306",
"x@	c #300300",
"y@	c #200F06",
"z@	c #280D00",
"A@	c #150804",
"B@	c #311100",
"C@	c #210D00",
"D@	c #0D0400",
"E@	c #330C00",
"F@	c #270100",
"G@	c #200B00",
"H@	c #130604",
"I@	c #2E0900",
"J@	c #280800",
"K@	c #1B0D04",
"L@	c #280400",
"M@	c #2A1508",
"N@	c #1B110D",
"O@	c #2D1708",
"P@	c #1B0F0B",
"Q@	c #28170D",
"R@	c #1B1311",
"S@	c #291100",
"T@	c #1D0F08",
"U@	c #360C00",
"V@	c #130804",
"W@	c #3C1000",
"X@	c #2B0300",
"Y@	c #390E00",
"Z@	c #330700",
"`@	c #310700",
" #	c #190000",
".#	c #0C0000",
"+#	c #3F1400",
"@#	c #350900",
"##	c #2A0200",
"$#	c #200100",
"%#	c #090000",
"  . + @ # $ % & * = - ; > , * ' ) ! ~ { ] ^ / ( _ : < [ < } < | | 1 2 3 4 ' @ 5 6 ! 7 3 ! 8 9 0 a 8 - b c 8 @ 3 d | 8 c e f ) g ",
"7 + h ( < i j g b k l m n o p q r s ~ 9 e c a ! t j u v f 3 j w # | < x 7 h ' a @ @ h t ~ e y m 9 ; - = 5 a ' t % 1 c ' 6 ! ! ; ",
"! z [ < i # A B C C C m 0 v 3 h y ; D E F C 8 ' # 3 j 3 t | 7 # @ 9 G t | ! a h t w ! H ! 0 ; m I , l = J # h ~ + v a 1 | K @ D ",
"h ! % d < c k E b D y I a v 3 h 9 9 e k - L E M * a ! h ~ # 1 v # N m O 6 @ 5 5 ~ j P | ! h @ Q m D D D 9 t ' 5 t j @ R j 9 @ , ",
"5 # S + v 6 , T F M k D # x t ' @ 6 U V W X Y Y Z b e 6 @ ` 3 v 1 a e ; 8 J  .0 c ' | 3 g 4 G 9 e ; 5 6 c h ' ; 9 4 5 ' < G P ..",
"8 g P 3 f @ e C F D M ; t < h a @ 6 +.@.#.X Y Y Y L F y e 6 # $.x t a G ` ' ' ~ ~ h @ h h ' @ N e e c 0 %.a v * C J ' * j ^ % 6 ",
"N | P h h @ c y > 8 D O ' t ! ~ 6 &.*.=.-.;.Y Y X >.k > F M O ! x S j | 1 3 | p 0 h h '  .' a 6 8 8 6  .' G v 9 ; J 3 D t ,.% 6 ",
"6 w < 5 ' ~ ~ M k J I e 9 ~ | ! ( '.).!.~.{.Y Y Z I 8 e M F Z T ( g | 7 7 ].# ' 6  .' a 5 a 4 # @ @ G ` # H %.8 3 ' d y a ' )  .",
"@ @ ! O h ~ j >.T 5 ; D D O G ~ ^./.(._.:.Y Y Y F e @ a c I = l F k ; 5 ' ~ c 8 * @ # f # 0 @ # ! t # ! t g @ 5 S w % O @ G z @ ",
"0 6 <.e 3 ' x > ; @  .c O I m e +.[.}.;.Y Y Y |.D * 0 ~ h 6 D b T l E T ; 0 9 8 O c a P S t <.c 0 t t 4 a a ! ' < R S %.7 @ q h ",
"9 ' @ 9 x h ! e O 9 6 ' G O D , 1.2.3.;.Y Y 4.y 6 %.0 @ t | @ 5.D y k l T C D 9 a ~ H 6.< < ~ ( 5 ! 3 ' * m N a | | j %.j ' 5 ' ",
"5 @ 4 @ f ! 0 ; m e 8 5 ' a 8 7.8.9.0.X Y Y E a.7 7 ~ 0 @ ! # ! G 5 c ; C = F b m @ t # 3 j j 7 ! t 1 7 a e O h t 7 a e ' ~ b. .",
"! * 0 Q H p 8 m e c c N a ! %.c.d.e.f.X Y X > ( f x j h c 6 ~ ' 6 0 a 6 * y b = l k e 0 h g j x < < 3 7 t G 6 a 4 t 9 C e a } ( ",
"# Q <.I 8 0 ' a %.! ' 6 a # g.h.i.j.X X Y L > ; 0 w f t a 5 @ ' 8 ; O 8 O e I C T E 4.E D Q 6 ' ! 3 2 < 3 # ! h h h 5 I D 5 7 5 ",
"w ! H 9 D C k.].u ) x t h l.m.n.9.o.Y Y 4.> m e e 8 ( @ G N 8 0 6 e m O 8 ; , T E - ;.Y 4.Z T M m 5 # x d v t t 3 t ! 5 I e 9 ~ ",
"t < 7 ~ 9 D , D %.) p.v w q.r.s.t.u.Y Y l 5.a @ 9 ; I ; e m 8 # | h a ~ ~ v.w.x.;.Y Y ;.4.X Y Y l , 8 ! j j ].w < x 3 h e C y ! ",
"@ 3 j h 0 @ 0 m M m %.w y.z.[.A.B.C.Y Y = 8 a ' @ 5 8 O m D e a ].1 1 3 t D.E.F.0.Y Y Y X L X Y Y l = y J @ 5 ( a # # ' N I m a ",
"8 t x # 6 @ # w @ , T y G.H.I._.;.X X Z m a ~ ~ h # ' 5 8 ; I D 8 a ! # ! J.s.K.L.Y Y 4.T >.M.Y 4.>.l Z F k y M m c G ' G 6 N.y ",
"I 4 x 3 ' 6 %.H a O I I O.P.Q.R.X Y 4.T 9 w f t w j 7 4 N ; I , , D e 5 a v.S.x.L Y Y > I T.#.X Z M C T Z 4.- Z k e @ h ! h q > ",
", c # | g h 4 # h @ U.%.V.W.X.R.X X l Y.! | v ].t 3 R 7 G 8 e ; ; D D I m ; y Z.`.Y Y b  +.+++;.>.m * ; y > |.Y L = y 8 @ ' a e ",
"D 8 h 7 3 7 3 < < f ! @+#+$+%+;.Y Y X 9 7 u u w 3 1 3 t # t g g ' 5 * m y C > l &+Y Y M.> *+-.- C 8 ' h a 8 y F M.Y L F , e 8 q ",
"; 9 j S < 7 t f j x t =+-+;+;.;.Y ;.E M , w u f P p.+ 3 3 < x S $.' c >+5 m b E B ,+L X 4.M.|.M 8 c @ ' h h 0 '+)+X Y Y X >.M !+",
"8 I H j + j h <.5 ~ ~+{+]+^+Y Y ;.F e J ; m e ^.7 ) i S x + P + < # 5 0 /+@ m M = |.4.;.Y M.C ( 4 ' 6 6 c ( v.(+_+;.Y Y Y Y 4.:+",
"I M D e ' 7 3 ! ; y <+[+}+|+X Y M.y 6 ' ` G D M I ( j + S P + d + | a G # t 0 ; , b = - M.>.m a 3 j 3 # G ( 1+W _.;.Y Y L Z l y ",
"y ; 9 Q 5 9 %.2+t 3+4+5+6+7+Y Y T ( ! ! ' a 9 ; I D 8 ( 0 ! < 8+8+$.t h # 3 | h 9 m I D , C y * ' | $.< 4 a.S.x.0.R.Y Y E , D M ",
"* c ' # 3 H ( * Y.9+0+a+X X Y M.I # < < 3 w %.5 G ' @ * I I ( j ) + j # h ! 3 j g h ~ @ J O m D y e @ h a b+c+`.X Y Y X T e 9 T.",
"@ J 6 a w t H 9 1+d+$+e+;.Y X >.5.# x d 8+x 7 # g 3 3 t ! ( D ; ~ v d v ! ~ w t h h | R g ' 6 O , M D m m f+g+L Y Y Y M.b e N h+",
"G 8 e * 0 h ~ 5 i+j+k+^+l+Y M., ( a ! 3 P % S 1 j x P $.$.< 4 O M * 7 v v j f 3 # @  .m+! ~ a 6 c e ; I n+o+p+;.Y Y M.k m e O m ",
"@ 9 * * ( @ @ q+r+i.:.j.R.Y M.y 0 7 < 3 3 $.< | 7 < $.$.1 < x |  .e ; 8 s+].v p.x | h  .@ 5 J c G 6 c 5.1.t+j.L ;.X E e @ 6 O u+",
"a ' ' ~ 4 ' <.v+j+#.;.;.;.M.k e e s+u w+& + t @ 9 0 ~ 7 | | 1 x+$.g @ ; e 5.0 j j f j j t # h ' ` ' 0 y+z+A+X R.;.Y l m G 4 5 * ",
"6 # 3 < v t q.B+C+{.D+Y ;.F ( 7 w ~ * 6.& E+d h ; m 5.%.g R 4 < S x+g ~ @ 8 O e I 0 x % S < 3 1 3 t h F+G+;.Y ;.L 4.>.M O 5 @ p ",
"; J ~ 3 ) v H+I+J+K+L+Y X > 0 v d P a * M+s+N+7 a ( 9 9 ! 7 # ` t S < # h ~ 4 N , C 8 j E+x v < 3 # O+S.,+0.Y Y M.> D ; e I e Q ",
"c e ; 9 H l.P+Q+R+S+L Y M., c ! 3 1 # 4 c I 5.a.! H t 7 j 3 3 @ @ t x R h H 7 # ~ 9 M , c h v x 3 s+/.T+U+V+Y Y Z I 6 ` G O D C ",
"' c e e 5.W+X+Y+Z+;.;.X > * @ ~ h h @ a g g 9 , ; Y.H + d + < | h h 3 1 | ! h ! g h 6 * C k 5 ! t @+`+ @f.;.Y Y T * a # | ' 8 , ",
".@' 0 6 v.+@@@^+R.X ;.>.Y.' w | | h 6 @ # j j # 5 y I 5 ~ v ) S j | t 3 1 # 0 c J 5 c c c m y , Y.#@$@A+X Y Y |.D 6 ' ' 4 4 @ ; ",
"[ w H a %@&@*@=@;.X Y M ' | j j x < t h H | x -@< h N ; D Q h ) ;@8+3 t | R h 6 J 8 e Q 5 9 * I >@,@#.`.;.Y 4.= ; %.h ' 0 6 5 ; ",
"<.h ! '@)@!@~@X X X X k 9 h t 7 v x < 3 t t 3 < P $.g @ 8 8 m 9 f N+N+f # | 7 | | w %.0 ~ ~ 6 8 {@]@^@L ;.Y E I <.~ ! H @ ( 8 D ",
"/@8 5 (@_@:@=@Y Y ;.F D 5.9 c 5 w x x 3 | g h h # 1 < t 5 5 @ a 8 Q <@[@y.t 3 < < < j j < < # r }@)+L X ;.Y 4.y H 2+j 3 h 6 8 D ",
", m  +|@!@1@2@Y Y - y @ ~ @ * I Q h j P $.1 # 0 5 4 j < ! 5 c ! t 5 a.( <.! < d d < | < P $.| b+3@`.X Y ;.- F T D ( y.f 7 w 0 I ",
"C D 7.4@5@6@7@Y Y = c 3 < | a e m N 0 ! j ) S 7 ' h 7 P < h 6 ' | x x h N Q 5 j p.% j ! h g ].i+8@0.Y Y ;.>.D O m M D Q %.3 ~ I ",
"9 I (+@@9@:.0@Y Y = Q # < x j p 5 0 p %.5 # j x x < < P P | G G h | 1 | ` 9 m ( %.t d j ! a D.a@b@V+X Y - y 5 6 5 9 8 D C O e C ",
"c@b d@e@f@L X X |., * 9 a t j f t 4 # # ~ %.( @ 3 v P P P 3 ~ ( ( c G @ G  .c a <.* ( w u g@|@h@f.o.Y Y = 5 w t %.5 a 6 D > > M ",
"[ , i@j@4.X Y X T 9 @ 5 c 0 4 w | g g ! t k@H <.c @ t 3 x + 7 q.%.5 @ ' ' ~ a # y.! e M * b+[.l@X Y Y L M  .3 j # G 0 G ; M y D ",
"4 a  +b |.;.Y Y T N a p 0 0 %.p # # ! a ' 7 j ! 5 8 ( 5 ! 2+x + + | ~ # g | | w 3 j 3 G I m@n@3.f.Y L = m 5 @ ! t ` 5 c I M * 8 ",
"o@< g 8 M F l L - b e 5 @ a 0 %.! t h 5 O 5 ! | 4 @ ( O Q ( @ P p@P 3 # 4 ' ' a h 7 < t q@r@s@e+j.X |.t@! ! 6 ( @  .c * I C I 8 ",
"* < x 4 5 8 5.y = E = , O 5 6 0 h t # @ e ; @ 3 R h c * e ; m ( h x P | ' ( * e * 0 h s+u@v@=@L ;.Y X y y.x j 6 5.e e m D I , I ",
"( ' P t ! h ! p * y T F = M m O ( @ h 4 @ 8 <.t $.7 5 e m e c J * 0 ! t # 0 Q ; m ; 9 3+w@l@;.Y X X ;.F C ( 7 w @ 5 * m D I y C ",
"j x@| # ! ~ ! 7 ].a m b E >.= > M y e 6 a 0 8 0 7 j # ( ; e 5 ~ ~ 0 9 ( 6 5 a h a 6 5 #@y@&+X Y X |.> b k M y m %.t a Q 5.D b > ",
"< s a ` 4 h h t P S ! c * ; C = E Z = I c c e e 5 # 7 w ~ ' a ~ w t ! @ * ; 5 ! 3 j g.z@A@L.0.Y ;.> ; 8 N J J I , ; Q 5.m D T k ",
"h a a  .G a a 4 3 P S P x 3 a e M l |.= , ; e m ; 5 ! 3 < < 3 3 < $.$.3 h ( 8 * 0 q.B@C@D@0@L Y |.D 0 ' ' ' h @ m >.>.k > M I ' ",
"8 E@t 6 c h ! h t < S % % ) j ! 5 m b E Z > , y D m J 4 3 1 g # x S P x < 3 ~ 9 ; F@G@H@;.X ;.4.> 8 ~ h @ 6 6 5 O M = F = m c 7 ",
" .I@g 5 N j P t # | j < + + x j 7 t a * , >.Z E F k m @ # g 4 @ G w 1 j < v 3 ! 5 J@K@j.;.;.;.l I %.h ~ 5 8 N 8 ; C b k y ~ 6 | ",
"6 L@0 8 @ P x t ' ( 8 5 ~ 3 -@S + x 3 | ' D >.- M.|.k e 5 G G 5 * 5 ~ h # ].w ~ q+M@N@j.L ;.;.F * ! t # @ N ; e m , I , * 7 5 ! ",
"m h+O D h S # @ G e I I e @ 1 P % x # g # 9 y M k T F = k y e N 9 5 5 5 @ h w @ i+s.&+X X Y ;.>.m 0 ! f t p * D y D ! ; ( < 8 0 ",
"c c J C @ x ! w 0 ! N 8 0 @ ' # $.$.1 7 # ' J 5 6 @ m > Z |.>.C O  .6 * ; ( t '@O@P@X Y Y ;.Z , m I e 0 ' 7 h , m y h ' g P O * ",
"! ' N C 5 3 a j 5.# t t x x 3 t | | $.< < 7 # ! t j ! 8 k E - Z = D 8 O y I 5 %@Q@R@S+Y Y |.C 9 5 * I I ; 9 m Y b y ' 1 $.< I ; ",
"` ( * ; 6 g 5 < c O ! # x u + j | # | < $.< j 3 7 $.< t c m y C |.E k , y y I S@T@U+L.Y Y >.* ~ # ' 9 I m ; C Y M ; ` 8+1 ` y D ",
"| e U@6 ` ! 9 1 1 @ ' 7 x 3 | ! ` h # 3 < f f # 4 1 P S < 4 ! ! 0 , F >.k k T.y@V@L X Y ;.> 8 ~ w # @ D 8 8 , ;., 6 4 P # 5 D y ",
"g c W@a 3 ! 8 | x j ; ! x x # 6 5 ' # # ' ~ h a 6 @ t S % S < f j ` e M F l E  @L X Y ;.F I * * c 5 9 , O 8 y 4.b ! | | a ( D e ",
"a 5 .@5 v | J 4 < 8+9 e m+1 t a @ g < 3 h G ~ ! h a h | 2 x x 2 3 3 t 5 D k = Z X Y Y L k O O , m m I , D D b - = ' t 5 9 5 I 9 ",
"I 6 < 0 j 3 ' c # p.0 T , c h h G g + % + j 7 | | # h h a @ a 4 t < + < ! 5 5., = - Y X > ; ; , ; m M C C y > M.l @ g c c G ; ; ",
"b  .R G 7 3 6 ; @ u w , E , 0 G 6 @ j i d P j g h a G a %.9 ; * ( ` R x P 3 ~ ( Y., >.- l > T E M , >.= > C F L - 9 ` J X@Y@Z@`@",
",  .,.5 t 7 O D @ 7 t 0 >.k 0 ! @ c # -@< t w a @ @ @ 4 | ! 0 Q 8 a 7 x P 1 4 5 ( Q ; M > C T |.k M b  #= .#I [ G ; @ ( T j # c ",
"D  .Q ; /+R 8 8 4 0 J ` |.l c t h J ' x 7 ' a 9 6 4 # 1 P S 1 h @ G 7 + +#! @#/ ##$#m T %#E I l |.E , = Z Y m g  .e g 6 T ! ! y "};
