/* XPM */
static char * rot2_xpm[] = {
"64 64 1139 2",
"  	c #8E5425",
". 	c #8B5223",
"+ 	c #804A21",
"@ 	c #6B3E1B",
"# 	c #74441E",
"$ 	c #8F5524",
"% 	c #834D21",
"& 	c #885022",
"* 	c #643A19",
"= 	c #4C2C13",
"- 	c #41240E",
"; 	c #603818",
"> 	c #4F2D14",
", 	c #573216",
"' 	c #6F401D",
") 	c #814C21",
"! 	c #72421D",
"~ 	c #70411C",
"{ 	c #492911",
"] 	c #71421D",
"^ 	c #6F401B",
"/ 	c #804A20",
"( 	c #76451E",
"_ 	c #683C1A",
": 	c #613819",
"< 	c #6E401B",
"[ 	c #5E3616",
"} 	c #70411D",
"| 	c #6C3E1B",
"1 	c #4B2B12",
"2 	c #5E3717",
"3 	c #73441F",
"4 	c #5E3718",
"5 	c #5C3517",
"6 	c #663B1A",
"7 	c #623818",
"8 	c #563115",
"9 	c #673C19",
"0 	c #73431D",
"a 	c #6B3D1A",
"b 	c #6C3E1A",
"c 	c #6D3E1A",
"d 	c #573115",
"e 	c #653918",
"f 	c #4F2D13",
"g 	c #3A200C",
"h 	c #623817",
"i 	c #72421C",
"j 	c #77461D",
"k 	c #854E21",
"l 	c #6C3D1A",
"m 	c #75441D",
"n 	c #7F4A1F",
"o 	c #6E3F1B",
"p 	c #5D3516",
"q 	c #6C3E1C",
"r 	c #874F21",
"s 	c #814B20",
"t 	c #77461E",
"u 	c #7F4A20",
"v 	c #72411C",
"w 	c #7B481F",
"x 	c #864E21",
"y 	c #7A471F",
"z 	c #75441E",
"A 	c #543015",
"B 	c #502F14",
"C 	c #40230E",
"D 	c #5A3416",
"E 	c #5E3617",
"F 	c #844D21",
"G 	c #73421D",
"H 	c #70411B",
"I 	c #502D13",
"J 	c #663C1A",
"K 	c #7F4B21",
"L 	c #6F401C",
"M 	c #79461E",
"N 	c #71411C",
"O 	c #563014",
"P 	c #543014",
"Q 	c #7D4A21",
"R 	c #603819",
"S 	c #5C3518",
"T 	c #6E3E1B",
"U 	c #5E3516",
"V 	c #73431C",
"W 	c #583215",
"X 	c #653A18",
"Y 	c #573114",
"Z 	c #351D0B",
"` 	c #5C3415",
" .	c #74431D",
"..	c #693D1A",
"+.	c #6F3F1B",
"@.	c #804A1F",
"#.	c #70401B",
"$.	c #6D3F1C",
"%.	c #7E4A1F",
"&.	c #5F3717",
"*.	c #73441E",
"=.	c #7F4A21",
"-.	c #653B19",
";.	c #633918",
">.	c #834C20",
",.	c #7E491F",
"'.	c #804B21",
").	c #7B4820",
"!.	c #563114",
"~.	c #5C3416",
"{.	c #3A210D",
"].	c #593315",
"^.	c #563215",
"/.	c #553115",
"(.	c #7B471F",
"_.	c #70401C",
":.	c #633919",
"<.	c #5E3618",
"[.	c #502E14",
"}.	c #522F14",
"|.	c #875124",
"1.	c #79471F",
"2.	c #6A3D1A",
"3.	c #663B19",
"4.	c #482911",
"5.	c #854F24",
"6.	c #6D3E1B",
"7.	c #73421C",
"8.	c #573214",
"9.	c #6B3D1B",
"0.	c #77451D",
"a.	c #512F14",
"b.	c #653A19",
"c.	c #79471E",
"d.	c #7D491F",
"e.	c #6E3F1C",
"f.	c #613818",
"g.	c #5A3316",
"h.	c #5D3517",
"i.	c #854D21",
"j.	c #72431C",
"k.	c #78461D",
"l.	c #6D3F1B",
"m.	c #5F3818",
"n.	c #673C1A",
"o.	c #663C19",
"p.	c #693C1A",
"q.	c #462810",
"r.	c #8D5526",
"s.	c #7C4920",
"t.	c #74441D",
"u.	c #693D1B",
"v.	c #3E220E",
"w.	c #895125",
"x.	c #76441E",
"y.	c #5C3516",
"z.	c #7A461E",
"A.	c #6C3D1B",
"B.	c #6E3F1A",
"C.	c #663B18",
"D.	c #4A2A12",
"E.	c #643918",
"F.	c #71421C",
"G.	c #583316",
"H.	c #6F3F1A",
"I.	c #75431C",
"J.	c #7E491E",
"K.	c #583216",
"L.	c #6A3E1A",
"M.	c #7F4B1F",
"N.	c #693E1B",
"O.	c #522E13",
"P.	c #542F14",
"Q.	c #5A3417",
"R.	c #804B20",
"S.	c #6D3F1A",
"T.	c #532F14",
"U.	c #76441D",
"V.	c #814D23",
"W.	c #78461E",
"X.	c #7A481F",
"Y.	c #3C210D",
"Z.	c #834F23",
"`.	c #885023",
" +	c #643919",
".+	c #74441C",
"++	c #42240D",
"@+	c #47270F",
"#+	c #603717",
"$+	c #633917",
"%+	c #7C481F",
"&+	c #693C19",
"*+	c #653917",
"=+	c #8A5122",
"-+	c #4E2D14",
";+	c #452610",
">+	c #5B3516",
",+	c #593316",
"'+	c #7E4A20",
")+	c #73431E",
"!+	c #613919",
"~+	c #834C21",
"{+	c #4F2D12",
"]+	c #7A4921",
"^+	c #77461F",
"/+	c #7D481E",
"(+	c #42250F",
"_+	c #74461F",
":+	c #864F22",
"<+	c #78451D",
"[+	c #573215",
"}+	c #583315",
"|+	c #6C3F1A",
"1+	c #613715",
"2+	c #683C17",
"3+	c #663C1C",
"4+	c #623C21",
"5+	c #442E21",
"6+	c #412818",
"7+	c #77451E",
"8+	c #7B481E",
"9+	c #5F3617",
"0+	c #74431C",
"a+	c #7D4920",
"b+	c #432610",
"c+	c #7E4920",
"d+	c #78451E",
"e+	c #603718",
"f+	c #603716",
"g+	c #72431E",
"h+	c #7C4A21",
"i+	c #76451D",
"j+	c #4C2B12",
"k+	c #603817",
"l+	c #804C21",
"m+	c #73421B",
"n+	c #643815",
"o+	c #573014",
"p+	c #512F17",
"q+	c #613B21",
"r+	c #66422A",
"s+	c #583E30",
"t+	c #654B3E",
"u+	c #654E44",
"v+	c #5B473D",
"w+	c #5A4941",
"x+	c #493E3B",
"y+	c #3A2B23",
"z+	c #6E3E1A",
"A+	c #4A2A11",
"B+	c #553015",
"C+	c #643A18",
"D+	c #5A3415",
"E+	c #673C18",
"F+	c #71411D",
"G+	c #6A3C19",
"H+	c #593113",
"I+	c #4A2A0D",
"J+	c #78471E",
"K+	c #693C1B",
"L+	c #704221",
"M+	c #74492A",
"N+	c #6D4932",
"O+	c #63493C",
"P+	c #624F47",
"Q+	c #5D504A",
"R+	c #5D4E48",
"S+	c #5C4C46",
"T+	c #514744",
"U+	c #544A46",
"V+	c #4C4441",
"W+	c #433C3B",
"X+	c #413C3B",
"Y+	c #3A3735",
"Z+	c #2C2421",
"`+	c #5D3518",
" @	c #77441D",
".@	c #6F411C",
"+@	c #5B3416",
"@@	c #6F3F1C",
"#@	c #653A1A",
"$@	c #864E22",
"%@	c #6E401C",
"&@	c #502E13",
"*@	c #854F23",
"=@	c #5C3414",
"-@	c #7E481D",
";@	c #6F4121",
">@	c #6F4429",
",@	c #614434",
"'@	c #4C3D37",
")@	c #715445",
"!@	c #634D43",
"~@	c #644E44",
"{@	c #655047",
"]@	c #5B4C46",
"^@	c #554A47",
"/@	c #504A47",
"(@	c #4C4745",
"_@	c #484240",
":@	c #3F3C3B",
"<@	c #3C3938",
"[@	c #3D3A39",
"}@	c #5A5756",
"|@	c #3C3A39",
"1@	c #383433",
"2@	c #363231",
"3@	c #252221",
"4@	c #553017",
"5@	c #7A471E",
"6@	c #6A3D1B",
"7@	c #7D471D",
"8@	c #542F13",
"9@	c #7C491F",
"0@	c #633A18",
"a@	c #864F21",
"b@	c #7B471E",
"c@	c #6F3F19",
"d@	c #643916",
"e@	c #3E2513",
"f@	c #7D4D2A",
"g@	c #5D3D2C",
"h@	c #594033",
"i@	c #704C3A",
"j@	c #6B4F42",
"k@	c #68544A",
"l@	c #6A574F",
"m@	c #665A56",
"n@	c #514B4A",
"o@	c #574B48",
"p@	c #4A423F",
"q@	c #453F3C",
"r@	c #484342",
"s@	c #423F3D",
"t@	c #3B3836",
"u@	c #3C3836",
"v@	c #3A3635",
"w@	c #312E2D",
"x@	c #4A4645",
"y@	c #312F2F",
"z@	c #302E2D",
"A@	c #272626",
"B@	c #4C2E18",
"C@	c #74431B",
"D@	c #653B1A",
"E@	c #71411B",
"F@	c #75451E",
"G@	c #502E12",
"H@	c #583212",
"I@	c #7C481D",
"J@	c #75441F",
"K@	c #6E4223",
"L@	c #5E3C29",
"M@	c #674430",
"N@	c #62473A",
"O@	c #654C40",
"P@	c #584E4A",
"Q@	c #6E594F",
"R@	c #5F504B",
"S@	c #544A47",
"T@	c #4F433E",
"U@	c #4A413D",
"V@	c #48413E",
"W@	c #45403E",
"X@	c #484341",
"Y@	c #403C3C",
"Z@	c #393634",
"`@	c #393533",
" #	c #5C5857",
".#	c #4D4A4A",
"+#	c #343130",
"@#	c #3C3835",
"##	c #383533",
"$#	c #393534",
"%#	c #322F2F",
"&#	c #2D2B2A",
"*#	c #272423",
"=#	c #342F2E",
"-#	c #36312F",
";#	c #432816",
">#	c #593416",
",#	c #70401A",
"'#	c #72431D",
")#	c #512E14",
"!#	c #4B2B11",
"~#	c #522F13",
"{#	c #623716",
"]#	c #6D4121",
"^#	c #6C4327",
"/#	c #63412E",
"(#	c #5A443A",
"_#	c #73584B",
":#	c #755E54",
"<#	c #6D5B54",
"[#	c #5F524D",
"}#	c #574A46",
"|#	c #544A45",
"1#	c #4D4542",
"2#	c #4D4745",
"3#	c #494341",
"4#	c #3B3837",
"5#	c #544F4F",
"6#	c #524E4E",
"7#	c #3C3837",
"8#	c #3D3938",
"9#	c #3B3635",
"0#	c #383432",
"a#	c #2D2A2A",
"b#	c #3B3634",
"c#	c #383331",
"d#	c #352F2D",
"e#	c #342D29",
"f#	c #2F241F",
"g#	c #2A1F17",
"h#	c #34231B",
"i#	c #3C2618",
"j#	c #321F13",
"k#	c #3B210F",
"l#	c #75441C",
"m#	c #7A481E",
"n#	c #462813",
"o#	c #5E3B23",
"p#	c #563B2C",
"q#	c #614435",
"r#	c #654B3F",
"s#	c #6C5448",
"t#	c #6D574F",
"u#	c #65554E",
"v#	c #5C4E49",
"w#	c #564D4A",
"x#	c #5A514E",
"y#	c #4A4443",
"z#	c #444040",
"A#	c #3E3C3B",
"B#	c #393635",
"C#	c #3D3B39",
"D#	c #433E3D",
"E#	c #423E3C",
"F#	c #332F2F",
"G#	c #4D4949",
"H#	c #4A4747",
"I#	c #3B3735",
"J#	c #3D3937",
"K#	c #332F2D",
"L#	c #27211E",
"M#	c #2E2622",
"N#	c #362B26",
"O#	c #322721",
"P#	c #2F221C",
"Q#	c #382419",
"R#	c #4A2D19",
"S#	c #4B2D17",
"T#	c #543017",
"U#	c #4A2B14",
"V#	c #39200C",
"W#	c #683C19",
"X#	c #6A3C1A",
"Y#	c #76461E",
"Z#	c #4C3C36",
"`#	c #60544F",
" $	c #5E534F",
".$	c #584D4A",
"+$	c #534A46",
"@$	c #4A4341",
"#$	c #443F3E",
"$$	c #413D3C",
"%$	c #3F3C3A",
"&$	c #494545",
"*$	c #575353",
"=$	c #454242",
"-$	c #312F2E",
";$	c #413C3C",
">$	c #403C3B",
",$	c #3A3736",
"'$	c #373332",
")$	c #2F2B2A",
"!$	c #3D3936",
"~$	c #383230",
"{$	c #332E2B",
"]$	c #2E2927",
"^$	c #3A2B24",
"/$	c #3A2B22",
"($	c #3C271C",
"_$	c #442918",
":$	c #442917",
"<$	c #573319",
"[$	c #4A2A13",
"}$	c #38200B",
"|$	c #673B18",
"1$	c #553014",
"2$	c #49352B",
"3$	c #454140",
"4$	c #474241",
"5$	c #3F3B3A",
"6$	c #4E4A4A",
"7$	c #5B5857",
"8$	c #373433",
"9$	c #383534",
"0$	c #3C3735",
"a$	c #393433",
"b$	c #3C3838",
"c$	c #2F2E2D",
"d$	c #34312F",
"e$	c #37312F",
"f$	c #38322F",
"g$	c #362E2A",
"h$	c #35261D",
"i$	c #3C2A20",
"j$	c #3E281A",
"k$	c #432817",
"l$	c #2D1B10",
"m$	c #643B1C",
"n$	c #5F3719",
"o$	c #5F3618",
"p$	c #6A3C1B",
"q$	c #5D3616",
"r$	c #3C210C",
"s$	c #482F1F",
"t$	c #3E3B3A",
"u$	c #413E3D",
"v$	c #535050",
"w$	c #292726",
"x$	c #363232",
"y$	c #302B2A",
"z$	c #27211F",
"A$	c #362F2B",
"B$	c #3C312C",
"C$	c #382A22",
"D$	c #251D19",
"E$	c #452B1B",
"F$	c #412819",
"G$	c #4C2E19",
"H$	c #5B351A",
"I$	c #61391A",
"J$	c #62391A",
"K$	c #643917",
"L$	c #78471F",
"M$	c #613817",
"N$	c #824C21",
"O$	c #532F13",
"P$	c #824B20",
"Q$	c #633A19",
"R$	c #482C19",
"S$	c #322F2D",
"T$	c #3B3736",
"U$	c #2F2D2D",
"V$	c #2A2826",
"W$	c #3A3534",
"X$	c #393331",
"Y$	c #38312F",
"Z$	c #302A27",
"`$	c #3C2D25",
" %	c #3C2B21",
".%	c #3D281B",
"+%	c #3F2717",
"@%	c #472B18",
"#%	c #58341A",
"$%	c #653C1C",
"%%	c #3C220F",
"&%	c #683D1B",
"*%	c #71401B",
"=%	c #4A2910",
"-%	c #74451E",
";%	c #824D21",
">%	c #482810",
",%	c #46270F",
"'%	c #824B21",
")%	c #7C471D",
"!%	c #72411B",
"~%	c #4D2E17",
"{%	c #332C28",
"]%	c #35312F",
"^%	c #362E2B",
"/%	c #28201B",
"(%	c #31221B",
"_%	c #3C281D",
":%	c #412A1B",
"<%	c #432918",
"[%	c #3F2614",
"}%	c #623A1C",
"|%	c #653C1B",
"1%	c #5B3414",
"2%	c #6B3F1C",
"3%	c #865024",
"4%	c #76461F",
"5%	c #593215",
"6%	c #643A1A",
"7%	c #583317",
"8%	c #332115",
"9%	c #302117",
"0%	c #3E2718",
"a%	c #492C18",
"b%	c #482B15",
"c%	c #543016",
"d%	c #8B5222",
"e%	c #5F3817",
"f%	c #804C22",
"g%	c #5C3617",
"h%	c #895225",
"i%	c #653B18",
"j%	c #79461D",
"k%	c #895022",
"l%	c #563015",
"m%	c #5C3618",
"n%	c #3F230F",
"o%	c #462811",
"p%	c #623918",
"q%	c #6B3E1A",
"r%	c #8F5626",
"s%	c #885124",
"t%	c #5B3415",
"u%	c #5E3615",
"v%	c #71401C",
"w%	c #381F0C",
"x%	c #874F22",
"y%	c #603617",
"z%	c #653919",
"A%	c #6A3E1B",
"B%	c #844E22",
"C%	c #7E4A21",
"D%	c #915728",
"E%	c #884F22",
"F%	c #613718",
"G%	c #854E22",
"H%	c #39200D",
"I%	c #79461F",
"J%	c #8D5426",
"K%	c #8B5224",
"L%	c #7C471F",
"M%	c #3E230E",
"N%	c #4C2B11",
"O%	c #6B3C19",
"P%	c #75451D",
"Q%	c #683B19",
"R%	c #864F23",
"S%	c #6E401D",
"T%	c #794720",
"U%	c #492910",
"V%	c #834E23",
"W%	c #8C5223",
"X%	c #4B2A11",
"Y%	c #895124",
"Z%	c #75431D",
"`%	c #472810",
" &	c #72421B",
".&	c #6D401C",
"+&	c #5B3517",
"@&	c #72411D",
"#&	c #73451E",
"$&	c #5A3315",
"%&	c #643B19",
"&&	c #8A5224",
"*&	c #553114",
"=&	c #40240E",
"-&	c #5D3416",
";&	c #7F491F",
">&	c #4D2C14",
",&	c #6C3F1B",
"'&	c #814B21",
")&	c #5A3314",
"!&	c #4F2E13",
"~&	c #834D22",
"{&	c #5D3617",
"]&	c #7C481E",
"^&	c #78461F",
"/&	c #3C210E",
"(&	c #512E13",
"_&	c #4D2D13",
":&	c #844F24",
"<&	c #864D21",
"[&	c #3D220E",
"}&	c #351E0B",
"|&	c #5C3417",
"1&	c #462710",
"2&	c #643B18",
"3&	c #3F230E",
"4&	c #824D23",
"5&	c #5B3518",
"6&	c #834B21",
"7&	c #74431E",
"8&	c #76441C",
"9&	c #673B19",
"0&	c #4D2B12",
"a&	c #41240F",
"b&	c #4D2C11",
"c&	c #70401D",
"d&	c #844D22",
"e&	c #844C21",
"f&	c #72431F",
"g&	c #704220",
"h&	c #653D22",
"i&	c #523421",
"j&	c #57351D",
"k&	c #40240F",
"l&	c #74421C",
"m&	c #663A18",
"n&	c #774720",
"o&	c #6A4226",
"p&	c #554741",
"q&	c #605755",
"r&	c #402F25",
"s&	c #482811",
"t&	c #72411A",
"u&	c #472911",
"v&	c #623917",
"w&	c #814A20",
"x&	c #683D1A",
"y&	c #8C5325",
"z&	c #874F23",
"A&	c #653F24",
"B&	c #454141",
"C&	c #625C5C",
"D&	c #464242",
"E&	c #2F2623",
"F&	c #442915",
"G&	c #4B2B13",
"H&	c #3D210D",
"I&	c #412510",
"J&	c #7D4A1F",
"K&	c #6B3D19",
"L&	c #844D20",
"M&	c #5D3515",
"N&	c #4E2D13",
"O&	c #533623",
"P&	c #292625",
"Q&	c #3C3431",
"R&	c #3C2619",
"S&	c #301B0A",
"T&	c #874E21",
"U&	c #884F21",
"V&	c #462A15",
"W&	c #4C433E",
"X&	c #2D2A29",
"Y&	c #211F1D",
"Z&	c #3B3737",
"`&	c #3C3736",
" *	c #292220",
".*	c #653A17",
"+*	c #432510",
"@*	c #44250F",
"#*	c #7D4A20",
"$*	c #3E230D",
"%*	c #844F23",
"&*	c #4C2D14",
"**	c #3D302B",
"=*	c #464241",
"-*	c #221B17",
";*	c #261B14",
">*	c #29180D",
",*	c #251A14",
"'*	c #3F3C3C",
")*	c #323131",
"!*	c #583114",
"~*	c #4E2C13",
"{*	c #5D3618",
"]*	c #5B3515",
"^*	c #7B471D",
"/*	c #79451D",
"(*	c #784720",
"_*	c #4C2E17",
":*	c #453C3B",
"<*	c #3D3A3A",
"[*	c #291910",
"}*	c #3E230F",
"|*	c #3B3432",
"1*	c #3B3939",
"2*	c #46260F",
"3*	c #6D3E19",
"4*	c #71401A",
"5*	c #3F220D",
"6*	c #5F3516",
"7*	c #5C3515",
"8*	c #7A4820",
"9*	c #8D5223",
"0*	c #7D481F",
"a*	c #522F15",
"b*	c #3C3330",
"c*	c #2D190B",
"d*	c #4B2F1E",
"e*	c #413A38",
"f*	c #301B0C",
"g*	c #78451C",
"h*	c #824C20",
"i*	c #623919",
"j*	c #905525",
"k*	c #573314",
"l*	c #8B5324",
"m*	c #593317",
"n*	c #372923",
"o*	c #3E3A3A",
"p*	c #3E3633",
"q*	c #462A17",
"r*	c #653C21",
"s*	c #573A2A",
"t*	c #483A33",
"u*	c #261E1A",
"v*	c #291709",
"w*	c #583214",
"x*	c #4C2C14",
"y*	c #39210E",
"z*	c #583415",
"A*	c #915727",
"B*	c #8D5325",
"C*	c #3F2615",
"D*	c #2E2522",
"E*	c #443E3C",
"F*	c #524A49",
"G*	c #524E4D",
"H*	c #464342",
"I*	c #2F2A27",
"J*	c #351F10",
"K*	c #2C1808",
"L*	c #3B210E",
"M*	c #3C220E",
"N*	c #653C1A",
"O*	c #905728",
"P*	c #4F2E14",
"Q*	c #3A210F",
"R*	c #392922",
"S*	c #352F2F",
"T*	c #332B27",
"U*	c #3C2415",
"V*	c #442610",
"W*	c #593214",
"X*	c #814C20",
"Y*	c #895021",
"Z*	c #47280F",
"`*	c #3E220D",
" =	c #7A461D",
".=	c #4C2C12",
"+=	c #573317",
"@=	c #57341B",
"#=	c #3F2514",
"$=	c #462711",
"%=	c #552F14",
"&=	c #4E2D12",
"*=	c #834B20",
"==	c #4F2D11",
"-=	c #75451F",
";=	c #6C3F1C",
">=	c #492810",
",=	c #42240E",
"'=	c #6F401A",
")=	c #3A200D",
"!=	c #5C3616",
"~=	c #613717",
"{=	c #6A3D19",
"]=	c #3B210D",
"^=	c #703F1C",
"/=	c #613716",
"(=	c #8B5225",
"_=	c #8E5526",
":=	c #643817",
"<=	c #311B0A",
"[=	c #5F3616",
"}=	c #7C471E",
"|=	c #44260F",
"1=	c #623816",
"2=	c #7D471E",
"3=	c #6B3C1A",
"4=	c #45270F",
"5=	c #8E5525",
"6=	c #3D220D",
"7=	c #371E0C",
"8=	c #7D491E",
"9=	c #78441D",
"0=	c #8B5022",
"a=	c #482910",
"b=	c #7A4920",
"c=	c #693C18",
"d=	c #38200F",
"e=	c #3C210F",
"f=	c #70421D",
"g=	c #633816",
"h=	c #552F12",
"i=	c #643B1E",
"j=	c #603C23",
"k=	c #5A3C2D",
"l=	c #654738",
"m=	c #524038",
"n=	c #3D3430",
"o=	c #39271D",
"p=	c #542F15",
"q=	c #512E12",
"r=	c #6E411C",
"s=	c #844E23",
"t=	c #6D3D19",
"u=	c #6F411F",
"v=	c #5E3B24",
"w=	c #62402E",
"x=	c #533C31",
"y=	c #574138",
"z=	c #5E473D",
"A=	c #54443C",
"B=	c #4F403B",
"C=	c #4A403C",
"D=	c #4E4440",
"E=	c #2F231D",
"F=	c #844C20",
"G=	c #854C20",
"H=	c #663A19",
"I=	c #633916",
"J=	c #875024",
"K=	c #814A1F",
"L=	c #60381B",
"M=	c #482D1C",
"N=	c #754A2F",
"O=	c #5E402F",
"P=	c #5E4132",
"Q=	c #5E4234",
"R=	c #5D463C",
"S=	c #574A45",
"T=	c #544844",
"U=	c #4A4340",
"V=	c #49413E",
"W=	c #443D3B",
"X=	c #3E3938",
"Y=	c #423F3E",
"Z=	c #28211F",
"`=	c #79471D",
" -	c #693D19",
".-	c #663B17",
"+-	c #46270D",
"@-	c #6A3D1C",
"#-	c #6C4021",
"$-	c #774828",
"%-	c #633F2B",
"&-	c #573E30",
"*-	c #58433A",
"=-	c #604E48",
"--	c #4A4240",
";-	c #463C3A",
">-	c #3D3633",
",-	c #3E3B39",
"'-	c #353130",
")-	c #262322",
"!-	c #522F16",
"~-	c #623718",
"{-	c #492912",
"]-	c #472710",
"^-	c #6C4226",
"/-	c #63402C",
"(-	c #43342F",
"_-	c #6B4A39",
":-	c #644D43",
"<-	c #5A4840",
"[-	c #58453D",
"}-	c #4A3E3A",
"|-	c #453D3B",
"1-	c #443D3C",
"2-	c #403C3A",
"3-	c #534E4D",
"4-	c #444140",
"5-	c #353231",
"6-	c #2F2C2B",
"7-	c #302D2D",
"8-	c #292626",
"9-	c #252423",
"0-	c #4A2B16",
"a-	c #77441C",
"b-	c #4D2B13",
"c-	c #683B17",
"d-	c #673B16",
"e-	c #5B3619",
"f-	c #4F311D",
"g-	c #72482B",
"h-	c #6F472F",
"i-	c #5F4233",
"j-	c #624B40",
"k-	c #624F48",
"l-	c #5A4A45",
"m-	c #534742",
"n-	c #4D4643",
"o-	c #48403D",
"p-	c #3A3634",
"q-	c #3D3A38",
"r-	c #3C3937",
"s-	c #34302F",
"t-	c #423E3D",
"u-	c #363331",
"v-	c #373230",
"w-	c #352F2E",
"x-	c #2F221D",
"y-	c #3A2A21",
"z-	c #36251C",
"A-	c #241811",
"B-	c #3F240F",
"C-	c #4D2C13",
"D-	c #3B210B",
"E-	c #552F13",
"F-	c #593318",
"G-	c #683E21",
"H-	c #73492C",
"I-	c #654433",
"J-	c #5F463B",
"K-	c #654D42",
"L-	c #584841",
"M-	c #4D423F",
"N-	c #53453E",
"O-	c #50423C",
"P-	c #473C39",
"Q-	c #423B38",
"R-	c #413C39",
"S-	c #524D4C",
"T-	c #3E3A38",
"U-	c #312F2D",
"V-	c #292524",
"W-	c #312C2A",
"X-	c #3D3431",
"Y-	c #3C322F",
"Z-	c #322924",
"`-	c #39261D",
" ;	c #452A1A",
".;	c #3C2312",
"+;	c #492A14",
"@;	c #3E2F26",
"#;	c #50413B",
"$;	c #574741",
"%;	c #5C4A44",
"&;	c #604F49",
"*;	c #4E4543",
"=;	c #4B4441",
"-;	c #46403E",
";;	c #383434",
">;	c #413D3D",
",;	c #4A4847",
"';	c #403D3C",
");	c #343030",
"!;	c #2E2B2A",
"~;	c #2A2827",
"{;	c #332E2C",
"];	c #3C302A",
"^;	c #3A2E27",
"/;	c #3A281F",
"(;	c #3C2516",
"_;	c #4E2E16",
":;	c #452812",
"<;	c #532F15",
"[;	c #4A2912",
"};	c #341D0A",
"|;	c #43332C",
"1;	c #433D3C",
"2;	c #403B3A",
"3;	c #322F2E",
"4;	c #342E2B",
"5;	c #2E231E",
"6;	c #362720",
"7;	c #3B2B22",
"8;	c #3E2A1F",
"9;	c #3C2518",
"0;	c #2C1A0E",
"a;	c #5A3618",
"b;	c #4B2C14",
"c;	c #361D0B",
"d;	c #452E20",
"e;	c #333130",
"f;	c #474242",
"g;	c #2F2E2C",
"h;	c #2A2725",
"i;	c #393330",
"j;	c #3C3633",
"k;	c #4A3121",
"l;	c #422A1B",
"m;	c #432815",
"n;	c #4D2D14",
"o;	c #371F0B",
"p;	c #764620",
"q;	c #623A19",
"r;	c #633818",
"s;	c #703F1B",
"t;	c #4A2E1C",
"u;	c #282525",
"v;	c #35302E",
"w;	c #3E322D",
"x;	c #3C2F29",
"y;	c #39261C",
"z;	c #3D2617",
"A;	c #422816",
"B;	c #412614",
"C;	c #402511",
"D;	c #2A1708",
"E;	c #70421E",
"F;	c #7B4A21",
"G;	c #4E2C12",
"H;	c #312D2B",
"I;	c #3A3533",
"J;	c #38312E",
"K;	c #2B211D",
"L;	c #332620",
"M;	c #3C2C23",
"N;	c #3B2416",
"O;	c #362010",
"P;	c #573316",
"Q;	c #321C0B",
"R;	c #794820",
"S;	c #7B4920",
"T;	c #75461F",
"U;	c #6D401B",
"V;	c #5B3417",
"W;	c #482812",
"X;	c #32241C",
"Y;	c #3E2719",
"Z;	c #482B16",
"`;	c #462914",
" >	c #875023",
".>	c #4C2B13",
"+>	c #3B210C",
"@>	c #38200D",
"#>	c #4D2C12",
"$>	c #553016",
"%>	c #4A2B13",
"&>	c #331C0B",
"*>	c #5F3718",
"=>	c #502F15",
"->	c #4E2E14",
";>	c #673B1A",
">>	c #7C4921",
",>	c #824D22",
"'>	c #452711",
")>	c #3D230F",
"!>	c #6B3C1B",
"~>	c #4F2F15",
"{>	c #5A3317",
"]>	c #2C1708",
"^>	c #7B491F",
"/>	c #633819",
"(>	c #5E3517",
"_>	c #623819",
":>	c #492B14",
"<>	c #291608",
"[>	c #603616",
"}>	c #371F0D",
"|>	c #6C401D",
"1>	c #683C1B",
"2>	c #3E2310",
"3>	c #432712",
"4>	c #472913",
"5>	c #4B2C13",
"6>	c #261508",
"  . + @ # $ % & * = - ; > , * ' ) ! ~ { ] ^ / ( _ : < [ } | 1 2 3 ; 4 5 6 | 7 8 9 0 a b c d e f g h 0 i ^ j k l m n o p q r s m ",
"t u v _ w x y z A B C 2 D 5 E ! F G H I 6 d J K L 0 M a * N O P Q R S : R T a P U V | | m W X Y Z `  .0 ..o / | +.@.#.} $.%.i &.",
"*.=.-.;.>.,.'.).!.~.{.].^./.&.m t (._.:.<.[.}.|.w 1.m 2.3.u E 4.5.*.6._ R o 7.d 8. .0 9.0.;.2.h g a.6. .-.4 _.6.b.c.i d.e.f.c g.",
"@ w h.L i.j.k.l.m.-.n.1.} 9 P L +.i o.p.o ;.q.r.s.y t.L u.'.3.v.w.F x.6 f.+.i ].y.y z.A.v 2.B.C.C D.E.t F.G.h.+.3.H.I.J.a 5 c K.",
"L.M.o N.E.O.4 P.Q.:.0 R.0 S.T.j.2.b.E o U.0.- V.# W.W.W.$.X.2.Y.Z.`.m  +-.i c ].` t..+p.T b B.C.++@+#+j.m 7 ;.i N $+i %+&+v n *+",
"=+% + 4 -+;+>+,+G.f.( '+)+< 8.c.L !+5 f.v ~+{+]+^+t.M /+m -.f.(+_+:+m p.v <+&+[+}+|+S.1+2+C.3+4+5+6+E.l.| 2.7+m 8+9+b 0+p.t.>.2.",
"i.a+7+>+d b+T.A a.E.d.c+L 6 ].t d+_ <.e+' F f+g+h+3.i+/ y 3.y.j+k+l+#.v k.m+n+o+p+q+r+s+t+u+v+w+x+y+ +! p.6.u d+/ J ~ z+_ a >.2.",
"/ u ).-.&.A+}.,+B+C+d.s ! -.D+i s m p.J ! ).E+-.5.d _ s c.F+G+H+I+J+K+L+M+N+O+P+Q+R+S+T+U+V+W+X+Y+Z+`+ @N N 8+W./ .@%+o 6.E s a ",
"d.i+ .2.-.T.P.7 +@7 V u @@#@W b $@d.0 2.7.%@&+&@*@Y =@-@7.;@>@,@'@)@!@~@{@]@^@/@(@_@:@<@[@}@|@1@2@3@4@<+7+0.5@W.t 6@7+i  .[+7@c ",
"d.o L o | T.8@_ +@f.p.9@6 | G.0@a@b@7.X c@d@&+e@f@g@h@i@j@k@l@m@n@o@p@q@r@s@t@<@<@u@v@1@w@x@y@z@1@A@B@C@5@%./ w L Q.D@L c.!.7.v ",
"X.o.E@N F@-+G@a W :.* 9@| .+h H@I@J@K@L@M@N@O@P@Q@R@S@T@U@V@W@X@Y@<@Z@`@ #.#+#u@@###$###%#&#*#=#-#3@;#o 8+/ =.y 0 8 >#_ d++@p.,#",
"< f.'#^ %+)#!#C.~#{#1+0 ]#^#/#(#_#:#<#[#}#|#1#2#3#:@4#5#6#v@7#[@8#9#`@0#7#y@a#$#v@b#c#d#e#f#g#h#i#j#k#&+l#W.).t a+9 8 ;.S.D@N l ",
"p.E.t i m#Y n#o#p#q#r#s#t#u#v#w#x#w#y#z#A#B#C#D#E#7#F#G#H#z@9#I#$#$#$#J#K#L#M#N#O#P#Q#R#S#T#U#A 9+[.V#p.b L t t / d+7 E D 6@s W#",
"L X#W.Y#c.7 Z#`# $.$+$1#@$#$$$%$%$[@&$*$=$-$[@;$>$,$'$2@&#)$!$~${$]$^$/$($_$:$<$T#[$P N ^ a p b.%@&.}$|$p._.( W.y w l.+@1$: / p.",
"o N t s.5@p.2$3$4$5$6$7$8$1@9$I#0$a$7#b$c$d$:@v@+#e$f$g$P#h$i$j$k$l$m$n$o$p$<.v b D+q$s.u i o.| N X r$f+6.m %+1.o 0.<+X#3.o$L ~ ",
"f.| # '+M b.s$8$t$1@u$v$w$x$8$u@9#v@J#y$z$A$B$C$D$E$F$G$H$I$J$f.K$r$L$( N 1.6@0 V M$q$s.N$N _ L ~ X - O$o 5@'.X.b.E@P$<+7.W#Q$! ",
"8 ;.i b@M ,+R$S$<@T$d$U$V$W$X$Y$Z$`$ %.%+%@%#%$%%%&%* p.W.L$z +.*%=%-%=.X.=.F+| l.#+y.L$;%l.3.0.i ;.>%,%E@'%u 7+7 -.x )%!%|+f.o ",
"[+J ! i M #+~%{%]%~$^%/%(%_%:%<%[%}%|%* e+e+v i.1%&%3 e.u s t L i Y 2%3%4%s.! F+_.M$Y ^ '+| C+5@0.y.j+Y.+.=+W.p.5%E k z.!%^ ; ].",
"B+6%0 l.m ^ 7%8%9%0%a%b%c%6 _ ;.8.i '+G | n.0.d%< e%f%| W.k k.+.N h g%h%$.^+G u ! 3.O i%W.p.C+0 j%}.}.g c k%i ;.O ~.N$z F+l W [.",
"l%m%~ ^ N ( * n%o%5 o.; f.W.w ~ p%q%+ i+t 9.7+k w [+r%0.0 x '+d+p.e A+s%# %+v F e.2.t%u%v%M$i #.j%!.1$w%M$x%M +.U y%U.! ~ X#z%7 ",
"o.n.2.N N t n.{ o%-.! A%* 1.B%'#n.k+C%J+'.a V d.@.A+D%'%t.E%u $.F%9+Y.'.G%'%*%'%2.2.9+}.e+D  .a 0+b., H%1$W.(.%+a X &+2.! l c 7.",
"7+t.K+_.i+u n.f (+X ! @ p%! :+} n.P.F@1.% | o | I%(+J%k%d+r s ! W#b.Y.Q K%/ v L%n.-.M$Y -.p.F.C+a #.h.M%N%B.i+/ 0.&+O%C+P%N Q%0+",
"u y $.N w a@A%B+(+;.F.6@C+} R%S%4 }.T%a+F ! 9.n.7+U%V%W% @b@n  .7. .X%-%Y%%+Z%z D@2 k+D+E@(.| ,+ +0 b.o%`%E@i y 9@&+7.p c.W.e  &",
"s 5@~ 0.%+r -.O - p N @ | F+% .&+&Y s.+ u m | @&8+8@#&K%_._ w ,.z.y $&%&&&a+(.M ~ >#>#*&^ s o T.e+~ a > =&P%-.l.X.-.5@-&M u X b ",
"5@^ i d.;&F J >&v.d L ,&l..@s.'#-.#+z '&j%0._.d+%+)&m.3%b.+&i >.,.a+W#!&~&+ R.d.u X +&T._ + W.{&y.E.p.1$w% &#+E.i 7 w 7 ]&/ l Q%",
"U.E n.M '%k ^&g./&(&@ @ 6@! <+d+F+L.@ N$Z%W.'#(.,.X _&:&m%h.Q$<&,.u 0 [&} a+N$,.F i #+T.;.T%w t.C+M$;.!.}&E+X G.2.-.m a j%,.*%|$",
"t |&{&n.~+$@% ! 1&q.b.| 0 t.7+U.*.'#2&:+<+i+m n @.H.3&4&!+6%5&6&5@+ a+=&6@'.% ,.N$m o.W p 7&x.a+2.h.7 ].V#p N #+2.N N c #.8&!%9&",
"5@E !.&.,.N$F 7+0&a&e+2.5@0 )+7&g+F@e%a@d.~ i n >.7.r$C%g+; * c. ./ % b&c&d&e&,.W.| b.D $&N f&g&h&i&j&~.k&8@<+S.6.%+L p.o #.l&m&",
"x.t ; e+5@'+'+Y#T./&8 -.c.! b ^ )+Y#k+N$N$9 2.d.N$7.=&n&R%J i b@v / / ~#C+% '%%+l.* X +@!.a o&p&q&r@r&Y s&U%k.V i F F+e+0+p.t&[ ",
"! x @ f.P$/ c.# ,+H%u&&.( N f.J W.w v&c.k W#C+w w&0+A+x&y&^&t M #.@.b@1$t%z&(.0.9.-.V #+f #+A&B&C&D&E&F&G&H&8&0+j a@!  +d.3.G+W ",
"7+r (.E./ i.u m y./&I&{&i ^ D f.M J&i%K&L&!%-.w c+v M&[+Y%,.5@0 v 6&%+h N&J%a+i N l.,.* G&P O&7#6$4#P&Q&R&S&*%0+5@/ ,&W#@.v&b.,+",
"M '&% o (.T&s ,.;.[&1&;.i o h.3.m U.i%C.U&b@v %.u -.K&`%G%%+]&2.v x (.z+(+J%C%6.m w i o$G&V&W&9$8$X&Y&Z&`& *.*C@;&t f.C.,.2.X #+",
"v z '.U.0.e& @d.o +*@*E.| 6  + .M v o.f+x /+c+n #*+@#.$*~&u ]&0@G i.0.v - %*h+n.0 '.a +&&***=*]$-*;*>*,*'*)*!*C@/ y :.F%t.t.&+W#",
"3.X#7+0.0.w&9.w U.~*- 7 #@{*p.u %+i 2.]*/ ^*~+@.i+,+x.@+) <&/*W#k.>.0+! A+(*=.p.G '.| ,+_*:*<*[*}*= N&Y.|*1*2*3*d.'&| b 7.y l 4*",
"b.b.N 7.M >.| a+m &@5*6*7 >#l.~+k.l.A%7*%+c+'&%+~ E a+)&8*9* @v 0*@.7.! !*0@'.0 m a+i W a*b*Y@c*)#b.M$d*e*%#f*p 0+i.#.]&U.j%#.g*",
"x.| v i ^&/ m 0 b.N&Y.o+7 y.< h*i i*n.&.t.N$).! A.n.^&C.u.j*j%V ;&U.o N 3.k*l*c+U.V j W m*n*o*p*q*r*s*t*>$u*v*w*3.i.*%P$@&X#m 0.",
"/ %+m c.d.c+(.^ {*x*y*D.y.&.E@u %@S Q$k+|+% (*6@p.i y b z*A*W.7.@.7.#.i v A+B*s 0+3.%+7 E C*D*t$E*F*G*H*I*J*K*` e ~+ &/ e.$&#. .",
"(.F 0+#.w u w ! D@, L*M*P.7 t.w _ ,+e+5 v&) L$N*9& ./ 0+A+O*l.I.@.i U.M L v.) / V M$0*I.7 P*Q*R*S*7#u@T*U*D.Z !*O%P$<+y _.[+7 0+",
"(.T&U.C+~ 9@%+U.L _ V*H%8 n.z '+.@/.-.M$W*X*R..@7 a ,.Y*Z*5.n.d.Z%X#N b@_.`*-.%+0.C+<+ =9 1$.=+=@=R$#=$=%=d [&&=!%L&/ m b K.b.U.",
"*=x ]&6.o  .U.b@0 c.T.{.k+^ ! u u {&| 2.)&e&U&F@X X#E@k ==-=;=8+U.f.o.j%0+>=-.'&w p.+.M +.+@P.q%( b X e 7 ,+b+,='=R.s i +.* 7+5@",
"'%'%,. @i 6.p.n 5@w $&)=#+7.7+d.@.a L ~ !=%+F  .o +.9.M !*.&Q W.8+9 F%0+Z%O.-.y&c+N _ _.v ~=1$S.+ N X 7.A.,+{ g {=l#%+*%i l.,.;&",
",.z.<+0.8+9.7 u / z ~.]=%=o x.^=0.0.0 ! h t.N$ . .l&_ l /=0@(=M d.V E 3.v%` *&_=u 7+a f.7.:=!&E+F M h.+.7+e+N&<=[=&+!  @0.o 7.}=",
"n U.*%7.5@G -.c+e&i G.H%>%X 7.+.v / w t.-.|+% N  . =i * a }.r%/ w '+D@, p.b.|=Y%c+5@7.+&! [=$=1=~+c+p._ 8+o.}.<=(&!.2.;&%.| 9+a ",
"v 2=3=9&i x._./ U&!%[+/&3&~=X#;.^ 6&/ c.2.h '%2.2.j%w i*P%4=5=e&z '.N*0@_ _ 6==.y b@b@b.@&E.j+` @.@.v ;.i+| 1$7=,=}.3.8=s ,&+@5 ",
"b.;&9=9&X #.! c+0=<+f.{ ]=U W#e+$./ / d.l.8.b@_ e+#.,.a N$a=R%/ Z%'%L N _ 3.C b=+ 5@,._.+.G+].w* &m v ;.c=3*T.d=e=t%c=*%]&'#+&,+",
"*  @/ E@B.N a 7+=+m 0 P.g -&c b.o X.'+d.b ~#o 9 &.7 U.W.R.b&8*'+o u @.d+W#7 { f=B%m ]&<+3=.*g=h=n+9.i=j=k=l=m=n=o=f+H.&+*%w J p=",
"_ B.d.}=5@i y.| $@0 F ~=]=~.#.p.b i c+/ +.Y N | +@+@^ ,.M q=r=s=_ W.6&b@o h W*&.% t=m+0.u=v=w=x=y=z=A=B=C=D=W+W$E=[ i 7.X#,.t.5%",
"5@#.c.F=G=0.>#7 d.0.h*E+Y.!.a b.H=v ]&s ! w*F.).h.D l.5@n I=g%J=_ ! K=!%c=f+L=M=N=O=P=Q=R=S=T=U=V=W=X=v@Y=8$##'$Z=K.*%b@e !%k.X ",
"d.!%c K=T&5@f.5 i k.`=&+V*&=X y.M$Z%m %+7+W  -G%@ D | 0.5@.-+-'.@-#-$-%-&-*-=---R+D=;->-0$T$$#T$,-,$1@+#6$%#'-1@)-!-G+M 7 M$0 6.",
"N ^ ~-7.@.c._ E b b@n W#{-]-~=1$&.}=o 7.m t%[ % 8&:=p.;@^-/-(-_-:-<-[-}-|-|-1-T$2-T$$#3-4-5-1@7#8#`@2@6-7-8-5-'$9-0-e i -.[+< N ",
"b.d Q%p.a-I.&+_ o y x 9&b-- [=8 X /+c-d-#.e-f-g-h-i-j-k-l-m-n-D=o-J#:@t$v@v@p-q-r-1@s-t-+#X&`&>$u@u-v-w-Z+x-y-z-A-B-~=a l D @ m ",
"9.T.p.2.z+a b.i w  .U&C+C-D-E-F-G-H-I-J-K-L-M-N-O-P-Q-R-8#7#_@#$4#5-S-H#s-0#$#T-`&1@`@U-V-W-X-Y-Z-`- ;[%.;+;[+P*/&g [=h !%a V b@",
"X#P.-.i+E@9 W#j%k M a@^ B @;#;$;%;&;}#*;=;-;<@$#;;>;,;';);9$%$X+Z@d$+#!;~;##r-0${;];^;/;(;C*_;:;/&{+_ 7 <;E a y.[;};$&y.*%0+/+0*",
"E ,+p.8+l#e G+n i.d.'+ .h.|;Y@1;2;Y@3$##Z@r-q-p-0#:@>;%#3;`&v@T$$#0$4;5;6;7;8;9;0;a;b;G.;.5 | #+_&Y 0+< E E.T ~=T.c;T.+@#.@.0* .",
"6 3.l t.N X z+/ d.d+7+#.W#d;e;T$a$f;6#6-1@Z@r-u@v@u@g;h;i;j;^%M#k;l;m;n;Q.G.Q.|&o;p;q;_ ! n.V o y.` 0.b b.~=X#E.d )=}.r;s;@.d+p.",
"i ^ U.^ ;.p i /  .e.L 3.l.t;w@T$1@z@%#u;v@$#c#v;w;x;y;z;A;B;C;D;E;K+; p.U.@&6 3.6=F;] 6.Z%6.7+d+h t%V 2.e+D ;.9 +@k&G;b 0+w U.W#",
"*%W#'%T -.W 6.,.i 0 J p%%@G$H;'$I;J;K;L;M;_%N;O;P;1$G.:.E.p A Q;R;S;p.o %+W.K+p.>%T;l+i i a U.0.U 8.U;@ Q.V;~._ +@W;@*b k.E@_ W#",
"<+F%U&*%_ [+3.7+E@c.-.{&l.!-P#X;Y;Z;`;a.D Q.>#&=.&L a i v _ D H%*. >6@2.j%7+p.p.%=0@B%l#S.n.#.0.h.T.W#L K.o$B+F%A .>+>X k.6.:.b ",
"Z%9&x E@z%+@3.7.c W.o #+o.d @>o%~.3.~=9 i 6.-.8.%@w #. .0+#.i%{ Q$ >X i%0. .9&b f+#>'.i _ 6 l 0 +@f D+p.$>m%}.h.a.%>&>U m 6. +F.",
"o p.s | * 3.a i 2.i ]&i b.1$;+N&b.p.7 p.M m -.[+_ + E@| W#!%!%K$.='.*>9&I._.9 8&9 |= >'#_ o.-.7 d D.!&e+n;=>x*d P*->(+y.7 r;a-l ",
"h.X#N$9&r;#.i 0.p.l ,.'+~ T.G;#>;>4 a.&.<+y 3.}+&.+ ^ 9 E.b v 0+M%>>*>E a X#n.i E.r$,>( 9&9+[+].T.'>`%[+-+)>8 < ^ %+W#n.}.+@a-a ",
"}.a ;&3.m&+.#./ l &+k./ d.T.N&A+n.D [.}.H W.:.D }+u N :.r;;>!>L Y.Q '#E M$H=b.o$W w%! } Q.B ~>/.{>%>g.a.p=]>M$5@!%b.9&3.[.i E@+.",
"d l !%o b.l&p.~+!%c i%J&N$+&{-1&f.D ,+[.-.#. +p O ^>0 {&/>b.3.f.H%*.*.S +@(>g.=>B (+~.*>.>#>_>:>+=P*#+[.x*<>[>8+T e+b _ -+5@ .9&",
"D l &+c... .3=/ i p.+@P%%..@P.V*E ,+<;[.E 7 g%{&1$'#~ g.o$e+5 A }>!+|>c%.>1>D =>b;U#+@n;2>`%V;n#3>4>d 5>:;6>[ m l 7 m 2.-+i )+,+"};
