/* XPM */
static char * rot3_xpm[] = {
"64 64 1105 2",
"  	c #885023",
". 	c #854E21",
"+ 	c #7A471F",
"@ 	c #663B19",
"# 	c #6F411C",
"$ 	c #895122",
"% 	c #7D4A20",
"& 	c #824C20",
"* 	c #5F3718",
"= 	c #492911",
"- 	c #3E220D",
"; 	c #5B3517",
"> 	c #4B2A12",
", 	c #533015",
"' 	c #6A3D1B",
") 	c #7C491F",
"! 	c #6D3F1B",
"~ 	c #6B3E1A",
"{ 	c #45270F",
"] 	c #6C3F1B",
"^ 	c #6A3D19",
"/ 	c #7A471E",
"( 	c #70411C",
"_ 	c #643A18",
": 	c #5A3416",
"< 	c #643918",
"[ 	c #4D2B12",
"} 	c #4C2B12",
"| 	c #73441E",
"1 	c #5C3618",
"2 	c #563116",
"3 	c #5D3618",
"4 	c #673A19",
"5 	c #663A18",
"6 	c #522F14",
"7 	c #583214",
"8 	c #6C3F1A",
"9 	c #683C19",
"0 	c #653A18",
"a 	c #72421B",
"b 	c #5A3315",
"c 	c #5F3617",
"d 	c #5B3416",
"e 	c #3B200C",
"f 	c #492910",
"g 	c #673B19",
"h 	c #70411B",
"i 	c #6C3E1A",
"j 	c #633918",
"k 	c #74431C",
"l 	c #693C19",
"m 	c #74431D",
"n 	c #76441D",
"o 	c #583115",
"p 	c #673B1A",
"q 	c #814B20",
"r 	c #7C481E",
"s 	c #72421C",
"t 	c #79471E",
"u 	c #75441D",
"v 	c #804A20",
"w 	c #502E14",
"x 	c #4C2C13",
"y 	c #3D210D",
"z 	c #563115",
"A 	c #583216",
"B 	c #5A3316",
"C 	c #7E4A1F",
"D 	c #6B3E19",
"E 	c #6D401B",
"F 	c #6A3D1A",
"G 	c #71411B",
"H 	c #5E3618",
"I 	c #6B3D1A",
"J 	c #5D3517",
"K 	c #3B210D",
"L 	c #784720",
"M 	c #623918",
"N 	c #583217",
"O 	c #5A3417",
"P 	c #5A3215",
"Q 	c #4F2D12",
"R 	c #673B18",
"S 	c #6E401B",
"T 	c #683B19",
"U 	c #6E3F1A",
"V 	c #673A18",
"W 	c #623818",
"X 	c #4B2910",
"Y 	c #3A200D",
"Z 	c #5B3316",
"` 	c #5C3516",
" .	c #73421A",
"..	c #76451D",
"+.	c #683C1A",
"@.	c #78461D",
"#.	c #6D3F1A",
"$.	c #6E411C",
"%.	c #79471F",
"&.	c #613818",
"*.	c #5E3617",
"=.	c #7D491E",
"-.	c #78451D",
";.	c #7B481F",
">.	c #75441E",
",.	c #522F13",
"'.	c #371F0C",
").	c #533014",
"!.	c #4D2C13",
"~.	c #4C2B13",
"{.	c #76451E",
"].	c #673C1A",
"^.	c #603817",
"/.	c #40240E",
"(.	c #7D4A22",
"_.	c #6C3E19",
":.	c #73421C",
"<.	c #3B200D",
"[.	c #73431E",
"}.	c #76461F",
"|.	c #6B3E1B",
"1.	c #6F401B",
"2.	c #633818",
"3.	c #502E13",
"4.	c #78451E",
"5.	c #6D3E1A",
"6.	c #693C18",
"7.	c #532F13",
"8.	c #341C0A",
"9.	c #563114",
"0.	c #77451D",
"a.	c #693B18",
"b.	c #693C1A",
"c.	c #5C3517",
"d.	c #683B18",
"e.	c #593216",
"f.	c #7F4A1F",
"g.	c #6E401A",
"h.	c #6E3F1B",
"i.	c #5D3617",
"j.	c #381F0B",
"k.	c #532F14",
"l.	c #543015",
"m.	c #361E0B",
"n.	c #764620",
"o.	c #73421D",
"p.	c #71421C",
"q.	c #47280F",
"r.	c #643A19",
"s.	c #865023",
"t.	c #78461E",
"u.	c #522E13",
"v.	c #633917",
"w.	c #6A3C19",
"x.	c #6A3C18",
"y.	c #543012",
"z.	c #301A09",
"A.	c #5F3717",
"B.	c #6B3C19",
"C.	c #854D20",
"D.	c #613617",
"E.	c #7F4A20",
"F.	c #573114",
"G.	c #663A19",
"H.	c #48290F",
"I.	c #693E1B",
"J.	c #824E22",
"K.	c #71421B",
"L.	c #553014",
"M.	c #4D2C12",
"N.	c #8A5325",
"O.	c #6F401A",
"P.	c #5E3616",
"Q.	c #5C3515",
"R.	c #6F411B",
"S.	c #623817",
"T.	c #613716",
"U.	c #643917",
"V.	c #60371A",
"W.	c #623C23",
"X.	c #553B2C",
"Y.	c #392D28",
"Z.	c #4C2E1B",
"`.	c #6A3C1A",
" +	c #663B18",
".+	c #854F21",
"++	c #79461D",
"@+	c #603616",
"#+	c #683B1A",
"$+	c #573214",
"%+	c #603718",
"&+	c #603717",
"*+	c #4C2C12",
"=+	c #7E4B22",
"-+	c #73421B",
";+	c #75431C",
">+	c #5C3417",
",+	c #3A200C",
"'+	c #79461E",
")+	c #5D3516",
"!+	c #502C10",
"~+	c #532E10",
"{+	c #643A1A",
"]+	c #5B3921",
"^+	c #593D2E",
"/+	c #624A3F",
"(+	c #5C4A42",
"_+	c #54433D",
":+	c #4D423D",
"<+	c #383331",
"[+	c #3B281B",
"}+	c #6A3E1A",
"|+	c #613717",
"1+	c #593316",
"2+	c #502D14",
"3+	c #623917",
"4+	c #5B3417",
"5+	c #7B481E",
"6+	c #41240E",
"7+	c #804C22",
"8+	c #6D411B",
"9+	c #6E4019",
"0+	c #5B3720",
"a+	c #553C30",
"b+	c #55433A",
"c+	c #5B4940",
"d+	c #594942",
"e+	c #4F4542",
"f+	c #4F4642",
"g+	c #443E3C",
"h+	c #3A3735",
"i+	c #3A3736",
"j+	c #31302F",
"k+	c #2B201B",
"l+	c #74421C",
"m+	c #633919",
"n+	c #78471E",
"o+	c #553115",
"p+	c #6C3E1B",
"q+	c #553114",
"r+	c #6B3D19",
"s+	c #573216",
"t+	c #5D3518",
"u+	c #804B20",
"v+	c #4D2C11",
"w+	c #784820",
"x+	c #6F421D",
"y+	c #7B471E",
"z+	c #4C2A0F",
"A+	c #532F10",
"B+	c #643A1E",
"C+	c #6A4229",
"D+	c #6C4A36",
"E+	c #644B40",
"F+	c #5D4E49",
"G+	c #5A4F4A",
"H+	c #524A48",
"I+	c #494240",
"J+	c #3F3A3A",
"K+	c #3C3937",
"L+	c #595554",
"M+	c #353231",
"N+	c #343130",
"O+	c #333130",
"P+	c #242020",
"Q+	c #502E16",
"R+	c #79471D",
"S+	c #4F2D13",
"T+	c #4E2C13",
"U+	c #603818",
"V+	c #553113",
"W+	c #75431D",
"X+	c #5B3415",
"Y+	c #653B19",
"Z+	c #7D4A21",
"`+	c #7A471D",
" @	c #714119",
".@	c #6C3D18",
"+@	c #683D1E",
"@@	c #593A29",
"#@	c #4A3A32",
"$@	c #6B5143",
"%@	c #5A4A42",
"&@	c #534640",
"*@	c #49403B",
"=@	c #403A39",
"-@	c #3D3A39",
";@	c #373332",
">@	c #353131",
",@	c #2F2B2A",
"'@	c #423F3E",
")@	c #2C2929",
"!@	c #2E2B2A",
"~@	c #252424",
"{@	c #442917",
"]@	c #76441C",
"^@	c #7A481E",
"/@	c #7A481F",
"(@	c #77431B",
"_@	c #573115",
":@	c #42240F",
"<@	c #7E4A20",
"[@	c #693D1A",
"}@	c #533012",
"|@	c #543117",
"1@	c #724424",
"2@	c #6A4531",
"3@	c #664B3F",
"4@	c #695349",
"5@	c #645752",
"6@	c #4F4947",
"7@	c #514743",
"8@	c #423C3A",
"9@	c #3D3937",
"0@	c #4C4A49",
"a@	c #484545",
"b@	c #363331",
"c@	c #383432",
"d@	c #363231",
"e@	c #312E2D",
"f@	c #2A2928",
"g@	c #23201F",
"h@	c #2F2928",
"i@	c #312926",
"j@	c #251E19",
"k@	c #341F10",
"l@	c #77451E",
"m@	c #653918",
"n@	c #7D491F",
"o@	c #4D2B11",
"p@	c #4F2C12",
"q@	c #6B3C18",
"r@	c #5F3615",
"s@	c #3C2719",
"t@	c #734C32",
"u@	c #5F473A",
"v@	c #564741",
"w@	c #5D4A41",
"x@	c #584842",
"y@	c #504642",
"z@	c #4A423F",
"A@	c #474240",
"B@	c #3A3635",
"C@	c #34312F",
"D@	c #4B4948",
"E@	c #464242",
"F@	c #2B2929",
"G@	c #393533",
"H@	c #332E2C",
"I@	c #312A28",
"J@	c #30241E",
"K@	c #2B1D15",
"L@	c #372216",
"M@	c #452915",
"N@	c #432712",
"O@	c #2F1A0A",
"P@	c #512E13",
"Q@	c #6B3D18",
"R@	c #533013",
"S@	c #4C2A10",
"T@	c #744219",
"U@	c #5B361C",
"V@	c #623E28",
"W@	c #5E4235",
"X@	c #614A3E",
"Y@	c #564C49",
"Z@	c #60524B",
"`@	c #534944",
" #	c #453F3D",
".#	c #403B3A",
"+#	c #434140",
"@#	c #383535",
"##	c #393534",
"$#	c #353130",
"%#	c #373331",
"&#	c #33302F",
"*#	c #282524",
"=#	c #342F2D",
"-#	c #312B29",
";#	c #2E2723",
">#	c #2F221C",
",#	c #402818",
"'#	c #462916",
")#	c #533017",
"!#	c #4B2B13",
"~#	c #381F0C",
"{#	c #5B3315",
"]#	c #522E14",
"^#	c #49290F",
"/#	c #74441C",
"(#	c #6D3E18",
"_#	c #623816",
":#	c #513017",
"<#	c #69432B",
"[#	c #72503E",
"}#	c #6C5348",
"|#	c #61514A",
"1#	c #574A44",
"2#	c #524642",
"3#	c #4A423E",
"4#	c #45403E",
"5#	c #433F3E",
"6#	c #3A3837",
"7#	c #343131",
"8#	c #494444",
"9#	c #5D5959",
"0#	c #3A3533",
"a#	c #373333",
"b#	c #342E2B",
"c#	c #2B201A",
"d#	c #2D2019",
"e#	c #3D271A",
"f#	c #432917",
"g#	c #402512",
"h#	c #462911",
"i#	c #46280F",
"j#	c #4B2A10",
"k#	c #78451C",
"l#	c #573215",
"m#	c #44260F",
"n#	c #5F3716",
"o#	c #583114",
"p#	c #5C3414",
"q#	c #683D1A",
"r#	c #6C4226",
"s#	c #674532",
"t#	c #61483B",
"u#	c #5B4A43",
"v#	c #625450",
"w#	c #645753",
"x#	c #554B49",
"y#	c #453F3E",
"z#	c #3D3A3A",
"A#	c #363332",
"B#	c #3F3A39",
"C#	c #3F3B3A",
"D#	c #3B3836",
"E#	c #32302F",
"F#	c #312E2E",
"G#	c #3A3737",
"H#	c #272525",
"I#	c #322E2B",
"J#	c #2B2826",
"K#	c #332620",
"L#	c #3C291D",
"M#	c #4F2E17",
"N#	c #512F16",
"O#	c #593315",
"P#	c #502D12",
"Q#	c #7D481E",
"R#	c #79451C",
"S#	c #70401A",
"T#	c #6F3F1A",
"U#	c #693D19",
"V#	c #6D401A",
"W#	c #41230D",
"X#	c #522E12",
"Y#	c #58351F",
"Z#	c #543A2A",
"`#	c #61473A",
" $	c #634E45",
".$	c #65534B",
"+$	c #5E514B",
"@$	c #48413E",
"#$	c #423D3C",
"$$	c #514D4D",
"%$	c #4E4A4A",
"&$	c #373432",
"*$	c #3D3938",
"=$	c #3C3938",
"-$	c #373433",
";$	c #2B2724",
">$	c #29201C",
",$	c #332923",
"'$	c #36271E",
")$	c #3D2618",
"!$	c #321E11",
"~$	c #4C2C14",
"{$	c #683C1B",
"]$	c #5F3618",
"^$	c #331C0A",
"/$	c #7A461E",
"($	c #71401A",
"_$	c #6D3E19",
":$	c #532F15",
"<$	c #6E411B",
"[$	c #462C1C",
"}$	c #52433E",
"|$	c #61534D",
"1$	c #544A48",
"2$	c #534945",
"3$	c #47403E",
"4$	c #3A3636",
"5$	c #393432",
"6$	c #403C3B",
"7$	c #363333",
"8$	c #3A3634",
"9$	c #312E2C",
"0$	c #2F2927",
"a$	c #332924",
"b$	c #33261F",
"c$	c #3E2819",
"d$	c #4C2D18",
"e$	c #543118",
"f$	c #593318",
"g$	c #542F12",
"h$	c #4A2A10",
"i$	c #74441E",
"j$	c #653A19",
"k$	c #7D4920",
"l$	c #77461E",
"m$	c #4F2C11",
"n$	c #502D13",
"o$	c #7E491F",
"p$	c #633817",
"q$	c #5E3718",
"r$	c #50311B",
"s$	c #453D3A",
"t$	c #4A4442",
"u$	c #5B5858",
"v$	c #484544",
"w$	c #393433",
"x$	c #373231",
"y$	c #282422",
"z$	c #2A2521",
"A$	c #362D29",
"B$	c #3A2A22",
"C$	c #362318",
"D$	c #311E12",
"E$	c #583319",
"F$	c #3D220D",
"G$	c #7E4B21",
"H$	c #77461F",
"I$	c #75451E",
"J$	c #583215",
"K$	c #42250F",
"L$	c #43250F",
"M$	c #814A20",
"N$	c #512D13",
"O$	c #7C481F",
"P$	c #3B2F29",
"Q$	c #322F2E",
"R$	c #3B3939",
"S$	c #292727",
"T$	c #363232",
"U$	c #382E2A",
"V$	c #362922",
"W$	c #372318",
"X$	c #3C2516",
"Y$	c #4A2C17",
"Z$	c #5E3719",
"`$	c #391F0B",
" %	c #71421E",
".%	c #43250E",
"+%	c #794820",
"@%	c #71421D",
"#%	c #71411C",
"$%	c #4A2A11",
"%%	c #683C18",
"&%	c #834C20",
"*%	c #5F3517",
"=%	c #3D291F",
"-%	c #312F2D",
";%	c #262323",
">%	c #2D2826",
",%	c #352E2B",
"'%	c #32241D",
")%	c #332117",
"!%	c #56331B",
"~%	c #573218",
"{%	c #5C3518",
"]%	c #844C20",
"^%	c #6D421D",
"/%	c #6D401C",
"(%	c #643B19",
"_%	c #7E4A21",
":%	c #5C3415",
"<%	c #512E14",
"[%	c #331C0B",
"}%	c #432918",
"|%	c #2F2B29",
"1%	c #35312F",
"2%	c #312925",
"3%	c #291D17",
"4%	c #3A2418",
"5%	c #4A2B18",
"6%	c #502F17",
"7%	c #533016",
"8%	c #4C2B11",
"9%	c #633A18",
"0%	c #814C21",
"a%	c #7D4A1F",
"b%	c #593215",
"c%	c #4E2C11",
"d%	c #39200D",
"e%	c #623717",
"f%	c #4E2D15",
"g%	c #2C1F18",
"h%	c #2E2018",
"i%	c #3B2517",
"j%	c #492B17",
"k%	c #492A14",
"l%	c #8C5325",
"m%	c #78471F",
"n%	c #824C21",
"o%	c #6C3D19",
"p%	c #79451D",
"q%	c #5E3717",
"r%	c #613718",
"s%	c #43260F",
"t%	c #3A200E",
"u%	c #613918",
"v%	c #875125",
"w%	c #824B20",
"x%	c #40230E",
"y%	c #6F421C",
"z%	c #854F22",
"A%	c #543014",
"B%	c #593317",
"C%	c #673C19",
"D%	c #462710",
"E%	c #40240F",
"F%	c #6C401C",
"G%	c #70421C",
"H%	c #7A4920",
"I%	c #875022",
"J%	c #5B3516",
"K%	c #6D3F19",
"L%	c #5A3314",
"M%	c #8A5224",
"N%	c #44270F",
"O%	c #834D22",
"P%	c #5A3317",
"Q%	c #3F230E",
"R%	c #7B4920",
"S%	c #73431D",
"T%	c #583317",
"U%	c #482910",
"V%	c #854F23",
"W%	c #573116",
"X%	c #78461F",
"Y%	c #76441E",
"Z%	c #73411A",
"`%	c #683A18",
" &	c #643818",
".&	c #543115",
"+&	c #4C2A11",
"@&	c #76461E",
"#&	c #663B1A",
"$&	c #7C471E",
"%&	c #512E12",
"&&	c #72421D",
"*&	c #74421D",
"=&	c #4E2C12",
"-&	c #6A3B18",
";&	c #5E3516",
">&	c #7A461D",
",&	c #45260F",
"'&	c #6E421D",
")&	c #76451F",
"!&	c #7D481F",
"~&	c #643B20",
"{&	c #664430",
"]&	c #544038",
"^&	c #40322C",
"/&	c #52311A",
"(&	c #341C0B",
"_&	c #613816",
":&	c #74421B",
"<&	c #563215",
"[&	c #3C210D",
"}&	c #74441D",
"|&	c #77451C",
"1&	c #573113",
"2&	c #543114",
"3&	c #794720",
"4&	c #70401B",
"5&	c #6C3F1C",
"6&	c #533A2C",
"7&	c #53504F",
"8&	c #565353",
"9&	c #383637",
"0&	c #3B261A",
"a&	c #4A2A12",
"b&	c #3D210E",
"c&	c #522E11",
"d&	c #77461D",
"e&	c #6E401C",
"f&	c #70421D",
"g&	c #663C19",
"h&	c #683D19",
"i&	c #814C22",
"j&	c #74431E",
"k&	c #543724",
"l&	c #474444",
"m&	c #545050",
"n&	c #373534",
"o&	c #292220",
"p&	c #3A2A23",
"q&	c #39200F",
"r&	c #3E220C",
"s&	c #71411A",
"t&	c #512F14",
"u&	c #41230E",
"v&	c #834D21",
"w&	c #48280F",
"x&	c #824C22",
"y&	c #4F2E15",
"z&	c #453228",
"A&	c #403C3C",
"B&	c #2E2B2B",
"C&	c #262322",
"D&	c #403C3A",
"E&	c #342E2C",
"F&	c #291D16",
"G&	c #6F4019",
"H&	c #613817",
"I&	c #75441C",
"J&	c #482911",
"K&	c #5A3415",
"L&	c #47270F",
"M&	c #844D22",
"N&	c #885125",
"O&	c #472911",
"P&	c #3E2718",
"Q&	c #4C4643",
"R&	c #32302E",
"S&	c #2A2726",
"T&	c #201D1C",
"U&	c #1C140F",
"V&	c #241E1B",
"W&	c #2C2B2B",
"X&	c #583113",
"Y&	c #331D0B",
"Z&	c #452810",
"`&	c #5C3617",
" *	c #5C3616",
".*	c #7E491E",
"+*	c #844F23",
"@*	c #3E322E",
"#*	c #261E1B",
"$*	c #29180D",
"%*	c #38200F",
"&*	c #3F230F",
"**	c #321D0D",
"=*	c #383231",
"-*	c #393737",
";*	c #72411A",
">*	c #7E4A1E",
",*	c #613917",
"'*	c #77441C",
")*	c #75461F",
"!*	c #7A4820",
"~*	c #4C2C15",
"{*	c #3E3532",
"]*	c #3E3A3A",
"^*	c #26170D",
"/*	c #4A2B16",
"(*	c #3A312D",
"_*	c #28180D",
":*	c #6C3D1A",
"<*	c #41240F",
"[*	c #5E3517",
"}*	c #44260E",
"|*	c #553116",
"1*	c #342923",
"2*	c #423E3E",
"3*	c #291E18",
"4*	c #462812",
"5*	c #452F21",
"6*	c #433D3B",
"7*	c #292522",
"8*	c #1F1209",
"9*	c #4E2B11",
"0*	c #5C3416",
"a*	c #814A1F",
"b*	c #5F3616",
"c*	c #8A5123",
"d*	c #75431B",
"e*	c #3A2417",
"f*	c #36302F",
"g*	c #3A2F2A",
"h*	c #553F34",
"i*	c #544842",
"j*	c #4B4644",
"k*	c #2D1E15",
"l*	c #291708",
"m*	c #4A290F",
"n*	c #693B19",
"o*	c #4E2D12",
"p*	c #8B5325",
"q*	c #3F230D",
"r*	c #804B21",
"s*	c #4A2A13",
"t*	c #311F15",
"u*	c #302A29",
"v*	c #403E3F",
"w*	c #424140",
"x*	c #2F231E",
"y*	c #3E220E",
"z*	c #3E210C",
"A*	c #502C11",
"B*	c #6F411D",
"C*	c #875124",
"D*	c #7A451D",
"E*	c #4A2910",
"F*	c #3C2413",
"G*	c #3E291D",
"H*	c #362218",
"I*	c #432610",
"J*	c #321B0A",
"K*	c #683D1B",
"L*	c #794920",
"M*	c #7C4A20",
"N*	c #78441C",
"O*	c #502E12",
"P*	c #593214",
"Q*	c #5B3317",
"R*	c #71421A",
"S*	c #6F3F1B",
"T*	c #77441D",
"U*	c #522F15",
"V*	c #3F240F",
"W*	c #361E0C",
"X*	c #583316",
"Y*	c #603918",
"Z*	c #73431C",
"`*	c #39200C",
" =	c #7E481E",
".=	c #7F4920",
"+=	c #311B0B",
"@=	c #371E0B",
"#=	c #5D3515",
"$=	c #40230D",
"%=	c #6C401B",
"&=	c #2D1808",
"*=	c #80491E",
"==	c #472810",
"-=	c #4D2A10",
";=	c #7F4A21",
">=	c #311B0A",
",=	c #824B1F",
"'=	c #7B471F",
")=	c #895124",
"!=	c #4B2A11",
"~=	c #362010",
"{=	c #382010",
"]=	c #834C1F",
"^=	c #673C18",
"/=	c #885123",
"(=	c #74451E",
"_=	c #532F12",
":=	c #60381A",
"<=	c #553522",
"[=	c #644231",
"}=	c #503E36",
"|=	c #3E3431",
"1=	c #31241E",
"2=	c #70411A",
"3=	c #623716",
"4=	c #4F2D15",
"5=	c #55331E",
"6=	c #62402C",
"7=	c #543E32",
"8=	c #533F36",
"9=	c #4A3F3B",
"0=	c #4E423F",
"a=	c #413A39",
"b=	c #272120",
"c=	c #522F12",
"d=	c #573213",
"e=	c #6E4120",
"f=	c #583A2A",
"g=	c #5D4336",
"h=	c #50423B",
"i=	c #4E423D",
"j=	c #443C3A",
"k=	c #3C3634",
"l=	c #383534",
"m=	c #252423",
"n=	c #472916",
"o=	c #351D0B",
"p=	c #643915",
"q=	c #3A200B",
"r=	c #734422",
"s=	c #603C27",
"t=	c #5B3D2D",
"u=	c #593F31",
"v=	c #574137",
"w=	c #4F433F",
"x=	c #4A403D",
"y=	c #3E3A38",
"z=	c #403D3C",
"A=	c #2B2928",
"B=	c #2A2929",
"C=	c #4E2B12",
"D=	c #834E23",
"E=	c #7B461C",
"F=	c #6E3F19",
"G=	c #613819",
"H=	c #573620",
"I=	c #604233",
"J=	c #493C38",
"K=	c #5A4942",
"L=	c #544742",
"M=	c #463D3A",
"N=	c #3C3431",
"O=	c #393331",
"P=	c #302D2C",
"Q=	c #2E2A2A",
"R=	c #2D2929",
"S=	c #46270F",
"T=	c #533115",
"U=	c #3E220B",
"V=	c #633B21",
"W=	c #6B432B",
"X=	c #604231",
"Y=	c #4B3F3A",
"Z=	c #4E4340",
"`=	c #3E3937",
" -	c #413D3C",
".-	c #524D4C",
"+-	c #333030",
"@-	c #241E1A",
"#-	c #38261C",
"$-	c #301D12",
"%-	c #211308",
"&-	c #593115",
"*-	c #673E20",
"=-	c #4A3225",
"--	c #644A3D",
";-	c #4E403A",
">-	c #423834",
",-	c #3A3432",
"'-	c #383433",
")-	c #3B3735",
"!-	c #3B3938",
"~-	c #262423",
"{-	c #322D2B",
"]-	c #382A24",
"^-	c #39281E",
"/-	c #362115",
"(-	c #392010",
"_-	c #492912",
":-	c #834B1F",
"<-	c #6A3E19",
"[-	c #72411B",
"}-	c #512E11",
"|-	c #6B3E1D",
"1-	c #5F3B25",
"2-	c #634535",
"3-	c #61493F",
"4-	c #58463F",
"5-	c #4E433F",
"6-	c #4A4240",
"7-	c #473F3B",
"8-	c #3D3837",
"9-	c #4C4948",
"0-	c #292320",
"a-	c #362A25",
"b-	c #3B2B23",
"c-	c #312118",
"d-	c #311D0F",
"e-	c #4F2D14",
"f-	c #41230F",
"g-	c #7C471D",
"h-	c #7B471D",
"i-	c #623715",
"j-	c #653A17",
"k-	c #663B1B",
"l-	c #513220",
"m-	c #53392A",
"n-	c #644636",
"o-	c #5A4239",
"p-	c #4D423E",
"q-	c #473F3C",
"r-	c #3D3836",
"s-	c #47423F",
"t-	c #3D3A38",
"u-	c #4B4747",
"v-	c #312F2E",
"w-	c #2F2C2B",
"x-	c #392F29",
"y-	c #362923",
"z-	c #3A2518",
"A-	c #402513",
"B-	c #5A3214",
"C-	c #42260F",
"D-	c #6F4224",
"E-	c #5C3E2E",
"F-	c #5B443A",
"G-	c #5D4A42",
"H-	c #4F4340",
"I-	c #443B38",
"J-	c #3D3634",
"K-	c #3B3736",
"L-	c #373434",
"M-	c #252321",
"N-	c #2E2927",
"O-	c #37302C",
"P-	c #3A2E28",
"Q-	c #31231C",
"R-	c #311F11",
"S-	c #533117",
"T-	c #492A12",
"U-	c #532E13",
"V-	c #462810",
"W-	c #372113",
"X-	c #503628",
"Y-	c #553E33",
"Z-	c #5E473E",
"`-	c #604E46",
" ;	c #534843",
".;	c #453F3C",
"+;	c #43403F",
"@;	c #39312F",
"#;	c #332822",
"$;	c #362217",
"%;	c #412716",
"&;	c #452914",
"*;	c #4F2C13",
"=;	c #71431E",
"-;	c #403430",
";;	c #48413F",
">;	c #443D3A",
",;	c #3E3938",
"';	c #3A3633",
");	c #292626",
"!;	c #3A3532",
"~;	c #332C29",
"{;	c #2B221F",
"];	c #4B301C",
"^;	c #462915",
"/;	c #74451F",
"(;	c #3F2C22",
"_;	c #454242",
":;	c #504C4C",
"<;	c #3A3431",
"[;	c #302722",
"};	c #312219",
"|;	c #3A261A",
"1;	c #3A2415",
"2;	c #3C2210",
"3;	c #271608",
"4;	c #6A3F1B",
"5;	c #4B2A13",
"6;	c #462C1B",
"7;	c #302C2B",
"8;	c #242221",
"9;	c #363131",
"0;	c #2F2723",
"a;	c #412B1F",
"b;	c #412817",
"c;	c #462913",
"d;	c #693E1A",
"e;	c #512F13",
"f;	c #4C2A12",
"g;	c #4E2D13",
"h;	c #482912",
"i;	c #4C2D17",
"j;	c #302926",
"k;	c #34302E",
"l;	c #29221F",
"m;	c #2E221D",
"n;	c #3A2920",
"o;	c #3C2518",
"p;	c #3E2412",
"q;	c #3C210E",
"r;	c #865024",
"s;	c #512F15",
"t;	c #4A2B14",
"u;	c #342721",
"v;	c #2E2826",
"w;	c #362821",
"x;	c #3E281A",
"y;	c #402613",
"z;	c #482913",
"A;	c #543013",
"B;	c #3E230E",
"C;	c #512E15",
"D;	c #3A2110",
"E;	c #301B0D",
"F;	c #7C4820",
"G;	c #3F220D",
"H;	c #452711",
"I;	c #3B210E",
"J;	c #4B2911",
"K;	c #281508",
"L;	c #603618",
"M;	c #291608",
"N;	c #452912",
"O;	c #533116",
"P;	c #4B2B12",
"Q;	c #271508",
"R;	c #543113",
"S;	c #2F190A",
"T;	c #673C1B",
"U;	c #4E2D14",
"V;	c #462912",
"W;	c #3B210F",
"X;	c #422611",
"Y;	c #402510",
"Z;	c #432711",
"`;	c #422610",
" >	c #241407",
"  . + @ # $ % & * = - ; > , * ' ) ! ~ { ] ^ / ( _ : < [ } | ; 1 2 3 4 5 6 7 8 9 0 a b c d e f g h @ ; 9 i j ^ k l m n o p q r h ",
"s t i _ u v m ( w x y : z A B ! C ! D { E 4 F G E H I J K L M N 3 O 0 i P Q R S T U V W _ X Y Z i h ; , < I `  .^ s ..] +.@.#.d ",
"$.%.&.*.=.-.;.>.,.o '.).!.~.*.u {.].^./.(.# ! k _.Z :.g <.[.}.|.g 3 j 1.2.3.R 4.5.T _.0 6.7.8.9._ 0._ A 2.m d a._.i n C b.c.d.z ",
"@ u e.F f.g.k h.i.*.j.A k.l.h ..@ A e.m.n.% u G I &.o.p.q.r.s.t.F c.j #.< u.v.n w.0 x.0 x.y.z.7.A.S < ~ ] -.9 A.d.B.k C.5 A d.l.",
"j @.D.] E.d.I @ 5 &.,.F.M ^ a i W _ G.H.I.J.s k K.~ ] u L.M.N./ F c.i O.P.,.Q.R.S.T.U.V.W.X.Y.Z.0 `.j R...n k r.#. +g..+< i ++@+",
"g C T  +/ i.R #+>.o.8 $+d ^ 5 %+&+U :.0 *+=+i m -+;+F j >+,+J.'+#.5 s U )+!+~+{+]+^+/+(+_+:+<+[+< G 9 #.n k '+}+-.5 ^ q < R.=.0 ",
":.k |+B 1+2+1+j m t.! 3+7 :.j 4+1+&.s 5+6+7+F h k -.( 1+B e 8+u l 9+ .9 0+a+b+c+d+e+f+g+h+i+j+k+B l+R.G k :.p.m+p.~ %+0.< 5 =.0 ",
"n+B { f 1+o+z %+m {.p+_ q+t.r+H s+t+! u+v+w+x+c.h y+l+g < z+A+p.B+C+D+E+F+G+H+I+J+i+K+L+M+N+O+P+Q+-+k -.R+u +., H b.%+W `.B r 5 ",
"s , *+/.).S+T+W '+n +.U+V+k W+i * j ] {.X+Y+Z+w M `+ @.@+@@@#@$@(+%@&@*@=@-@-@i+;@>@,@'@)@!@M+~@{@r+]@^@/@m ( , , &.4 c l+).(@d.",
"o.1+_@:@S+, 2+&.-.r ] %+q+8 <@W+i 5 U [@_ f <@}@|@1@2@3@4@5@6@7@8@9@0@a@b@c@c@M+d@M+e@f@g@h@i@j@k@< -+k l@p.'+T , 4+P.m@n@,.U i ",
"m _ *.o@p@4+z J 8 '+T M ).^.u+0.h 2.q@r@0 s@t@u@v@w@x@y@z@A@J+B@d@C@D@E@F@d@G@c@d@H@I@J@K@L@M@N@O@A.l ^ s p.'+n _ 1+P@U.f._@_ Q@",
"! @ _ R@S@j _@J U+t.W i d $+5+T@.@U@V@W@X@Y@Z@`@ #.#+#@###K+B@G@$#%#&#F@*#=#-#;#>#,#'#)#!#6 U+Z ~#{#0 g R.:.m k R.&+_@< C U+i V ",
"^ ^ $.]#^#5 z J ; /#^ (#_#:#<#[#}#|#1#2#3#4#5#6#7#8#9#7#>@0#M+a#N+0#b#c#d#e#f#g#h#_ D ^ *.H [@0 i#j#d.I k n E l k#U T _.^@].r < ",
"^ w.u l#m#n#q+o#p#q#r#s#t#u#v#w#x#y#z#A#B@B#C#D#E#F#G#H#c@<+I#J#K#L#,#M#N#H 0 O#R@^ ;.k G._ ~ g P#e 0 g.t./ i Z Q#R#S#T#5.* / _ ",
"U#V#:._ W#X#Y#Z#`# $.$+$7@@$#$#$z#$$%$e@&$*$=$-$;@<+;$>$,$'$)$!$~${$]$g b.r.K.5 9.0 <@..j 9 8 R 9.^$X+k /$-.^ k.m =.($_$&+:$F ~ ",
"l k <$8 [$}$|$1$2$3$8@-@4$##G@5$d@6$7$)@8$B@9$0$a$b$c$d$e$f$J g$h$% 1.o.i$j$i T 9.U+k$l$c.i l+T 9.j.m$'+E.1.c n$F o$1.I p$w q$! ",
"l l$K.:.r$s$t$.#-@u$v$F#O+d@0#%#w$x$y$z$A$B$C$D$E$Q+W S S ! d.a.F$G$[.H$I$+.p G.q+J$:.m *  +n w.n$K$L$l+M$d.Z N$W O$] I 0 S+c.l ",
"I {.n a s+P$i+B@Q$a@R$S$T$c@<+H@U$V$W$X$Y$Z$].`$ %j # ) 0.R.l U .%+%w+@%s 1.l+I Z 7.R #%&._ h O.$%[ ,+%%&%1.l o *%S I i < c.4+q+",
"G.:.-.#.k.=%E#i+d@-%;%>%,%a$'%)%!%~%{%B *.-+]%j#^%/%g /$=.R.l 8 7.(%_%|.s #%n@b.j 9.:%`.d G 6.-+o+<%[%J$0.W+n 0 j W _ S g &.3.} ",
"&.S :.h 6 }%|%1%=#2%3%4%5%6%7%8%p.:.p+_ < k . 9%9%0%_.s v -.G r.d h$7+>.'+i a%_ 5 b%c%; _@1._ i 0 o+d%j#^ a / a _ d.` s R.e%]$J ",
"r.S ^ a j f%g%h%i%j%k%s+r+i  +O#8 + K.K.G.s <@u P@l%0.1.q 4.+.>+B ~#m%n%O$o%p%_ M ` 7.&.9 ~ q%r%#.*.s%6+^ #.:.'+j :.z s l@|+5.U ",
"H S 9 g.R.; t%K$A _ q$*.k ;.] u%i.%.:.;.5 #./#y+6+v%w%a q n@! < j x%y%z%'+T##%r.1+i.q+d.-.w.A%e.E 4 T+m.g.j 0 u &./#)+h O$9 a.O.",
"B%C%8 ^ s r.D%E%* ] C%H R.q F%@ ,.G%o.% F T _ p.q.H%I%l+0.y+a 5.G 9.J%s.l@l+p.~ o+1+S+j O$h ).z j T _@[%R &.4+w.&+S 9 #.r O.d.K%",
"[@M i 8 ..Y+S+<.d 8 C%i.C%E.# %+o@i 4.n@s j$_ h L%_ M%l+5 :./$l+n g N%O%+ / ;+/ W P%T+J%>.t.0 d d %+J$Y y.5 _@c.T T U d.;+T#g d.",
"m @ l K.f.] o+Q%F.F 9 &.g R%S%T%P@U#% 0.u T i W+d.U%V%# W%Y+=.++'+s Q%y%X%O$-.n@:.&.P@o+p+Y%k 8 Z c.d N%6+r+0 J$G l r+V r+Z%`% &",
"0.p+i l+v G%.&N%+&g F 0 i m @&4+c.&+u+a ;+~ h.-.i ,+Z+#&o+A -.$&4.t.%&P@&&n@y+y+++T d 7.j *&# k o e$c.=&^$-&a c n s j 9 V K%0 ;&",
"u S K.k#r m !.s%K$j 8 _ ~ ] @.g ~ b % s l+S :.>&-+,&F%'&4+N i r W+O$0 m#)&% !&n l+j *.,.)+&&~&{&]&^&/&u.(&_&:&U#t.+ &.5 1.< S.<&",
"T 0 p.y+Q#;.%+m#[&>+[@M i S l+S G%q%}&/ a R.k r |&1&2&3&U+O g k 4&C u - + % n@s @ A.c ,.9.5&6&7&8&9&0&a&b&c&-+g.d&n@g T 0.P W 7.",
"&.1+U+n E.v t.b%,+u.< i K.( ( e&f&g&h&q -+9 h r $&2.Q%i&j&1+;+G S#n@K.[&R.O$-.4&&.0 r+q+o@* k&l&m&n&o&p&q&r&s&O.0.u u%R y+X+j z ",
"_ B t&_.n@<@% 5 u&U%*.^ l+p+i ] # E *.&%@.c.w.t y+R j.+%v&[@0.S U y+G w&_ x&m g.C%~ u 4+U%y&z&@#A&B&C&D&E&F&V G&/ 1.e.H&..9 0 &+",
"g.c.k.W I&+ %.] J&K 2&_ k [@&.g o.p.K&O$n@)+_ 4./$i L&g&M&n k i 1.n@m X+Q N&Y%w.h m 8 e.O&P&Q&R&S&T&U&V&C#W&X&G&y+u &.c h.:.5 a.",
"( l@J * !&0.:.E 3.Y&Z&`&p.l l#U+.... *_..*r+_ 0.n l )+=&u+n ]@0 #.v m w.- +*@&_ 1.5+G.s+k%@*J+#*$*%*&***=*-*x%V I&n@l U U ]@d.;*",
"E & I )+>*=.0.S z ~#E%d 8 l z H G :.,*v.w%;+S @.^@c.w.[&% 4.'*A.#.o$a #.L$)*!*j i + F A%~*{*]*^*K$z d /*(*T$_*q+w.v :*++G i U :&",
"l+v / _ n M$r -.A.K <*[*i l 4+T s #.9%b f.'*'+>&..l#i }*I$v ;+_ h Q#a i 9.i.% i S ..:.).|*1*2*3*4*T.B 5*6*7*8*9*0*r G -.#%c.%%G ",
"l+u <@h O.a*;+t.8 m#[&0*r.q$* :.n O.@ $+n '*r Q#a d ! b*C%c*d*:*W+p%G I 4 { 0%l@:.#.0.F.B e*f*J+g*h*i*j*;@k*l*m*b*k -.G *&J$J$I ",
"i w.l@k U =.n*l+m 7.<.o %+s+&.@.@.i C%d _.O$t...i &.b.:.o*p*>&r+p%:.r+ +G q*r*E.l+< k 5 J s*t*u*G#v*w*##x*&*y*z*U.-+C i *&A _@V ",
"|+&+i h G =.i s u b%[&A**.A &+++@.&.M &.^.% l@B*0 b.I 0./.C*n@r+D*:.i S m E*$.w%l+S.r+]@V ).s%F*G*p&V$H*I*k.> J*|+]@w%#%h Z @ 1.",
"c r%T i R./ k 1.9 k.Q%K$Z d A.|&..; 4+M 7 ;.X%K*&.^ k n q.L*M*d.N*:&#.:.s k.v+m n l j p%5.4+} O*Y+*.P*o Z Q*S+z.V+R*=.:.#.5 U ++",
"S*o.I h k T*n G r%U*V*W*n$e.j n R.4+X*c.R@K.;.] U+0 l+f.R Y*% _ '+l < U d*|+,+&&t.h *.:.G < u.9.Z*k 0 d.r+%+6 `*m*6.K.G #.#.i ;+",
" =.=k g.k '+l@k G.3 J&+=s%l.G.n p.; z %+q+0 v t.@ 0*w.-./ s%!*M y+l B g d*a.,+X%<@W+_ 5 5.w._@2&h ;.T J U i z s%@=0*U+#.T*l+_ c ",
"!&M$r R g m 0.k ! I d Y <*c.b.o.+ g._@9 &.#=]%n@I j n*l ++$=+%e&0.-+;&%+1.:*,&%=V%0.1.j U+5.o E*%%v :.]$g I&J $%&=c%3.9 $&t j A ",
"-.*=f.i j i s l+l+h <$==F$_ #.#%y+++%+i U#$+!&/ ! #.I 2.O.-=x+;=l+-.i Q*J 9 L.R@V%4.l+_.A ! o s%P.n@-.l c k _ Q >=x%X#U.:&/ h&W%",
"++,=C ;+i ~ `.l `+k m n$'.;&O.:.h.]@#.! 8 X+m '=h.G G 5 _ ;&: )=/ u t.* o+< &.F$% *&;+l+%+p+&+!=1&I&;+#.*.5 d.Q ~={=P*5 5 h k H ",
"5.]=$&]@-+:.< *.y+'+1.A%W*m$5 4&n*O.>&k S &.^=n@w.5.;+:.3 8 s%/=o$( ;.M _ 0 < [&(=%.k -.i T 0 {#_=U..@U.:=<=[=}=|=1=b%o%R 0 -.<$",
"r%>&G O.2=n i %+4.o$8 .&W*x%J w.< w.!&y+k  +b r j$* O.-.j / q.% n@1.y+a #._ c w&Y+0%h ]@l+n*p#3=4=5=6=7=8=9=0=a=w$b=:$o%:&0 O.k ",
"* S#:*V d.h :.l T*&%O._@&*~#P < d G./ $&-.D c=O.@ 4+W :.h 5+d=[@<@9 m n@;+r+B P =&O%w._$G e=f=g=h=:+i=j=k=##l=O+d@m=n=0 :&d.0*#.",
"< d.T I r%|+:*i W+C.]@j [ o=7.< c j$m t.t.i 7.H&9 B B 0 n n {#,.V%0 I f.l+G P p=q=r=s=t=u=v=w=x=a=y=h+A#Q$E@z=A=x$B=4%;&o%8 3.M ",
"k r+< p%r+< r+9 h.& n #%&+Y C=V V 0 8 m O$s P*A.}&A l.&.:.++9+Q%D=F j$E=F=G=H=I=J=K=L=M=N=O=M+7#d@8$##N+P=Q=)@A=d@R=F&b%2.h.2&; ",
"0._$b%-.l+s&S %+A.t t.n k y*S=0 R &+w.-+y+4.0*7 <@+.T=W 1.T*2=U=h B*V=W=X=}=Y=Z=6*`=9@M+ -.-O+R&8$D#;@+-&#u*@-b$#-$-%-u.0*B.j < ",
"i ^ &-;+>&Q#0.M ).#.++a -.f F$A.&._@w.1.l+'+&.7.+ l@*.b*x.#.*-=-a+--x@;->-,-0#'-;@)-;@N+C@!-~-e@9@8${-]-^-/-(-!.A%_-J*w&b%W i O.",
"%+k._ O$p%:-Q#<-6 j -+-+[-k.<.o#B 3.i 4&r+a 5 }-%%/ |-1-2-3-4-5-6-7-8-'-9-=$x$d@%#8-d@%#C@J#0-a-b-c-d-> d , e-c _ 2&f-,+L.d U p%",
"G.S+0 r :*g-h-R.d *.#.`+k b%y*o@o 6 r+-+i-j-k-l-m-n-o-;-p-q-r-D#s-t-;@E#u-v-w->@8$c@{-x-y-z-A-s*W%!.{ B-g._ J$W d.B } J*7.d U =.",
"0 n$&.n 0 5.d*U j _ i /$y+o m#C-X&1&b.D-E-F-G-H-s$I-J-K-z#L-O+b@B#D#d@e@!@M-N-O-P-Q-R-S-T-B%2.J r+*.S+P*-+0 %+0*5 *.k.m.U-< _.@.",
"B o+_ a _ _ o%5 2.g.u G q B V-W-X-Y-Z-`- ;z@.;B#'->@>@+;E@O+e@;@'-;@=*@;#;$;%;&;x *;m.=;`&_ 1._ G 1.)+B-h _ c.z c j _@&*q.l -+1.",
"W W V 4&2.r+l j _ k v -+v l f%-;I+;;>;,;C#>@d@8$h+c@d@';v-);$#!;~;{;];^;s*A g _ * r%,+/;] T 1.T a -+{#R@U#g&2 A z < z = ,+S.-+w.",
"#.^ G 8 J ]@O.c 5 ++f.0.T*g.c.(;O+##d@_;:;)@>@d@G@&$;@<;[;};|;1;2;3;F%|.%+5 ;+o.j$< q.4;<@U #.5 i l+0*3.3+%=, 4+S+4+e-5;J*o#K.B.",
"o%< !&w.Z ;+O.S.5 y+-.G K.R g 6;7;'->@w-7#8;;@9;b#0;a;b;c;, 1+_@]#[%d;% g 0 l+k g 2.&-e;r*K.6.j 0 m J f;9.C%, T%g;J$w h;+=j#5 w.",
"-+>+w%o%e%U < Z ^ $&G #+}+*.F i;j;>@;@k;l;m;n;o;p;q;X*r.%+l i 0 B E%A r;I *.O.l+0 < < <.X%G%0 W j T e.> $%d s;t;T-S+k.l#$%F.w 5 ",
"4&2.v _.i J$j ).< 0.O.R._ d [@|*u;v;w;x;y;z;A ; d R@` i$l ! h _._ A;B;O%G.J O.h 2.o%_.q*i$H$5 W *.Z A%= K$Q C;h;O#:.[-#%~.c..&R ",
"l < r g *.k.F _@4+1.#.K.F e.M c.D;E;> d c J%8 p+_ : F.F;U i 5 r+_.r+G;@%r.B d.r+j o%B.S=M %  +d 6 S+L.!#H;m.*.0 U f.T W [ e.:&V ",
"e.0 n@2.P@0*|.e.4+r+i r+-+_ A.B V-I;B < j c.R.;+9 1+,.}&K.R c < ^ s 7.3 f&O d W W W Q*J;i#I$J e-w T-2.1+<%K;&+k h / < j =&_@;*5 ",
"T+5 p%W d h q#H W w.i j ]@]@8 W%=&x%d &.:$<%R n i d e;~ u 0 J L;< b.b $%% r.s+d [*W%!#> `**.0 e-3 a&4+!.2+M;` k _.%+2.W ~.#._.w.",
"k.V _$l J ]@F 5 l G #.c h ++/ &.n${ _@%+<%a&1+R.i B ).P.t 5 A r%r%&..&W*L U+o+9.A%w ,.g;s%E*H N;O;P;d ~._-Q;{#I&n*4+R _ s*k 1.2.",
"z V < k _ :.9 p$V l+l+< 6.-+=.R.a&K$8%H o+, S+_ R 4+J$R;%.0 o+t+Z W%a&S;G=T;W%U;h;V;_@s*W;s%W%X;Y;Z;k.J&`; >b h V J h 0 a&#.e&o+"};
