/* XPM */
static char * rot4_xpm[] = {
"64 64 1061 2",
"  	c #814C21",
". 	c #7E4A1F",
"+ 	c #74431D",
"@ 	c #613818",
"# 	c #6A3D1A",
"$ 	c #824D20",
"% 	c #77461E",
"& 	c #7C481E",
"* 	c #5A3416",
"= 	c #452710",
"- 	c #3B200C",
"; 	c #573215",
"> 	c #472811",
", 	c #4E2D13",
"' 	c #643A19",
") 	c #76451D",
"! 	c #683B19",
"~ 	c #653B18",
"{ 	c #41240E",
"] 	c #663B19",
"^ 	c #643A18",
"/ 	c #74431C",
"( 	c #5A3315",
"_ 	c #43260F",
": 	c #6A3F1B",
"< 	c #593316",
"[ 	c #583316",
"} 	c #512E14",
"| 	c #573216",
"1 	c #603617",
"2 	c #643817",
"3 	c #543013",
"4 	c #4D2B12",
"5 	c #5F3616",
"6 	c #683B18",
"7 	c #623818",
"8 	c #663A18",
"9 	c #673B18",
"0 	c #593215",
"a 	c #613817",
"b 	c #532F12",
"c 	c #311A09",
"d 	c #5F3617",
"e 	c #70411A",
"f 	c #573114",
"g 	c #6A3C19",
"h 	c #5E3616",
"i 	c #5D3515",
"j 	c #603717",
"k 	c #553015",
"l 	c #6E401B",
"m 	c #70411B",
"n 	c #532F13",
"o 	c #7B471E",
"p 	c #76441C",
"q 	c #6A3D19",
"r 	c #6C3F1A",
"s 	c #73431C",
"t 	c #5E3617",
"u 	c #7A471E",
"v 	c #6F401B",
"w 	c #4C2B12",
"x 	c #482A12",
"y 	c #3A1F0C",
"z 	c #553114",
"A 	c #522F13",
"B 	c #533014",
"C 	c #553014",
"D 	c #78461D",
"E 	c #643918",
"F 	c #623817",
"G 	c #5C3516",
"H 	c #361E0B",
"I 	c #6A3E1B",
"J 	c #633A18",
"K 	c #563115",
"L 	c #613717",
"M 	c #4B2A11",
"N 	c #553113",
"O 	c #6E3F1A",
"P 	c #613718",
"Q 	c #6A3C18",
"R 	c #5A3314",
"S 	c #361E0A",
"T 	c #46270F",
"U 	c #583214",
"V 	c #693C19",
"W 	c #6F401A",
"X 	c #563014",
"Y 	c #623717",
"Z 	c #593216",
"` 	c #5E3516",
" .	c #6D3F1A",
"..	c #633918",
"+.	c #72421B",
"@.	c #563114",
"#.	c #693D1A",
"$.	c #73431D",
"%.	c #593315",
"&.	c #77451C",
"*.	c #72411B",
"=.	c #75441D",
"-.	c #70411C",
";.	c #4D2C12",
">.	c #341D0B",
",.	c #4E2D12",
"'.	c #492A12",
").	c #482912",
"!.	c #72421C",
"~.	c #683C1A",
"{.	c #663B18",
"].	c #552F14",
"^.	c #6C3F19",
"/.	c #603718",
"(.	c #653A18",
"_.	c #44260F",
":.	c #75451E",
"<.	c #5D3517",
"[.	c #583216",
"}.	c #693B18",
"|.	c #4F2D12",
"1.	c #553013",
"2.	c #6C3E19",
"3.	c #5D3414",
"4.	c #3D220C",
"5.	c #39200E",
"6.	c #593214",
"7.	c #71411B",
"8.	c #6B3D19",
"9.	c #583215",
"0.	c #633817",
"a.	c #522E13",
"b.	c #543014",
"c.	c #79461D",
"d.	c #693C18",
"e.	c #693B19",
"f.	c #351D0A",
"g.	c #75441C",
"h.	c #643B1A",
"i.	c #71431E",
"j.	c #673B19",
"k.	c #73421C",
"l.	c #3D230D",
"m.	c #7C4921",
"n.	c #76451E",
"o.	c #6B3E1A",
"p.	c #522E12",
"q.	c #5C3415",
"r.	c #603615",
"s.	c #5E3514",
"t.	c #5B3519",
"u.	c #5B3B27",
"v.	c #48362E",
"w.	c #312723",
"x.	c #543017",
"y.	c #633818",
"z.	c #70401A",
"A.	c #7E491E",
"B.	c #502D13",
"C.	c #5C3315",
"D.	c #79461E",
"E.	c #5D3516",
"F.	c #5A3316",
"G.	c #462710",
"H.	c #4B2B12",
"I.	c #7C4920",
"J.	c #71421C",
"K.	c #381E0C",
"L.	c #71431D",
"M.	c #7F4B20",
"N.	c #5E3517",
"O.	c #6B3E19",
"P.	c #593313",
"Q.	c #653B17",
"R.	c #502F16",
"S.	c #5E453A",
"T.	c #53413A",
"U.	c #4E413B",
"V.	c #423B37",
"W.	c #2A2726",
"X.	c #452916",
"Y.	c #653918",
"Z.	c #5E3618",
"`.	c #6C3E1A",
" +	c #7F4B1F",
".+	c #5F3516",
"++	c #73421B",
"@+	c #5B3314",
"#+	c #593415",
"$+	c #6C3F1B",
"%+	c #4E2C12",
"&+	c #4B2A10",
"*+	c #5B3416",
"=+	c #5C3517",
"-+	c #371E0B",
";+	c #7B4921",
">+	c #6E401A",
",+	c #482810",
"'+	c #553214",
")+	c #814D22",
"!+	c #532E11",
"~+	c #4F3321",
"{+	c #5E4131",
"]+	c #524541",
"^+	c #4D4440",
"/+	c #3F3937",
"(+	c #363332",
"_+	c #353232",
":+	c #2A2828",
"<+	c #302018",
"[+	c #5B3415",
"}+	c #71411A",
"|+	c #5F3517",
"1+	c #633917",
"2+	c #482911",
"3+	c #4A2A10",
"4+	c #603918",
"5+	c #74441E",
"6+	c #6F3F1A",
"7+	c #76461E",
"8+	c #6A3D18",
"9+	c #5E3A1F",
"0+	c #583F32",
"a+	c #574741",
"b+	c #534945",
"c+	c #413B39",
"d+	c #3B3635",
"e+	c #3D3B39",
"f+	c #534F4E",
"g+	c #2C2A29",
"h+	c #312F2E",
"i+	c #302D2C",
"j+	c #231E1C",
"k+	c #4F2E15",
"l+	c #6D3E19",
"m+	c #502E13",
"n+	c #553115",
"o+	c #4D2B11",
"p+	c #5A3415",
"q+	c #5E3515",
"r+	c #5F381C",
"s+	c #64412A",
"t+	c #644839",
"u+	c #5A4841",
"v+	c #524743",
"w+	c #484240",
"x+	c #413C3B",
"y+	c #3B3736",
"z+	c #353131",
"A+	c #322F2E",
"B+	c #2F2B2A",
"C+	c #42403F",
"D+	c #262424",
"E+	c #2E2B2A",
"F+	c #212020",
"G+	c #402513",
"H+	c #623718",
"I+	c #573115",
"J+	c #563113",
"K+	c #472912",
"L+	c #71411C",
"M+	c #5A3414",
"N+	c #583213",
"O+	c #6F411B",
"P+	c #41240D",
"Q+	c #77471F",
"R+	c #663B1A",
"S+	c #75431C",
"T+	c #613614",
"U+	c #4C2C16",
"V+	c #473125",
"W+	c #664A3B",
"X+	c #58473E",
"Y+	c #54453E",
"Z+	c #4A3F3A",
"`+	c #3D3835",
" @	c #363432",
".@	c #353230",
"+@	c #34302F",
"@@	c #33302F",
"#@	c #292625",
"$@	c #221E1D",
"%@	c #2B2624",
"&@	c #2D241F",
"*@	c #271B13",
"=@	c #2D1A0C",
"-@	c #5B3515",
";@	c #563015",
">@	c #714019",
",@	c #522F12",
"'@	c #502C12",
")@	c #4F2D13",
"!@	c #653B19",
"~@	c #553012",
"{@	c #613918",
"]@	c #76471F",
"^@	c #734119",
"/@	c #643E25",
"(@	c #654738",
"_@	c #60514A",
":@	c #4D4745",
"<@	c #413A38",
"[@	c #393534",
"}@	c #4B4747",
"|@	c #343030",
"1@	c #363330",
"2@	c #333030",
"3@	c #312E2D",
"4@	c #302B29",
"5@	c #2C231E",
"6@	c #291B13",
"7@	c #352114",
"8@	c #472913",
"9@	c #2F1909",
"0@	c #563013",
"a@	c #6A3E1A",
"b@	c #533013",
"c@	c #4C2A12",
"d@	c #512E12",
"e@	c #623917",
"f@	c #3F240D",
"g@	c #78471E",
"h@	c #4D301D",
"i@	c #66422E",
"j@	c #62473B",
"k@	c #5B4B44",
"l@	c #554944",
"m@	c #4D4543",
"n@	c #3F3B3A",
"o@	c #373433",
"p@	c #312E2C",
"q@	c #403C3B",
"r@	c #403C3C",
"s@	c #252323",
"t@	c #322E2C",
"u@	c #2E2824",
"v@	c #32241B",
"w@	c #3A2416",
"x@	c #4A2B15",
"y@	c #47270E",
"z@	c #6B3D1A",
"A@	c #72411A",
"B@	c #6C3D18",
"C@	c #653A17",
"D@	c #3C210C",
"E@	c #4A2A11",
"F@	c #4A2A12",
"G@	c #72411C",
"H@	c #623716",
"I@	c #3B2415",
"J@	c #674630",
"K@	c #60483C",
"L@	c #524641",
"M@	c #4E413D",
"N@	c #443B36",
"O@	c #383534",
"P@	c #3A3635",
"Q@	c #383533",
"R@	c #373331",
"S@	c #353130",
"T@	c #302E2C",
"U@	c #292525",
"V@	c #241F1E",
"W@	c #2F2724",
"X@	c #30241E",
"Y@	c #301F16",
"Z@	c #362011",
"`@	c #522F14",
" #	c #623918",
".#	c #6A3E19",
"+#	c #583114",
"@#	c #6E3E19",
"##	c #6E3F19",
"$#	c #5B3517",
"%#	c #45260F",
"&#	c #5F3718",
"*#	c #512F13",
"=#	c #5B3312",
"-#	c #5D3518",
";#	c #5B3A26",
">#	c #5C4235",
",#	c #544741",
"'#	c #574D48",
")#	c #4F4440",
"!#	c #3D3937",
"~#	c #3B3735",
"{#	c #535050",
"]#	c #3B3938",
"^#	c #363130",
"/#	c #332D2A",
"(#	c #2D211B",
"_#	c #311F15",
":#	c #412615",
"<#	c #533016",
"[#	c #492A10",
"}#	c #593314",
"|#	c #73411B",
"1#	c #704019",
"2#	c #683C18",
"3#	c #5B3516",
"4#	c #42240E",
"5#	c #5C3416",
"6#	c #532F14",
"7#	c #583115",
"8#	c #502E12",
"9#	c #643915",
"0#	c #674129",
"a#	c #5F4638",
"b#	c #584740",
"c#	c #544640",
"d#	c #4C423F",
"e#	c #413D3B",
"f#	c #393635",
"g#	c #4F4B4B",
"h#	c #363331",
"i#	c #322F2D",
"j#	c #2E2A29",
"k#	c #2A2421",
"l#	c #39261C",
"m#	c #3E2618",
"n#	c #4B2B15",
"o#	c #75451D",
"p#	c #3B210C",
"q#	c #532E12",
"r#	c #502D12",
"s#	c #5A3417",
"t#	c #43240D",
"u#	c #5B3315",
"v#	c #643916",
"w#	c #54331E",
"x#	c #563F33",
"y#	c #6C544A",
"z#	c #65554F",
"A#	c #554A47",
"B#	c #413B3A",
"C#	c #353231",
"D#	c #3B3837",
"E#	c #302D2D",
"F#	c #242322",
"G#	c #2C2724",
"H#	c #332B28",
"I#	c #30241C",
"J#	c #352115",
"K#	c #2A180D",
"L#	c #623919",
"M#	c #5F3618",
"N#	c #6B3F1B",
"O#	c #6D3E1A",
"P#	c #301A09",
"Q#	c #5A3214",
"R#	c #4E2C13",
"S#	c #5A3313",
"T#	c #693E1E",
"U#	c #634230",
"V#	c #5F473C",
"W#	c #514845",
"X#	c #514846",
"Y#	c #443E3D",
"Z#	c #413D3D",
"`#	c #3D3B3A",
" $	c #2E2A2A",
".$	c #3A3535",
"+$	c #353331",
"@$	c #32302F",
"#$	c #35302E",
"$$	c #302A26",
"%$	c #2D1F18",
"&$	c #3A2417",
"*$	c #472A17",
"=$	c #391E0B",
"-$	c #663C19",
";$	c #72431D",
">$	c #72421D",
",$	c #683C19",
"'$	c #4B2A12",
")$	c #4E2C11",
"!$	c #77451D",
"~$	c #593416",
"{$	c #452610",
"]$	c #44260D",
"^$	c #593212",
"/$	c #482A15",
"($	c #593927",
"_$	c #5A4439",
":$	c #604D45",
"<$	c #5C4D48",
"[$	c #4E4541",
"}$	c #3C3939",
"|$	c #434040",
"1$	c #312F2F",
"2$	c #34302E",
"3$	c #292524",
"4$	c #342319",
"5$	c #402616",
"6$	c #512F12",
"7$	c #7B4820",
"8$	c #623816",
"9$	c #381F0C",
"0$	c #613716",
"a$	c #3F2719",
"b$	c #564136",
"c$	c #584943",
"d$	c #534844",
"e$	c #353332",
"f$	c #343130",
"g$	c #332F2E",
"h$	c #23201F",
"i$	c #2E2825",
"j$	c #352B26",
"k$	c #39271C",
"l$	c #301E12",
"m$	c #452812",
"n$	c #7E4C22",
"o$	c #70401B",
"p$	c #76441D",
"q$	c #603616",
"r$	c #453128",
"s$	c #4B4441",
"t$	c #4B4442",
"u$	c #3C3837",
"v$	c #3E3B3A",
"w$	c #5B5858",
"x$	c #373534",
"y$	c #2F2C2B",
"z$	c #302E2D",
"A$	c #37312F",
"B$	c #302724",
"C$	c #2E1F17",
"D$	c #362215",
"E$	c #492A16",
"F$	c #6F411D",
"G$	c #693C1A",
"H$	c #44260E",
"I$	c #73441E",
"J$	c #4C2A11",
"K$	c #371E0C",
"L$	c #4B2D18",
"M$	c #37302E",
"N$	c #484545",
"O$	c #2F2D2C",
"P$	c #2A2928",
"Q$	c #302A27",
"R$	c #2E231E",
"S$	c #412A1A",
"T$	c #472A16",
"U$	c #523015",
"V$	c #43250D",
"W$	c #6C401C",
"X$	c #7A471F",
"Y$	c #563214",
"Z$	c #362921",
"`$	c #373332",
" %	c #221F1E",
".%	c #2B2422",
"+%	c #312722",
"@%	c #35241A",
"#%	c #3B2414",
"$%	c #402511",
"%%	c #7F4A1F",
"&%	c #5F3716",
"*%	c #5D3617",
"=%	c #804B21",
"-%	c #351D0B",
";%	c #70421D",
">%	c #7D491F",
",%	c #643917",
"'%	c #74431B",
")%	c #6A3B18",
"!%	c #3D2618",
"~%	c #332E2C",
"{%	c #2F2623",
"]%	c #291C14",
"^%	c #512E16",
"/%	c #43250E",
"(%	c #844E23",
"_%	c #78461E",
":%	c #603818",
"<%	c #804C21",
"[%	c #6C3D19",
"}%	c #4C2A10",
"|%	c #643818",
"1%	c #663918",
"2%	c #472A14",
"3%	c #2B201C",
"4%	c #291F1A",
"5%	c #352216",
"6%	c #442815",
"7%	c #472A12",
"8%	c #74441D",
"9%	c #42240D",
"0%	c #44270E",
"a%	c #7F4C21",
"b%	c #341D0A",
"c%	c #663A17",
"d%	c #381F0F",
"e%	c #371F0E",
"f%	c #79471E",
"g%	c #864F23",
"h%	c #74421C",
"i%	c #76431C",
"j%	c #6F401C",
"k%	c #311B0A",
"l%	c #583113",
"m%	c #472710",
"n%	c #361E0C",
"o%	c #643B18",
"p%	c #6E401C",
"q%	c #75431D",
"r%	c #804C22",
"s%	c #6D401B",
"t%	c #4F2C12",
"u%	c #5C3518",
"v%	c #4A2E1D",
"w%	c #4D2F1A",
"x%	c #3D220D",
"y%	c #45260E",
"z%	c #6D3F19",
"A%	c #512E13",
"B%	c #693E1B",
"C%	c #7A461D",
"D%	c #351E0B",
"E%	c #673C1D",
"F%	c #573B2D",
"G%	c #594B46",
"H%	c #443F3E",
"I%	c #332924",
"J%	c #472711",
"K%	c #311B09",
"L%	c #6E411B",
"M%	c #42250F",
"N%	c #6F4019",
"O%	c #6F3F1B",
"P%	c #533015",
"Q%	c #45270E",
"R%	c #78451D",
"S%	c #643C1F",
"T%	c #3D3634",
"U%	c #585454",
"V%	c #484444",
"W%	c #2A2827",
"X%	c #302118",
"Y%	c #412716",
"Z%	c #2C1808",
"`%	c #583112",
" &	c #72431C",
".&	c #74421B",
"+&	c #5B3518",
"@&	c #403028",
"#&	c #474343",
"$&	c #413D3C",
"%&	c #2A2727",
"&&	c #3B3532",
"*&	c #28201E",
"=&	c #3B210E",
"-&	c #6B3D18",
";&	c #391F0C",
">&	c #583314",
",&	c #44250E",
"'&	c #5E3718",
")&	c #472B18",
"!&	c #3C332F",
"~&	c #322F2F",
"{&	c #1E1A18",
"]&	c #2B2726",
"^&	c #3E3B3B",
"/&	c #251E1B",
"(&	c #5F3515",
"_&	c #77461D",
":&	c #693D19",
"<&	c #5F3717",
"[&	c #7D4A21",
"}&	c #76441E",
"|&	c #3E220C",
"1&	c #683D1A",
"2&	c #7D4920",
"3&	c #41240F",
"4&	c #37271E",
"5&	c #474342",
"6&	c #272422",
"7&	c #1F1A17",
"8&	c #241810",
"9&	c #2E190B",
"0&	c #26180E",
"a&	c #3B3636",
"b&	c #2F2D2D",
"c&	c #46260E",
"d&	c #633816",
"e&	c #7C491E",
"f&	c #72431E",
"g&	c #7C481F",
"h&	c #6D3F1B",
"i&	c #573013",
"j&	c #814D23",
"k&	c #6F411C",
"l&	c #432713",
"m&	c #3E3532",
"n&	c #373434",
"o&	c #231711",
"p&	c #351E0C",
"q&	c #472810",
"r&	c #40240F",
"s&	c #342C2A",
"t&	c #28170C",
"u&	c #673A18",
"v&	c #482910",
"w&	c #6C3E1B",
"x&	c #583315",
"y&	c #784720",
"z&	c #492A13",
"A&	c #38302C",
"B&	c #3C3838",
"C&	c #23140B",
"D&	c #43250F",
"E&	c #593213",
"F&	c #442A19",
"G&	c #413B38",
"H&	c #2A2524",
"I&	c #1C1108",
"J&	c #47280F",
"K&	c #6E3F1B",
"L&	c #42240F",
"M&	c #573214",
"N&	c #78451C",
"O&	c #71421B",
"P&	c #4A2910",
"Q&	c #32231B",
"R&	c #2F2926",
"S&	c #392418",
"T&	c #57331B",
"U&	c #543B2D",
"V&	c #473E3A",
"W&	c #393535",
"X&	c #291E18",
"Y&	c #281607",
"Z&	c #40230C",
"`&	c #3F240E",
" *	c #7C471E",
".*	c #3F230C",
"+*	c #402412",
"@*	c #2E2522",
"#*	c #363232",
"$*	c #3A3534",
"%*	c #453E3C",
"&*	c #474444",
"**	c #3F3D3D",
"=*	c #2C2725",
"-*	c #341E0F",
";*	c #3F230E",
">*	c #301908",
",*	c #5B3414",
"'*	c #7B471D",
")*	c #77441C",
"!*	c #844D22",
"~*	c #73411A",
"{*	c #6A3C1A",
"]*	c #392110",
"^*	c #2A1E17",
"/*	c #322A27",
"(*	c #302C2C",
"_*	c #312824",
":*	c #362113",
"<*	c #301A0A",
"[*	c #7A471D",
"}*	c #3E230D",
"|*	c #814C22",
"1*	c #543012",
"2*	c #804B20",
"3*	c #472911",
"4*	c #40240E",
"5*	c #4A2B14",
"6*	c #4D2D18",
"7*	c #6E411C",
"8*	c #804C20",
"9*	c #6D3D19",
"0*	c #73421D",
"a*	c #6F3F19",
"b*	c #492A11",
"c*	c #653917",
"d*	c #2D1808",
"e*	c #45250E",
"f*	c #6D401C",
"g*	c #502F13",
"h*	c #834E24",
"i*	c #6B3C18",
"j*	c #593115",
"k*	c #5C3515",
"l*	c #311A0A",
"m*	c #3B1F0C",
"n*	c #76451C",
"o*	c #7C4A21",
"p*	c #4F2B11",
"q*	c #492910",
"r*	c #533012",
"s*	c #7D481E",
"t*	c #391F0B",
"u*	c #7C4A20",
"v*	c #4A2911",
"w*	c #2A1608",
"x*	c #4E2B11",
"y*	c #42250E",
"z*	c #77471E",
"A*	c #5C3414",
"B*	c #301E14",
"C*	c #392212",
"D*	c #2F190A",
"E*	c #603716",
"F*	c #75441E",
"G*	c #54341E",
"H*	c #5D3F30",
"I*	c #4A3B35",
"J*	c #393130",
"K*	c #2E211B",
"L*	c #7C471D",
"M*	c #512D12",
"N*	c #814D21",
"O*	c #4D2A0F",
"P*	c #573012",
"Q*	c #60391D",
"R*	c #533727",
"S*	c #523B30",
"T*	c #473C38",
"U*	c #4A3F3B",
"V*	c #3B3534",
"W*	c #353030",
"X*	c #231F1E",
"Y*	c #7D481D",
"Z*	c #7B481F",
"`*	c #563012",
" =	c #5D361B",
".=	c #4D3325",
"+=	c #4C3A31",
"@=	c #52413A",
"#=	c #3C3533",
"$=	c #392315",
"%=	c #341C0B",
"&=	c #71421D",
"*=	c #683E22",
"==	c #553D31",
"-=	c #54433C",
";=	c #49403C",
">=	c #252322",
",=	c #2D2A2A",
"'=	c #281E18",
")=	c #603618",
"!=	c #40240D",
"~=	c #5F3715",
"{=	c #7C491F",
"]=	c #391E08",
"^=	c #613B22",
"/=	c #553A2A",
"(=	c #4C3B33",
"_=	c #443B37",
":=	c #373432",
"<=	c #32302E",
"[=	c #302C2B",
"}=	c #262423",
"|=	c #2E2926",
"1=	c #1C1713",
"2=	c #321B0A",
"3=	c #7E4B21",
"4=	c #5B361D",
"5=	c #4C352B",
"6=	c #4E3D36",
"7=	c #453B38",
"8=	c #3A3330",
"9=	c #241F1D",
"0=	c #2B2019",
"a=	c #372418",
"b=	c #351F10",
"c=	c #2A1809",
"d=	c #381E0B",
"e=	c #44250D",
"f=	c #6D3F1D",
"g=	c #583724",
"h=	c #4D392F",
"i=	c #4F403B",
"j=	c #4D4341",
"k=	c #3E3836",
"l=	c #4F4B4A",
"m=	c #302B2A",
"n=	c #352924",
"o=	c #332319",
"p=	c #321E10",
"q=	c #412511",
"r=	c #4F2E12",
"s=	c #48290E",
"t=	c #73431E",
"u=	c #5E3B25",
"v=	c #5B3F30",
"w=	c #594136",
"x=	c #473A35",
"y=	c #3A3432",
"z=	c #2F2C2A",
"A=	c #292626",
"B=	c #282525",
"C=	c #35302F",
"D=	c #372F2C",
"E=	c #2C221E",
"F=	c #331E11",
"G=	c #542F13",
"H=	c #693B17",
"I=	c #5B371F",
"J=	c #3B2F29",
"K=	c #5B4236",
"L=	c #54463F",
"M=	c #463C39",
"N=	c #393230",
"O=	c #33302E",
"P=	c #383432",
"Q=	c #312F2D",
"R=	c #302C2A",
"S=	c #291F1C",
"T=	c #2F2119",
"U=	c #3E2617",
"V=	c #402411",
"W=	c #3A200C",
"X=	c #573014",
"Y=	c #5E381E",
"Z=	c #60402F",
"`=	c #5A4339",
" -	c #51423B",
".-	c #463E3C",
"+-	c #463E3B",
"@-	c #504B4B",
"#-	c #322B28",
"$-	c #352A24",
"%-	c #352418",
"&-	c #432612",
"*-	c #49290E",
"=-	c #653C1C",
"--	c #6A4127",
";-	c #593D2F",
">-	c #4E433F",
",-	c #443C3A",
"'-	c #393433",
")-	c #423C3B",
"!-	c #201F1E",
"~-	c #35302D",
"{-	c #372D29",
"]-	c #271D18",
"^-	c #3C2412",
"/-	c #4F2F14",
"(-	c #5C3312",
"_-	c #603819",
":-	c #5C3A24",
"<-	c #4A372F",
"[-	c #4D3C36",
"}-	c #4E3F38",
"|-	c #423834",
"1-	c #383331",
"2-	c #363433",
"3-	c #2A1F1A",
"4-	c #452712",
"5-	c #6D411C",
"6-	c #673C18",
"7-	c #341C0A",
"8-	c #79461C",
"9-	c #673F24",
"0-	c #563D31",
"a-	c #56443E",
"b-	c #534741",
"c-	c #443C3B",
"d-	c #383332",
"e-	c #423F3E",
"f-	c #434141",
"g-	c #382F2A",
"h-	c #362922",
"i-	c #382315",
"j-	c #472812",
"k-	c #72441E",
"l-	c #673C1A",
"m-	c #462811",
"n-	c #2E1909",
"o-	c #4D2A11",
"p-	c #4E2F1B",
"q-	c #53382A",
"r-	c #5B4439",
"s-	c #5A4A42",
"t-	c #4C413F",
"u-	c #403937",
"v-	c #302E2E",
"w-	c #332F2D",
"x-	c #251B15",
"y-	c #533117",
"z-	c #623A18",
"A-	c #523014",
"B-	c #422610",
"C-	c #492810",
"D-	c #613617",
"E-	c #3A2E29",
"F-	c #48403D",
"G-	c #433B39",
"H-	c #3D3A39",
"I-	c #353330",
"J-	c #363230",
"K-	c #2C2019",
"L-	c #3D230F",
"M-	c #281608",
"N-	c #643B19",
"O-	c #593114",
"P-	c #442812",
"Q-	c #432611",
"R-	c #4A2B12",
"S-	c #532E13",
"T-	c #633718",
"U-	c #3C2C24",
"V-	c #4D4A4A",
"W-	c #282524",
"X-	c #312D2C",
"Y-	c #372C28",
"Z-	c #38291F",
"`-	c #3A2313",
" ;	c #5D3415",
".;	c #452A18",
"+;	c #2E2A28",
"@;	c #2B2928",
"#;	c #222020",
"$;	c #352D2A",
"%;	c #31251F",
"&;	c #2E1E13",
"*;	c #422611",
"=;	c #3F230F",
"-;	c #73431B",
";;	c #312621",
">;	c #382417",
",;	c #412512",
"';	c #6F411A",
");	c #2B2827",
"!;	c #37251B",
"~;	c #4C2B11",
"{;	c #462810",
"];	c #70411D",
"^;	c #261407",
"/;	c #613616",
"(;	c #492911",
"_;	c #422612",
":;	c #25180E",
"<;	c #673C19",
"[;	c #4D2B13",
"};	c #482811",
"|;	c #251307",
"1;	c #5D3416",
"2;	c #4E2B12",
"3;	c #271407",
"4;	c #432510",
"5;	c #6E411D",
"6;	c #502E14",
"7;	c #412611",
"8;	c #4F2E14",
"9;	c #452711",
"0;	c #241307",
"a;	c #3F230D",
"b;	c #3C220D",
"c;	c #462812",
"d;	c #381F0D",
"e;	c #3F2410",
"f;	c #3C230F",
"g;	c #402410",
"h;	c #442710",
"i;	c #3E240F",
"j;	c #221206",
"  . + @ # $ % & * = - ; > , * ' ) ! ~ { ] ^ / # ( _ : < [ } | 1 2 3 4 5 6 7 8 9 0 a b c 4 d e 7 , f g h i 9 j k g l m n 7 o p q ",
"r s 9 t m u v # w x y z A B C ! D ! ~ { ~ E F E G H I J k K | * 8 L M N O q P Q h ^ R S T U q V G E g W X L Y Z `  .m ] ..+.6 @.",
"#.$.G %.&.*.=.-.;.n >.,.'.).%.m !.~.{.].^. .G /.(._.; :.^ 7 <.[.(.}.|.1.m 2.L E F 2 3.4.5.6.@ 7 t 7.8.p /.{.E j 9.{.m D E 9.0.a.",
"@ m b.^ c.d.W e.%.%.f.B 4 '.E g.G h.i.j. .2.` t k.X l.m.n.o.<.9.E (.b p.~ q q.r.s.t.u.v.w.x.9 y.j z.W k.o.#  .L 7 8 W A.L B 0.B.",
"` +.C.] D.0.(.@ j %.- E.b.%.F.K G.H.I.J.v }.E t $...K.L.M.O N.G O.E n ;.P.Q.R.u.S.T.U.V.W.X.Y.8.{.8.O O V Z.`.^ V E d. +.+9 ++@+",
"7 D y.a / #+{.E $+%+&+j.O (.*+=+9.-+;+$. .>+2.(.# ^ ,+'+)+O ^ E O 0.!+x ~+{+T.]+^+/+(+_+:+<+[+}+o.7.7.l N.B.=+^ V t (.o |+q &.j ",
" .m E G ..B V 1+o.2+^ E 6 ` j g 8.3+4+5+6 W 6+W E A n H 7+q E 8+O.9+0+a+b+^+c+d+e+f+g+h+i+j+k+l+W =.!.m ^ %+m+<.8 n+; 7.N.L &.j ",
"D q =+(.N.E.!.# ~ o+E.^ N.C %.y.m q = m.P q e +.q 9.p+4.q+Q r+s+t+u+v+w+x+y+z+A+B+C+D+E+h+F+G+E z.J.J.r J.H+B.I+J+[+K+E.E C p L ",
"7.1 K K 9.P L+m j.M+N+O+N.K B < # u P+Q+R+C q S+ .8 T+U+V+W+X+Y+Z+`+(+ @.@+@@@A+g+#@$@%@&@*@=@-@6 d.l o.k.m /.C w ;@;.( O |.>@0.",
",@'@A )@B E.v -.!@` ,@!.e.N.k =+j.$.~@{@]@w %.^@e./@(@_@:@v+<@[@}@}@h+|@1@@@2@3@4@5@6@7@8@).9@0@Y @ V r O+W 2.` X ( a@H+) ;.}.9 ",
"_ { b@;.c@G *.7.E G d@q S+2...d V (.e@f@g@b@h@i@j@k@l@m@n@o@+@p@q@r@s@3@@@t@u@v@w@x@'.4 G G { y@Y Y z@m o.7 A@B@8 6 s }.c.n d C@",
"4 D@E@4 F@( e p V =+A ` u G@`.` 9 i H@I@J@K@L@M@N@d+O@P@Q@R@3@S@T@U@V@W@X@Y@Z@`@@ E E.9. #^ p.f.5 (.m g..#+#O &.@#}.##`.D $#{.Y ",
"3 ,+%#b.B.f ^ S+(.&#*#,@) k.8+=#-#;#>#,#'#)#!#~#{#]#3@R@@@S@3@^#/#(#_#:#<#B.[#}#s 7.^ t ^ ^ +#f.%+{.|#/ `.f E.u 1#9 2#o.g. #p ` ",
"3#3 4#5#6#7#9.m 7 ^ d 8#9#-.0#a#b#c#d#c+e#f#@@A+g#2@E+h#i#j#k#l#m#n#< b.}...b@@.$.o#^ t 6 {.( P+p#^ u m E q#r#) v j.y.V {.s#/ d ",
"..; t#u#0 C ; {.r v#0.w#x#y#z#A#B#Q@C#[@D#d+2@B+E#F#G#H#I#J#K#L#t d # M#! d.%.b@N#% {.0  .O#0 E@P#Q#& W E.r#%+`.v ~ y.E , R#^ ~ ",
"# /.{ d@E.4 }#S#T#U#V#a+W#X#Y#Z#}@`# $Q@.$+$@$#$$$%$&$*$k+f =$-$;$a@>$# /.7 [+%+5 / ,$f V }+X '$-+)$S+!$^ ` q#1 (.^ 9 d A w ~$! ",
"9  .{$]$^$/$($_$:$<$[$c+d+[@h#}$|$1$g+[@2$3$X@4$5$x./.E y.E b 6$7$N#;$o.{.e.L ;.3 q {.( ..2.8$2+%#9$..) O 6+( Y 0 F a@L 0$'.9.E ",
"{.O+d@a$b$c$d$^+B#P@e$f$|@.@g$S@i+h$i$j$k$l$m$-#9.# !.l ,$E Y.p#n$I $+V o$m E U p.` 7 %.`.0.q 6#w 9@b@d.O p$9 0.q$%.W q 5 I+K d@",
"r r F r$s$t$u$v$w$x$y$z$|@S@@@A$B$C$D$E$&#j 4.F$/.G$D ++9 E ! H$: I$G$o.`.p$d d ,@J$9.b.8.p+{.F b@K$T ^ V m m `  .n O#k.h d w 2+",
"J. .q L$M$y+S@z$N$O$P$f$#$Q$R$S$T$U$B *+z.A.V$W$I 7 +.D z.g P q#M X$+ S+8 p ` d f ;.E.E ~ Y$( V ` {$-+6 d a m G >+[+Q p$6 0.F.0 ",
"-.7.9 R#Z$@$`$3@B+ %.%+%@%#%$%~.{.^ N.d e %%&%*%=%q q o G@^ 7#C -%;%>%=.9 O /.; #+6$Y ++(.|.A ~ E A P#1+` I+..E.^ 6 ,%'%8.E )%}.",
"o.7.6 '$!%g++@~%{%]%I@^%[.0 |.q + O.q P `.) S+/%(%_%q o p$,$` N.4#:%<%!.[%g E m+@.w p+S+O b.m+0 h f - }%1+B b.^ d g 1 8+B@|%1%Q ",
",$V  .9.2%3%4%5%6%7%B 6  .~ 3##+8%O.) 7 9 r S+9%:.  z./ !$O 8 8.5#0%a%$.m O L+G C c@n o.+ V t @.0 U = b%F 0.A }.{.E L ..6 c%.+6 ",
"V E g 9 ; d%e%m+E.t K q f%# J 8#N#$+n.V @ t 9 +#~$g%|#{.l+h%l+m q D@-.n.p$*.i%z.N.B.4 t j% .m %.b.%.%+k%l%l+1 9 k.E p+d.5 ,%z L ",
"^ 6 E o.^ m%n%C ~ o%< .._%p%@ ;.p+-.q%s @ 1 8 Q 4.r%+ %.t +.S+k.-.b ;.s%$.p ++!$6 p+t%0@# G$^.u%v%w%n x%y%z%Q 6 u q I+m .+` n 9.",
"~$d... .] A%9$4 ..~ 3#E.-.n.$#|.3 % m S+(.E O O P+B%I$B 6#^ C%*.k.V D%..8%!$*.S+9 G n d@^ E%F%G%H%I%'.J%K%6 8+q g@r E.W {.C %.a.",
"t ..{.++L%; M%_.d {.t d # f%$#b.d@8%G@N%q {.O%m 1.H.Q+P%[.P%!$W h%=.Q%t % R%k.q t %.X M %.S%T%U%V%W%X%Y%Z%`%8.2.!.~ 9.d.7.@.Y n ",
"g 7 6 / _%* c@- U {.:%^ !@ &] t p+~ n.g  .V m .&8 H I$&#s#k `.8.m f%i M 7+p$|#(.%.^ ` E@o++&@&#&$&%& $&&*&=&}.-&p ..B G 7.F 0.` ",
"W ^ 2.7.u ~$2+;&4 E ^ @ {.8.O ] {.>&f%O 2.g 7.p 6+,&'&n.:%9.}+}.@#p$1 H n.>$6+6 G 2.g ,.%#)&!&1$~& %{&]&^&/&(&Q !$r N.d `.`.2 )%",
"8.9 e .&_&:&%+;&{ E. #<&V z@[%G$N#>&7.!$8+7 l+p$*.3 _ [&}&<.p E l+i%9 |&1&2& .{.V O ^ a.3&4&5&6&7&8&9&0&a&b&c&d&7.p$E O 8.2.6 ##",
"E.<.# i%D.% q ,+H b@d q o.G$G$~.I {@e@e&>+X 9 + .&1 f.f&g&h&m (.O#R%O i&w j&k&/.`.S+t 6#l&m&n&o&p&q&;.r&s&2@t&d@0.u u&/ # N.{.O.",
"7#I+B z._%_%n.( y v&%.(.O (.F ~ w&:&J+g@p f j G@7.9 &+x&u }+z.j e.u O 8 y y&L.<.! q%^ r#z&A&B&C&D&%.E&F&G&H&I&J&f *.6+6+K&b.f 9 ",
"t n '$0.++) =.^ L&9$,.N.>+..I+t m m M&6 N&{.1 7.O&N.L D@% L+}+-@{.N&l+6 P&{@g@E j.-.v |.B Q&n@R&S&T&U&V&W&X&Y&Z&@+}.!${.L+9.t%` ",
"q @ B * *.7.l :&4 k%`&z q ^ A 9.o.e h R  *}+8.7.) @.(..*$+u z.L 9 p z.E 1 P+7+v `.g *.U C +*@*#*$*%*&***=*-*;*>*,*}.'*q O#0 I+(.",
"V !$t 9.p )*m q C 9$;&B ^ {.C *+g Q <&b p ++++S+7.%.1 i @.!*~*8 O#|#2.E {*|&;$o m 0.V V 0 )@]*^*/*(*#$_*:*'.c@<*%+8+[*k.}.0.d 7.",
"# D.*.E.2. *S+/ j }*H b.E ..9.(.z.8...3 9 S+*.D O t F.p$.*|*c.{.z.z.9 L 8.1*#+2*|#,%[+++}.f 3*4*5*6*m$m%'@;@A%p#- 1+W ++8 6 E z.",
"k.7.& o.y. *A@S+r 4 -%%+N.< 9.q S+8.^ G 6.) 7.L+9 7 =+/ 3+7*8*Q 9*|#6 g  .L p#0*k.Q %.6+a*d r#b*h o.^ ` c*|+6#T d*6.^ q g l+(.1 ",
"W 9 ) G@8 p [%e.7.` D@e*u#K B q c.^ <.&#b@-.=.f*@ L 9 m i g*h*^ i*|#{.g z.{.- f L+W j Y O 9 j*'$k*q%O.I+Y.q G 4 l*y%1.p+O#i%O.@.",
"{.d 9  .q }+7.7 k.(./%m*0@9.b@9 n*E k 3#@.1+% $+=+` d./ *..*o* #>+l+` t 2.l+p*3+X$!.q E.7 }.q$4 3 !.p$d 5#g g A x%P#q*|.9 p +.; ",
"O#7#` 9 }.v p {.z@p+G.p&q*X X (.+.J B K z r*/ !.J ( ` O s*N+*%N#~ *.5 C (.##` t*u*_%o${.0 L |%v*J&6 D.O#N.` e 9.q&w*4#1*q$Q m ^ ",
"/ d d 8 6 O *.v {.I+x p&K$w C {.J.^ )@I+%.x*2. *L+t q.E O -&y*z*{.++2.X *+{.y.|&#.>%m  .L 9.9 r#M%A*!$W 9 b.6 s.x B*C*E&2 5 (.7.",
"*.h%o$q ^.7.k.m 8.N.; `&D*_.;@!@L+m E.I+..U E*s*++E E E d l+D@7+F*z.+.! k C P n v&X$ .z.O *+9 G J$p.}.9 d&0 G*H*I*J*K*3 9 }..+O ",
"++L*o e F V L+m O 9 {.3 n%y*` {.`.p W F.j. #b@_%*.! q 6 5#E M*'&N*/ m !.~$@.t ` -+I$J.W *.9 7 ` %.O*P*Q*R*S*T*U*V*W*X*z&2 W Y q.",
"6 Y*& p L ` V O 6+l+o.V M%- 5 q K&O *.(.,${.J+ .=.6 g 6+V < ^ P+N*R%{*p$/.E j E.{ @ Z*q e 6+u&`* =.=+=@=T*#=S@e$i+@@D+$=@+}.V ;.",
"5#.&R%D 2.E ^ (.E .&W l %+%=q#(.z@|%g |#W q ` E._%y.7 l+7.G !.J&&=u Q G@++2.E X 3 _.[&{.9 {**===-=;=c+d+S@3@v$|$>=@@,='=6#` q A ",
"* Q }+!$*.l+.#)=%.k.S+q B -%!=( 9 E 0.p S+z.^ ,@7.^ ; 1 W g !.~=3 {=E ! c.m O#X q$]=# ^=/=S*(=_=V*S@h#:=<=[=W.,=}=g$|=1=> 0 |%5 ",
"N.0.Y `.l+[%e ! ( `.o 8+@.;&2=p.1 9.N.L+p ++q b k*(.I+I+N.o$7.F y 3=,$d i%z.6 l%4=5=6=b#7=8=(+2@z$A+h#h#3@i+ $9=0=a=b=c=d=i&6.9 ",
"W (.E.1 |%6 Q m |%q A.z.[+G.2=q*E.( G o.k.k.`.+#r#a@X b@C q ++z.e=: >$` Q f=g=h=i=j=d+k=f$|@l=W&W%S@.$S@m=n=o=p=q=C r={ d*r#A 0.",
"7.6 3 ,%y.E.i 9 {.8. *R%{.U p#|&q.0.` ~ q S+k.` r#-.(.A%b.(.z.e `*s=t=u=v=w=x=T%y=S@.@h#<=z=@$A=B=C=D=E=F=4 a.F@A L ( c@-%P+a.` ",
"{.^ G=l+.&}.q.L (.^ !.o e.7.q*n%0 (.E.1 }.*.p${.|.~ % &#n L H=9 I=J=K=L=M=N=(+|@+@O=R@P=Q=+@R=S=T=U=V=W=/%q${.U f 1 |+n L&D%X=.+",
"*+%+5 !$h%*.6 d.^ C ^ f%e.u 6.-%%+d 0 0 }.8.z.>+n 1._%z%q.Y=Z=`= -.-+-d+@@q@@-y$3@O=`$A+#-$-%-&-'.Z N.,.v&q+2.E.F.f L +#c@l*3 9 ",
"P '$1 p Q 7.~*.&q A I+W ##e ,%!=P+( n 8#O 8 {.O.E&*-=---;-@=>-,-'-d+)-o@A+E+f$!-E+~-{-]-^-/-;.N.H+N.d.@ n E&O %.%.%+E.G A%;&H$E ",
"1 c@G m {.m &.L*7.G |.F z%e {.E@K.1*t%r#z%9 (-_-:-<-[-}-|-1-2-@$h+|@~#C#2@z$H&3-@%I@4-D&}*5-%.y.q L O 8.b@,@6-t B n n 5#,.{$7-}#",
"C A%d 2.F o$l+8-++~ b.G Q &.2.r#- 3+b 1*9 9-0-a-b-c-d-|@@$e-f-i+[=|@S@i#g-h-i-j-9.< < ( f.k-l-E Q Y 8.l+X ;.h ] )@I+F@C '$m-n-o-",
"<.E.Y g E.O&N.l+z.9 ` L ! / / |.!=d=p-q-r-s-t-u-d+O@.@@@g$Q@v-D+w-A${%x-y-A B ` O#z@M#N.,&z-Z*q 9 1 F W %.2+r*..m+A-'$d@4 B-9$C-",
"6 ^ 8.9 9.A@~ L 9 D-` q !.q & [+m$E-;=F-G-V*H-3@A+S@:=I-|@J-%@K-@%C*L-M-N-k&d L O o$E <.O-y*% 2.1+N.` g %.2+q&C m+P-Q-R-S-E.A%q$",
"8 ` p$E X m m T-,%` ` W o e p$g B U-2@(+|@^&V-W-A+@$|@X-Y-Z-`-x B b.|.;&b@[&! *+Q W ..N.Y y # -.P E.E.[+n 2+4*q&A%'$x&O ( ` '$0$",
"l+7# *8  ;8++.+.Q i q+}+D 7.m 9 ...;+;|@+@@;v-#;t@$;%;&;*;; K j ~ 7 0 2+K$3=# f (.O#L Y }.&+9.X$^ G X ,.M*K+=;q*1+Q |#S+3 6.F@L ",
"g ` u {.{.n -;!$O.j q.*.++j.o.E.~ k+;;z$|@i#.%^*>;,;3*E@o+s%7 {.q }.2 ( ;&~.s%X L }.L L )%3 p#g@] X F@> 4 2=A C Q '*z.z@).9.m+F ",
"E |+p 7 %.%+';s @ 0 ` ++W E ^ %.a * l#);_*!;G+Q-I+t G %.~;l  .{.E F 9 }.@+{;];B C 5 ` <.*+M*2=/. #w *+7#4 ^;[+/;}.c.y.E.(;b.a*Y ",
"b.1 ) ` 4 +#O+,$..B X 8.6+d.V I+%.@ _;:;=&r#E.f ..o.{.#+;.7 s ^ t ( F (.g -+];<;K X u#0 [;).~;};=+> H+C 4 |;[+W q / .+N.E@n B@L ",
"F@L |#E.f q j.`@K&*+r#j 2.^ W E.C E.w p&q&[+d 9.` O W ` A%,@s 9 G 0 1;|+P x%t ;%K a.a.2;> E@..'$< > I+'.c@3;U W 9 *+` E.).6 {.E ",
"t%Y 6 E 0 e ^ '${*f A ` }.F q z%{.E.4 D&y*E.%.x %+9 m t b@;..#>+* ;@1;*+Z 4;`&5;6;)@p.'$4*T < 7;8;3*f ).9;0;i&e |%I+F t j-W g ` ",
"A Y .+>+t  ...> d 4 F.1 6 ..j 7.+.`.,.o-a;F.I+'$j-%.d.L C |.i $.* } Z B w = b;P%c;*;n c;d;!=6#e;f;g;%+h;i;j;1.q Y 0 q j > 6 G$A%"};
