/* XPM */
static char * rot5_xpm[] = {
"64 64 1019 2",
"  	c #7A471F",
". 	c #77461D",
"+ 	c #6D3F1B",
"@ 	c #5C3516",
"# 	c #643918",
"$ 	c #7B481E",
"% 	c #71421B",
"& 	c #75441C",
"* 	c #553114",
"= 	c #41240E",
"- 	c #371E0A",
"; 	c #522F13",
"> 	c #43250F",
", 	c #4A2A12",
"' 	c #5F3617",
") 	c #6F411B",
"! 	c #623817",
"~ 	c #603717",
"{ 	c #3D220D",
"] 	c #603817",
"^ 	c #5F3616",
"/ 	c #6B3E19",
"( 	c #643A19",
"_ 	c #553014",
": 	c #4F2D13",
"< 	c #4D2C12",
"[ 	c #522E14",
"} 	c #593315",
"| 	c #5E3516",
"1 	c #553013",
"2 	c #472810",
"3 	c #522E12",
"4 	c #633917",
"5 	c #5C3416",
"6 	c #663917",
"7 	c #593214",
"8 	c #5D3515",
"9 	c #3D210C",
"0 	c #502D12",
"a 	c #5C3515",
"b 	c #663B18",
"c 	c #573114",
"d 	c #6E3F1A",
"e 	c #5D3516",
"f 	c #5A3315",
"g 	c #603616",
"h 	c #532E13",
"i 	c #251307",
"j 	c #532F13",
"k 	c #502D13",
"l 	c #643917",
"m 	c #683C19",
"n 	c #6A3D19",
"o 	c #4F2C12",
"p 	c #5C3517",
"q 	c #74431B",
"r 	c #6F401A",
"s 	c #6D3F1A",
"t 	c #613717",
"u 	c #693D19",
"v 	c #73421B",
"w 	c #693C19",
"x 	c #472811",
"y 	c #442710",
"z 	c #361D0A",
"A 	c #502E12",
"B 	c #603716",
"C 	c #40230D",
"D 	c #522F14",
"E 	c #512E14",
"F 	c #613716",
"G 	c #4B2A11",
"H 	c #492910",
"I 	c #5F3516",
"J 	c #5E3515",
"K 	c #46270E",
"L 	c #2A1709",
"M 	c #583215",
"N 	c #5D3517",
"O 	c #653A17",
"P 	c #6B3D19",
"Q 	c #5E3617",
"R 	c #5B3415",
"S 	c #311A09",
"T 	c #512D12",
"U 	c #532F14",
"V 	c #583214",
"W 	c #673B18",
"X 	c #6C3E19",
"Y 	c #512E12",
"Z 	c #633918",
"` 	c #543013",
" .	c #71411A",
"..	c #6C3D19",
"+.	c #6E401B",
"@.	c #693D1A",
"#.	c #311B0A",
"$.	c #4A2A11",
"%.	c #452710",
"&.	c #442610",
"*.	c #6C3E1A",
"=.	c #623918",
"-.	c #613817",
";.	c #47270F",
">.	c #44270E",
",.	c #6D401B",
"'.	c #583316",
").	c #553115",
"!.	c #5A3316",
"~.	c #5B3416",
"{.	c #563113",
"].	c #4A2910",
"^.	c #5B3315",
"/.	c #583112",
"(.	c #5A3417",
"_.	c #4C3324",
":.	c #342A26",
"<.	c #3F2719",
"[.	c #633817",
"}.	c #6A3D18",
"|.	c #643A18",
"1.	c #5E3517",
"2.	c #4D2B12",
"3.	c #72421B",
"4.	c #693C18",
"5.	c #533013",
"6.	c #311B09",
"7.	c #482811",
"8.	c #673B19",
"9.	c #522E13",
"0.	c #331B0A",
"a.	c #693D1B",
"b.	c #6F411C",
"c.	c #573215",
"d.	c #532F12",
"e.	c #643A17",
"f.	c #593213",
"g.	c #58341B",
"h.	c #553A2C",
"i.	c #4F3C33",
"j.	c #493D37",
"k.	c #36312F",
"l.	c #281F1B",
"m.	c #4F2C13",
"n.	c #533014",
"o.	c #512D13",
"p.	c #77451C",
"q.	c #5C3415",
"r.	c #4B2A12",
"s.	c #573013",
"t.	c #603617",
"u.	c #4C2B12",
"v.	c #583314",
"w.	c #72431D",
"x.	c #663B19",
"y.	c #43250E",
"z.	c #4E2C12",
"A.	c #7B491F",
"B.	c #70411B",
"C.	c #653917",
"D.	c #583113",
"E.	c #4A2911",
"F.	c #4A290F",
"G.	c #573112",
"H.	c #58351C",
"I.	c #4B362C",
"J.	c #54443D",
"K.	c #4E423E",
"L.	c #3C3533",
"M.	c #353131",
"N.	c #302D2C",
"O.	c #1F1F1F",
"P.	c #3C2413",
"Q.	c #5F3515",
"R.	c #683C18",
"S.	c #482911",
"T.	c #78461D",
"U.	c #5A3214",
"V.	c #6D3E19",
"W.	c #563012",
"X.	c #543113",
"Y.	c #3B1F0A",
"Z.	c #4B2B12",
"`.	c #321B0A",
" +	c #683D1B",
".+	c #663A18",
"++	c #563114",
"@+	c #73441E",
"#+	c #73431C",
"$+	c #663A17",
"%+	c #4B2A10",
"&+	c #452C1F",
"*+	c #4F3B31",
"=+	c #53423B",
"-+	c #453C39",
";+	c #3F3936",
">+	c #3D3A39",
",+	c #413E3D",
"'+	c #282625",
")+	c #2F2C2C",
"!+	c #292827",
"~+	c #281C17",
"{+	c #693C17",
"]+	c #70421B",
"^+	c #5A3215",
"/+	c #40240E",
"(+	c #4D2B11",
"_+	c #5D3616",
":+	c #512E13",
"<+	c #4C2C12",
"[+	c #79481F",
"}+	c #5F3517",
"|+	c #3F230D",
"1+	c #533113",
"2+	c #75451D",
"3+	c #563623",
"4+	c #544139",
"5+	c #514743",
"6+	c #49423F",
"7+	c #3D3836",
"8+	c #333130",
"9+	c #312D2C",
"0+	c #373533",
"a+	c #454242",
"b+	c #1F1E1D",
"c+	c #2D2B29",
"d+	c #2D2A29",
"e+	c #1C1B1A",
"f+	c #412511",
"g+	c #683B17",
"h+	c #6D3E1A",
"i+	c #673A18",
"j+	c #462810",
"k+	c #563014",
"l+	c #502E13",
"m+	c #593215",
"n+	c #573115",
"o+	c #5F3615",
"p+	c #361E0A",
"q+	c #6D401C",
"r+	c #683B18",
"s+	c #603715",
"t+	c #613D26",
"u+	c #5E4436",
"v+	c #53443D",
"w+	c #48403D",
"x+	c #3D3937",
"y+	c #383534",
"z+	c #33312F",
"A+	c #302C2C",
"B+	c #2E2B2A",
"C+	c #272423",
"D+	c #211E1D",
"E+	c #2A2423",
"F+	c #2A201C",
"G+	c #261810",
"H+	c #2C190A",
"I+	c #573113",
"J+	c #5E3616",
"K+	c #653A18",
"L+	c #573214",
"M+	c #432610",
"N+	c #5C3315",
"O+	c #5A3314",
"P+	c #5F3717",
"Q+	c #542F12",
"R+	c #4F2D12",
"S+	c #72431E",
"T+	c #3D2008",
"U+	c #4B2C15",
"V+	c #61402C",
"W+	c #544036",
"X+	c #52423B",
"Y+	c #463B37",
"Z+	c #393431",
"`+	c #312F2E",
" @	c #32302E",
".@	c #312E2C",
"+@	c #2F2C2B",
"@@	c #2E2A29",
"#@	c #28211F",
"$@	c #221812",
"%@	c #301E12",
"&@	c #432712",
"*@	c #2E1909",
"=@	c #4E2C11",
"-@	c #6B3D18",
";@	c #492911",
">@	c #6B3C17",
",@	c #47280F",
"'@	c #593314",
")@	c #683B19",
"!@	c #71411B",
"~@	c #3A200B",
"{@	c #603615",
"]@	c #5D361B",
"^@	c #533D31",
"/@	c #473F3C",
"(@	c #574943",
"_@	c #433B38",
":@	c #383431",
"<@	c #444242",
"[@	c #484645",
"}@	c #2D2B2A",
"|@	c #33302E",
"1@	c #312C2B",
"2@	c #2C2523",
"3@	c #2C201A",
"4@	c #3B2414",
"5@	c #402510",
"6@	c #44260E",
"7@	c #391F0A",
"8@	c #693B17",
"9@	c #623716",
"0@	c #563013",
"a@	c #5A3416",
"b@	c #6B3E1A",
"c@	c #553112",
"d@	c #543014",
"e@	c #5B3516",
"f@	c #71431E",
"g@	c #6B3D17",
"h@	c #62391C",
"i@	c #5C4030",
"j@	c #5D4940",
"k@	c #574C48",
"l@	c #433D3D",
"m@	c #383433",
"n@	c #312F2D",
"o@	c #2F2C2A",
"p@	c #393735",
"q@	c #3E3B3B",
"r@	c #221F1F",
"s@	c #2C2928",
"t@	c #2B2523",
"u@	c #281D17",
"v@	c #3C2412",
"w@	c #502E14",
"x@	c #502C11",
"y@	c #6C3D18",
"z@	c #623717",
"A@	c #5A3415",
"B@	c #4B2B10",
"C@	c #381F0A",
"D@	c #71421C",
"E@	c #462C1B",
"F@	c #5B3D2E",
"G@	c #5A4439",
"H@	c #4F423D",
"I@	c #433C39",
"J@	c #3B3736",
"K@	c #383533",
"L@	c #35312F",
"M@	c #2E2B29",
"N@	c #282525",
"O@	c #201B1B",
"P@	c #29201D",
"Q@	c #322118",
"R@	c #382112",
"S@	c #3C210E",
"T@	c #4C2B10",
"U@	c #673C18",
"V@	c #381E0A",
"W@	c #563115",
"X@	c #6C3D1A",
"Y@	c #3F220B",
"Z@	c #563722",
"`@	c #624637",
" #	c #473D3A",
".#	c #3B3431",
"+#	c #353231",
"@#	c #312E2D",
"##	c #34312F",
"$#	c #322F2E",
"%#	c #322D2B",
"&#	c #2B211D",
"*#	c #311F13",
"=#	c #3B2312",
"-#	c #4D2C11",
";#	c #2C1708",
">#	c #70401B",
",#	c #6E401A",
"'#	c #482910",
")#	c #673A17",
"!#	c #593316",
"~#	c #6F401B",
"{#	c #593112",
"]#	c #543523",
"^#	c #543E35",
"/#	c #4F4643",
"(#	c #51453F",
"_#	c #3C3735",
":#	c #33302F",
"<#	c #4F4B4A",
"[#	c #484544",
"}#	c #2C2828",
"|#	c #2E2C2A",
"1#	c #2A2726",
"2#	c #2F241E",
"3#	c #362418",
"4#	c #422613",
"5#	c #391F0B",
"6#	c #3B200B",
"7#	c #75431B",
"8#	c #532E12",
"9#	c #3B210C",
"0#	c #492811",
"a#	c #653915",
"b#	c #503526",
"c#	c #564035",
"d#	c #51433D",
"e#	c #463D39",
"f#	c #3F3B39",
"g#	c #393635",
"h#	c #383535",
"i#	c #373434",
"j#	c #232120",
"k#	c #332F2D",
"l#	c #2F2A27",
"m#	c #2C211C",
"n#	c #221711",
"o#	c #452812",
"p#	c #6B3D1A",
"q#	c #44260F",
"r#	c #46280F",
"s#	c #2F1909",
"t#	c #623917",
"u#	c #583213",
"v#	c #673A19",
"w#	c #4A2912",
"x#	c #3A1F0B",
"y#	c #4B2A0E",
"z#	c #663C1C",
"A#	c #644431",
"B#	c #604B42",
"C#	c #524642",
"D#	c #423A38",
"E#	c #373331",
"F#	c #343130",
"G#	c #272422",
"H#	c #231C19",
"I#	c #2E221B",
"J#	c #382316",
"K#	c #462812",
"L#	c #45260E",
"M#	c #3D220C",
"N#	c #70421C",
"O#	c #6C3E1B",
"P#	c #5B3414",
"Q#	c #381F0B",
"R#	c #3C210C",
"S#	c #633816",
"T#	c #543114",
"U#	c #49280F",
"V#	c #583115",
"W#	c #603614",
"X#	c #573319",
"Y#	c #4D372C",
"Z#	c #5C4A43",
"`#	c #5F514B",
" $	c #4B4341",
".$	c #3C3837",
"+$	c #3D3A3A",
"@$	c #363231",
"#$	c #302C2A",
"$$	c #2E2826",
"%$	c #2E211A",
"&$	c #3E2514",
"*$	c #4F2D15",
"=$	c #583114",
"-$	c #663C19",
";$	c #6E411C",
">$	c #673C19",
",$	c #6A3E1A",
"'$	c #4A2A10",
")$	c #512D11",
"!$	c #41240D",
"~$	c #5E3514",
"{$	c #613A1E",
"]$	c #5C4132",
"^$	c #57453D",
"/$	c #4D423D",
"($	c #443D3C",
"_$	c #3E3A39",
":$	c #464242",
"<$	c #444141",
"[$	c #2E2A28",
"}$	c #24201F",
"|$	c #342218",
"1$	c #382213",
"2$	c #4B2B13",
"3$	c #653918",
"4$	c #522D12",
"5$	c #4A2B11",
"6$	c #794820",
"7$	c #4C2B11",
"8$	c #542F13",
"9$	c #673B17",
"0$	c #4F2C11",
"a$	c #55341E",
"b$	c #563F33",
"c$	c #5C4A42",
"d$	c #544843",
"e$	c #423C39",
"f$	c #393533",
"g$	c #2E2C2B",
"h$	c #23201F",
"i$	c #2F2A28",
"j$	c #332A25",
"k$	c #352418",
"l$	c #28180E",
"m$	c #6E421C",
"n$	c #48280F",
"o$	c #3E220D",
"p$	c #3F220C",
"q$	c #533523",
"r$	c #4C3C35",
"s$	c #53453E",
"t$	c #4B423D",
"u$	c #3E3936",
"v$	c #312E2E",
"w$	c #322F2D",
"x$	c #35302E",
"y$	c #2B2524",
"z$	c #241B16",
"A$	c #2F1F15",
"B$	c #442815",
"C$	c #3F240D",
"D$	c #6A3E1B",
"E$	c #73431D",
"F$	c #533012",
"G$	c #5D3415",
"H$	c #3F3028",
"I$	c #504642",
"J$	c #4C4442",
"K$	c #3D3939",
"L$	c #535050",
"M$	c #302D2D",
"N$	c #2C2929",
"O$	c #2F2927",
"P$	c #322721",
"Q$	c #352217",
"R$	c #432713",
"S$	c #4A2B12",
"T$	c #76451C",
"U$	c #3F230C",
"V$	c #653C1A",
"W$	c #6B3E1B",
"X$	c #77461E",
"Y$	c #6E3F1B",
"Z$	c #553113",
"`$	c #3F240E",
" %	c #341C0A",
".%	c #422C1F",
"+%	c #393432",
"@%	c #3A3736",
"#%	c #484545",
"$%	c #302A28",
"%%	c #2A211D",
"&%	c #2F1E13",
"*%	c #533117",
"=%	c #7C4920",
"-%	c #74431C",
";%	c #42240E",
">%	c #522F12",
",%	c #7A481F",
"'%	c #683A18",
")%	c #5C3414",
"!%	c #4A2B13",
"~%	c #332823",
"{%	c #201E1D",
"]%	c #27211E",
"^%	c #2F231C",
"/%	c #382315",
"(%	c #422612",
"_%	c #42250E",
":%	c #3C200B",
"<%	c #75451F",
"[%	c #78461E",
"}%	c #73441D",
"|%	c #46270F",
"1%	c #4F2D14",
"2%	c #392417",
"3%	c #2D2724",
"4%	c #251A14",
"5%	c #362012",
"6%	c #4F2C14",
"7%	c #7E4A21",
"8%	c #70401A",
"9%	c #6A3C18",
"0%	c #653A19",
"a%	c #603818",
"b%	c #5D381D",
"c%	c #473228",
"d%	c #382A23",
"e%	c #4A2A14",
"f%	c #2C1808",
"g%	c #6D3F19",
"h%	c #2D231E",
"i%	c #26221F",
"j%	c #2B1F19",
"k%	c #392314",
"l%	c #442812",
"m%	c #5D3617",
"n%	c #4C2C11",
"o%	c #78471F",
"p%	c #351D0A",
"q%	c #653B1A",
"r%	c #4F3424",
"s%	c #524845",
"t%	c #4A4646",
"u%	c #302E2F",
"v%	c #322017",
"w%	c #3D2411",
"x%	c #381F0C",
"y%	c #3D210B",
"z%	c #693D18",
"A%	c #392111",
"B%	c #27170D",
"C%	c #422611",
"D%	c #6C3F1B",
"E%	c #6A3D1A",
"F%	c #4A280E",
"G%	c #593416",
"H%	c #77461F",
"I%	c #4E3323",
"J%	c #413E3F",
"K%	c #4F4B4B",
"L%	c #231F1E",
"M%	c #332C29",
"N%	c #2D1F19",
"O%	c #22160E",
"P%	c #643916",
"Q%	c #72431C",
"R%	c #4F311B",
"S%	c #332E2D",
"T%	c #1E1B1B",
"U%	c #302E2E",
"V%	c #39200D",
"W%	c #623816",
"X%	c #391F0C",
"Y%	c #5A3516",
"Z%	c #693E1B",
"`%	c #573213",
" &	c #683A17",
".&	c #3E2C22",
"+&	c #1A1410",
"@&	c #20130C",
"#&	c #241E1B",
"$&	c #221B19",
"%&	c #512C11",
"&&	c #361D0B",
"*&	c #371F0A",
"=&	c #502C12",
"-&	c #75441E",
";&	c #6D3E1B",
">&	c #352C29",
",&	c #3A3837",
"'&	c #1D1612",
")&	c #381F0D",
"!&	c #3D230D",
"~&	c #2F1A0B",
"{&	c #282626",
"]&	c #311A0A",
"^&	c #3F230E",
"/&	c #75451E",
"(&	c #6E3F19",
"_&	c #673C1A",
":&	c #76461F",
"<&	c #3C2414",
"[&	c #2E2B2B",
"}&	c #25150A",
"|&	c #40281A",
"1&	c #3C3635",
"2&	c #241F1E",
"3&	c #1E1007",
"4&	c #693B18",
"5&	c #512F12",
"6&	c #3C220C",
"7&	c #76461E",
"8&	c #72421C",
"9&	c #45270F",
"0&	c #342C29",
"a&	c #393535",
"b&	c #22140C",
"c&	c #40240F",
"d&	c #4F2F19",
"e&	c #40322C",
"f&	c #251B16",
"g&	c #241306",
"h&	c #331C0A",
"i&	c #653B19",
"j&	c #76441C",
"k&	c #6D3D19",
"l&	c #311F17",
"m&	c #393433",
"n&	c #342F2E",
"o&	c #342925",
"p&	c #48352C",
"q&	c #4A423F",
"r&	c #423F3E",
"s&	c #2C1B0E",
"t&	c #3B200D",
"u&	c #2C1707",
"v&	c #74421B",
"w&	c #613917",
"x&	c #422511",
"y&	c #2B1E18",
"z&	c #2A2524",
"A&	c #333030",
"B&	c #363535",
"C&	c #373535",
"D&	c #2E1F17",
"E&	c #41240F",
"F&	c #482810",
"G&	c #371D0B",
"H&	c #71421A",
"I&	c #6F3F1A",
"J&	c #3E230E",
"K&	c #2E1B0C",
"L&	c #332117",
"M&	c #35241B",
"N&	c #36241B",
"O&	c #351F10",
"P&	c #4F2D11",
"Q&	c #583315",
"R&	c #7C481F",
"S&	c #5B3314",
"T&	c #2D1808",
"U&	c #44250E",
"V&	c #653B18",
"W&	c #341D0B",
"X&	c #71421D",
"Y&	c #77451D",
"Z&	c #4C2A11",
"`&	c #543012",
" *	c #7E4A20",
".*	c #6F3E19",
"+*	c #4B2B11",
"@*	c #45260F",
"#*	c #553012",
"$*	c #77451B",
"%*	c #663A19",
"&*	c #563112",
"**	c #281507",
"=*	c #71401B",
"-*	c #74451E",
";*	c #3E220E",
">*	c #653916",
",*	c #281F1A",
"'*	c #3F2513",
")*	c #5A3213",
"!*	c #351C0A",
"~*	c #4B2910",
"{*	c #603516",
"]*	c #563522",
"^*	c #523C32",
"/*	c #423834",
"(*	c #2F2B29",
"_*	c #2E1F16",
":*	c #71401A",
"<*	c #3C200C",
"[*	c #522D11",
"}*	c #6E411B",
"|*	c #4B2A0F",
"1*	c #5B3312",
"2*	c #523421",
"3*	c #4B372C",
"4*	c #443935",
"5*	c #413835",
"6*	c #332F2E",
"7*	c #302C2B",
"8*	c #1F1C1B",
"9*	c #452712",
"0*	c #3D220E",
"a*	c #492A11",
"b*	c #643817",
"c*	c #462814",
"d*	c #4A3124",
"e*	c #513C33",
"f*	c #393230",
"g*	c #252423",
"h*	c #311F14",
"i*	c #76431C",
"j*	c #613918",
"k*	c #643816",
"l*	c #4F2F18",
"m*	c #55392B",
"n*	c #493B35",
"o*	c #423937",
"p*	c #3D3534",
"q*	c #393736",
"r*	c #211F1E",
"s*	c #1F1A17",
"t*	c #2C1809",
"u*	c #60381B",
"v*	c #5C3B27",
"w*	c #4E3D35",
"x*	c #3A3532",
"y*	c #353130",
"z*	c #2C2A29",
"A*	c #272424",
"B*	c #292626",
"C*	c #242120",
"D*	c #2C221E",
"E*	c #1D120C",
"F*	c #371E0B",
"G*	c #76441D",
"H*	c #603A20",
"I*	c #4F372B",
"J*	c #483730",
"K*	c #3E322D",
"L*	c #36302E",
"M*	c #34302F",
"N*	c #251F1D",
"O*	c #271B13",
"P*	c #361E0C",
"Q*	c #6B3C18",
"R*	c #663918",
"S*	c #76451E",
"T*	c #4E3120",
"U*	c #42342D",
"V*	c #55443D",
"W*	c #413935",
"X*	c #312824",
"Y*	c #30221B",
"Z*	c #311C0F",
"`*	c #5C3514",
" =	c #6E3E18",
".=	c #4F311F",
"+=	c #4B382F",
"@=	c #4F423E",
"#=	c #3A3535",
"$=	c #393532",
"%=	c #3E3B3A",
"&=	c #3B3837",
"*=	c #22201F",
"==	c #373231",
"-=	c #291E17",
";=	c #3F2411",
">=	c #42240F",
",=	c #3A1F0D",
"'=	c #2D1809",
")=	c #492810",
"!=	c #46280E",
"~=	c #44270F",
"{=	c #5B3417",
"]=	c #633D24",
"^=	c #51392D",
"/=	c #423632",
"(=	c #3B3532",
"_=	c #2B2826",
":=	c #241F1F",
"<=	c #302621",
"[=	c #35241A",
"}=	c #311C0E",
"|=	c #603515",
"1=	c #2F190A",
"2=	c #3D210D",
"3=	c #351B07",
"4=	c #60381A",
"5=	c #603E2A",
"6=	c #523E36",
"7=	c #493A35",
"8=	c #39312D",
"9=	c #312C2C",
"0=	c #312C2A",
"a=	c #2C221C",
"b=	c #321F12",
"c=	c #3D2310",
"d=	c #42250F",
"e=	c #613617",
"f=	c #4E2B11",
"g=	c #5D371B",
"h=	c #483227",
"i=	c #443732",
"j=	c #4D3E38",
"k=	c #3F3835",
"l=	c #434040",
"m=	c #3B3938",
"n=	c #2F2B2A",
"o=	c #2C2826",
"p=	c #35271F",
"q=	c #322015",
"r=	c #402410",
"s=	c #5B3316",
"t=	c #5B361D",
"u=	c #5A3E30",
"v=	c #503F38",
"w=	c #463C38",
"x=	c #423B39",
"y=	c #3A3635",
"z=	c #2C2A28",
"A=	c #211F1F",
"B=	c #332D2B",
"C=	c #1F140E",
"D=	c #4B2C12",
"E=	c #462710",
"F=	c #3C210D",
"G=	c #643B1F",
"H=	c #523829",
"I=	c #4F4039",
"J=	c #493E3B",
"K=	c #3B3635",
"L=	c #292726",
"M=	c #261F1B",
"N=	c #31231B",
"O=	c #382113",
"P=	c #3A1F0C",
"Q=	c #492A10",
"R=	c #422A1B",
"S=	c #543B2D",
"T=	c #4F3D34",
"U=	c #403531",
"V=	c #322E2D",
"W=	c #312927",
"X=	c #2F1F17",
"Y=	c #3D2311",
"Z=	c #70421D",
"`=	c #492912",
" -	c #683C17",
".-	c #5E3513",
"+-	c #583925",
"@-	c #533D35",
"#-	c #443937",
"$-	c #3C3532",
"%-	c #3F3C3B",
"&-	c #3E3C3C",
"*-	c #2A2727",
"=-	c #2E2724",
"--	c #3E291C",
";-	c #44250F",
">-	c #3D230F",
",-	c #72411A",
"'-	c #613818",
")-	c #5F3D29",
"!-	c #503F37",
"~-	c #4C413D",
"{-	c #453D3A",
"]-	c #383332",
"^-	c #363332",
"/-	c #2D2B2B",
"(-	c #242221",
"_-	c #322B27",
":-	c #2C1F17",
"<-	c #1F1209",
"[-	c #5C3617",
"}-	c #6A3D1B",
"|-	c #3B210D",
"1-	c #73421A",
"2-	c #3B200C",
"3-	c #371E09",
"4-	c #4A2B16",
"5-	c #4E3528",
"6-	c #544037",
"7-	c #403936",
"8-	c #34302E",
"9-	c #282422",
"0-	c #342115",
"a-	c #3A210E",
"b-	c #2E190A",
"c-	c #452610",
"d-	c #573014",
"e-	c #34261F",
"f-	c #443A37",
"g-	c #443C3A",
"h-	c #3D3635",
"i-	c #413D3E",
"j-	c #312C29",
"k-	c #352923",
"l-	c #342013",
"m-	c #432611",
"n-	c #74441D",
"o-	c #422510",
"p-	c #3B2921",
"q-	c #312D2D",
"r-	c #464343",
"s-	c #252322",
"t-	c #331F12",
"u-	c #462811",
"v-	c #462914",
"w-	c #2D2623",
"x-	c #201F1E",
"y-	c #2C2522",
"z-	c #33251E",
"A-	c #351F12",
"B-	c #3D230E",
"C-	c #38200B",
"D-	c #241206",
"E-	c #2F2724",
"F-	c #2A1B12",
"G-	c #392110",
"H-	c #412510",
"I-	c #5C3314",
"J-	c #412614",
"K-	c #2A2422",
"L-	c #312219",
"M-	c #3E2411",
"N-	c #452811",
"O-	c #231206",
"P-	c #2F1C10",
"Q-	c #28170B",
"R-	c #5F3718",
"S-	c #482912",
"T-	c #6C3F1A",
"U-	c #351D0B",
"V-	c #3F240F",
"W-	c #3D240F",
"X-	c #43260F",
"Y-	c #221206",
"Z-	c #351D0C",
"`-	c #281608",
" ;	c #683D19",
".;	c #40250F",
"+;	c #3E230F",
"@;	c #3B210E",
"#;	c #39200E",
"$;	c #3C220E",
"%;	c #1F1105",
"  . + @ # $ % & * = - ; > , * ' ) ! ~ { ] ^ / ( _ : < [ } | 1 2 3 4 ~ 5 6 7 8 7 9 - 0 a b c 4 ! d e f g h i j k l m n o p q r l ",
"b s t } u v w # x y z A < o 0 ! % ! B { ~ f C p ] D : E D | F G H l u I | I a J K L < M N c O n n P Q P R S T U V W n ] N X ! Y ",
"Z + c `  ...+.@.H o #.$.%.&.` u *.=.-.0 | e ;.>.,.'.).!.D ~.l {.].8 n J ^.8 /.(._.:.<.f [.@ t }.W P p |.! G 3 @ j ~ n % 1.j 8 2.",
"@ u o ' 3.4 4.[.5.` 6.o 7.%.| 3.8.N W ~ 9.l c 0.a.b.b 1.j c.-.V H d.e.f.d.g.h.i.j.k.l.m.6 l l 4.w # n.o.@ @ 9.] @ g 4.p.q.o 8 r.",
"V X s.] 3.8 t.@ R ` - c u.o v.w.-.t 4.F j W x.y.z.A.B.-.; | C.D.E.F.G.H.I.J.K.L.M.N.O.P.Q.n R.r u w k S.k 5 {.# 4 I 4 T.U.t V.W.",
"@ % e a s X.B I x.E.Y.e Z.0 `. +) u .+t @ Q + ++0.@+#+l f ! $+/.%+&+*+=+-+;+>+,+'+)+!+~+9.{+u ]+u n l j , j z.4 l } g q ^+l  .R ",
"W n | c e o 4 a +./+(+_+k :+/+<+[+u m W $+}+-.c |+1+2+[.g $+l 3+4+5+6+7+8+9+0+a+b+c+d+e+f+g g+w @..+h+i+c o j+k+l l+; P m+q. .R ",
"% l n+t.M d.n | m o+4.5 c.}+a p+q+m l r+4.r+@ $.o 0.@.s+p t+u+v+w+x+y+z+A+B+C+'+D+E+F+G+H+I+g J+K+.+n n l V 9.c s L+M+c }+0 r q.",
"P N+++~ ^ O+e.(+P+| g ` a l n Q+R+S+q.O }.*.# V 7 T+U+V+W+X+Y+Z+`+ @.@+@A+)+@@#@$@%@&@j+*@=@q.q.4 m W t.-@6 t [.n M ;@1 r+$.>@8 ",
"t t.-.M m ! ^ ,@'@~ c R+Y M )@!@~@@+Q 0 4 d .+{@]@^@/@(@_@:@<@[@}@A+|@.@1@2@3@4@5@j+++} 6@7@q.e W h+O ` l  .8@9@! 0@|.5 B.H [.t ",
"M l R a@b@u -.c@Y u R U z.d@-.!@0 e@f@;@o g@h@i@j@k@l@m@n@o@p@q@r@s@@@t@u@v@w@c c Y ~.~ d.S x@I 4.d u c T 3.y@z@B O+B.[.3.z.f {@",
"0 , o c r+*.-.A@B@u r+| c ++! ! ] C@D@X.E@F@G@H@I@J@K@L@o@9+M@N@O@P@Q@R@S@T@U@n -.v.e ~ c |+V@O+d h+l Q+2 w d -.}+N+V..+% W@~ q.",
"R+u.Z.j r+X@~ n+o R % 4.# } [.R J Y@Z@`@H@ #.#+#@###$#$#)+9+%#&#*#=#).{.-#=@b B.K+c.~ 4 O+].;#(+>#!@e o 2 m+s t ~ 7 l .+,#p r 7 ",
"'#S.&.0 )#!@r+!#0 =@~#~#4.q.{#f ]#^#/#(#_#:#<#[#}#9+.@|#1#2#3#4#d@j e l '@-#@ D@n 9.-.4.e E.5#6#$+7#t f o 8#g e -.| 8 8.~ ).s f ",
"9#u.0#2.a d .+5 j H B % a#N b#c#d#e#f#g#:#}#h#i#j#k#l#m#n#o#p V ~ # a@! e (+d.n p#c V r+l q#r#s#d.% P i+I 1 q.d.t#K+u#v#, w#' ~ ",
"x#o R+o h -.R.c.-.; y#z#A#B#C#D#E#F#m@K@F#B+B+G#H#I#J#K#L#M#N#K+@.O#1.5 e T H P#W f ++B {+0 7.Q#R#^ 4.n d V S#3 @ P t J+u.x T#! ",
"K U#V#z.5.` n | W#X#Y#Z#`# $.$+$}@N.@$+#N.#$$$%$&$*$W@=$8 7@-$;$>$,$4 .+l f '$)$! c a l ^ t o q#;#3 B K+,#4 ^ -.T n *.f g %.j | ",
"E.!$R z.0 j ~${$]$^$/$($_$+#:$<$s@c++#[$}$|$1$2$' |.3$t.t 4$5$6$P+>$~ +.8.5 1 %+7$; j O Y ! a o `.K ! 5 ~ 4.++u 8$9$r ! S#9.:+7$",
"5.9#0$3 K a$b$c$d$e$f$##|@A+F#g$h$i$j$k$l$: a@f @.B.u ~ I t Q#m$a.x.3$W s c R z.n$V @ ~ z.++4 f > 6.l * ` g {.~ -.I -@l J R 2 q#",
"l o$p$q$r$s$t$u$+#v$N..@w$A+x$y$z$A$B$p c C$D$~.~ % d C.t.1.n$< E$!@d g h+c ++F$-#J ..t.E.< @ e 0 #.)$a z.0 ^ ^.l R B C.g G$_ j ",
"R.< H$I$J$7+K$L$M$N$}@@#9+O$P$Q$R$S$++}.T$U$V$W$| 4.3.X@~ j 0 #.@.X$Y$[.C.@ < 5.'#Z$s 4.5.u.T {.j `$ %8 ^.< ~ [.| A@^ 8 9@` z@[.",
"b B .%+%@%$#9+#%N$'+@#$%%%&%*%n+~.c m+4.. ] R+=%P t#-%Y$-.c c ;%>%,%h+'%3$# ; o x 7$4 + .+' d.3 ` H *@0$C.8 a ~#! 0 C.^.)%0 =$l ",
"4.C.!%~%@#:#d+s@{%]%^%/%(%_%4 *.l 4 ~.l + v :%<%[%4.r v 4.I l e p+}%]+*.n h+r+c < |%++8.W p#@ 2.1%R+{ - l O J+% n ++l l 0 {.(+F ",
"*.l r.2%1#n@.@3%4%5%6%m+V F$Z$) l ,#' g l ..T W@7%8%l 9%h+$+4.r+,@X.D@+ r ..% l c G -#' 0%a%b%c%d%e%|%f%G.)#4 s s } J g%0 7 0 c ",
"4.R.o (%h%i%j%k%l%S.^ ..4 m%n%|.m ,.u ^.@ f l 5#o%-%| } R.r ..X@~ p%m%@.B.h+r 4.f 9.].c@q%r%s%t%u%v%w%x%y%C.l P W j I+z%! =$N+Q+",
"-.C.t.9.A%B%C%:+~.k e B.D%~ 5.z.x.E%% ' ~.e 4.F%G%H%@ u.c.!@V.h+*.n$j+@.% >#w ! Z$` H %+p I%J%K%M.L%M%N%O%G.P%..n * 9.q.X@N+9@8 ",
"4 a O -.E.#.|%R -.} ++K+Q%Q j L#m + d W e [.P a p%S+(.o <+l 8%w B.l - + % !@r+~.{.8 0 _%-#R%S%+$g$T%g$$#U%V%W%9$3.~ e g z%[.l C.",
"l e ! K+* { X%{.-.@ ` N D@|.o ].@ #+9$z%~ [...$+C Y%Z%l+n.++P [.>#B.!$`%% P  &e * n f > _%.&E#'+h$+&@&#&K$$&%&Q.8%P ! ..[.| C.l ",
"A@~ ! P @ H &&0$' 1.V 1.@.,.D c R+B.w )#l K+V.y@f.*&;$P+:+q.4.z@..h+=&9 -&;&l ! ~ w f 7.V%>&,&'&B%)&!&~&k.{&]&o g 3.g 8%t =&a 4 ",
"} 1.l % W 0 ^&C m+] A@~ ~ *.~ ] L+P+% $+C.l h+ .C.5#P+/&Z R (&e 9%s ^ C@_&:&# | m *.++< <&7+[&}&{ T j |&1&2&3&,@8#h+4&i+)@o 7$q.",
"! 1.C.~#B.Z.6@p%=&~ @ @ -.$+6 Z 4 5&% V.-.@ r+B.}.0$6&7&8&# n }+w !@W 3 9&,%>$c.# +.R 7$&@0&a&b&c&G.d&e&@$f&g&y%G.S#3.~ u 9.o 5 ",
"W ] }...% c.> h&;%} @ | l 3$# =.i&L+4 j&$+0 t Y$k&| - =.#+P 4.R l v i+t 7@D$;$~.~ X@m $.o l&m&n&o&p&q&r&s@s&t&u&d.l v&u l ^.c 4.",
"-.~ n d % + e ^& %o } l .+-.~ -.0%w&d.v r d.f P n ' Q+/+D@n -@I+t. .g+~ 4$,@D@# l C...Z$o x&y&z&A&B&C&1@D&E&F&#.= B 8%B.t ! q.4.",
"1 j @ h+3.3.B.1 G&;%j | 4.' L+@ w u d.B H&l f u ) X.g 7@|.3.-@8 | I&y@| [.V@@.8&n B ~ W 1 o J&K&L&M&N&O&;%o z.J&u&I+4 n ! l ~ | ",
"++9.;@B r % B.-.;%0.j+X..+~ 0 9.K+X 8 P&v (&i+P ,#Q&c I+n$R&(&z@l ..)#| 4 4$z.  I&W%d.n )#c ;@= Z.e@I+c S&^+o.j+T&U&O+@ l ..r+c ",
"4 o ;@d.r+*.u V&o 0.W&, J+4 3 o t.$+e =@9$ .-@ ...J+z.Y$M#X&Y&C.l k&[.J ! l z + >#)#c ^ ..g j |%R+u W L+q.l ' 2.{ u&Z&$.e d ,#@ ",
"i+b c.0 4.!@u b c J&*@0#R l _ c C.)#g Z$`&B.4.% n ' j m P#A  *P g .*C.l W l q#6@.+n t#` $+C.q.G +*4 B.[.0 | z%c |%;#5#@*#*l ..R.",
"~ h+*.++8 $*(&r [.2 ]&y.m+@ n.f X z%-.e@0$W Y$p## q.e ! 4.C@:&,.J y@l }+l 4.7 6.%*~#w q.f e z@Q+_%&*% h+@ c 4 4 G 5#**|%f.7 J 4.",
"p#W T$.+c =* .(&..R X%Q#j W@z.} d n R } * I+% W$a%n+^ 4.X )$c.-*L+d ^ j R 8@[.C Q&  h+.+e R+t I+;*U#9$% C.@ 0 >*0 <.,*'*)*g q.I ",
"!@W ~#% 4 C.!@g w R.].!*~*1 o X.-@s d@; M -#u +.] ++7 4 r v 5#W$a@4.g+I+3 ~ l 8$C@7&% u $+++m+| E._%G.P {*B Z.]*^*/*(*_*8#[.4&s.",
"I&l ~ *.w [.:*t.l P 1 5#<*3 h Y 9$p#n+o j < {.) *.P+j 7 z@!@[*5.}*l ..$+T :+f 5 9 @ D@i+}..+n+t V +*|*1*!.2*3*4*5*6*7*8*9*)%)#a ",
"P J+c ^ l l h+..~ 4 o 0*#.@*o j l u } a*5.j F.X j&u f N+e t.b*5#7&*.z%h+# : R+f d.5#X&u 4...! N+{.W.c*d*e*4*f*@#8+s@A+g*h*8#8 l ",
"V.4&j m+t -.w V.r+| : M+#.`.%.9.! *.K+A * e 3 a i*P ~ 4 }+1 t L#]   d m s * R f V 5#j*E$l 4.8@k*l*m*n*o*p*|@[&q*q@r*A+s@s*7.1 t.",
"z@q l t.[.W P X@n l m+n.0*t*;%++~ m ) O _ -.e o ~#X@[.6 )#t.++e M#  3.l +.l -.5 d.(+/+H%t Q.u*v*w*e#x*y*F#N.z*A*B*C*$%D*E*p%3 #*",
"c V.r >#W ~ W *.n r+-.! {.F*9#S&4 i+-@X ^ ! -.F$~ % g t g+P ++u U#4 G*! W !@9%C.T O+7@^ H*I*J*K*L*A+g$@#M*+@d+}#N*O*R@0*P***%+=@",
"* l Q*q d R V l 4.4&r+l R.|%#.4$z@R*t.[.k&4.# @ 0 ~#~ * e 4.l R.e.|+S*] @ r V.r+/.#*T*U*V*W*x$a&g#z*+@y*##c+X*Y*Z*S@j j j+`.5#Z&",
"m+8 q.w v C.q.^ t | X P w j !*{ I+z@[.O+d I&P 4 0 `*C.n.9.m+4.u l 7@a.b.M l  =5 .=+=@=#=$= @B+%=&=*=}@==$%-=;=2., E.=$q.o >=;#].",
"4.g c G$!@V.6 4 1.j l 3.W c.,='=)=f c 1 .+>#s 4.L+!=~ Z$T o g ....G.~=}%)%{=]=^=/=(=y*9+##9+o@_=A*:=<=[=}=p%=@! R 0 0@G$1 $.!*!$",
"P 9@o |=8%.. &r+W c R 7#-@f ;%1=2=` c j ~ *.*.P e ].| # z., f O ..! 3=4=5=6=7=8=9=9+9+9+@$A+N.0=a=b=c=9.z._%F.l ^ * 3 j f 0 d=s#",
"~ ^ o )# .e=b*! n -.I !@v&[.R+{ S f=q.=$@ ! u >#r+=&>%D@t.< * F P%g=h=i=j=k=@#l=m=B+n=.@|@o=p=q=r=j Y ^ a j (+8 l 0 j 7.f j ;@0.",
"++E.O+!@..s=N+c | ! ! n p.4.-.T 0.L#q.| c | $+V.s c ].u ~#a #*t=u=v=w=x=y=`+z=K$$#A=g$B=P$C=D=l+; t.' | 4.g '$>%e.l+:+$.o 0 E=0*",
"5 j+^.8%[.5 l ^.1 I | t.% + W X F=F*{.R 0 ^.l l z%! %+3 s G=H=I=J=x*$#f$K=@#c+L=C*M=N=O=&.P=Q=a.++t.l q.P z@7$'$_+p r.l+E=o E=J&",
"^.2 c n B m 4.$+g ! A@R+4 % 4 % 0$ %H {.+*j 4.J g W%0 R=S=T=U=x$8+}@g$9++#N.V=W=X=Y=z.j d@j  %Z=|.t ! f t $+T q#R+@ `=S$y 7.$.n%",
"0 u.f $+a P 5 ..y@k&-.;@` g+9$ -S&0*5#3 F&o 4..-n.+-@-#-$-x$9+%-&-*-n=@#7*=---w%x c $+# m+m+C Y%S*$+Q.M ^+W j ;-_%o , >->-` B ` ",
"n+c q.l c X =$i+,-v&z%* Z.a 9$g%~ 2 !*].(+%&'-)-!-~-{-]-9+7*+@^-/-(-0=_-:-<-[-~ c q.4.w | n+I+- }-W @ n+V =$o q#|-= u.++k+4.8#h ",
"! ^ C.-.j y@}.B 4.1-X ~ Y c [.!@n G 2-3-4-5-6-d#7-8-n@|@##w$9=|@9--=0-a-= b-T#w.~ n+l 4.^ V | |+} D@1.L+` < 7$%.> c-:+u D.-.o S&",
"g 7 >#I T n s m d-)#4.W%7 | l i+q d./+e-f-g-h-@$i-B+B+)+w$9+j-k-l-m-Y j o = p%H%@.j a i+| O+l d.6#n-# c r.o-;@G t e F V.1 7 j+)%",
")#h 7#g I+l X 3.<+^.F q.c l B.9$% l o p-`+:#q-$#r-s-}#9+i$%%t-< o M ~ t.7 o `.P+) j m+l I V [.c 0.m%>$o &.*@].u.F l k&d o d.u-q.",
"l =$v B ~ z.g%q %.=$I f c C.3.d P .+^ v-w-)+@#1#*-x-y-z-A-B-C$w&' ^ l l F J 8#5#D%U o 7 7 c ++r.;*C-~ 3 2 D-o 0 l v&4.3$&.j Z.a ",
"| ^+r @ ` E.z%,#++j $+q.d.C.% 4.4.^ ^ d@N&!+9+A+E-F-G-E.:+>%H A@+ F t.V Q.t i+!$'._&* o 8$1 u.H-G J&| j 7.D-{.I-[.3.e c @*o 8@q.",
"o ^.B.=$F&8#u t#R.H e.B Q+C.d [.' @ c N J-K-t@L-M-u-T ' ~ } o n%+ l a 1 c 5 ~ 5.9#D@@ z.2.G M N-++d=5 0 7.O-{.4.l s U.M |%z.6 q.",
"E=q.k&c 3 l -.< h+^&2.c 0 t V.! 4 Q&Y @ o P-Q-|%{.} j 4 4.g Y F&J+p#a j _ n+M 9.'=P+R-S-E=,@e u-n.d=9.%.x D-d.4.F ++=$c &.! B I ",
"E.q.9@| j }.' j+3$x%W&++$.c W l O ~ 0 j * ^&#.z.7 1 u.f 4..+5.7$-#T--.k U k+j , U-V-M j+F=;%d@W-S$X-3 &.E&Y-4$z%| 9.a } o-4.l =$",
"< q.U.R.} W e d=f Z-`-_ T o | l | 4.g f j E=2-,@M z.d=x ^ $+++R+n$w& ;0 z.9.;@.;+;>-z.o-Z-R#z.@;#;$;E./+a-%;0 l q.j l R d=! Z u."};
