/* XPM */
static char * rot6_xpm[] = {
"64 64 944 2",
"  	c #73421C",
". 	c #70411B",
"+ 	c #663B18",
"@ 	c #563114",
"# 	c #5D3516",
"$ 	c #73431B",
"% 	c #6A3D19",
"& 	c #6D3F1A",
"* 	c #4F2D12",
"= 	c #3C210D",
"- 	c #331B09",
"; 	c #4C2B11",
"> 	c #3F220E",
", 	c #452710",
"' 	c #593215",
") 	c #683C18",
"! 	c #5C3415",
"~ 	c #593314",
"{ 	c #391F0B",
"] 	c #5A3415",
"^ 	c #583214",
"/ 	c #593315",
"( 	c #4C2B12",
"_ 	c #4D2B12",
": 	c #542F14",
"< 	c #502C11",
"[ 	c #42250E",
"} 	c #49280F",
"| 	c #5B3414",
"1 	c #5C3414",
"2 	c #5C3314",
"3 	c #593214",
"4 	c #553012",
"5 	c #593213",
"6 	c #48280F",
"7 	c #281406",
"8 	c #502D11",
"9 	c #532F13",
"0 	c #663A17",
"a 	c #603716",
"b 	c #673B18",
"c 	c #5C3515",
"d 	c #603616",
"e 	c #3F230E",
"f 	c #221106",
"g 	c #4D2B11",
"h 	c #4B2A11",
"i 	c #5D3515",
"j 	c #613817",
"k 	c #633817",
"l 	c #492810",
"m 	c #6D3F19",
"n 	c #5E3515",
"o 	c #5B3314",
"p 	c #6C3E19",
"q 	c #623817",
"r 	c #5E3516",
"s 	c #42250F",
"t 	c #3F240E",
"u 	c #321B09",
"v 	c #4B2B11",
"w 	c #482810",
"x 	c #492911",
"y 	c #6A3D18",
"z 	c #563214",
"A 	c #492811",
"B 	c #563014",
"C 	c #5A3214",
"D 	c #4C2A11",
"E 	c #41250E",
"F 	c #542F12",
"G 	c #653918",
"H 	c #552F13",
"I 	c #573112",
"J 	c #35241B",
"K 	c #312118",
"L 	c #4F2C12",
"M 	c #603715",
"N 	c #613716",
"O 	c #613717",
"P 	c #5A3314",
"Q 	c #492910",
"R 	c #211105",
"S 	c #532F12",
"T 	c #633917",
"U 	c #573214",
"V 	c #653A17",
"W 	c #5C3516",
"X 	c #512E12",
"Y 	c #4F2C11",
"Z 	c #6A3C18",
"` 	c #653917",
" .	c #673C18",
"..	c #633818",
"+.	c #44260E",
"@.	c #2D1808",
"#.	c #45270F",
"$.	c #40240E",
"%.	c #653A18",
"&.	c #3F220C",
"*.	c #3F230D",
"=.	c #633918",
"-.	c #4A2A11",
";.	c #4E2C12",
">.	c #512E13",
",.	c #44250E",
"'.	c #5D3514",
").	c #562F12",
"!.	c #532E11",
"~.	c #4F301D",
"{.	c #4D382E",
"].	c #3F3531",
"^.	c #252121",
"/.	c #3D2412",
"(.	c #583113",
"_.	c #643917",
":.	c #543014",
"<.	c #432610",
"[.	c #201005",
"}.	c #573113",
"|.	c #4A2911",
"1.	c #6B3D18",
"2.	c #5C3514",
"3.	c #623816",
"4.	c #4E2C11",
"5.	c #2E1808",
"6.	c #43250F",
"7.	c #532E13",
"8.	c #502D12",
"9.	c #301908",
"0.	c #5A3515",
"a.	c #623918",
"b.	c #522E13",
"c.	c #4E2B11",
"d.	c #46280E",
"e.	c #563112",
"f.	c #4A280E",
"g.	c #4F301B",
"h.	c #533C32",
"i.	c #493C35",
"j.	c #3D3431",
"k.	c #322F2E",
"l.	c #262525",
"m.	c #241A14",
"n.	c #623715",
"o.	c #613816",
"p.	c #44260F",
"q.	c #46280F",
"r.	c #1E0F05",
"s.	c #4B2910",
"t.	c #5A3414",
"u.	c #70401A",
"v.	c #563013",
"w.	c #462710",
"x.	c #512C11",
"y.	c #6B3D19",
"z.	c #553013",
"A.	c #522E12",
"B.	c #472810",
"C.	c #563113",
"D.	c #673B17",
"E.	c #542F13",
"F.	c #45260E",
"G.	c #3A200B",
"H.	c #6D3F1B",
"I.	c #693C19",
"J.	c #603717",
"K.	c #4C2A10",
"L.	c #43250E",
"M.	c #48280D",
"N.	c #553217",
"O.	c #4C3528",
"P.	c #483B35",
"Q.	c #463C39",
"R.	c #383232",
"S.	c #2D2B2A",
"T.	c #2C2928",
"U.	c #2A2827",
"V.	c #1E1D1D",
"W.	c #351F12",
"X.	c #633816",
"Y.	c #673C19",
"Z.	c #271507",
"`.	c #70421B",
" +	c #573114",
".+	c #4F2D11",
"++	c #45260F",
"@+	c #371D09",
"#+	c #613715",
"$+	c #331B0A",
"%+	c #593415",
"&+	c #73441D",
"*+	c #4E2B0F",
"=+	c #432510",
"-+	c #432F25",
";+	c #4C3C35",
">+	c #473C37",
",+	c #373230",
"'+	c #322F2D",
")+	c #454242",
"!+	c #3B3838",
"~+	c #201E1D",
"{+	c #2B2928",
"]+	c #272524",
"^+	c #1E1714",
"/+	c #472811",
"(+	c #603615",
"_+	c #603817",
":+	c #663A18",
"<+	c #47280F",
"[+	c #5F3616",
"}+	c #3A200D",
"|+	c #6A3F1B",
"1+	c #5F3515",
"2+	c #4A2910",
"3+	c #331C0A",
"4+	c #6E421C",
"5+	c #4E3120",
"6+	c #4F3F37",
"7+	c #4A423F",
"8+	c #3F3A38",
"9+	c #33302F",
"0+	c #2A2726",
"a+	c #2B2827",
"b+	c #1F1D1C",
"c+	c #2A2524",
"d+	c #251E1B",
"e+	c #1E130D",
"f+	c #321B0B",
"g+	c #5F3615",
"h+	c #4B2A10",
"i+	c #40230E",
"j+	c #2C1808",
"k+	c #613818",
"l+	c #6C3F1B",
"m+	c #381E0B",
"n+	c #6A3E1A",
"o+	c #593212",
"p+	c #5D381B",
"q+	c #583D2E",
"r+	c #4E403A",
"s+	c #423C38",
"t+	c #373332",
"u+	c #2E2B2A",
"v+	c #211E1C",
"w+	c #1D1613",
"x+	c #281B13",
"y+	c #3B2110",
"z+	c #291607",
"A+	c #5F3516",
"B+	c #512D12",
"C+	c #683B18",
"D+	c #613615",
"E+	c #573213",
"F+	c #522F12",
"G+	c #643817",
"H+	c #562F13",
"I+	c #5A3315",
"J+	c #42240E",
"K+	c #70421D",
"L+	c #46270F",
"M+	c #2F1908",
"N+	c #5A3313",
"O+	c #593418",
"P+	c #523728",
"Q+	c #533F35",
"R+	c #36312F",
"S+	c #2E2B2B",
"T+	c #2F2C2B",
"U+	c #2E2B29",
"V+	c #2C2A28",
"W+	c #282321",
"X+	c #2B1D15",
"Y+	c #311C0E",
"Z+	c #3E230E",
"`+	c #331B08",
" @	c #552F12",
".@	c #6B3E19",
"+@	c #653916",
"@@	c #643815",
"#@	c #5B3415",
"$@	c #633A17",
"%@	c #3B200B",
"&@	c #673C1A",
"*@	c #633916",
"=@	c #552F11",
"-@	c #3F220D",
";@	c #3F2C22",
">@	c #59443A",
",@	c #473C38",
"'@	c #3B3432",
")@	c #413F3E",
"!@	c #2B2828",
"~@	c #2B2725",
"{@	c #291E19",
"]@	c #362112",
"^@	c #693C18",
"/@	c #5E3616",
"(@	c #6D401C",
"_@	c #5A3213",
":@	c #593621",
"<@	c #55433B",
"[@	c #45403E",
"}@	c #413A38",
"|@	c #332F2E",
"1@	c #383535",
"2@	c #413E3E",
"3@	c #211E1E",
"4@	c #282525",
"5@	c #2B2625",
"6@	c #261F1C",
"7@	c #271911",
"8@	c #3C220F",
"9@	c #2B1707",
"0@	c #583114",
"a@	c #522F13",
"b@	c #6C3F1A",
"c@	c #4A290F",
"d@	c #6D401B",
"e@	c #633814",
"f@	c #5D361A",
"g@	c #563C2F",
"h@	c #54443D",
"i@	c #4B423E",
"j@	c #3C3736",
"k@	c #312E2D",
"l@	c #2D2A28",
"m@	c #2A2725",
"n@	c #282625",
"o@	c #1E1A19",
"p@	c #241C1A",
"q@	c #301F15",
"r@	c #3B2111",
"s@	c #3C210E",
"t@	c #603816",
"u@	c #311A09",
"v@	c #6F3F1A",
"w@	c #502E13",
"x@	c #522F11",
"y@	c #47280E",
"z@	c #6A3E1B",
"A@	c #563213",
"B@	c #402511",
"C@	c #503526",
"D@	c #553F34",
"E@	c #493C37",
"F@	c #3A3432",
"G@	c #32302F",
"H@	c #302D2B",
"I@	c #2D2A29",
"J@	c #302C2B",
"K@	c #292321",
"L@	c #291B13",
"M@	c #341E11",
"N@	c #2B1607",
"O@	c #45260D",
"P@	c #623F28",
"Q@	c #453C38",
"R@	c #39322F",
"S@	c #353232",
"T@	c #2C2A29",
"U@	c #2A2523",
"V@	c #2D221D",
"W@	c #342014",
"X@	c #462811",
"Y@	c #341C0A",
"Z@	c #563012",
"`@	c #5E3615",
" #	c #4F2D13",
".#	c #482811",
"+#	c #532F14",
"@#	c #4F2C10",
"##	c #53321C",
"$#	c #413732",
"%#	c #54463F",
"&#	c #423A37",
"*#	c #393636",
"=#	c #514D4D",
"-#	c #2B2929",
";#	c #2F2B2B",
">#	c #241E1C",
",#	c #261911",
"'#	c #4C2C14",
")#	c #5E3514",
"!#	c #2A1608",
"~#	c #643918",
"{#	c #452610",
"]#	c #4F2B0F",
"^#	c #533017",
"/#	c #4F382B",
"(#	c #4E3F38",
"_#	c #433C38",
":#	c #3C3836",
"<#	c #232121",
"[#	c #272322",
"}#	c #2D2623",
"|#	c #2B1E16",
"1#	c #382010",
"2#	c #281508",
"3#	c #643A18",
"4#	c #46270E",
"5#	c #391F0C",
"6#	c #4F2B11",
"7#	c #663B17",
"8#	c #462810",
"9#	c #653915",
"0#	c #5B3416",
"a#	c #53382A",
"b#	c #4D3E38",
"c#	c #453B36",
"d#	c #393332",
"e#	c #353230",
"f#	c #201A18",
"g#	c #291C14",
"h#	c #392214",
"i#	c #48270E",
"j#	c #3E220D",
"k#	c #603818",
"l#	c #633A18",
"m#	c #49280E",
"n#	c #2B1708",
"o#	c #48280E",
"p#	c #5E3414",
"q#	c #4C2B0F",
"r#	c #613E28",
"s#	c #5D493F",
"t#	c #534642",
"u#	c #3C3534",
"v#	c #302E2E",
"w#	c #2A2828",
"x#	c #332F2F",
"y#	c #2C2826",
"z#	c #2A211D",
"A#	c #352014",
"B#	c #4B2B13",
"C#	c #553014",
"D#	c #5D3717",
"E#	c #6C3F1C",
"F#	c #5A3212",
"G#	c #4E2F1A",
"H#	c #493932",
"I#	c #574944",
"J#	c #4D4440",
"K#	c #383533",
"L#	c #3F3C3C",
"M#	c #252322",
"N#	c #2D2B29",
"O#	c #302D2C",
"P#	c #292625",
"Q#	c #241E1B",
"R#	c #3A2111",
"S#	c #381F0B",
"T#	c #6E411C",
"U#	c #5D3617",
"V#	c #543013",
"W#	c #4A2A10",
"X#	c #301A09",
"Y#	c #41240C",
"Z#	c #583213",
"`#	c #563C2E",
" $	c #4F4039",
".$	c #393534",
"+$	c #353231",
"@$	c #3C3838",
"#$	c #312E2E",
"$$	c #2E2B28",
"%$	c #2F2825",
"&$	c #2E1F17",
"*$	c #21140B",
"=$	c #3C200B",
"-$	c #512F13",
";$	c #6B3F1B",
">$	c #522D11",
",$	c #3C210B",
"'$	c #533727",
")$	c #58443B",
"!$	c #4F433F",
"~$	c #3C3635",
"{$	c #2F2B2A",
"]$	c #2C2828",
"^$	c #262323",
"/$	c #1E1816",
"($	c #281E18",
"_$	c #3A2314",
":$	c #3C210C",
"<$	c #643B19",
"[$	c #351D0B",
"}$	c #381E0A",
"|$	c #371E0B",
"1$	c #44250D",
"2$	c #4D2B10",
"3$	c #422B1E",
"4$	c #503D34",
"5$	c #4C413C",
"6$	c #403835",
"7$	c #302B28",
"8$	c #2A201B",
"9$	c #311E11",
"0$	c #3F2411",
"a$	c #4E2B12",
"b$	c #6F401A",
"c$	c #5B3516",
"d$	c #6A3D1A",
"e$	c #72431C",
"f$	c #41240E",
"g$	c #422815",
"h$	c #4A2A12",
"i$	c #382112",
"j$	c #4D3B32",
"k$	c #4C423F",
"l$	c #423B38",
"m$	c #383433",
"n$	c #474444",
"o$	c #2F2C2C",
"p$	c #2D2928",
"q$	c #28211E",
"r$	c #362318",
"s$	c #422612",
"t$	c #3D210C",
"u$	c #74441E",
"v$	c #47270F",
"w$	c #583216",
"x$	c #58361F",
"y$	c #473731",
"z$	c #322D2B",
"A$	c #362217",
"B$	c #381E0C",
"C$	c #321B08",
"D$	c #3C2A21",
"E$	c #413B38",
"F$	c #3F3938",
"G$	c #494545",
"H$	c #312F2E",
"I$	c #21201F",
"J$	c #2B2523",
"K$	c #291E18",
"L$	c #2E1B0F",
"M$	c #533014",
"N$	c #6E3F1A",
"O$	c #75451E",
"P$	c #683C19",
"Q$	c #53321D",
"R$	c #4C4949",
"S$	c #221E1D",
"T$	c #291D17",
"U$	c #342116",
"V$	c #1E1007",
"W$	c #603514",
"X$	c #462813",
"Y$	c #332825",
"Z$	c #2F2D2D",
"`$	c #222120",
" %	c #211D1A",
".%	c #2B1F1A",
"+%	c #362113",
"@%	c #432611",
"#%	c #71421D",
"$%	c #70401B",
"%%	c #56341B",
"&%	c #342C29",
"*%	c #484444",
"=%	c #393635",
"-%	c #231811",
";%	c #382315",
">%	c #282523",
",%	c #2D2827",
"'%	c #221B18",
")%	c #2A1A11",
"!%	c #442611",
"~%	c #47270E",
"{%	c #502F12",
"]%	c #74441D",
"^%	c #42240D",
"/%	c #4C2B13",
"(%	c #382921",
"_%	c #2F2D2C",
":%	c #1F1C1C",
"<%	c #161210",
"[%	c #1D1816",
"}%	c #2B292A",
"|%	c #361D0B",
"1%	c #3D220F",
"2%	c #2F211B",
"3%	c #262524",
"4%	c #282320",
"5%	c #2A1D16",
"6%	c #502E12",
"7%	c #5F3717",
"8%	c #5F3514",
"9%	c #663C19",
"0%	c #49290F",
"a%	c #3B200C",
"b%	c #3D2411",
"c%	c #3C3431",
"d%	c #1E1B19",
"e%	c #1C140F",
"f%	c #2A180A",
"g%	c #2D1809",
"h%	c #251D19",
"i%	c #363232",
"j%	c #1B1512",
"k%	c #3C2211",
"l%	c #211711",
"m%	c #2D1B0E",
"n%	c #412510",
"o%	c #4C2C12",
"p%	c #3E220E",
"q%	c #301C0E",
"r%	c #363231",
"s%	c #211208",
"t%	c #361E0C",
"u%	c #45270E",
"v%	c #35251D",
"w%	c #191513",
"x%	c #4A2810",
"y%	c #341C0B",
"z%	c #341B09",
"A%	c #5A3516",
"B%	c #492A11",
"C%	c #5D3414",
"D%	c #70421C",
"E%	c #342218",
"F%	c #24201F",
"G%	c #291507",
"H%	c #522E11",
"I%	c #382B25",
"J%	c #21140E",
"K%	c #201105",
"L%	c #41230C",
"M%	c #2F1A09",
"N%	c #6B3F1A",
"O%	c #6B3E1A",
"P%	c #351D0A",
"Q%	c #663917",
"R%	c #6F411C",
"S%	c #312A28",
"T%	c #251A14",
"U%	c #361F0F",
"V%	c #4F2F1C",
"W%	c #473933",
"X%	c #3E3B39",
"Y%	c #2B180C",
"Z%	c #351C0A",
"`%	c #5F3614",
" &	c #6D3F18",
".&	c #623818",
"+&	c #4B2B10",
"@&	c #361E0A",
"#&	c #2D1D14",
"$&	c #322F2F",
"%&	c #322D2C",
"&&	c #3B3635",
"*&	c #3A3838",
"=&	c #281D18",
"-&	c #512E11",
";&	c #683C1A",
">&	c #6C3D18",
",&	c #41240F",
"'&	c #2B1B11",
")&	c #211B18",
"!&	c #2B2524",
"~&	c #292524",
"{&	c #2D2522",
"]&	c #261406",
"^&	c #623716",
"/&	c #4E2D11",
"(&	c #42250D",
"_&	c #643916",
":&	c #653B18",
"<&	c #38210F",
"[&	c #462814",
"}&	c #301A08",
"|&	c #3D210E",
"1&	c #3E210D",
"2&	c #5E3617",
"3&	c #653816",
"4&	c #71421C",
"5&	c #553114",
"6&	c #3E220C",
"7&	c #341C09",
"8&	c #6C3E1A",
"9&	c #271406",
"0&	c #3E210C",
"a&	c #40230C",
"b&	c #73431C",
"c&	c #251407",
"d&	c #331D0C",
"e&	c #4E2B10",
"f&	c #44250F",
"g&	c #2F1909",
"h&	c #3A200C",
"i&	c #633815",
"j&	c #72431D",
"k&	c #633716",
"l&	c #653817",
"m&	c #422919",
"n&	c #332722",
"o&	c #251D18",
"p&	c #452711",
"q&	c #291608",
"r&	c #73451E",
"s&	c #6E401B",
"t&	c #432814",
"u&	c #53382B",
"v&	c #443833",
"w&	c #352F2E",
"x&	c #321E11",
"y&	c #361E0B",
"z&	c #4F2E12",
"A&	c #72421C",
"B&	c #5C3413",
"C&	c #4F2C13",
"D&	c #4E3221",
"E&	c #41332D",
"F&	c #332E2C",
"G&	c #1E1917",
"H&	c #422510",
"I&	c #573212",
"J&	c #4D301E",
"K&	c #4B372F",
"L&	c #3E3430",
"M&	c #212020",
"N&	c #2D1C12",
"O&	c #6B3E18",
"P&	c #40230D",
"Q&	c #4F2F1B",
"R&	c #42322B",
"S&	c #403633",
"T&	c #3A3230",
"U&	c #1E1C1B",
"V&	c #18120F",
"W&	c #6E401A",
"X&	c #321A08",
"Y&	c #512D11",
"Z&	c #603614",
"`&	c #5C3518",
" *	c #4A3429",
".*	c #493B35",
"+*	c #3C3532",
"@*	c #232120",
"#*	c #222020",
"$*	c #231F1D",
"%*	c #2C221E",
"&*	c #2B1A10",
"**	c #261408",
"=*	c #2A1607",
"-*	c #361D0A",
";*	c #502C12",
">*	c #40240D",
",*	c #6F411B",
"'*	c #53331F",
")*	c #4C352B",
"!*	c #403531",
"~*	c #332F2D",
"{*	c #292525",
"]*	c #241D1A",
"^*	c #28180E",
"/*	c #3A1F0B",
"(*	c #6B3D17",
"_*	c #381F0C",
":*	c #2B1808",
"<*	c #6D3E19",
"[*	c #361D09",
"}*	c #5B3822",
"|*	c #47352C",
"1*	c #3E322E",
"2*	c #2D2A2A",
"3*	c #2C2522",
"4*	c #301B0D",
"5*	c #3B210E",
"6*	c #3C200D",
"7*	c #301B0A",
"8*	c #3D210D",
"9*	c #5D3415",
"0*	c #4C2B10",
"a*	c #4C2E1A",
"b*	c #382D29",
"c*	c #4D3F38",
"d*	c #3C3432",
"e*	c #413D3D",
"f*	c #252221",
"g*	c #2F2B29",
"h*	c #261E1A",
"i*	c #361E0F",
"j*	c #321B0A",
"k*	c #6A3E19",
"l*	c #4F2D14",
"m*	c #473024",
"n*	c #4C3D38",
"o*	c #3A3533",
"p*	c #1E1D1C",
"q*	c #282423",
"r*	c #312621",
"s*	c #2B1B12",
"t*	c #2C1809",
"u*	c #41240D",
"v*	c #5C3315",
"w*	c #643818",
"x*	c #563520",
"y*	c #43332B",
"z*	c #3B322F",
"A*	c #2B2826",
"B*	c #272422",
"C*	c #231B16",
"D*	c #2C1C12",
"E*	c #341B0A",
"F*	c #351C09",
"G*	c #52321E",
"H*	c #4F382C",
"I*	c #45352F",
"J*	c #332C2A",
"K*	c #2E2A29",
"L*	c #2E2825",
"M*	c #2D2018",
"N*	c #3A210F",
"O*	c #522D12",
"P*	c #4B290E",
"Q*	c #362012",
"R*	c #593B2A",
"S*	c #4C3E37",
"T*	c #302B2B",
"U*	c #3A3737",
"V*	c #2D211A",
"W*	c #392211",
"X*	c #3D220E",
"Y*	c #5B3515",
"Z*	c #2E1809",
"`*	c #2F1808",
" =	c #603617",
".=	c #593417",
"+=	c #403734",
"@=	c #37312F",
"#=	c #433F3F",
"$=	c #22201F",
"%=	c #302723",
"&=	c #2A1B12",
"*=	c #281507",
"==	c #593416",
"-=	c #4E2D12",
";=	c #6E3F19",
">=	c #512F11",
",=	c #553624",
"'=	c #4F3C35",
")=	c #433835",
"!=	c #383231",
"~=	c #3C3735",
"{=	c #272523",
"]=	c #271E1A",
"^=	c #2F1F16",
"/=	c #3A210E",
"(=	c #3F240F",
"_=	c #39200D",
":=	c #59351B",
"<=	c #4B352A",
"[=	c #34302F",
"}=	c #2B1B13",
"|=	c #3C210F",
"1=	c #6C401B",
"2=	c #3E210E",
"3=	c #422814",
"4=	c #563928",
"5=	c #4A3830",
"6=	c #39302D",
"7=	c #33261F",
"8=	c #331E11",
"9=	c #532E12",
"0=	c #3F230C",
"a=	c #4B3225",
"b=	c #3F3430",
"c=	c #3C3330",
"d=	c #332D2B",
"e=	c #3C3938",
"f=	c #373535",
"g=	c #242121",
"h=	c #282220",
"i=	c #4F2F14",
"j=	c #4C3121",
"k=	c #4D3C35",
"l=	c #363230",
"m=	c #2D2119",
"n=	c #211106",
"o=	c #663916",
"p=	c #4B290F",
"q=	c #59351D",
"r=	c #573F32",
"s=	c #483D38",
"t=	c #3C3533",
"u=	c #312E2C",
"v=	c #27221F",
"w=	c #2A1B13",
"x=	c #351E0B",
"y=	c #6D3E18",
"z=	c #553113",
"A=	c #321B07",
"B=	c #442714",
"C=	c #473228",
"D=	c #4B3C35",
"E=	c #423835",
"F=	c #342F2E",
"G=	c #322621",
"H=	c #3D220C",
"I=	c #4E2C10",
"J=	c #603515",
"K=	c #302018",
"L=	c #3F3836",
"M=	c #35302F",
"N=	c #292320",
"O=	c #41250F",
"P=	c #3B2518",
"Q=	c #2E2928",
"R=	c #262424",
"S=	c #2D1F18",
"T=	c #331D0D",
"U=	c #512F12",
"V=	c #633A19",
"W=	c #391E0B",
"X=	c #32231B",
"Y=	c #201B19",
"Z=	c #281B14",
"`=	c #361F10",
" -	c #43260F",
".-	c #2F1A08",
"+-	c #5E3716",
"@-	c #3F2512",
"#-	c #2F241F",
"$-	c #3B210C",
"%-	c #643A19",
"&-	c #322018",
"*-	c #231E1D",
"=-	c #2B1C14",
"--	c #261407",
";-	c #482910",
">-	c #271407",
",-	c #25150A",
"'-	c #3D220D",
")-	c #39210E",
"!-	c #452811",
"~-	c #1F1005",
"{-	c #4A2811",
"]-	c #311B0B",
"^-	c #371E0D",
"/-	c #351E0C",
"(-	c #381F0D",
"_-	c #1D0F05",
"  . + @ # $ % & * = - ; > , * ' ) ! ~ { ] ^ / ( _ : @ < [ } | 1 @ 2 3 4 5 6 7 [ 8 ^ 9 ^ 0 a b c d d 9 e [ f g h i j k l @ m ) n ",
"a + o 9 k p q r s t u v w x h ! y ! ~ { ~ z v v A ( B C D E F G i H 3 4 I _ J K L ! ^ ^ M N O P * 3 ~ 3 Q R D _ S a T ] U V 1 ; ",
"W + X Y Z `  ...+.l @.#.$.e Y k %.W ~ &.*.=.* -.;._ >.1 3 ,.g q '.S ).!.~.{.].^./.(.N c N _.q :.<.x 9 3 D [.; @ g P k y ^ g }.w ",
"@ k |.3 1.2.3.! 4.Y 5.x 6.$.^ 1.j 7.3 8.9.0.a.z ^ b.c.3 3 } d.e.2.f.g.h.i.j.k.l.m.x n.o.V  .q j D p.-.4.q.r.s.t.@ C 3.u.v.x }.w.",
"S V x.] y.}.3 @ z.Y - A.B.l C.D.N X E.i F.G.H.I.J.9 g P o K.L.M.N.O.P.Q.R.S.T.U.V.W.v.X.T Y.d %.N v.D B.[ Z.} r c 3 2.`.F o 0 < ",
"@ y  +C.+ .+P 3 J.++@+ +B.E.E.i #+v.Y + U $+%+&+` 3 8.d 1 *+=+-+;+>+,+'+)+!+~+{+]+^+/+1 (+a _+J.:+k U ; D F.<+[+i 9 3 m E.i Z z.",
"a k ^ X U x c C. .}+{ z.B.|+a j 1+3 9 # ..2+3+4+I.2.~ M 1 5+6+7+8+9+S.0+a+S.b+c+d+e+f+F U U r a o.g+X.2 3 o h+^ n v ; _.9 v.Z z.",
"y n >.3 9 g T ^ + = i+Q j+k+l+k o.a 1+^ ^ c.m+; n+3 o+p+q+r+s+t+k.u+T.a+]+v+w+x+y+e z+h+v.B A+k n B+X.C+D+2 E+A. .F+e A.3 h ) v.",
"G+H+8.I+3 S + P q >.; L J+E K+i a N X.N @ L+K.M+N+O+P+Q+P.R+S+T+U+{+V+a+W+X+Y+Z+Y F+*.`+ @^ N  .3.B+8..@+@2 C A.+ 9 p.Y N #.@@}.",
"o 3 #@8.n ^ $@a N E.E.! i %@/ &@3 M *@%.[+v.=@-@;@>@,@'@!+)@!@T.T+U+~@{@]@/+g l : P Y 9.,.}.X.:+k S [ N ^@! 3  @U Y /@B ^@+.1 o ",
"9 N '.#.9 g ~ ^ 3 c.F P k M m+(@z Y 2.b (+_@:@<@[@}@|@V+1@2@3@4@5@6@7@8@U 2.P F+@ ~ F J+9@g :+^@c g J+Y ) ! ~ v.B+S ^@1 1.l E.5 ",
"S X.E+* 0@[ X ~ a@v -.L c b@c@z d@w.B.e@f@g@h@i@j@k@l@T.m@n@o@p@q@r@s@+.c ) t@E.U c  +2+u@m+i v@1 B+l l 3 ^ ~ #@A.}.0 d y w@P v.",
"/ [+j q | x@y@q ^ * -.; 3 J.a - z@A@B@C@D@E@F@G@k.H@I@T.J@K@L@M@( C..+<+S % + 9 z.3.n l i+N@Y y  .1 3 D v.c.C.a P F N d  .z ) S ",
"X a@r b # ^ 6 t.G o U Y | 3 #@O@+.P@;+Q@R@S@S+l@T+{+T@U@V@W@X@b.* (+o D h _+I.~ ; n X.; $.m+Y@@ b 3.:+3 Z@(.2+a G S `@J.P  #+ E.",
".#D o %.r +#g c@ .:+q 3 v.3 @###$#%#&#'+*#=#-#0+;#~@>#,#'#* E.J.U ^ 3 8 +.8 q ! Y C.)#'.6.6.!#L.3 1+~# .A.N c.C.) a C..., {#3 ~ ",
"++, ^ ^@k ^ L L+3 b@_.n ]#^#/#(#_#:#k.!@n@S@<#[#}#|#1#2#~ 3#r %._+B 3  +w 4#v.n c.n (.'.v.|.5#@.S | ~ k ~ U a 6#7#` 3 a B.s * ! ",
"[ E A.X.) P 9 8#6 + 9#0#a#b#c#d#k.e#9+S.a+a+f#g#h#/+8 i#j#l+k#l#j c k P S } m#8.x @ P ; i z.w n#o#c 4.H 1 g d }.1 #+p#^ P $.g ^ ",
"A #.; 9 :+U @ z.6 q#r#s#t#u#v#w#J@x#'+{+y#z#A#B#C#3  +o m+D#E#/ J.o % c z.8.+.F.9 z.^ #.E.! 9 e @.o .+l .+ +B 1 v.3 )#5 }.; ; <+",
"Y |.D ; ~ o. +F#G#H#I#J#K#L#L#M#N#O#P#Q#W@R#L a k d 3 o S S#T#U#q 1+N V Y V#W#6 1 k @ L.x 9 C.-.X#Y#Z#8.B.c 1 U E.~ H 5 s.X [ e ",
"o#9 w L 4.)#O+`# $Q@.$+$T+@$#$<#$$%$&$*$w@C# +k y k 3 ^ 3 =$-$;$% :+3 G+b.; 4.#.S ) N 4.l D Y g *.z+8 i F  +) c -.g+^ >$c.h+L c.",
",$F 6 o#L '$)$!$~$x#T+{$]${$^$/$($_$+#g :$<$@ ^ ) Z G+! L 2+M+l#. b n i 3 B.-.[ l i + N c .+D c.Q [$}$)#(+U ^@:+9 3 k l F+w Z@1 ",
"|$1$2$3$4$5$6$x#S+{+U+{$T.7$8$9$0$a$3.b$&.c$d$| i m :+/ .+Y -@q.e$+ 3.a k P g .#f$* J.O k 1 X@g$h$[ z+@#M 2.T ) C#F 0 ^ 8  @Y 1 ",
"j#i$j$k$l$m$n$o$n@U.u+p$q$r$s$;.4.A.a b$T t$u$% n ^@p q ^ 1 3 - =.H.:++ _.Z 1 8.#.v$z.J.w$x$y$z$A$e B$C$'.'.X.k a@h 3 %.E.3 Z@Z#",
"S D$E$F$k.T+G$H$I$u+J$K$L$M$[+#@P E.c G N$F.c$O$) a Z :+n (+q Y :$P$%.) 0 ) :+U Y ++h+c Q$l$R$1@S$T$U$V$4#'.(+) U 4.X N (+3 W$5 ",
"a X$Y$Z$J@U.n@`$ %.%+%@%#.g % g+_.1 ^ i 3.c [$#%$%1+3 a ) G+%.j :$q./@) ^@_.G+z..+l L..+%%&%*%=%<#n@k.;#-% @'.) %. +i n (+1 N 1 ",
"N Y ;%>%T+T+,%'%)%!%B @ C.6 c =.k  .v.U F+r ~%{%]%q -.-$` Z ` :+| M+' I.Z :+! X S B+f$^%/%(%v#_%:%<%[%9+}%|% @)#p 1 X.k H S g+2.",
"k Y 1%2%3%4%5%R#Z+6%k %.] 9 6 7%J.% J.C#H i 8%u 9%3#.#A X 1.k :+^@0%<+% ^@0 1 L P 1+x a%b%c%{+d%e%f%g%h%i%j%t$Y N C+2 ^@9 ++8.'.",
"o.| x k%l%m%n%8.X c.`@& /@@ L..++ G  .3 3 N X.o#E ;$o%;..#g+N d y.g+M+a P$X.'.3 ~ q c.p%q%r%[#s%t%u%#.v%k.w%7 } 8 Z )#N r w x%3 ",
"3 g+P g y%u h 3 ~ * 9 %.P$+#B.u%Y.:+X.(+~ d 0 1 z%A%k# #B%| (+C%b a J+L.D%+ o 1 k a ; , E%j@F%G%L.H%B.I%;#J%K%L%>$#+y 1 d D 9 a ",
"| ^ [+c p.M%[ @ ] 9 .+#@N%^ x Q @ O%n 3.i N D.+@Y P%z@=.* )#X.^ Q%0 ^ - a.R%c H q + c.w y+S%x#T%U%V%W%X%4@Y%Z%N@Y `% &_.1 3 z._.",
"i U i [+* :$Z%Y P @ E./ .&3#>.^ +&=.:+(+n n + Z i @&9 D%+ c T ^ G Z d 6#:$D%_+a@! + r #.x #&{$$&%&&&*&k@=&s@[ 5.%@3 V ) o 1 3 1 ",
"C#3 n ^@^ B.[$J+B P V#~ ~ G+i W U -&& _.P v.N ^@X.c.M+;&b@k N z.n >&d 1 =$U |+#@c d %.8 2+,&'&)&!&~&{&X+m+w x = ]&2$C g+i ^&(+9 ",
"C#^ 1+y.3#B.-@u ; P @ @ ! 1+1+W 7%/&a & (+|.3 :+` o (&q.N%k _&F+^ ^@X.3  +u :& .k | ~ 3.B+; e 3+<&[&, s.< S g L.}&z%6#4.^ :+b ^ ",
"i 3 (+` y.; |&X#1&9 @ ~ n # # c 2&t.g .@^@-&-&k %.V#3 u 7%% 3&3 v.0 0 3 # ~%; 4&) )#c.a X.C.l *.u%i g+v. @C%o h e ]&t$[ g (+) T ",
"o.#@X.0 y =.9 a%M+q.9 1 N I+U ^ [+q .+C.y X.E.o.y 5&A.Y 6&4&Z '.! ` (+3 U n 7&3#8&3.v.A.Q%1+9 #.F.P  .n |.v.N 3 L+Z%9&0&K. @P N ",
"3 @ r + % 8&) z.|%|$h S N ! 8.c.i + 2.d.0 y ^&` + i L+q a&J.b&X.3 0 (+C c N w :$/@_.g+8 3 g+2 < [ g + ^@3 A.v.X.c.&.c&d&e&5 H H ",
"E.x ; 3 Z % % a f&g&h&w 3 [+8 #.B N 1 ; S p i&^@b n g 3 3.S#j&p o k&l&1 g+3.^ - g P$~#c 9 9 o }.J+0&5 1.k 3 ; Z#I m&n&o&p&5 1+3 ",
"[+l w <+(+%.+ j 9 5#q&= * 2.z.|.@ d 1 z.} a :+:++ o B 9 :+F.z r&^ 1+k&@ @ (+#+K.P%s&d$k ! A.g 1 l 5#0%X.X.3 Z@t&u&v&w&`$x&< '.^&",
"+ S ; .#@ ^@G+a P #.5.y&g P U c.c _.1+^ z&c.^@%.k+U v.1 k 2.P%(@W c ` S h  +#+3 m+z A&:+3.n g 3 v.<+[ e&B&C&D&E&j.F&V+P#G&H&F n ",
"1 d %.6%c.Z 1.+ _.E.|$M+l E.* ; c Z '.:.:.h+c % .&M$X P _.m I&u%9%F+:+1+Y g @ 3 Y C$P$:+N G+n E.(.S } J+J&K&L&z$$&S.P#T.M&N&D S ",
"c #@.@` S C v@7#^@j h u %@< a$w ^ Z g+; * 6%0%+ + %+-$Y 3 ^&O&{ W 3#d _.N 8., 8.B P&q.l+a X.` i F *+Q&R&S&T&;#U.1@G@U&T@[#V&-@g ",
"V G k W&k v.C+0 2 k n -@X&6 6#x -&_.k ; -.g #.S y ) c Y H+ +(+ @t$#%G X.+ [+v X E.Y&9.l#% n N Z&`& *.*+*|@O#T.P#@*#*$*%*&***=*2+",
"0 y n %. .d )#Z B N k 2+Z%-*2+; 4.N a 6%, * Y F.:+v@3. +P  +;*1 ,$W b&b [+ .9 3 E.Y ,.>*,*3 B '*)*!*~*T.u+H@!@0+{*]*^*p%p.= G%/*",
"2 (*P v.A+(+1+C+X.| P w _*:*h&++c.i %.c Q * ^ Y H%<*k ! 1+n @ X ^ @&. p n %.:+#+c h+S [*z.}*|*1*S%2*w#a+H@H@a+3*&$4*5*Y S w 6*G%",
"B+0 0@c.z.o 1 q :+N ^ ; s 7*!#8*g I+k ) (+L #@~ 2+q ) 1 9*n.T 6%j 0*6%. 1 P Z :+3. @]#a*b*c*d*{$=%e*f*n@'+g*h*i*Q h ++Y 0@6##.j*",
"* )#)#A.E.o n k G T g+C#9 [ 5.|$A.o A+0 0 | ! c S 4.k*| 9 3 X.a c 7#- Y.3#9 1+Z o l*m*n*o*'+T+a+T._%p*q*r*s*t*u*C ~ 4.Y B+H D J+",
"9 }.v.v*w*g+'.N %.~#3.i c c e @.g 1 d ! 3 0 G+a | h+P k * ; 9 d k 3.4#q.#%U H k x*y*z*w&N#H@{$T.A*B*C*D*H&B.e P&Z@(+.+L #.S X w ",
"3.3 A.v.p b 3 S | o.N X.1+_.X E*|$Y&C n S 3.Z :+3.C.+.o E.D h S 3.0 Z&F*W q G*H*I*J*K*I@T.J@;#0+L*M*N*p.X ^ * 6 2$(+F+h A w.b.++",
"_.2 2+5 p m X.E.}.o  +n ) k ^ j#!#-@O*C.4.^ b b 0 | 4#; /@h w.g | k 3.P*Q*R*S*c%T*U*S.a+!@H@m@V*W*X** 3 9 1+d Y u%z.Y*, g s l w.",
"P 3 x%(+m p ) (+2.! B+8.Z b P #.Z*`*l S g 9 a ~#:+q Y&4#.. =g .#B B&.=C@j.+=@=I@k@#=$=M#p$%=&=*===-=9 i 3 o ` S L.W#| * /+/+[ w ",
"8.++F Z ` [+^@X.(+k ~ 8.a ;=(+c.8*j+,$Y&v.A.3 c 0 ^@! <+>=& /@6#A.,='=)=!=~=$&V+{=]+U&]=^=/=B.u a@<$E.1 o 9 N P L+$.W#F+(=(=_=<+",
"B [ H ^@1 : [+1 )#n k 3 n ;=Z o 8 %@M+D 3 E.S C a _.V Y +.g++ :=<=E@+*;#I@[=x#V+u+J$}=|=h * 8.; - 1=~#'.^ 7.0@[+|.2=t$B.=+X*| P ",
"H [ X k P j X 9 v.S 3 P ! G b$n ~#S g&1&E.S Q 3 i 1 M 3 O@3=4=5=6={$H$4@{+{+;#y#7=8=E F d W 9 E.t$.+n+n v.b.S 9=l > [$0=w 1 1.Z#",
"h B.E.(+C._.; b.C 9=Y&C z.^ I.%.o. .t$}&2+Y p.X X.v.=@w$a=b=c=d=S+e=f=g=p$;#h=,#i=a@*  +X.3.U >.S }&r 3#@ F+Y w v$$.J+#@< #+i Y ",
"b.A.v.n A.V A.D 0 )#o c 9 B.3 b )#X.Y |%{ ; L.h n.(.j=k=,@l=I@!@]$k.n@3@}#m=4*n=z P$3 a@'.X.3 S 3 u%[ H.c 9=l Z+h+f$; a 9 3.g g ",
"1 3 1+| g +@X.z.^ ` o=0 2.8#h 1 M _&3 J+u@F.6 p=q=r=s=t=|@u=T+{$T.T+v=w=U%f$p.B$x=D%~#Y 4 (+C S 8%F M+W 3#g s L+C%B.; q !.| l  @",
"C S ^@3 D k + q p.1+Z y=` z=8#A.'.Z X.w m+A=B=C=D=E=F=T.a+V+;#u+,%G=x&s X E.Y #.j+z l+Y X 1 3 9=^ B+t$Z%] H=h+<+1  +o 0 Y S [ Z@",
"(+g m C >$)#V 1.E I=J=Z 0 2.X S P q m .+j#K=c%L=M=O#n$S+]+T@T.N=L@X@v 9 | c 3 S c@}&=.C#.#Y S A.L 6.i+{ [ R F.B.o )#Q%b 2+c.O=v.",
"n 9=p P P l 7#m e a%2+o n.'.9=3 T (+^@T g P=Q=u+u+P#$&R=$=%$S=T=|$U=[+^ ! 1 C o '.} [ V=9 x D c.B.$.8.; [ R l h )#y=X.A+e g 8#C.",
"^ E.) @ Y ++3. .6%[$W=X 3 }.B+3 ) y X._.| v X=4@u+!@]+Y=Z=`= --.Q u%+ (+3 9 A.^ P ! .-+-.&; B.L+h p%^ c.6.R 8 ).1 1. +A.i+|.n.v.",
"|.H ^@9=L.g q c o.-@Y@9 3 Z#< 5 ) ^@X.d C.^ @-q$U.]$#-x&5*8.^ B .++.z + 3 S c.A.E.E.8*$-%-B%a@s 8.p%B h 6.[.8 3.n + F 9 f$l W$v.",
"f$v.Q%A.; n #@.#:+a%!#K.g+)#Y&F 0 _.3 c .+U ;.&-*-=-s@g ; C.a (+S w u%q a S D O*;*L f$--v ;-U s ;.p%; $.s R g 3.o 8.9=A.e 1 P 3 ",
"++v.2 ^ c.X.3 [ A+y%>-l  +i E.H%0 X.3 ~ 4.4.U (=,-[$; H 8 g 2._.3 h F..++ U /+a$D  -'-'-m+t$L )-!-e ; e s@~-K.X.0@; C.9 p%3.i 9=",
"w v.F o.9 a U p%E.f+c&s {-8.h h 1 k 1 N 9 x X |.m+$+g A., e g n i g Q +./@c w B.A Z+w X*]-m+A ^-/-(-++= t%_-h+n v.c.n z.p%1 W B."};
