/* XPM */
static char * rot7_xpm[] = {
"64 64 997 2",
"  	c #6F3F1B",
". 	c #6C3E1A",
"+ 	c #623917",
"@ 	c #532F13",
"# 	c #593315",
"$ 	c #6F401A",
"% 	c #663A18",
"& 	c #693C19",
"* 	c #4C2B11",
"= 	c #3A1F0C",
"- 	c #311A08",
"; 	c #492910",
"> 	c #3C200D",
", 	c #42250F",
"' 	c #563014",
") 	c #643A17",
"! 	c #583214",
"~ 	c #563113",
"{ 	c #381E0A",
"] 	c #563114",
"^ 	c #543014",
"/ 	c #4D2B12",
"( 	c #4C2A11",
"_ 	c #4A2910",
": 	c #522E11",
"< 	c #543012",
"[ 	c #542F13",
"} 	c #573113",
"| 	c #573013",
"1 	c #532F12",
"2 	c #552F12",
"3 	c #4B2910",
"4 	c #351E10",
"5 	c #352012",
"6 	c #472811",
"7 	c #553013",
"8 	c #5A3414",
"9 	c #5D3515",
"0 	c #5D3516",
"a 	c #573214",
"b 	c #4D2B11",
"c 	c #4E2B11",
"d 	c #522E12",
"e 	c #3E220D",
"f 	c #4F2D12",
"g 	c #5C3415",
"h 	c #653A17",
"i 	c #5B3415",
"j 	c #502D11",
"k 	c #5A3314",
"l 	c #5C3515",
"m 	c #502D12",
"n 	c #5F3616",
"o 	c #683B18",
"p 	c #5E3616",
"q 	c #5A3315",
"r 	c #3F230E",
"s 	c #3D220D",
"t 	c #341D0A",
"u 	c #4B2A11",
"v 	c #543013",
"w 	c #4C2A10",
"x 	c #502E12",
"y 	c #553114",
"z 	c #492911",
"A 	c #522E13",
"B 	c #522D12",
"C 	c #492810",
"D 	c #43250E",
"E 	c #4D2B10",
"F 	c #552F13",
"G 	c #532E11",
"H 	c #4D2E1B",
"I 	c #3E2C22",
"J 	c #2F241F",
"K 	c #3A2316",
"L 	c #4F2C12",
"M 	c #593214",
"N 	c #593314",
"O 	c #5F3716",
"P 	c #573215",
"Q 	c #44260F",
"R 	c #4E2C11",
"S 	c #321B09",
"T 	c #3A1F0B",
"U 	c #512E11",
"V 	c #663A17",
"W 	c #5E3615",
"X 	c #502C11",
"Y 	c #532E12",
"Z 	c #583213",
"` 	c #583315",
" .	c #5D3616",
"..	c #5E3516",
"+.	c #673B18",
"@.	c #45260F",
"#.	c #351D09",
"$.	c #42240E",
"%.	c #41240F",
"&.	c #482910",
"*.	c #532E13",
"=.	c #603716",
"-.	c #44260E",
";.	c #4C2B10",
">.	c #4D2C11",
",.	c #472810",
"'.	c #492811",
").	c #4E2C12",
"!.	c #542E12",
"~.	c #48270F",
"{.	c #47270F",
"].	c #573114",
"^.	c #5B3414",
"/.	c #512D11",
"(.	c #512E16",
"_.	c #4D311F",
":.	c #47342A",
"<.	c #3D322E",
"[.	c #2D2827",
"}.	c #2A1F1B",
"|.	c #3F2411",
"1.	c #563013",
"2.	c #5F3715",
"3.	c #603816",
"4.	c #482810",
"5.	c #512D12",
"6.	c #613916",
"7.	c #5E3515",
"8.	c #542F12",
"9.	c #653A18",
"0.	c #3E230E",
"a.	c #361D0A",
"b.	c #3E230D",
"c.	c #45270F",
"d.	c #44250F",
"e.	c #472710",
"f.	c #49280F",
"g.	c #3E220C",
"h.	c #4B2B11",
"i.	c #4E2B10",
"j.	c #45260E",
"k.	c #4D2C10",
"l.	c #573112",
"m.	c #512D10",
"n.	c #492B17",
"o.	c #4D3528",
"p.	c #483932",
"q.	c #3C3330",
"r.	c #322D2B",
"s.	c #2A2827",
"t.	c #23201F",
"u.	c #2D1D16",
"v.	c #472812",
"w.	c #5F3615",
"x.	c #613817",
"y.	c #603717",
"z.	c #40230D",
"A.	c #4F2C11",
"B.	c #5A3415",
"C.	c #43250F",
"D.	c #643917",
"E.	c #381E0B",
"F.	c #40240E",
"G.	c #46270F",
"H.	c #44270E",
"I.	c #5A3515",
"J.	c #5B3516",
"K.	c #44250D",
"L.	c #4F311D",
"M.	c #47362C",
"N.	c #423834",
"O.	c #3C3634",
"P.	c #373333",
"Q.	c #2D2B2A",
"R.	c #262423",
"S.	c #231E1C",
"T.	c #341E12",
"U.	c #5C3414",
"V.	c #5B3515",
"W.	c #5C3516",
"X.	c #512E12",
"Y.	c #623816",
"Z.	c #4D2A10",
"`.	c #5D3615",
" +	c #41230D",
".+	c #391E0B",
"++	c #40230E",
"@+	c #673B19",
"#+	c #643918",
"$+	c #47270E",
"%+	c #402616",
"&+	c #443127",
"*+	c #483A33",
"=+	c #3F3733",
"-+	c #322E2C",
";+	c #343130",
">+	c #3A3737",
",+	c #2E2C2B",
"'+	c #211F1E",
")+	c #272322",
"!+	c #221D1A",
"~+	c #25160D",
"{+	c #5A3214",
"]+	c #522F12",
"^+	c #41240E",
"/+	c #553012",
"(+	c #44250E",
"_+	c #3C200B",
":+	c #5C3615",
"<+	c #4B2A10",
"[+	c #5B3616",
"}+	c #6B3E1A",
"|+	c #563115",
"1+	c #4A3020",
"2+	c #493A32",
"3+	c #443C39",
"4+	c #3A3634",
"5+	c #302D2C",
"6+	c #282524",
"7+	c #252221",
"8+	c #1F1A18",
"9+	c #291E19",
"0+	c #331E12",
"a+	c #341D0C",
"b+	c #311B09",
"c+	c #5F3514",
"d+	c #583113",
"e+	c #562F13",
"f+	c #45270E",
"g+	c #5B3313",
"h+	c #3F220D",
"i+	c #3D210B",
"j+	c #5B3416",
"k+	c #3F230D",
"l+	c #653B19",
"m+	c #633917",
"n+	c #573213",
"o+	c #5A361A",
"p+	c #553826",
"q+	c #4A3A32",
"r+	c #413A35",
"s+	c #373231",
"t+	c #2C2928",
"u+	c #2A2726",
"v+	c #292625",
"w+	c #252220",
"x+	c #231C18",
"y+	c #281910",
"z+	c #361F0F",
"A+	c #462710",
"B+	c #371D09",
"C+	c #522D11",
"D+	c #613816",
"E+	c #633916",
"F+	c #573012",
"G+	c #583314",
"H+	c #381E0C",
"I+	c #3B200B",
"J+	c #633A19",
"K+	c #583114",
"L+	c #3A1E0B",
"M+	c #613917",
"N+	c #53331D",
"O+	c #543A29",
"P+	c #4B3930",
"Q+	c #3B3430",
"R+	c #312D2C",
"S+	c #2E2B2A",
"T+	c #2C2927",
"U+	c #292726",
"V+	c #292422",
"W+	c #2B201C",
"X+	c #362012",
"Y+	c #3D220E",
"Z+	c #2F1807",
"`+	c #603615",
" @	c #5F3614",
".@	c #321C09",
"+@	c #693D1B",
"@@	c #4A280F",
"#@	c #301A08",
"$@	c #512F17",
"%@	c #563825",
"&@	c #4B372E",
"*@	c #453831",
"=@	c #3E3735",
"-@	c #3B3938",
";@	c #2A2727",
">@	c #2D2A29",
",@	c #292421",
"'@	c #2C1D17",
")@	c #3E2512",
"!@	c #2B1707",
"~@	c #5D3415",
"{@	c #533013",
"]@	c #46260F",
"^@	c #3D220C",
"/@	c #623A19",
"(@	c #5E3717",
"_@	c #5C3514",
":@	c #422819",
"<@	c #3E2F28",
"[@	c #4D3D36",
"}@	c #3E3633",
"|@	c #332E2C",
"1@	c #3D3A3A",
"2@	c #262323",
"3@	c #292423",
"4@	c #261E1C",
"5@	c #281A11",
"6@	c #3A200E",
"7@	c #341C09",
"8@	c #673A18",
"9@	c #4A2810",
"0@	c #4F2B11",
"a@	c #5E3716",
"b@	c #563012",
"c@	c #593313",
"d@	c #563420",
"e@	c #513E37",
"f@	c #433C3A",
"g@	c #312D2B",
"h@	c #2B2827",
"i@	c #2F2C2C",
"j@	c #211D1D",
"k@	c #211C1A",
"l@	c #2C1D16",
"m@	c #381F11",
"n@	c #3C210E",
"o@	c #41240D",
"p@	c #301908",
"q@	c #42240D",
"r@	c #603616",
"s@	c #4A2911",
"t@	c #593415",
"u@	c #5F3817",
"v@	c #5B3413",
"w@	c #5B3517",
"x@	c #553828",
"y@	c #503E37",
"z@	c #473D3A",
"A@	c #312E2C",
"B@	c #2B2826",
"C@	c #282422",
"D@	c #251D18",
"E@	c #2D1C12",
"F@	c #422511",
"G@	c #48280F",
"H@	c #41250E",
"I@	c #331C09",
"J@	c #42240F",
"K@	c #4A2A11",
"L@	c #4B2B10",
"M@	c #502C12",
"N@	c #5D3717",
"O@	c #452710",
"P@	c #4B2F1D",
"Q@	c #52392C",
"R@	c #4B3A34",
"S@	c #3C3431",
"T@	c #322E2D",
"U@	c #2F2C2B",
"V@	c #2D2B29",
"W@	c #2A2625",
"X@	c #2B2522",
"Y@	c #2E211C",
"Z@	c #392213",
"`@	c #593213",
" #	c #361D0B",
".#	c #4A290F",
"+#	c #613716",
"@#	c #5B3314",
"##	c #4E2C10",
"$#	c #48290F",
"%#	c #57351C",
"&#	c #503728",
"*#	c #3E3531",
"=#	c #35302F",
"-#	c #302D2D",
";#	c #282523",
">#	c #26201D",
",#	c #352218",
"'#	c #432714",
")#	c #4B2A12",
"!#	c #46270E",
"~#	c #341C0A",
"{#	c #3D210C",
"]#	c #5B3315",
"^#	c #4E2C13",
"/#	c #452C1D",
"(#	c #4C392F",
"_#	c #4C3D36",
":#	c #3B3431",
"<#	c #353130",
"[#	c #433F3F",
"}#	c #3E3B3B",
"|#	c #282525",
"1#	c #2B2523",
"2#	c #2A1B12",
"3#	c #3D230F",
"4#	c #48280E",
"5#	c #42250E",
"6#	c #512F18",
"7#	c #4D3322",
"8#	c #48382F",
"9#	c #3C3734",
"0#	c #302C2B",
"a#	c #2D2A2A",
"b#	c #2C2A2A",
"c#	c #221F1E",
"d#	c #29211E",
"e#	c #31221A",
"f#	c #3A2212",
"g#	c #3E220E",
"h#	c #3F220C",
"i#	c #623A18",
"j#	c #5D3617",
"k#	c #47280F",
"l#	c #3A200C",
"m#	c #391E0A",
"n#	c #4F2D11",
"o#	c #563015",
"p#	c #4E2F1C",
"q#	c #4C3527",
"r#	c #463830",
"s#	c #3E3632",
"t#	c #373230",
"u#	c #34312F",
"v#	c #262221",
"w#	c #261B15",
"x#	c #352013",
"y#	c #432612",
"z#	c #5F3818",
"A#	c #623919",
"B#	c #623817",
"C#	c #351D0A",
"D#	c #4C2910",
"E#	c #5E3718",
"F#	c #563723",
"G#	c #4E3A31",
"H#	c #393230",
"I#	c #312E2D",
"J#	c #2F2C2A",
"K#	c #2A2522",
"L#	c #2C1F1A",
"M#	c #3C2313",
"N#	c #4F2D13",
"O#	c #673C1A",
"P#	c #5A3416",
"Q#	c #301A09",
"R#	c #5A3313",
"S#	c #3C210D",
"T#	c #4D2D14",
"U#	c #5B3E2D",
"V#	c #56443C",
"W#	c #483D3A",
"X#	c #3A3534",
"Y#	c #333131",
"Z#	c #272424",
"`#	c #2D2A28",
" $	c #251E1B",
".$	c #331E14",
"+$	c #3C2110",
"@$	c #563214",
"#$	c #663B1A",
"$$	c #613717",
"%$	c #391F0B",
"&$	c #2F1908",
"*$	c #573313",
"=$	c #563112",
"-$	c #4A2D1B",
";$	c #473932",
">$	c #514440",
",$	c #453D3A",
"'$	c #353230",
")$	c #3B3838",
"!$	c #363333",
"~$	c #232120",
"{$	c #2C2926",
"]$	c #2D2725",
"^$	c #2A1E19",
"/$	c #23160D",
"($	c #4C2C12",
"_$	c #623716",
":$	c #603917",
"<$	c #41230E",
"[$	c #583215",
"}$	c #442A1A",
"|$	c #3B281D",
"1$	c #402514",
"2$	c #311A09",
"3$	c #3A1F0A",
"4$	c #583112",
"5$	c #482710",
"6$	c #553116",
"7$	c #543828",
"8$	c #4C3C35",
"9$	c #423A36",
"0$	c #363231",
"a$	c #322F2E",
"b$	c #363232",
"c$	c #2B2828",
"d$	c #1F1C1B",
"e$	c #28221D",
"f$	c #352319",
"g$	c #492A14",
"h$	c #3B200C",
"i$	c #5E3817",
"j$	c #673A17",
"k$	c #643A18",
"l$	c #533420",
"m$	c #473933",
"n$	c #35302E",
"o$	c #2E211D",
"p$	c #331E13",
"q$	c #331E11",
"r$	c #271609",
"s$	c #573314",
"t$	c #54341F",
"u$	c #553C31",
"v$	c #4E3F3A",
"w$	c #3D3634",
"x$	c #322E2E",
"y$	c #2D2928",
"z$	c #2D2927",
"A$	c #27211F",
"B$	c #271B14",
"C$	c #341F13",
"D$	c #442612",
"E$	c #543114",
"F$	c #653A19",
"G$	c #52311A",
"H$	c #423630",
"I$	c #464241",
"J$	c #3A3838",
"K$	c #272423",
"L$	c #251F1D",
"M$	c #2F2622",
"N$	c #2A2422",
"O$	c #48270E",
"P$	c #432715",
"Q$	c #4B3224",
"R$	c #4C3A32",
"S$	c #463A35",
"T$	c #3A3331",
"U$	c #2F2B2B",
"V$	c #2B2927",
"W$	c #2A2624",
"X$	c #332219",
"Y$	c #3D2312",
"Z$	c #693C1A",
"`$	c #49290F",
" %	c #513017",
".%	c #3D2C22",
"+%	c #3D3938",
"@%	c #383535",
"#%	c #272524",
"$%	c #1F1D1D",
"%%	c #23201E",
"&%	c #352117",
"*%	c #4B290F",
"=%	c #5D3414",
"-%	c #472D1D",
";%	c #45342C",
">%	c #463933",
",%	c #3F3835",
"'%	c #413C3B",
")%	c #343131",
"!%	c #282625",
"~%	c #2B2625",
"{%	c #28201D",
"]%	c #3A2417",
"^%	c #4A2A14",
"/%	c #512E13",
"(%	c #683C1A",
"_%	c #40240D",
":%	c #633817",
"<%	c #452610",
"[%	c #3D281D",
"}%	c #312A28",
"|%	c #211E1D",
"1%	c #1E1611",
"2%	c #23160E",
"3%	c #281E1B",
"4%	c #292220",
"5%	c #321D0E",
"6%	c #3A2214",
"7%	c #41332B",
"8%	c #443A38",
"9%	c #3B3634",
"0%	c #332F2D",
"a%	c #3F3B3B",
"b%	c #311D11",
"c%	c #462811",
"d%	c #573315",
"e%	c #6A3D1A",
"f%	c #522F13",
"g%	c #633816",
"h%	c #45260D",
"i%	c #3A2B23",
"j%	c #312C2A",
"k%	c #231F1D",
"l%	c #221710",
"m%	c #301C0C",
"n%	c #352014",
"o%	c #302825",
"p%	c #262322",
"q%	c #21140D",
"r%	c #391D0A",
"s%	c #613715",
"t%	c #5D3514",
"u%	c #593414",
"v%	c #472B19",
"w%	c #3B2F29",
"x%	c #383230",
"y%	c #201E1D",
"z%	c #251D19",
"A%	c #321F15",
"B%	c #5C3616",
"C%	c #371E0D",
"D%	c #312620",
"E%	c #2F2B2A",
"F%	c #2D1909",
"G%	c #3E2618",
"H%	c #322925",
"I%	c #282221",
"J%	c #1F120A",
"K%	c #2E1907",
"L%	c #3D2619",
"M%	c #2B2726",
"N%	c #25211F",
"O%	c #241A15",
"P%	c #361E10",
"Q%	c #553014",
"R%	c #553113",
"S%	c #603817",
"T%	c #482811",
"U%	c #43250D",
"V%	c #352822",
"W%	c #332E2D",
"X%	c #271F1D",
"Y%	c #2F1A0C",
"Z%	c #412510",
"`%	c #4A2E1C",
" &	c #41322B",
".&	c #27201E",
"+&	c #2B180A",
"@&	c #361D09",
"#&	c #4F2C10",
"$&	c #5E3614",
"%&	c #442611",
"&&	c #332118",
"*&	c #292321",
"=&	c #28221F",
"-&	c #2E1E17",
";&	c #371F10",
">&	c #5B3617",
",&	c #43240E",
"'&	c #663B19",
")&	c #633918",
"!&	c #382217",
"~&	c #2F2826",
"{&	c #2E2928",
"]&	c #2B221E",
"^&	c #372720",
"/&	c #41322C",
"(&	c #3A3533",
"_&	c #302D2B",
":&	c #2B1D18",
"<&	c #3A1F0D",
"[&	c #3B2212",
"}&	c #2F1F17",
"|&	c #241D18",
"1&	c #2F1D13",
"2&	c #603715",
"3&	c #502E13",
"4&	c #422510",
"5&	c #2F1E16",
"6&	c #2C2624",
"7&	c #302A28",
"8&	c #2C201B",
"9&	c #361D0E",
"0&	c #2C1706",
"a&	c #3D220F",
"b&	c #2C190C",
"c&	c #351D0B",
"d&	c #3C210C",
"e&	c #653917",
"f&	c #603918",
"g&	c #2F1C10",
"h&	c #30221C",
"i&	c #38251B",
"j&	c #412410",
"k&	c #47260F",
"l&	c #633A18",
"m&	c #673B1A",
"n&	c #3F220E",
"o&	c #3B220E",
"p&	c #502D13",
"q&	c #512C11",
"r&	c #291606",
"s&	c #351C09",
"t&	c #381D0A",
"u&	c #683B19",
"v&	c #673C19",
"w&	c #502E11",
"x&	c #3C210B",
"y&	c #683C19",
"z&	c #271506",
"A&	c #2E1C11",
"B&	c #2B1C11",
"C&	c #46260E",
"D&	c #533015",
"E&	c #462D1D",
"F&	c #372923",
"G&	c #28211E",
"H&	c #342014",
"I&	c #3E210D",
"J&	c #6A3C19",
"K&	c #3D200C",
"L&	c #482A13",
"M&	c #493023",
"N&	c #44352E",
"O&	c #362F2C",
"P&	c #292524",
"Q&	c #261D1A",
"R&	c #3A2111",
"S&	c #311B08",
"T&	c #4C2B0F",
"U&	c #5C3314",
"V&	c #603515",
"W&	c #4B2A0F",
"X&	c #4C2D1A",
"Y&	c #443026",
"Z&	c #3B312D",
"`&	c #342E2C",
" *	c #2B1D16",
".*	c #402410",
"+*	c #482914",
"@*	c #4B3122",
"#*	c #43332C",
"$*	c #372F2C",
"%*	c #2F2D2C",
"&*	c #311C0E",
"**	c #381D0B",
"=*	c #331C0A",
"-*	c #512F13",
";*	c #623918",
">*	c #4C2B12",
",*	c #462B1C",
"'*	c #3F2F27",
")*	c #362E2C",
"!*	c #2C2A29",
"~*	c #312E2E",
"{*	c #221F1D",
"]*	c #251A15",
"^*	c #261509",
"/*	c #321B0A",
"(*	c #593416",
"_*	c #512F12",
":*	c #643A19",
"<*	c #522F17",
"[*	c #493022",
"}*	c #45342D",
"|*	c #3A312E",
"1*	c #2E2A29",
"2*	c #221F1F",
"3*	c #211D1C",
"4*	c #271D18",
"5*	c #342015",
"6*	c #2D1807",
"7*	c #57331A",
"8*	c #4F3323",
"9*	c #40332C",
"0*	c #38302D",
"a*	c #292626",
"b*	c #282423",
"c*	c #271B15",
"d*	c #321C0D",
"e*	c #643916",
"f*	c #4A2A10",
"g*	c #4F2B10",
"h*	c #563117",
"i*	c #4E301D",
"j*	c #473024",
"k*	c #3D2E28",
"l*	c #332D2B",
"m*	c #2E2B29",
"n*	c #292624",
"o*	c #321F14",
"p*	c #693B18",
"q*	c #623916",
"r*	c #3A1E0A",
"s*	c #6E3F1B",
"t*	c #371D0A",
"u*	c #4F2E17",
"v*	c #41332C",
"w*	c #362D2A",
"x*	c #373434",
"y*	c #252222",
"z*	c #241D19",
"A*	c #351D0E",
"B*	c #593113",
"C*	c #3E210C",
"D*	c #321A08",
"E*	c #4C2C11",
"F*	c #6A3B18",
"G*	c #391F0A",
"H*	c #4C290E",
"I*	c #492D1B",
"J*	c #382C28",
"K*	c #443933",
"L*	c #37302E",
"M*	c #2C2827",
"N*	c #353232",
"O*	c #2E2521",
"P*	c #2A1D15",
"Q*	c #2A1709",
"R*	c #4F2C13",
"S*	c #452D20",
"T*	c #483933",
"U*	c #393331",
"V*	c #2A2725",
"W*	c #211D1A",
"X*	c #281D17",
"Y*	c #3A2213",
"Z*	c #583313",
"`*	c #2D1908",
" =	c #3C200C",
".=	c #41230C",
"+=	c #57341B",
"@=	c #463125",
"#=	c #3B302C",
"$=	c #342D2C",
"%=	c #29211D",
"&=	c #2F1E14",
"*=	c #3A210F",
"==	c #562F12",
"-=	c #633815",
";=	c #2D1808",
">=	c #42250D",
",=	c #533018",
"'=	c #523422",
")=	c #4A3429",
"!=	c #3A2E29",
"~=	c #2F231D",
"{=	c #402510",
"]=	c #442610",
"^=	c #4A280E",
"/=	c #462810",
"(=	c #54331C",
"_=	c #513829",
":=	c #382F2C",
"<=	c #353030",
"[=	c #302E2D",
"}=	c #291E18",
"|=	c #3C2412",
"1=	c #3F240F",
"2=	c #533016",
"3=	c #402A1D",
"4=	c #423129",
"5=	c #43362F",
"6=	c #372F2D",
"7=	c #383534",
"8=	c #33302F",
"9=	c #282322",
"0=	c #322018",
"a=	c #301B0C",
"b=	c #331B0A",
"c=	c #49270F",
"d=	c #56331B",
"e=	c #4F3425",
"f=	c #41332D",
"g=	c #292725",
"h=	c #211C19",
"i=	c #382012",
"j=	c #613918",
"k=	c #43240F",
"l=	c #2E1808",
"m=	c #3B1F0B",
"n=	c #4F301D",
"o=	c #4D372C",
"p=	c #423631",
"q=	c #34302F",
"r=	c #2E2B2B",
"s=	c #2A2826",
"t=	c #29201D",
"u=	c #301C11",
"v=	c #693C18",
"w=	c #51331F",
"x=	c #342F2D",
"y=	c #2D2929",
"z=	c #2C2623",
"A=	c #30231D",
"B=	c #341E11",
"C=	c #683A17",
"D=	c #482C18",
"E=	c #513727",
"F=	c #43342D",
"G=	c #342D2B",
"H=	c #2B2727",
"I=	c #282220",
"J=	c #2E1F17",
"K=	c #492C15",
"L=	c #4D2C12",
"M=	c #462E21",
"N=	c #3C312C",
"O=	c #3A312D",
"P=	c #302B29",
"Q=	c #2F2D2D",
"R=	c #2C231F",
"S=	c #2B1C13",
"T=	c #281709",
"U=	c #5E3514",
"V=	c #4D2F1C",
"W=	c #443832",
"X=	c #2A2626",
"Y=	c #262321",
"Z=	c #231C19",
"`=	c #30211A",
" -	c #372112",
".-	c #3B210D",
"+-	c #311A0A",
"@-	c #6B3E1B",
"#-	c #5A3418",
"$-	c #553724",
"%-	c #47372E",
"&-	c #3F3532",
"*-	c #36302F",
"=-	c #29201B",
"--	c #321D11",
";-	c #2E1908",
">-	c #3D210D",
",-	c #4B2911",
"'-	c #5A3213",
")-	c #321A09",
"!-	c #462A18",
"~-	c #4F3526",
"{-	c #4B3931",
"]-	c #3C3430",
"^-	c #2B2524",
"/-	c #33241D",
"(-	c #382112",
"_-	c #40220D",
":-	c #653A16",
"<-	c #623715",
"[-	c #311B0A",
"}-	c #3C261A",
"|-	c #413129",
"1-	c #403530",
"2-	c #39312F",
"3-	c #3C3838",
"4-	c #291C15",
"5-	c #352C28",
"6-	c #37312F",
"7-	c #322D2C",
"8-	c #2C211C",
"9-	c #301D10",
"0-	c #46280F",
"a-	c #422714",
"b-	c #34251F",
"c-	c #242120",
"d-	c #2E1D14",
"e-	c #3A2110",
"f-	c #4E2D12",
"g-	c #3F2615",
"h-	c #2D221D",
"i-	c #2A2423",
"j-	c #2B1F1A",
"k-	c #311D10",
"l-	c #4D2A11",
"m-	c #381F0B",
"n-	c #43260E",
"o-	c #40240F",
"p-	c #382216",
"q-	c #2F201A",
"r-	c #381F0D",
"s-	c #3A200D",
"t-	c #391E0C",
"u-	c #462813",
"v-	c #2F1D15",
"w-	c #271A13",
"x-	c #371F0E",
"y-	c #3B200D",
"z-	c #321C0B",
"A-	c #391F0C",
"B-	c #291507",
"C-	c #512D13",
"D-	c #351C0A",
"E-	c #2F190A",
"F-	c #301A0A",
"G-	c #462610",
"H-	c #351D0C",
"I-	c #331D0B",
"J-	c #361D0C",
"K-	c #341D0B",
"L-	c #1C0E05",
"  . + @ # $ % & * = - ; > , * ' ) ! ~ { ] @ ^ / ( _ _ : < [ } | 1 2 3 4 5 6 7 7 7 8 9 0 a b c d 7 b - e f b 1 g h i b j _ 9 ) k ",
"l + } m n o p q r s t ; u v v } w x ~ y / z / A B C D E i i F [ G A H I J K L M N i n O P u Q ; R ; S T U 7 7 k V W X } Y } Z ; ",
"`  ...n +.N @.#.$.$.%.&.*.=.9 } -.;.v >.&.,.'.).F !.~.{.].^.< /.(._.:.<.[.}.|.1.9 2.+ 3.p ].b C 4.-.t { 5.N } } 6.O 2 7.^.b 8.@.",
"a ! % 9.O L 0.a.b.c.d.e.[ =. .a f.g.A ] h.u b * Y | i.j.k.l.m.n.o.p.q.r.s.t.u.v.M w.x.y.p O g F * {.$.z.A.B.~ 5.^.W 1 g w.R 8.C.",
"d M D.+ y.d D T E.F.s G.M x.# [ m z.H.I.J.a [ b X } /.j.K.* L.M.N.O.P.Q.R.R.S.T.R k U.V.W.p O g } Y Y j ;.} ~ ; R ! X.1.=.8.Y.Z.",
"b k Y.`.`.[ _  +.+@.++; ^.Y.! m [ j g.R @+#+# m 5.M 8.$+%+&+*+=+-+;+>+,+'+)+!+~+s d v ] i 9 ^.Z w.7.{+| ]+v O ;.^+j 1.* w./+V d ",
"c l Y.} ].@ X (+_+* c.( } W N j 1 :+<+s [+}+n 7 v ^.|+1+2+3+4+5+s.6+6+7+8+9+0+a+b+<+Y F g O N X ! h c+d+e+d O R ; 5.9 f+g+| V d ",
"B N =.U 1.].].h+i+5.&.a ].i k 8.d j+q D k+l+m+n+} o+p+q+r+s+5+t+u+v+w+x+y+z+A+; T B+C+1.W + 9 R C D+E+! 1.C+@ E l 1.h (+2 F+) Y ",
"[ 1 G+u n+~  .H+I+A.G.J+x.p l N K+~ 7 f.L+&.M+|+N+O+P+Q+R+S+T+U+u+V+W+X+Y+$.L /+f.Z+ +1 `+m+9 c k+Y ) ! ~ Y c j D.k V ( 8.8. @8.",
"@ d X._ l 1.3.= e G..@P +@l l 9 7.i @ D @@#@$@%@&@*@=@-@;@u+>@T+,@'@)@* j w A ~ /.h+!@G.n V 8 b (+~.! ~ ~ a /.Y w.~@) {@l 8.} } ",
").1.@ R x.} p ).; c ]@^@/@(@N _@2.y.i !.d :@<@[@}@|@P.1@2@2@3@4@5@6@@ _@8 d @ a [ C 7@7@Y 8@w./+X 9@B 0@d 8 ! Y k g W {@a@1.5.b@",
"X.@ } 8.O V.9 Y 5.].k f.<+/@a 1 c@D+9 l.d@e@f@4+g@h@>@i@j@k@l@m@n@o@]+D+3.v d 8 k w h+p@q@^.+ 9 g F Y G w } r@} n+i 7 s@1.~ ~ Y ",
"! * 1 m n+a } c X 2 g O $+t@u@).; v@w@x@y@z@4+A@T+u+B@C@D@E@F@m j G@<+l m+G+A.} 9 X.H@T I@c.N 9 n O ~ } B j `.O n+q f J@K@7 O j ",
"c@L@M@4.b v d K@,.s@7 x.} _ N@a O@P@Q@R@S@T@U@V@h@W@X@Y@Z@6 * } `@X 4.X.0 i 5.X.Z c@;.^+ #a..#} k p N ~ a 8.Z +#@#! 1 G.@.5.l 5.",
"N ~ ~ ##$#7 a f ; ; d ! B.f.<+%#&#*@*#=#-#h@t+h@;#>#,#'#)#' a 7 7 d f.!#d ! Y d } } l.c $.~#{#: 7 8.} 1 [ ! b@c@g+d+1.R G._ A.~ ",
"B.p l ~ w j g ]#~ X.Y 1.7 ^#/#(#_#:#<#[#}#|#W@1#}.2#3#] B.W.a@` F | m {.4#A.R b 7 d m } A.k+a.G@8.<+Z.j *.1.} 8.} l.8.c ; 5#D ! ",
"[ 0 p ].c .#} + y.i 2 Y 6#7#8#r+9#0#U+a#b#c#d#e#f#g#h#@ i#j#(@V.i 9 7 R {.j.G@L 1 m k#*.1.* l#m#i.n#_ h.a } @ d ~ Y /.9@_ {.~.7 ",
"c i +## m C w 9 9.W o#p#q#r#s#t#u#U@s.v+v#w#x#y#b j .#c.z#A#` i ^.B#G+X * -.f.} q f $.4.m n#Q C#I+U [ A.].D+~ * N 1.D#w G@/.1 -.",
",.n+Y.p [ * Q j Y.E#F#G#N.H#0#0#I#J#U+K#L#M#N#].].1.2 k#h.O#P#p U.9 W b b $#G.b@Y.N _ {._ 3 C e Q#K.R#`@~ h y.5.1.p ( R w A.} S#",
"5#j k =.v d R !#T#U#V#W#X#Y#Z#`#S+6+ $.$+$L 9 +#g 1.1.5._+@$#$% $$} 9 5.,.&.^+3 l x.l G+##4.6 A+%$&$C+_@*$=.) A A.w.# A.8./.=$3 ",
"Q _ L i N [ 2 -$;$>$,$'$)$!$~${$]$^$/$($@ [ 9 h _$k ].L D a.:$. m+^.8 M b ; C.<$f W.0 p [$}$|$1$e 2$3$Z c@w.n X.; Y p } 1.4$b@Z ",
"s@5$u j ^.6$7$8$9$0$a$t+b$c$d$e$f$g$G.h$i$] ~ 3.j$$$a b 3 h$c.}+k$O p n 7.8.u 5#@.d j+|+l$m$n$o$p$q$r$j.l.U.m+s$A.5.k U.Z U.Z Z ",
"j ]@f.<+t$u$v$w$x$>@y$u+z$A$B$C$D$N % K.E$F$l k V h W.[ /+Y T # @+m++ D+) n v <+(+G@~ G$H$I$J$K$L$M$N$l@u n+D++ ! N g M /+N c@=$",
".#O$P$Q$R$S$T$U$;@V$y$W$M$X$Y$O@( k o 3.j.F$Z$=.D+V B#k k l X h+# y.m+m+m+$$].R {.$.`$ %.%+%@%#%$%%%t+u+&%*%l.Y.w.=%r@].w A.} l.",
"S#-%;%>%,%'%)%!%!%h@~%{%]%^%/%Y 5.a =.8@/.x (%& O 7.p =.r@=. .G@_%]+3.h :%..F A.b (+h+<%[%}%s.|%1%2%3%y$4%5%j.1.=.7.7.B.( {.5.Z ",
"6%7%8%9%0%a%@%R.!%1#L#b%c%# l i ! ~ ! 9 8 G.d%e%D.1.f%l :%g%x.l h%{.0 V D.9 Y 5.} M@k+6@i%j%k%l%m%%$n%o%p%q%r%f.`@s%t%i *._ [ u%",
"v%w%x%T@t+U@U+y%z%A%|.A+G@} p p O N [ ]+1./.`$B%F$v 4.m 9 m+$$m+Z !#1 ) m+t%1.[ N 1.d.C%D%E%x+F%z.k#G%H%I%J%K%K.2 s%E+^.} 5.} `.",
"A L%M$c$t+M%N%O%P%)#Q%R%n#b ]. .x.S%a A 1.k i.$#B%` T%'.d 9 9 +#B###U%l 9.`.n+M 9 } ,.Y$V%W%X%Y%Z%`% &n$.&+&p@@&#&$&h w.} } } M ",
"} %&&&*&6+=&-&;&, 7 =.O ] * _ s$x.B# .1.! 7.Z !#K@>&f%K@b N ^.U.D+} ,&* '&)&} } O V.C J@!&~&{&]&^&/&(&_&:&<&h$p@{#1.W 2.M ^.Z [ ",
"N <+[&}&|&1&|.u b j W k$B.).-.j + x.W k a 7.2&8. +3&z#] R g+t%a _$=.d  +d%(%` A i S%' D 4&5&6&M%{&0#7&8&9&d.Q E.0&$+!.1.! =.O 7 ",
"8 ~ u a&b&c&; 7 < b [ S%M+m @.; J.k$^.9 k W E+`+E d&j#l+V.u%p ].$$e&q i.z.M+f&R%N 9 O E {.r g&B$h&i&]%j&f.A.; z.#@p@k&{.m w.) l ",
"} N a n#= S Q v ] m R ` l&a K@A.n#x.=.U.k k B#h N h#(+m&% ..9 Y k j$g } j.G.l&O 9 Z n+W X <+n&a.o&p&1 X q&d+} _ e r&s&{#f.b@^.9 ",
"n+7 B.G+,.a.t&c } @ 5.] W.y.[ a x 8.u&=.} B g D.`+/.m#f%v&n 2&w&7 D.2&| ] x&v y&m+R#b i w.1._ k+q@~ O M ( Y i } {.t&z&C#$+G 8.F ",
"a 7 N =.d ^+~# +*.} d 7 } 7.k ` ` k.`.+.t%_ 8.=.+#} E I+J.) s%} !.=.+#} a /.o@u@% 2.2 X 7.U.[ f.q@c O Y.} /.Y U./.%.A&B&Z%: } 1.",
"@ 7 k h  .4.h$7@k#7 @ [ ! k k G+P#R%A.m+h 8.#&g B#R%d C&{.9.8@U.! n t%} ~ k G.k## n U.U 8.Z d+C+-.q@/+E+=.].b U D&E&F&G&H&s@} @#",
"[ 7 k Y.) L I&b+L+( A ~ k # a ].# l X.1 D+D+} i m+u%b [ !#a J&D.! 7.7.M G+l [ g.{.W.x.i v m Y 2 _ K&C&R#`+M 8.L&M&N&O&P&Q&R&c Z ",
"Z a ^.=.h 0 m e S&^@u /+^.N @ m } a@8 T&c@) +#+#+ 9 A.1 } <+(@e%W U&V&@#n+^.^.E g.a @+B#i 7 c d 5.j._%W&b@8.X&Y&Z&`&T+v+t. *.*A.",
"V.a k =.h 9.+ } z.C#z.<+1.k Y ; L q ^.j b `.g%Y.m+9 8.5.q d R J+i#! ~@M 5.[ k } C&&.M+u&=.9 1.d 8.X G@(++*@*#*$*0#%*U+R.Z#!+&*j.",
"i d A a D+% % =.A.**=*S#<+} 7 <+* a k /+Z.X.p B#x.V.F 8.k 8 W&-*;*` i i j ( Y } X q@;.)&=.7.7.M 8./.>*,*'*<.)*c$!*~*!%{*4%]*^*{ ",
"~ ).e._ | +#m+S%a G./*Q#^+X.~ L L B.9 ! d * 7 + x.(*d 1 k Y.2.##n#B%a n N d u u m 3 z._*:*W w.W ! <*[*}*|*-+1*v+p%2*3*4*5*C%2$6*",
"8 ].C G.( i m+n 8 /.{##@l#b 1 R A.l +#n+/%).b u%m+W.f%f Y k +#_@o@# x...O 9 d &.A.M@$+{#u@) N # 7*8*9*0*1*>@>@a*b*A$c*d*d.G@h+~#",
"D+l 7 @ u 7 V h x.l ( a.7@j.c s@<+N e*n+f** L@<+p + V.@ i.!.].@#g*@.Z$#+=.O `.R 1 m 3 z.-.'&h*i*j*k*l*c$u+m*m*n*]&o*C%Y+w d f.k+",
"2&N l B#} /.7.p*q*D.B.4.7@r*@@3 ,.1 +#g ; ,.; c.n#h % 8 d 1.[ A.l.h#] s*) i M+i k } f.A.t*u*p+v*w*W%x*y*#%_&z$z*A*; * ]@w 5.X {.",
"d+i l D.h N 1.h D+B*p M C*D*h#C 4.E 7.l E*C.* c C&i F*p ].{+M @ R ~ G*k$& k i D.+#9 /.H*I*J*K*L*M*I#N*'+7+O*P*Q*d&!.n+E w 4.X b ",
"0@D+:%9 9.M+M U.V *.l ..{.~##@h+@.3 N y.G+G@* 7 X w B#B#N M =%p n#V.j $#% `.7 7.D.k R*S*T*U*_&>@u+V*v+W*X*Y*Z%e g.i.R#j u @.4.b ",
"* w.V N N ..U.@#m+w.Z*} 4.l#`*Q# =C ' p m+t%m ].n+E 7 m+8 [ | 9 l u%3..=R%l&a F n +=@=#=$=`#`#y$u+W$%=&=*=&.d ).G@G@b@< _ e.C.G.",
"m ==-=Z X F d+Z p x.W a R e.l#;=C#; 1.]#+#Y.8 k N /+;.N l d * m M ..w./.>=J.W.,='=)=!={&h@u+y$t+N$~=5*{=c 5.} g Y !#<+7 R ,.]=$.",
"W A.^.`@X m 1.M 7.y.=.l ].[ R {#S -./+@#k } 7.+#n ^.d E 1.1 ( C b N =.$&^=/=(=_=N&:=<=[=u+v+M*X@}=|=c%u 7 } } ~@Z f.D ;.n#,.1=S#",
"=.X./+} F ! @#R#U.=.y.p g k i n#T E.f.2 M 8.n+Y.m++#N <+.#[ m G.e.d ^.9 2=3=4=5=6=E%7=8=c#9=O*0=a=5#y y 7 n+F } k A.^+k+G.c.Y+Q ",
"} 7 7 Y !.p m+i 8./+8 l l 7.n ! @.b=.+c=B A.m i B#B#W 1 G@d j+*.4.( Q%d=e=f=T$x%E%g=!%~$h='@i=, 5#k+f%j=i n+@ B ].[ k== h$^+e.} ",
"b d @#B X W o E+Z d 1.1.7 9 m+g b E.l=m=3 c b 7 l O B#l A.<+8 + 7 / n=o=p=L*W%q=r=s=W@t=u=%.b f b G.-.J.x.Z d L X w ,&h${#<+A._@",
"*.b k /.A.2&v=V =.k Z*1.A.1.D.Y.8.$.~#S&q@X d 5.1.8 =.+#! G@k.W E#w=;%*#x=;@h@a#y=z=A=B=-.8.g ! X.b j.f+p W.A R _ d.D e 4.a d ^.",
"B {.d b 8.g%Y.=.E+7.9 l ~ [ =.C=7./.(+#.t*( [ m j } i l ^.X D D=E=F=G=5+%*p%u+H=I=J=K=L=>.1.W 9 [ f j g.c F$a 0@d.b.<+^+u l /.Z ",
"4.,.( @.| E+N ' g `@R#k i } g % V M ! G@Q#h+m R k#F ^.b@b@2=M=N=O=P=a#x*Q=2*1#R=S=T={@x.1.m Z 7.1./.} W&a.W.a@_ ++-.Z _ j =.i.1 ",
"L X M@5#Y =.n+# m 5.Y /.2 } } 0 8@n p `..+- G.3 $.b U=8.V=o=W=n$M*a*X=U@Y=Z=`= -.-+-l#@-y.w U @#| j } A.{ d&a ^@{.-.} 1.@#Y.w w ",
"Z 1.c 5#m 9 7 p f*L | /.X } X.R 9 + ^.2&3 ~#a.G@o@G@#-$-%-&-*-_&>@y$u+z$=---j&C f.z.;-{@'&j b 2 8.X m e.>-t*^+z&g.Q b@U=s%n {.C ",
"| j ,-; B k /.=.A.9@=.^.'-i v c.c ^.^.2.1.$.)-g.C.!-~-{-]-j%h@h@y=t+^-/-(-]=X.7 Y R j.B+` Q%s@_ b b C F.G.G.^+r&_-C l.:-W } d.@.",
"U._ 7 d | Z b W 9 8.[ W <-e*9 R /=/.Z*g%w.3 L+[-}-|-1-2-3--##%U+u+I=4-{=>.d } Z } 1.l..#o@d%] u e.{.G.r b b C.6*q@C+} Y.N 5.Q d.",
"k X @#2 9 ! ( i x.p ; 2 +#j$g%Z*>.R b@9 V /+^+5*5-6-7-t+N*a#~$V+8-9- #0-a N ].7 d [ } } z.E*J.A &.Q ,.$.u b C.&$g.n+^.i 7 j c._ ",
"7 5.U./.=.^.X } 2.h R !#!.7.s%^.Y d k 9 Y.D+1 a-b-~%h@u+U+c-x+d-e-c.,.-.v W N Y c A.5.B @.%$f-/%* &.A+d.@.G.r S T 7 k d R j {.c ",
"e.B w.Y w.7./+X N V d l#h+c Z Z d Y 9 ) Y.=.^.x g-h-6+u+i-j-k-%.m [ m G@; a l 7 b w c l-]@C#m-n-; &.o-, 5#Q .-Q##.Y k M@A.v ; _ ",
"e Y ~@8.l 9 d f.1 D+G+5#a.D d 7 /.C+9 h Y.7.a 1 >*p-{%A$q-[&<%* } l n+b -.;.8 B.R 4.,-G.b.l#.+a._-C.r-s-S#++t-F%S&A.1.X 9@} d 5.",
"$.Y F m k l w @.@ l 8 d **e d n+8.X `@Y.9 } v n#x u-v-w-x-4.A.w j ^.l d {.j.j V.]+@.A+C.0.$.y-z->-++r A-<&B-{.t%F ; 1 m y-W N X ",
"@.Y E C ! ~@w b ! @ C-} b=D-c ! } X b@+#g 1.1 <+b R .-E-T <+b C.^+A.! 1 R b {.f ( 0.@..-F-a.G-H-I-J-$.= K-L-G@k Y 3 k d y-Z ` Q "};
