/* XPM */
static char * rot8_xpm[] = {
"64 64 946 2",
"  	c #6A3C19",
". 	c #673C18",
"+ 	c #5E3615",
"@ 	c #4F2D12",
"# 	c #563014",
"$ 	c #6A3D18",
"% 	c #623816",
"& 	c #653A17",
"* 	c #492910",
"= 	c #371E0B",
"- 	c #2F1808",
"; 	c #46270F",
"> 	c #3A1F0C",
", 	c #3F230E",
"' 	c #522E13",
") 	c #603715",
"! 	c #552F13",
"~ 	c #522F12",
"{ 	c #341C09",
"] 	c #532F13",
"^ 	c #512E12",
"/ 	c #522F13",
"( 	c #462710",
"_ 	c #482810",
": 	c #502C12",
"< 	c #502C11",
"[ 	c #502D11",
"} 	c #502D10",
"| 	c #4B2A10",
"1 	c #3B2110",
"2 	c #2F1E14",
"3 	c #3C2213",
"4 	c #4D2B11",
"5 	c #542F13",
"6 	c #563013",
"7 	c #5A3314",
"8 	c #5B3414",
"9 	c #573114",
"0 	c #4C2B12",
"a 	c #41240E",
"b 	c #42240E",
"c 	c #47280F",
"d 	c #3A200B",
"e 	c #2A1507",
"f 	c #48270F",
"g 	c #553013",
"h 	c #522E12",
"i 	c #573113",
"j 	c #643A16",
"k 	c #4E2C11",
"l 	c #573013",
"m 	c #603615",
"n 	c #4F2D11",
"o 	c #43240E",
"p 	c #653A16",
"q 	c #583214",
"r 	c #542F12",
"s 	c #4C2B11",
"t 	c #5B3314",
"u 	c #643916",
"v 	c #573014",
"w 	c #3C210D",
"x 	c #3A210C",
"y 	c #2E1808",
"z 	c #45270F",
"A 	c #43250F",
"B 	c #45260F",
"C 	c #623815",
"D 	c #3B200C",
"E 	c #502E12",
"F 	c #4D2C11",
"G 	c #44250E",
"H 	c #3F220C",
"I 	c #4A290F",
"J 	c #532F12",
"K 	c #512D11",
"L 	c #4B2D17",
"M 	c #422D21",
"N 	c #332925",
"O 	c #2A1F1A",
"P 	c #3D2310",
"Q 	c #593214",
"R 	c #5C3514",
"S 	c #492810",
"T 	c #3D210C",
"U 	c #2F1908",
"V 	c #43240D",
"W 	c #613715",
"X 	c #512D12",
"Y 	c #5D3514",
"Z 	c #552F12",
"` 	c #553014",
" .	c #4A2A10",
"..	c #49280F",
"+.	c #623715",
"@.	c #5D3414",
"#.	c #5F3715",
"$.	c #5B3315",
"%.	c #3E220C",
"&.	c #291507",
"*.	c #3F230D",
"=.	c #3D220D",
"-.	c #3E220D",
";.	c #46270E",
">.	c #563113",
",.	c #543013",
"'.	c #4F2C12",
").	c #482710",
"!.	c #4B2A11",
"~.	c #4E2B11",
"{.	c #43250E",
"].	c #40230D",
"^.	c #4F2C11",
"/.	c #4D2B10",
"(.	c #4E2B10",
"_.	c #4B2D19",
":.	c #463025",
"<.	c #3E302C",
"[.	c #302C2A",
"}.	c #222120",
"|.	c #231812",
"1.	c #41240F",
"2.	c #572F12",
"3.	c #5C3414",
"4.	c #5F3716",
"5.	c #583114",
"6.	c #5C3415",
"7.	c #47270E",
"8.	c #44260E",
"9.	c #44260F",
"0.	c #502D12",
"a.	c #4A2910",
"b.	c #47270F",
"c.	c #44250F",
"d.	c #633815",
"e.	c #553012",
"f.	c #4C2A11",
"g.	c #5A3313",
"h.	c #4C2B10",
"i.	c #3C210B",
"j.	c #4E2D12",
"k.	c #46280F",
"l.	c #45250F",
"m.	c #472810",
"n.	c #46250D",
"o.	c #492C18",
"p.	c #4A372F",
"q.	c #3E342F",
"r.	c #312C2A",
"s.	c #2A2726",
"t.	c #262423",
"u.	c #1D1C1B",
"v.	c #2B1B12",
"w.	c #472710",
"x.	c #562F12",
"y.	c #583213",
"z.	c #583314",
"A.	c #4D2C10",
"B.	c #45260E",
"C.	c #522E11",
"D.	c #40230E",
"E.	c #5E3514",
"F.	c #49290F",
"G.	c #3A1F0B",
"H.	c #562F13",
"I.	c #371E0A",
"J.	c #573214",
"K.	c #45250E",
"L.	c #40230C",
"M.	c #48280E",
"N.	c #4F2E13",
"O.	c #482F1F",
"P.	c #43352F",
"Q.	c #3E3532",
"R.	c #383332",
"S.	c #322F2F",
"T.	c #262323",
"U.	c #252322",
"V.	c #242221",
"W.	c #1E1815",
"X.	c #331D0E",
"Y.	c #512F12",
"Z.	c #532E12",
"`.	c #4A280F",
" +	c #683C18",
".+	c #613816",
"++	c #603716",
"@+	c #39200C",
"#+	c #5D3515",
"$+	c #351D09",
"%+	c #4E2C12",
"&+	c #3F2514",
"*+	c #463024",
"=+	c #44352F",
"-+	c #39312F",
";+	c #2F2B29",
">+	c #343130",
",+	c #221F1E",
"'+	c #231E1C",
")+	c #241812",
"!+	c #2A170A",
"~+	c #532E13",
"{+	c #4C2A10",
"]+	c #4E2D11",
"^+	c #3F220D",
"/+	c #3C210C",
"(+	c #3B210C",
"_+	c #623817",
":+	c #4E2C10",
"<+	c #442918",
"[+	c #413029",
"}+	c #403632",
"|+	c #39322F",
"1+	c #2D2A29",
"2+	c #282524",
"3+	c #262322",
"4+	c #252221",
"5+	c #201C1B",
"6+	c #1F1714",
"7+	c #2C1A10",
"8+	c #3B210E",
"9+	c #3F220B",
"0+	c #5E3515",
"a+	c #5A3214",
"b+	c #5F3615",
"c+	c #4B2910",
"d+	c #5F3614",
"e+	c #492911",
"f+	c #5F3514",
"g+	c #46260E",
"h+	c #361D09",
"i+	c #3D210D",
"j+	c #5E3716",
"k+	c #653A18",
"l+	c #502F19",
"m+	c #47342A",
"n+	c #423833",
"o+	c #383331",
"p+	c #2F2C2B",
"q+	c #23201E",
"r+	c #241A14",
"s+	c #2D1A0D",
"t+	c #4B2B10",
"u+	c #301908",
"v+	c #512E11",
"w+	c #5F3515",
"x+	c #48280F",
"y+	c #3D210B",
"z+	c #3E210C",
"A+	c #44270F",
"B+	c #613917",
"C+	c #55341C",
"D+	c #4E382D",
"E+	c #413732",
"F+	c #35302F",
"G+	c #2E2B2A",
"H+	c #2B2826",
"I+	c #272524",
"J+	c #272120",
"K+	c #2C1F18",
"L+	c #392110",
"M+	c #4D2B12",
"N+	c #381E0A",
"O+	c #2D1707",
"P+	c #5C3313",
"Q+	c #563114",
"R+	c #572F13",
"S+	c #361D0A",
"T+	c #5C3515",
"U+	c #522F14",
"V+	c #4D3120",
"W+	c #4D392E",
"X+	c #413630",
"Y+	c #332F2F",
"Z+	c #292626",
"`+	c #292625",
" @	c #2A2725",
".@	c #272221",
"+@	c #2A1D15",
"@@	c #3F2411",
"#@	c #4C2C11",
"$@	c #321A08",
"%@	c #321A09",
"&@	c #512E13",
"*@	c #5A3414",
"=@	c #381E0B",
"-@	c #40240E",
";@	c #5E3717",
">@	c #593314",
",@	c #583113",
"'@	c #4A2B15",
")@	c #513627",
"!@	c #47362F",
"~@	c #3C322F",
"{@	c #363232",
"]@	c #3B3938",
"^@	c #292726",
"/@	c #252222",
"(@	c #282323",
"_@	c #241F1D",
":@	c #251812",
"<@	c #351E0D",
"[@	c #3C200B",
"}@	c #391F0C",
"|@	c #301A08",
"1@	c #4C2C12",
"2@	c #633A18",
"3@	c #4E2B0F",
"4@	c #422615",
"5@	c #3D2E26",
"6@	c #453832",
"7@	c #3B322F",
"8@	c #2D2A28",
"9@	c #2F2E2D",
"0@	c #363333",
"a@	c #272424",
"b@	c #211C1B",
"c@	c #271D19",
"d@	c #301D13",
"e@	c #381F0D",
"f@	c #381F0B",
"g@	c #321B09",
"h@	c #4A2A11",
"i@	c #3D220C",
"j@	c #542F14",
"k@	c #5B3415",
"l@	c #563012",
"m@	c #573213",
"n@	c #522F19",
"o@	c #4F3A2F",
"p@	c #443B37",
"q@	c #2F2B2A",
"r@	c #272423",
"s@	c #262321",
"t@	c #221D1B",
"u@	c #241914",
"v@	c #351F12",
"w@	c #472811",
"x@	c #573012",
"y@	c #3A200C",
"z@	c #5A3415",
"A@	c #54331E",
"B@	c #4E3A2F",
"C@	c #483C37",
"D@	c #3C3533",
"E@	c #302D2C",
"F@	c #2B2827",
"G@	c #2A2422",
"H@	c #2B1E18",
"I@	c #382110",
"J@	c #452610",
"K@	c #542F11",
"L@	c #573314",
"M@	c #462813",
"N@	c #523320",
"O@	c #413531",
"P@	c #322E2D",
"Q@	c #2C2928",
"R@	c #27211F",
"S@	c #2F2018",
"T@	c #3B2111",
"U@	c #43250D",
"V@	c #341C0A",
"W@	c #4B2B11",
"X@	c #4F2F16",
"Y@	c #402C21",
"Z@	c #44342D",
"`@	c #3C312D",
" #	c #322F2E",
".#	c #2A2727",
"+#	c #2B2727",
"@#	c #272422",
"##	c #221E1C",
"$#	c #221711",
"%#	c #472812",
"&#	c #45250D",
"*#	c #331C09",
"=#	c #3B210A",
"-#	c #3E220E",
";#	c #573B29",
">#	c #443731",
",#	c #37312F",
"'#	c #34302F",
")#	c #474343",
"!#	c #2D2A2A",
"~#	c #292523",
"{#	c #27201C",
"]#	c #2E1D13",
"^#	c #271509",
"/#	c #593315",
"(#	c #321B08",
"_#	c #3A200A",
":#	c #4A2A0F",
"<#	c #4C2B0F",
"[#	c #42240C",
"}#	c #4A2C16",
"|#	c #3F312B",
"1#	c #473C36",
"2#	c #3C3431",
"3#	c #2E2A29",
"4#	c #312F2F",
"5#	c #2B201B",
"6#	c #352114",
"7#	c #42250F",
"8#	c #5E3617",
"9#	c #311A09",
"0#	c #3E210B",
"a#	c #4D2C12",
"b#	c #512D10",
"c#	c #502E11",
"d#	c #41240D",
"e#	c #4A2F1D",
"f#	c #49362C",
"g#	c #413833",
"h#	c #302E2D",
"i#	c #221E1D",
"j#	c #291B13",
"k#	c #3A2112",
"l#	c #482811",
"m#	c #5F3717",
"n#	c #42250E",
"o#	c #422511",
"p#	c #2B1607",
"q#	c #45260D",
"r#	c #583012",
"s#	c #502E14",
"t#	c #4A2F21",
"u#	c #46352C",
"v#	c #3D332F",
"w#	c #312E2C",
"x#	c #2B1E17",
"y#	c #3D2312",
"z#	c #40240D",
"A#	c #583315",
"B#	c #603817",
"C#	c #613716",
"D#	c #43260F",
"E#	c #412A1D",
"F#	c #362720",
"G#	c #372114",
"H#	c #3A200D",
"I#	c #331C0B",
"J#	c #4D2A11",
"K#	c #593316",
"L#	c #523626",
"M#	c #493831",
"N#	c #282625",
"O#	c #292524",
"P#	c #251F1C",
"Q#	c #3A200F",
"R#	c #5D3716",
"S#	c #663C18",
"T#	c #4E3120",
"U#	c #443833",
"V#	c #29211F",
"W#	c #271B15",
"X#	c #2D1E14",
"Y#	c #311E11",
"Z#	c #4C2D14",
"`#	c #573C2B",
" $	c #50413A",
".$	c #413936",
"+$	c #383434",
"@$	c #353232",
"#$	c #292725",
"$$	c #2B2725",
"%$	c #271F1C",
"&$	c #211610",
"*$	c #462811",
"=$	c #5B3214",
"-$	c #46260F",
";$	c #653B17",
">$	c #603816",
",$	c #41230D",
"'$	c #4F2F17",
")$	c #42322B",
"!$	c #403C3C",
"~$	c #3B3837",
"{$	c #22201F",
"]$	c #352116",
"^$	c #593213",
"/$	c #462915",
"($	c #44332C",
"_$	c #4E423D",
":$	c #423B38",
"<$	c #302E2C",
"[$	c #302E2E",
"}$	c #211F1F",
"|$	c #292522",
"1$	c #2E231E",
"2$	c #3B2314",
"3$	c #3C210E",
"4$	c #613817",
"5$	c #422C1E",
"6$	c #36302F",
"7$	c #353231",
"8$	c #282525",
"9$	c #1A1717",
"0$	c #161311",
"a$	c #241F1C",
"b$	c #2B2726",
"c$	c #2B2422",
"d$	c #2F1A0D",
"e$	c #5E3414",
"f$	c #4A2810",
"g$	c #542E12",
"h$	c #51321F",
"i$	c #4A362D",
"j$	c #36312F",
"k$	c #2F2D2C",
"l$	c #282424",
"m$	c #1E1918",
"n$	c #372112",
"o$	c #5D3516",
"p$	c #42240D",
"q$	c #3F2616",
"r$	c #312924",
"s$	c #201D1B",
"t$	c #1C140E",
"u$	c #271508",
"v$	c #2C190C",
"w$	c #29211D",
"x$	c #1B140F",
"y$	c #44250D",
"z$	c #523421",
"A$	c #4D3A30",
"B$	c #423733",
"C$	c #342F2E",
"D$	c #292525",
"E$	c #2A2625",
"F$	c #28211F",
"G$	c #291C14",
"H$	c #361F0F",
"I$	c #442510",
"J$	c #653B18",
"K$	c #3B210B",
"L$	c #45270E",
"M$	c #613615",
"N$	c #372214",
"O$	c #342E2C",
"P$	c #242121",
"Q$	c #1E140E",
"R$	c #2F1A0B",
"S$	c #3F230C",
"T$	c #31231D",
"U$	c #1C130E",
"V$	c #1E1004",
"W$	c #3B1F0A",
"X$	c #573112",
"Y$	c #4A3021",
"Z$	c #4A3930",
"`$	c #282624",
" %	c #2A221F",
".%	c #332117",
"+%	c #683C19",
"@%	c #623716",
"#%	c #24201F",
"$%	c #221309",
"%%	c #391F0B",
"&%	c #432714",
"*%	c #372C27",
"=%	c #2B2626",
"-%	c #241712",
";%	c #2D1708",
">%	c #291407",
",%	c #40220C",
"'%	c #422613",
")%	c #422F24",
"!%	c #473932",
"~%	c #3F3835",
"{%	c #393433",
"]%	c #27211E",
"^%	c #2F1F14",
"/%	c #492A13",
"(%	c #5E3616",
"_%	c #4A2B11",
":%	c #5C3314",
"<%	c #342014",
"[%	c #342C2A",
"}%	c #2B2625",
"|%	c #251B16",
"1%	c #301C0E",
"2%	c #432715",
"3%	c #42312B",
"4%	c #393330",
"5%	c #2A2524",
"6%	c #2E1C12",
"7%	c #3C2415",
"8%	c #46342C",
"9%	c #393331",
"0%	c #353130",
"a%	c #3E3C3C",
"b%	c #2A2828",
"c%	c #21201F",
"d%	c #2F1E13",
"e%	c #38200D",
"f%	c #49280E",
"g%	c #43240F",
"h%	c #32221B",
"i%	c #2D2624",
"j%	c #332D2C",
"k%	c #343030",
"l%	c #2B201A",
"m%	c #361F0E",
"n%	c #41230E",
"o%	c #37251C",
"p%	c #3E3632",
"q%	c #3A3433",
"r%	c #2A2827",
"s%	c #373434",
"t%	c #242322",
"u%	c #1E1B18",
"v%	c #271C18",
"w%	c #362011",
"x%	c #432610",
"y%	c #5A3315",
"z%	c #41230C",
"A%	c #623917",
"B%	c #3C2110",
"C%	c #2F1F17",
"D%	c #27211D",
"E%	c #25211F",
"F%	c #2A211F",
"G%	c #302118",
"H%	c #39200F",
"I%	c #3B200B",
"J%	c #3E2616",
"K%	c #2C2827",
"L%	c #272322",
"M%	c #231813",
"N%	c #3A210F",
"O%	c #563214",
"P%	c #633A17",
"Q%	c #2C1A0F",
"R%	c #352011",
"S%	c #422512",
"T%	c #4D2A10",
"U%	c #3A1F0A",
"V%	c #4F2B10",
"W%	c #392215",
"X%	c #2A211E",
"Y%	c #292624",
"Z%	c #282120",
"`%	c #2C1D15",
" &	c #331E0E",
".&	c #512F13",
"+&	c #5E3415",
"@&	c #543014",
"#&	c #5F3817",
"$&	c #3E230C",
"%&	c #371D0A",
"&&	c #261406",
"*&	c #2F1A09",
"=&	c #3F230F",
"-&	c #301F14",
";&	c #231F1C",
">&	c #2C1D14",
",&	c #381F0A",
"'&	c #633715",
")&	c #623916",
"!&	c #402410",
"~&	c #302016",
"{&	c #271C16",
"]&	c #382111",
"^&	c #3D220F",
"/&	c #301C0F",
"(&	c #25160D",
"_&	c #321C0C",
":&	c #5F3616",
"<&	c #2C1707",
"[&	c #4E2D14",
"}&	c #462E20",
"|&	c #372B26",
"1&	c #292322",
"2&	c #271D17",
"3&	c #3B210F",
"4&	c #492912",
"5&	c #412C20",
"6&	c #41312B",
"7&	c #322C2A",
"8&	c #271A14",
"9&	c #3E220F",
"0&	c #5D3415",
"a&	c #633816",
"b&	c #4A2A14",
"c&	c #452E21",
"d&	c #382E29",
"e&	c #332D2B",
"f&	c #201D1C",
"g&	c #29190F",
"h&	c #42230E",
"i&	c #643917",
"j&	c #42250D",
"k&	c #453028",
"l&	c #382F2C",
"m&	c #2D2826",
"n&	c #2F2D2D",
"o&	c #2C2A29",
"p&	c #1F1D1C",
"q&	c #24201E",
"r&	c #1A120D",
"s&	c #351C09",
"t&	c #593114",
"u&	c #452711",
"v&	c #3D271C",
"w&	c #3E2F28",
"x&	c #392F2C",
"y&	c #2D2828",
"z&	c #261F1C",
"A&	c #291A12",
"B&	c #2A1609",
"C&	c #271407",
"D&	c #4F2D10",
"E&	c #693E1B",
"F&	c #472E1F",
"G&	c #3D2F29",
"H&	c #352E2C",
"I&	c #232120",
"J&	c #211D1C",
"K&	c #211914",
"L&	c #331B09",
"M&	c #3F312C",
"N&	c #352F2B",
"O&	c #2D2928",
"P&	c #272323",
"Q&	c #271C17",
"R&	c #2D1A0E",
"S&	c #311B09",
"T&	c #5E3614",
"U&	c #532F11",
"V&	c #48290F",
"W&	c #512F15",
"X&	c #3F2F29",
"Y&	c #2C2927",
"Z&	c #2E2018",
"`&	c #2F1909",
" *	c #301A09",
".*	c #4E2D10",
"+*	c #5A3416",
"@*	c #50301C",
"#*	c #432F24",
"$*	c #382C28",
"%*	c #2D2726",
"&*	c #2A2523",
"**	c #261B14",
"=*	c #502F12",
"-*	c #522D12",
";*	c #49270E",
">*	c #3A210E",
",*	c #472D1C",
"'*	c #4B362B",
")*	c #2D2927",
"!*	c #373433",
"~*	c #2D2421",
"{*	c #271912",
"]*	c #2B1708",
"^*	c #49270D",
"/*	c #462D1E",
"(*	c #352C29",
"_*	c #3B322E",
":*	c #1F1B19",
"<*	c #251C17",
"[*	c #3E230E",
"}*	c #311A08",
"|*	c #47260F",
"1*	c #653917",
"2*	c #4B2B12",
"3*	c #432B1F",
"4*	c #42342F",
"5*	c #352F2D",
"6*	c #2E2A28",
"7*	c #281C14",
"8*	c #331E0F",
"9*	c #44260D",
"0*	c #653916",
"a*	c #563118",
"b*	c #462F21",
"c*	c #392E29",
"d*	c #312B2A",
"e*	c #282321",
"f*	c #2C2119",
"g*	c #372110",
"h*	c #502F1B",
"i*	c #4B3224",
"j*	c #3C2E27",
"k*	c #282220",
"l*	c #2E1E14",
"m*	c #3B210D",
"n*	c #633916",
"o*	c #593113",
"p*	c #603614",
"q*	c #54331D",
"r*	c #473228",
"s*	c #3C2F2A",
"t*	c #312C2B",
"u*	c #2B2321",
"v*	c #261913",
"w*	c #502F13",
"x*	c #4F2E12",
"y*	c #331C0A",
"z*	c #2A1608",
"A*	c #301909",
"B*	c #3A2418",
"C*	c #4B352A",
"D*	c #3C332F",
"E*	c #2F2A28",
"F*	c #3B3737",
"G*	c #221F1D",
"H*	c #322014",
"I*	c #562F14",
"J*	c #321B0A",
"K*	c #3B200A",
"L*	c #492F21",
"M*	c #382F2D",
"N*	c #3A322F",
"O*	c #302C2B",
"P*	c #262422",
"Q*	c #1D1A18",
"R*	c #291C15",
"S*	c #41250F",
"T*	c #44240E",
"U*	c #512F19",
"V*	c #4C3428",
"W*	c #41332F",
"X*	c #342F2D",
"Y*	c #2F2C2C",
"Z*	c #291B14",
"`*	c #3A200E",
" =	c #4E2B12",
".=	c #4A2C17",
"+=	c #493227",
"@=	c #40332F",
"#=	c #322C2B",
"$=	c #2A2626",
"%=	c #2C2421",
"&=	c #2E1F17",
"*=	c #38200E",
"==	c #552F14",
"-=	c #56331A",
";=	c #473024",
">=	c #3B2F2B",
",=	c #322D2B",
"'=	c #26211F",
")=	c #342115",
"!=	c #472A12",
"~=	c #331B08",
"{=	c #462C1B",
"]=	c #493328",
"^=	c #3A2F2A",
"/=	c #302B2A",
"(=	c #2D2B2A",
"_=	c #292220",
":=	c #301B0B",
"<=	c #361E0A",
"[=	c #4D2D15",
"}=	c #412C21",
"|=	c #3A2F2B",
"1=	c #342D2A",
"2=	c #2C2726",
"3=	c #2B2828",
"4=	c #201C1C",
"5=	c #2B211D",
"6=	c #301F13",
"7=	c #351D0C",
"8=	c #663C19",
"9=	c #231205",
"0=	c #3C200C",
"a=	c #4A3327",
"b=	c #41342F",
"c=	c #23201D",
"d=	c #261812",
"e=	c #351E0E",
"f=	c #2C1808",
"g=	c #4B2C11",
"h=	c #603717",
"i=	c #453127",
"j=	c #3F332F",
"k=	c #2E2B29",
"l=	c #2C2522",
"m=	c #2C1E15",
"n=	c #39200E",
"o=	c #341C08",
"p=	c #532F14",
"q=	c #391F0A",
"r=	c #4F2C10",
"s=	c #4F2F18",
"t=	c #4D372C",
"u=	c #3F342F",
"v=	c #342117",
"w=	c #3E2411",
"x=	c #4B2A0F",
"y=	c #41291D",
"z=	c #43332D",
"A=	c #373130",
"B=	c #28211E",
"C=	c #2A1C14",
"D=	c #281406",
"E=	c #5A3213",
"F=	c #311C0C",
"G=	c #33241D",
"H=	c #3A2F2C",
"I=	c #232121",
"J=	c #24211F",
"K=	c #301D12",
"L=	c #38200C",
"M=	c #351D0A",
"N=	c #371E0C",
"O=	c #1C0E04",
"P=	c #613614",
"Q=	c #4A2B10",
"R=	c #31231C",
"S=	c #2D2827",
"T=	c #201B19",
"U=	c #261A14",
"V=	c #341E0E",
"W=	c #361F0C",
"X=	c #331D0A",
"Y=	c #2D1808",
"Z=	c #3D2414",
"`=	c #2C211C",
" -	c #341D0D",
".-	c #41250D",
"+-	c #311B0A",
"@-	c #40220E",
"#-	c #381E0C",
"$-	c #392112",
"%-	c #261E1B",
"&-	c #2F2016",
"*-	c #3D2210",
"=-	c #361D0B",
"--	c #1E0F04",
";-	c #49270F",
">-	c #352014",
",-	c #241B18",
"'-	c #341E0C",
")-	c #3F240F",
"!-	c #5D3614",
"~-	c #522F11",
"{-	c #4C2C10",
"]-	c #2F1A0A",
"^-	c #2C1709",
"/-	c #381F0C",
"(-	c #2D1809",
"_-	c #321B0B",
":-	c #301B0A",
"<-	c #1A0D04",
"  . + @ # $ % & * = - ; > , * ' ) ! ~ { ] ^ / ( _ : ^ < [ [ } | 1 2 3 4 5 5 6 7 8 9 0 a b c ; d e f g 5 h i j k l m n o @ p ) l ",
"q + r s t u 7 v w x y z b A B ! C ! ^ D E F G H I r v J < K k L M N O P K Q q R + 7 q k S B a T U V 9 6 s n W k X m X / E Y Z ; ",
"` +  ...+.@.#.$.%.o &.*.=.-.;.>.,.'.( ).!.'.~.{.].^.7 r /.(._.:.<.[.}.|.1.2.7 3.4.5.6.t v @ c f 7.8.^ 6 * 9.J 0.a.7 r Y ^ b.[ b ",
"@ t c.h d.e.7 X ;  .f.g.5 h.i.~ j.k.z l.m.4 r [ H ;.6 e.n.o.p.q.r.s.t.u.v.w.x.y.Q z.q 8 Q q x.r r A./.q J a B.^ | C.x.Y ^.A [ D.",
"h.E.K 4 F.G.9.w 1.S H.W ! ^ I.; J.* z  .S S h h K.L.M.N.O.P.Q.R.S.T.U.V.W.X.I h Y.! 5.q r H.@.@.l Z.^.g 9 _ * 5 r ..Z 8 /.r E.`.",
" +.+++A @+y z a D.b.5.#+# ~ V $+Y.J.] ] %+S [ r I ].&+*+=+-+;+>+S.V.,+'+)+!+i.| '.~+Q t J {+g ) t r K ^.]+F 9 6 3.B.k e.4 6 +.k ",
"u 8 5.b ^+U /+/+(+* 3.3.0.0.^.L.%.9 _+#+5 | ^ l :+<+[+}+|+1+2+3+4+5+6+7+8+(+{ 9+^.5 t 0+9 I B.a+b+! h k c+n d+i W e+J ^.s ^.+.k ",
"f++ t a.g+h+/+D.i+a.7 3.h {+J ~ ].9.j+k+Q ^ r i l+m+n+o+p+s.2+3+q+r+s+w a.t+H u+V v+3.w+9 x+T ..Y ] ~ ] | n t 5.#.Y.Y [ X B ) ^.",
"8 i 6 k a.y+T x+{.a.J y.x./.E q X z+A+B++ J J C+D+E+F+G+H+I+2+J+K+L+b o M+J | N+O+B.t % i a.o o ^.k n 6 r ^.6 5.q %+J.] 6 *.P+[ ",
"3.K ^ ^ @ T i.s w.Q+g q R+h X 5 ] K.S+; T+U+V+W+X+Y+Z+`+H+ @.@+@@@#@[ h.@ ~ n K.$@%@h.m Y Z X a./.{+a.~ 7 ! J 9 &@A a.h g.%.Z r ",
"*@ .J J J.=@N+h.-@;@4.7 >@q ,@! 0.b B.u+'@)@!@~@{@]@^@/@(@_@:@<@#@>@>@^ @ 5 ! a./+u+[@h R 8 t 5.C.K ^.| i Y 6 5 ' , a s Q o 4 C.",
"/ c.>.[ + }@> {.|@1@2@Q q Q t t # k 3@4@5@6@7@8@9@0@a@b@c@d@e@T  .>@b+# 4 J q ^ a f@g@d k i Q #+>@0.5 h ^.Y a+r J t+w x+E h@J ^.",
"F x+q 5 7 h@z S B i@j@k@v l@m@3.7 Z n@o@p@R.q@`+r@s@t@u@v@w@A.x+g+E #+3.]+| x.x@A.i+y@y i.[ Z 5 5.~ 4 9 n Z i 2.C.v+B z *.j.) h.",
"h k q J.q h s h 6 :+b.j@z@#@t+l@7 A@B@C@D@E@F@`+`+G@H@I@J@s l K b.B.^ 7 J I J K@Z 4 c.=@&.;.g ..f.v+!.' r < h r C.I a.].i+w.+ 4 ",
"^ r g J.6 [ a.n ! 7 r F.L@k@A M@N@D+O@P@1+Q@`+2+R@S@T@S 5 @ ^ h | ].U@[ 6 f J h | r n b.V@{ ^.| B.; @ J ~ k ^ X ^.`.;.f a.B h ~ ",
"b.| a.E ^ W@; B !.9 k@n %.;@X@Y@Z@`@ #.#2++#@###$#%#@ h t J.0.J h a.U@&#x+; 4 ^ ;  .h n 9.*#=#I 4 S k 9 q s n ! ^.x+c ..K {+* ! ",
"* ~.].I g ]+_ 9.c J # 6 y+-#;#>#,#'#)#!#4+~#{#]#^#a.z@/#k@*@Q+7 i n a.U@H ..h / b.a _ s * i@(#_#:+r h 9 b+9 k ! 9 h.:#{+h.^.b.^ ",
"v r <#[#6 5.Z.E | C.h /.}#|#1#2#3#s.4#/@##5#6#7#V T ] 8#z@9 6 t 8 J | F.{.I l 7 [ B.l.b.f B./+9#0#Z i 6 Y Y a#/.5.9 4 h b#c#; d#",
"@.9 h b. .>@3.t ! ^.%+e#f#g#o+h#F@I+2+i#j#k#l#k X ..9.Q+m#9 Q 5.Q i a.c ;.n#k 8 8 l J  .c.o#7#d p#q#i l@t t s ; k 7 l Z.r#K@*.y@",
"7 Q &@a.B.n #+) Q s#t#u#v#w#p+p+Q@2+.@x#y#@ H.! h h ..z#A#B#C#3.! 9 k n#D#=.b E 7 Q t j@E#F#G#H#I#p#:#Z ,@b+,.h.n l ,@x.i l@J#f ",
"q 0+9 k ; 8.^ E.K#L#M#7@q@N#Q@1+O#P#2 Q#4 7 E.Q h ^ k i.i@R#S#b+i i 9 [ x+c.i+8.0.9 U+T#U#F+V#W#X#u@Y#a.Z Y + v 6 Q ! 4 v+Z C.Z ",
"~ @.R ^ W@c B.Z#`# $.$+$@$}.#$$$%$&$*$%+0.9 W m =$H.a.-$S+c ;$>$3.8 3.E.i F B.,$; ^ '$)$!$~$Z+{$s.F@.@]$7.K@3.@.^$a+5._ {./.[ Z ",
"* ^ 6.~ @ [ /$($_$:$<$+$[$}$|$1$2$3$/+L@j@J >@C b+# F /.a.i./ 4$+++ E.b+b+v t+B.,$;.Z#5$6$7$8$9$0$a$b$c$d$L.~.Q e$i Q ' o f$g$v+",
"-$c ^ y./ h$i$E+j$k$+#p+l$m$r+n$a#>@..#@o$#+9 E.% + # Z l 4 p$F 8 #+) b+3.l h.F.G T ].q$r$N#s$t$u$v$w$Q@x$O+y$/.E.3.l v b.F 7 C.",
"B b.x+U+z$A$B$C$Q@b$D$E$F$G$H$I$J W + h.j@J$% 3.Y m t Q t >@]+K$L$q W M$3.J  .n < D.= N$O$P$Q$R$S$, T$Q@U$V$W$`.X$d.t 6 Z.[ i Z ",
"b.V g+Y$Z$B$C$.#`$ @~# %.%@@* | 0.7 C#7 c 9 +%@%l 5 q b+w+@.8 [ $+'.@%W Y Z !.J Q b.}@s+P@#%$%%%I &%*%=%-%;%>%,%C.E.b+i Z Z J J ",
"&#'%)%!%~%{%.#U.I+O#]%^%/%5 5 r ^ 5 q 7 Y./+(%+%q z _%5.+.:%0+W F.i.7 ++3.x@J 6 Q  .-@<%[%}%|%1%2%3%4%5%6%%%(#|@y$J q i 5.a+! h ",
"7%8%p@9%0%a%b%c%E$w$d%e%h@) i 3.q [ ~ A.# f%z#B+T+( g%_ 7 7 Q W 7 y+b.(%>$i r 5.8 0.G 3$h%i%}%i%j%k%q@l%m%n%=.|@(#y${+F 6 0+3.6 ",
"o%p%q%G+r%s%t%u%v%w%x%x+8.g y%7 #.v 0.~.! i z%* z@N._ 9.[ i l t 8 k %.@ A%(%h ] 7 q s a B%C%D%E%.@F%G%H%G I G I%U u+z+z#a.i 8 7 ",
"J%N 1+K%N#L%b@M%N%M+5 / | c / q + #+6 ^ l 7 C.z% .O%U+h@F i l l E.7 {+V ^ P%Q+E 9 7 9 ..G 3$1%Q%R%S%b.`.T%r h -$(+e O+U%g+V%^ r ",
"h@W%X%Y%`+Z%`% &D#! #+7 .&b.8.5 0+#+Q Z ! t 3.[ ].* m#>@5 i q ! +&m l {+z+@&#&J.9 6 5 Q 4 * -.I.$&6 Q Z.S [ 5.r B.%&&&*&y$} X X ",
"X =&-&{#;&>&1 ; ..k 7 b+9 * z#t+T+0+,@q i 7 d+3.h.,&^ J$#.q q n l '&Q J | U *@)&0+x@a.9 t r a.*.H n R 8 0.4 ^.l :+!&~&{&]& .r l ",
"6  .^&/&(&_&-$[ n  .@ 8 (%F A b.E :&t ,@l 6 Y W Q K.<&/#P%t t A.E f+@.r 5 &#G 4.% t K h.l ,@Z.a.,${.5 d+t 5 | t+[&}&|&1&2&3&h.Z ",
"6 Z ^.G g@|@{.E / s  .5 (%>@h@^ F.5 % 3.r ~.6 0+@.r p$%.z.+ e$Z [ a+3.! ~ r p$ .q 8 q [ k ~ J K b.I%y$l@@.i [ 4&5&6&7&2+,+8&9&{+",
"J r v g a |@S+a.~ 0.4 Y.` t l ` ] t+>@.+t | 4 5.0&5 0.L.c k@a&7 ! Q t H.J i 0.^+p$g #+Q ] k s k ^.^+d 7.K@Z b&c&d&e&H+3+t.f&g&h&",
"Z ^ g 9 F -.*#T !.h n E J l l # 9 Y.]+7 C l A.r Y q F  .7.F _+u ,@l :%,@Z y.i h.I%x+i&++7 ! ^.S h /.j&H {._.k&l&m&n&o&p&2+q&r&9#",
"^ ^ ! Y q a.D s&-.F E 0.5 l # g # 9 ^ F m@d+Q l Y 8 [ * 5 | %++%W Z a+a+^ ^ ,@i `.S+J.+%0+7 t&^ k K h.u&v&w&x&y&r@o&I+s$z&A&B&C&",
"' 0.! @.) ] ^+V@g@,$s 0.! 9 ] E ^ q >@D&F.E.W t b+0+! S ^ a+%.Q+E&~ l :%F b.'.l h p$_#T+0+7 t t 6 ^.4&F&G&H&;+`+3+I&J&K&/&w i+V@",
"7 ~ r a+w+Y a#b L&|@d#!.h q ] a.f 5 t r ; h.W 3.b++ Z '.^.t n i.B#J.] t l | f !.F s %.d#/##+7 a+,@# t#M&N&O&K% @P&J+Q&R&w I a.,$",
"Z i ! t E.C (%q F.9#S&D.x+5 9 :#a %+5.Z k B.J @.0+k@] ^.J Q T&U&;.@&` q 7 q 0.; b.s a.i.V&T+Y 5 W&t#X&7&s.`+Y&s..@Z&]&i+,$a.~...",
"g 6 E v T+C#a&.+J.b `& *D * J [ w.%+5.i J W@x+6 0+T+U+W@k r t E..*b.9 :&t 3.8 ~  .k | K.T F.+*@*#*$*%*!#V.r@8@&***e@| s b...S 4 ",
"Y h S c k t b+#.8 E -.y  *d#^.^  .n 7 t ~ a#a. .6 + z.=*W@{+-*6 Z ;** 4$i&Y >@8 ] Z E 7.F.>*,*'*x&)*>+!*f&P$~*{*]*I%< 6 :#S a x+",
"E.Q a.o b k 7 0+7 6 | d - %%S !.m.| Q E.~ c * c x+i W T&r 4 X 0.f.[ d##@. C l 6.b+t q {+^*/*(*_*;+2+2+^@:*<*G#[*w T f%x.]+b.c.D.",
"Z d+! F.B _ ! W m Y 5.a.I.}*z+`.|*-$h Y 9 ; 9.b.B.7.b+1*7 h H.! @  .] i.6 & l J @.m i 2*3*4*5*6*F@O#r@E%7*8*A F 4 x+9*h.Y. .c.a ",
"a.@.i 9 >@4 ~.:%0*T&b+J.a.s&$@V f 9.:#7 Q  .-@* s 7.:++.@.6 R+,@7 ]+9 J j&q #+/ Z.t a*b*c*d*H+H+F@2+e*f*g*z s ^ l J g+U@h.n ( , ",
"* x@g # )&E.h X @%E.Z 7 5.p$}*(#,$G b.! 8 Q+ .* E [ ..! + y.h J ,@Q 9 7 I 8./#T+s#h*i*j*%*`+2+`+ @k*l*3&7#k J h l 5.| ^+].c V&m*",
"s [ >@t t n*#+H.o*p*5 l 9 ..= ]* *D G 0.Q 0+8 h h 5 n I g >@^ a.| h 5.t i f%{.# q*r*s*t*4#I+3+O#u*v*S&w*x*k Z Z.k i r b > G.-@-#",
"7 h g.) Q Q 8 Q l @.@.i r  .^+y*z*A*].k H.t @.Q 5.5.6 k a.^ 5 a.-$b.n Q :%Z ].B*C*D*E*p+F*p&G*X%H*3$U * #&I*l@h f.: J B D J*K*{.",
"3.Z < e$g.[ X ! x.5.3.3.9 ^ h@B ,&U G.h.H.v 5 r @.w+3.m@A.p$k ' B a f J i @&L*M*N*O*`+P*t.Q*R*n$S*_ ; { J.(%q X f.| I T*/+D F k ",
"J h f Z Q ~.a.[ Z 9 :%0&t i ] 5 ^ (+U ^+:+r ! h.i m b+E.Z y${.Q I*x+c.4 U*V*W*X*F+Y*#$`$.@Z*`*a.E %+s ,$L.] 7 5 F I o ].^+].0.] ",
"a.^+h.s x@r ^.! l x@Q 8 8 Q Q l 3.t+L&;%z+c+n x+k >@6.0+8 [ y$]++ >@ =.=+=@=#=$=Q@1+E$%=&=*=x+! Q 5 F W@p$d#==#+^ f ^+G | n#F l ",
"'./+~.W@[ ^.Z.m 3.J /.J i ! i E.3.] ].;%- ^+I a.| ~ 6 8 m 7 h.8.C.8 -=;=>=,=s.T.2+O#'=)=!=W@s J ^$i [ k ^.d#].>@J.{.*.B.r k x.t ",
"~./+ .,@J {+^.W n*t X [ r ^.k t m 5.I %%y ~=V /.~.k K l 7 t Z x+S*{=]=^=/=S.(=I&5%_=v*:=/ #+h h.U&,@h :+Z I s&T / <=U@b r x.e$0+",
"B a 4 7 l I :+d+u W t i l J s J b+p*Z ..y+}*N+f$^. .a.r 6 Z r [=}=|=1=2=3=h#t.4=5=6=7=`&/+8=#+..h.l@h {+n -$I%{ i@9=i.{.U&p*@.v ",
"!.| ^.6 J c+K f+b+Y E.^$,@5.! J 3.u d+! ~ U@- 0=a...n#k Q ^.L a=b=w#`+8$2+Q@c=d=e=a G /+f=g=h=k w.| h.| _ -.b {.^+e i...C.E.9 4 ",
"Z h l ^ x+G r d+l ] 9 Z Z r ! J l 0&u 7 7 >@I.y ^+b.T ; ^$U*i=j=5*k=F@b$O#l=m=n=a.n k a.V o=k p=0 b.-$b.G =.;  .b U q=r=6 7 i h.",
"Z.h.W X !.*.0.E.r # s s < h./.Z.^.@ 3.0+y.8 a.%&g@].,$y$s=t=u=,=s.`$s.`+F$v=w=* ^ ! r h U&x=].W@9 %+9.a b a A f.b V@}*^.q J | {+",
",@b.p Z.~.T  .Q h 7 * h@r C.[ 5 k 9.!.i ,@t ! K.{ $+3$y=z=v#A=[$r@t.2+B=C=8+F 5 J r K [ ~ r ..i.x*` ; _ D.B i+b.w f@D=a.Q 0.c n ",
"l {+u J * b | H.[ Q [ x+6 ^$E=t i  .9.| r 3.E.[ /+F=G=H=6$3#S.4#I=J=5=K=L=*.t+3.l X | a.4 4 a.=@M=a#9.j.w 9.y@; y@N=O=B.,@[ f H.",
"^ 4 ) @ a.| ^.r k Z t ! n r @.+.P=i Q=x+n i + R F.B%R=S=s.`+a@a@T=U=V=n#_ L$p$] #+J h.b.c+f$).(+y I%d _ W=m*N=].}@X=Y=G c _ ,@^.",
"c.~.W {+x+J ! i k ^.3.#+] B.r e$W 8 J h.h Q a+m Q h@Z=`=/@`+a@]%A& -a.~ Z. .a .-9 >@n B ).|*-.(+@++-L&@-#-f=*.^ Z.+ /.s /+o r#^.",
"/+^.e$| a.K ~ E.[ T%y.T&Y /+p$T%l ^$r {+Z.b+W t t ~ s $-%-4+J+&-*-A F i Q h b.].;.J.g _ {.g%-.-.a =-b (+w --b.7 r a.{+| y@Z J h ",
"^+^.Z ^ f$l  .n*Z.[ ;-T&j D.V@G. .^ [ a.K T&W :%9 n @ _ >-,-{*`*S a.x+]+i 6 s G ]. ./.j&=@%%S '-)-y@; y@N=O=g+t X ; n s }@7 6 {+",
"b ^./.>@s l /.W 5 /.b i !-~ /+g@b.X ~-{+(.7 Y H.5 {- .s x%]-^-/+a.b.i+].^ 6 b.b g%@+b /-(-L&g%_-:-I#^+= +-<-B.l ^.f l k }@Z ` a "};
