/* XPM */
static char * rot9_xpm[] = {
"64 64 912 2",
"  	c #653A18",
". 	c #633917",
"+ 	c #5A3314",
"@ 	c #4B2A10",
"# 	c #522E12",
"$ 	c #653A17",
"% 	c #5D3515",
"& 	c #603716",
"* 	c #45270F",
"= 	c #341C0A",
"- 	c #2C1707",
"; 	c #42250E",
"> 	c #371D0B",
", 	c #3C210D",
"' 	c #4E2B11",
") 	c #5B3414",
"! 	c #512D11",
"~ 	c #4E2C10",
"{ 	c #311A08",
"] 	c #4F2D11",
"^ 	c #4D2B10",
"/ 	c #4E2C11",
"( 	c #42250F",
"_ 	c #45260F",
": 	c #4C2A10",
"< 	c #4C2A0F",
"[ 	c #4B2A0F",
"} 	c #4A290F",
"| 	c #3C210E",
"1 	c #2C1B12",
"2 	c #311E13",
"3 	c #44260F",
"4 	c #4F2C10",
"5 	c #532F11",
"6 	c #512E11",
"7 	c #563112",
"8 	c #593213",
"9 	c #563113",
"0 	c #553113",
"a 	c #46270F",
"b 	c #43250E",
"c 	c #40230D",
"d 	c #3D210C",
"e 	c #371D0A",
"f 	c #3C210B",
"g 	c #522E11",
"h 	c #4A2A0F",
"i 	c #43260E",
"j 	c #573113",
"k 	c #40220D",
"l 	c #603715",
"m 	c #532E11",
"n 	c #543012",
"o 	c #502C10",
"p 	c #49290F",
"q 	c #5F3615",
"r 	c #532E12",
"s 	c #3A200C",
"t 	c #371F0B",
"u 	c #2B1707",
"v 	c #3F220D",
"w 	c #40230E",
"x 	c #42240E",
"y 	c #5D3514",
"z 	c #4E2B10",
"A 	c #4C2B10",
"B 	c #4F2B10",
"C 	c #432A1B",
"D 	c #352924",
"E 	c #231E1D",
"F 	c #311D11",
"G 	c #553112",
"H 	c #583113",
"I 	c #542F12",
"J 	c #4F2C11",
"K 	c #48290F",
"L 	c #49280F",
"M 	c #48280F",
"N 	c #3B200C",
"O 	c #42240D",
"P 	c #563011",
"Q 	c #4E2B0F",
"R 	c #512D10",
"S 	c #512E12",
"T 	c #47280F",
"U 	c #45260E",
"V 	c #5D3414",
"W 	c #593113",
"X 	c #573114",
"Y 	c #3B200B",
"Z 	c #271406",
"` 	c #3C210C",
" .	c #381F0B",
"..	c #371E0B",
"+.	c #593214",
"@.	c #4F2D12",
"#.	c #3A200B",
"$.	c #3E210C",
"%.	c #4B290F",
"&.	c #4C290F",
"*.	c #4A290E",
"=.	c #462A19",
"-.	c #402F27",
";.	c #342C29",
">.	c #252322",
",.	c #201A18",
"'.	c #301D10",
").	c #543113",
"!.	c #553011",
"~.	c #522D10",
"{.	c #4C2B0F",
"].	c #3D210D",
"^.	c #47270F",
"/.	c #41240D",
"(.	c #4D2B0F",
"_.	c #41230E",
":.	c #5E3514",
"<.	c #512E10",
"[.	c #44260E",
"}.	c #281406",
"|.	c #3D220C",
"1.	c #4C2B11",
"2.	c #4A2910",
"3.	c #43250D",
"4.	c #522D11",
"5.	c #472810",
"6.	c #482E20",
"7.	c #43342D",
"8.	c #372F2B",
"9.	c #2B2826",
"0.	c #262322",
"a.	c #20201F",
"b.	c #2F1B0F",
"c.	c #502D11",
"d.	c #553012",
"e.	c #533011",
"f.	c #573112",
"g.	c #5B3314",
"h.	c #502C11",
"i.	c #46260F",
"j.	c #633816",
"k.	c #47260E",
"l.	c #5E3515",
"m.	c #47270E",
"n.	c #3E230C",
"o.	c #4A2A10",
"p.	c #43260F",
"q.	c #42240F",
"r.	c #46270E",
"s.	c #3F220C",
"t.	c #4D2C0F",
"u.	c #4A2B12",
"v.	c #422A1D",
"w.	c #41322B",
"x.	c #3A3230",
"y.	c #322F2F",
"z.	c #2C2929",
"A.	c #1F1D1C",
"B.	c #252221",
"C.	c #201D1C",
"D.	c #1A110D",
"E.	c #2F1809",
"F.	c #532D12",
"G.	c #5B3313",
"H.	c #583112",
"I.	c #633A17",
"J.	c #5A3213",
"K.	c #46260E",
"L.	c #45270E",
"M.	c #40230C",
"N.	c #42250D",
"O.	c #41240C",
"P.	c #482E1C",
"Q.	c #403129",
"R.	c #342E2A",
"S.	c #2B2927",
"T.	c #373434",
"U.	c #2E2B2B",
"V.	c #1D1B1A",
"W.	c #221F1D",
"X.	c #261B16",
"Y.	c #2C190D",
"Z.	c #291607",
"`.	c #3A200A",
" +	c #583213",
".+	c #4C2C10",
"++	c #47280E",
"@+	c #41240E",
"#+	c #381E0A",
"$+	c #3F230D",
"%+	c #533012",
"&+	c #4E2D11",
"*+	c #44250E",
"=+	c #44250D",
"-+	c #3A271D",
";+	c #40322D",
">+	c #39312D",
",+	c #2C2927",
"'+	c #242120",
")+	c #222020",
"!+	c #1B1816",
"~+	c #1F150F",
"{+	c #311C0E",
"]+	c #321B08",
"^+	c #391E09",
"/+	c #502D10",
"(+	c #3C200C",
"_+	c #4D2A0F",
":+	c #532F12",
"<+	c #40240D",
"[+	c #311A09",
"}+	c #341C09",
"|+	c #583114",
"1+	c #46290F",
"2+	c #5A3315",
"3+	c #492912",
"4+	c #422D21",
"5+	c #423732",
"6+	c #3A3432",
"7+	c #2E2B2A",
"8+	c #282524",
"9+	c #232120",
"0+	c #211D1A",
"a+	c #241811",
"b+	c #2E190B",
"c+	c #41230D",
"d+	c #301808",
"e+	c #5A3214",
"f+	c #42230D",
"g+	c #4F2D10",
"h+	c #3E220D",
"i+	c #391F0B",
"j+	c #5B3213",
"k+	c #371E09",
"l+	c #5D3616",
"m+	c #5E3616",
"n+	c #4B301F",
"o+	c #42342D",
"p+	c #393230",
"q+	c #2E2A29",
"r+	c #292725",
"s+	c #262423",
"t+	c #262422",
"u+	c #25201F",
"v+	c #291D17",
"w+	c #38200F",
"x+	c #3D200C",
"y+	c #5C3414",
"z+	c #48270F",
"A+	c #583111",
"B+	c #563013",
"C+	c #2E1808",
"D+	c #5F3817",
"E+	c #51311C",
"F+	c #48342A",
"G+	c #2B2827",
"H+	c #292625",
"I+	c #272423",
"J+	c #252220",
"K+	c #261A15",
"L+	c #3A210F",
"M+	c #3A1F0A",
"N+	c #5A3313",
"O+	c #4A2810",
"P+	c #553013",
"Q+	c #3A1F0B",
"R+	c #532E10",
"S+	c #331B09",
"T+	c #4E2C12",
"U+	c #4A2F1E",
"V+	c #49362D",
"W+	c #3D322F",
"X+	c #353130",
"Y+	c #292727",
"Z+	c #221915",
"`+	c #301B0D",
" @	c #46280F",
".@	c #542F11",
"+@	c #3E210D",
"@@	c #351C0A",
"#@	c #522E10",
"$@	c #49280E",
"%@	c #371D09",
"&@	c #543013",
"*@	c #301908",
"=@	c #452710",
"-@	c #4B3122",
";@	c #45342D",
">@	c #38302D",
",@	c #312E2E",
"'@	c #363333",
")@	c #201D1D",
"!@	c #241E1D",
"~@	c #291C17",
"{@	c #311B0F",
"]@	c #5B3415",
"^@	c #3A1F0C",
"/@	c #271407",
"(@	c #321B09",
"_@	c #4F2B11",
":@	c #4D2A10",
"<@	c #532F13",
"[@	c #311908",
"}@	c #573215",
"|@	c #48270E",
"1@	c #40220C",
"2@	c #40332E",
"3@	c #3A312F",
"4@	c #2A2826",
"5@	c #292726",
"6@	c #2D2A29",
"7@	c #262323",
"8@	c #1B1715",
"9@	c #271913",
"0@	c #3A200F",
"a@	c #5C3415",
"b@	c #381E0B",
"c@	c #2C1808",
"d@	c #4F2B0F",
"e@	c #4B2B10",
"f@	c #583215",
"g@	c #4D2B12",
"h@	c #4C3122",
"i@	c #463A34",
"j@	c #383332",
"k@	c #2F2A29",
"l@	c #272422",
"m@	c #262321",
"n@	c #231F1D",
"o@	c #23170F",
"p@	c #331D0E",
"q@	c #48280E",
"r@	c #553114",
"s@	c #532F14",
"t@	c #4D3121",
"u@	c #4A3A32",
"v@	c #403835",
"w@	c #312E2D",
"x@	c #282220",
"y@	c #391F09",
"z@	c #3C200D",
"A@	c #45260D",
"B@	c #603818",
"C@	c #522F12",
"D@	c #532F10",
"E@	c #50311D",
"F@	c #47342B",
"G@	c #3A312E",
"H@	c #2A2827",
"I@	c #282624",
"J@	c #24201F",
"K@	c #2C1F18",
"L@	c #3B2311",
"M@	c #533013",
"N@	c #371E0A",
"O@	c #291506",
"P@	c #512C0F",
"Q@	c #593315",
"R@	c #3F240E",
"S@	c #41291A",
"T@	c #443229",
"U@	c #3B312C",
"V@	c #272424",
"W@	c #23201E",
"X@	c #201814",
"Y@	c #542F13",
"Z@	c #583214",
"`@	c #3D210B",
" #	c #42230E",
".#	c #3D200B",
"+#	c #502F16",
"@#	c #4C3221",
"##	c #41332E",
"$#	c #37302D",
"%#	c #343130",
"&#	c #3C3939",
"*#	c #261B15",
"=#	c #311B0D",
"-#	c #563114",
";#	c #40230F",
">#	c #3E230F",
",#	c #3F230E",
"'#	c #351D0A",
")#	c #2F1808",
"!#	c #3A2009",
"~#	c #563012",
"{#	c #4E2C0F",
"]#	c #3E220C",
"^#	c #3E220F",
"/#	c #3F2B20",
"(#	c #4C3A31",
"_#	c #373333",
":#	c #1F1D1D",
"<#	c #211C1A",
"[#	c #2B1F18",
"}#	c #4D2C11",
"|#	c #5B3416",
"1#	c #4E2C13",
"2#	c #3C291D",
"3#	c #312520",
"4#	c #301D13",
"5#	c #331D0D",
"6#	c #2F1A0E",
"7#	c #201106",
"8#	c #482C1B",
"9#	c #3A312C",
"0#	c #3C3531",
"a#	c #2F2B29",
"b#	c #242121",
"c#	c #1F1B19",
"d#	c #281911",
"e#	c #3A2110",
"f#	c #482810",
"g#	c #44270F",
"h#	c #512D12",
"i#	c #4F2C12",
"j#	c #4B2F1D",
"k#	c #413632",
"l#	c #332F2E",
"m#	c #211A17",
"n#	c #29201C",
"o#	c #272120",
"p#	c #231B18",
"q#	c #3A2010",
"r#	c #4A2911",
"s#	c #472E1E",
"t#	c #39312E",
"u#	c #312E2B",
"v#	c #281C16",
"w#	c #5B3516",
"x#	c #613816",
"y#	c #4C2C16",
"z#	c #3F3029",
"A#	c #3C3938",
"B#	c #393635",
"C#	c #292626",
"D#	c #201E1D",
"E#	c #252120",
"F#	c #29201F",
"G#	c #311A0C",
"H#	c #41230C",
"I#	c #522D12",
"J#	c #4D2B11",
"K#	c #4C2B13",
"L#	c #472E20",
"M#	c #42332C",
"N#	c #2D2928",
"O#	c #24201E",
"P#	c #2B1E17",
"Q#	c #341E0F",
"R#	c #5F3716",
"S#	c #5C3515",
"T#	c #492A12",
"U#	c #422A1B",
"V#	c #312B29",
"W#	c #312F2F",
"X#	c #272524",
"Y#	c #191615",
"Z#	c #1B110C",
"`#	c #22160F",
" $	c #231D1B",
".$	c #2D2929",
"+$	c #18110F",
"@$	c #2A1506",
"#$	c #593112",
"$$	c #563111",
"%$	c #4E3222",
"&$	c #463630",
"*$	c #372F2D",
"=$	c #292624",
"-$	c #23201F",
";$	c #1E1713",
">$	c #3B220F",
",$	c #5A3113",
"'$	c #5C3416",
")$	c #41220D",
"!$	c #412511",
"~$	c #312721",
"{$	c #272525",
"]$	c #1D1A18",
"^$	c #1A110C",
"/$	c #2D1809",
"($	c #341D0A",
"_$	c #2E1F17",
":$	c #2B2725",
"<$	c #1D1815",
"[$	c #1D0F06",
"}$	c #331B08",
"|$	c #42240C",
"1$	c #502C0F",
"2$	c #553622",
"3$	c #4F3F37",
"4$	c #3F3734",
"5$	c #363232",
"6$	c #232020",
"7$	c #262421",
"8$	c #292421",
"9$	c #2D1A0D",
"0$	c #361D0A",
"a$	c #351E0D",
"b$	c #322A27",
"c$	c #272322",
"d$	c #1D1511",
"e$	c #2A1708",
"f$	c #362318",
"g$	c #2C2523",
"h$	c #251308",
"i$	c #2A1607",
"j$	c #351C09",
"k$	c #543011",
"l$	c #432610",
"m$	c #412C21",
"n$	c #4A3C37",
"o$	c #423A37",
"p$	c #312E2C",
"q$	c #2F2B2B",
"r$	c #2A1E17",
"s$	c #3F2310",
"t$	c #552F11",
"u$	c #5B3214",
"v$	c #2F1A0B",
"w$	c #2E2521",
"x$	c #201713",
"y$	c #3F220E",
"z$	c #432919",
"A$	c #3B302A",
"B$	c #251C18",
"C$	c #30190A",
"D$	c #4E2B12",
"E$	c #492F20",
"F$	c #41332C",
"G$	c #2F2C2B",
"H$	c #2A2726",
"I$	c #272323",
"J$	c #201B19",
"K$	c #261810",
"L$	c #361F0F",
"M$	c #613918",
"N$	c #623917",
"O$	c #30221D",
"P$	c #2E2928",
"Q$	c #272221",
"R$	c #312017",
"S$	c #3C2C26",
"T$	c #35312F",
"U$	c #271811",
"V$	c #261405",
"W$	c #361C09",
"X$	c #43240D",
"Y$	c #4D311F",
"Z$	c #47362E",
"`$	c #2E2929",
" %	c #291C15",
".%	c #371F0E",
"+%	c #40240E",
"@%	c #5F3717",
"#%	c #623817",
"$%	c #593114",
"%%	c #351E0E",
"&%	c #2A2828",
"*%	c #2A2625",
"=%	c #2C2827",
"-%	c #2A2524",
";%	c #341C0C",
">%	c #331C09",
",%	c #462810",
"'%	c #4B3121",
")%	c #4B3A33",
"!%	c #3E3532",
"~%	c #282523",
"{%	c #282423",
"]%	c #2D1F18",
"^%	c #3B210F",
"/%	c #623918",
"(%	c #2A1D15",
"_%	c #201815",
":%	c #241C19",
"<%	c #2E2019",
"[%	c #362114",
"}%	c #3E220E",
"|%	c #452D20",
"1%	c #44362F",
"2%	c #3A322F",
"3%	c #2E2A2A",
"4%	c #242221",
"5%	c #262120",
"6%	c #251B16",
"7%	c #3B2210",
"8%	c #573214",
"9%	c #39200D",
"0%	c #311B0B",
"a%	c #301A09",
"b%	c #3B210E",
"c%	c #341B08",
"d%	c #201005",
"e%	c #29180D",
"f%	c #42230C",
"g%	c #3E291E",
"h%	c #343131",
"i%	c #291E18",
"j%	c #311D0F",
"k%	c #5A3415",
"l%	c #4C2C11",
"m%	c #381F0A",
"n%	c #3D2311",
"o%	c #30211A",
"p%	c #231C18",
"q%	c #2F1D11",
"r%	c #3A281E",
"s%	c #423531",
"t%	c #3A3331",
"u%	c #312F2E",
"v%	c #1F1A18",
"w%	c #271B15",
"x%	c #4F2C0F",
"y%	c #3B200A",
"z%	c #43270F",
"A%	c #512F13",
"B%	c #3C200B",
"C%	c #492A16",
"D%	c #422D22",
"E%	c #352C29",
"F%	c #221B18",
"G%	c #2E1B0F",
"H%	c #352720",
"I%	c #37312F",
"J%	c #312D2C",
"K%	c #211711",
"L%	c #39200F",
"M%	c #5E3716",
"N%	c #361D09",
"O%	c #603717",
"P%	c #512C10",
"Q%	c #462811",
"R%	c #3C291F",
"S%	c #3A2E29",
"T%	c #2D2826",
"U%	c #252321",
"V%	c #1E1918",
"W%	c #2C190F",
"X%	c #3D2312",
"Y%	c #2F221E",
"Z%	c #292524",
"`%	c #272220",
" &	c #271A15",
".&	c #2F1B0E",
"+&	c #5B3315",
"@&	c #5D3516",
"#&	c #472811",
"$&	c #422B1E",
"%&	c #342A27",
"&&	c #302A29",
"*&	c #191310",
"=&	c #31190A",
"-&	c #2A1E18",
";&	c #331E0F",
">&	c #492A14",
",&	c #432D22",
"'&	c #382D29",
")&	c #2C2A29",
"!&	c #201E1E",
"~&	c #241C18",
"{&	c #21130B",
"]&	c #231206",
"^&	c #2A1C14",
"/&	c #201711",
"(&	c #2C190B",
"_&	c #5E3615",
":&	c #5F3616",
"<&	c #3C2212",
"[&	c #3C2920",
"}&	c #392D29",
"|&	c #2D2827",
"1&	c #1E1A1A",
"2&	c #241A16",
"3&	c #311D10",
"4&	c #361D0B",
"5&	c #3B200E",
"6&	c #29170A",
"7&	c #623816",
"8&	c #351D09",
"9&	c #4D2C10",
"0&	c #442711",
"a&	c #402B20",
"b&	c #362C29",
"c&	c #2F2929",
"d&	c #211E1D",
"e&	c #2A180B",
"f&	c #2E1908",
"g&	c #603817",
"h&	c #573012",
"i&	c #4C2C15",
"j&	c #412D23",
"k&	c #3C312C",
"l&	c #2F2928",
"m&	c #252222",
"n&	c #271C18",
"o&	c #29180C",
"p&	c #351D0B",
"q&	c #5B3616",
"r&	c #391F0A",
"s&	c #42260E",
"t&	c #5C3516",
"u&	c #512E14",
"v&	c #492E1F",
"w&	c #2D2927",
"x&	c #262221",
"y&	c #281E19",
"z&	c #351F10",
"A&	c #321A09",
"B&	c #45270D",
"C&	c #2E1807",
"D&	c #4B2A12",
"E&	c #452B1E",
"F&	c #3A2923",
"G&	c #2C2624",
"H&	c #251F1C",
"I&	c #2A190F",
"J&	c #2C1708",
"K&	c #49290E",
"L&	c #502F17",
"M&	c #483022",
"N&	c #382C27",
"O&	c #2F2927",
"P&	c #322F2E",
"Q&	c #312D2D",
"R&	c #252020",
"S&	c #28180D",
"T&	c #2F1908",
"U&	c #46280E",
"V&	c #40220E",
"W&	c #3B2313",
"X&	c #3D2C23",
"Y&	c #41342F",
"Z&	c #272625",
"`&	c #1B1817",
" *	c #251B17",
".*	c #372011",
"+*	c #47290F",
"@*	c #502D12",
"#*	c #4A280F",
"$*	c #442611",
"%*	c #422E24",
"&*	c #312C29",
"**	c #22201E",
"=*	c #241913",
"-*	c #301C0E",
";*	c #492910",
">*	c #4B2910",
",*	c #3F230C",
"'*	c #3E291F",
")*	c #3B302B",
"!*	c #262220",
"~*	c #271F19",
"{*	c #44270E",
"]*	c #5D3513",
"^*	c #2D1808",
"/*	c #532F16",
"(*	c #432C20",
"_*	c #352B27",
":*	c #292525",
"<*	c #291F18",
"[*	c #43250F",
"}*	c #321A08",
"|*	c #5F3515",
"1*	c #532D11",
"2*	c #44260D",
"3*	c #4D2C16",
"4*	c #4A3020",
"5*	c #3A2C26",
"6*	c #2B2624",
"7*	c #292523",
"8*	c #241D19",
"9*	c #29180E",
"0*	c #4A2B11",
"a*	c #391E0C",
"b*	c #361E0A",
"c*	c #5C3314",
"d*	c #2C1807",
"e*	c #45250E",
"f*	c #533014",
"g*	c #462F21",
"h*	c #3C2E28",
"i*	c #2F2827",
"j*	c #323030",
"k*	c #22201F",
"l*	c #29211D",
"m*	c #2E1C0F",
"n*	c #613615",
"o*	c #542F10",
"p*	c #381E09",
"q*	c #40332D",
"r*	c #312A28",
"s*	c #383434",
"t*	c #261C17",
"u*	c #593314",
"v*	c #482A15",
"w*	c #392921",
"x*	c #382F2B",
"y*	c #322C2A",
"z*	c #201C1A",
"A*	c #261812",
"B*	c #311B09",
"C*	c #291507",
"D*	c #4F2E15",
"E*	c #473023",
"F*	c #3A2E2A",
"G*	c #322D2C",
"H*	c #312D2B",
"I*	c #271D19",
"J*	c #321D0E",
"K*	c #552F12",
"L*	c #45250F",
"M*	c #4A2A14",
"N*	c #483124",
"O*	c #3E312D",
"P*	c #302929",
"Q*	c #2C2928",
"R*	c #2A2727",
"S*	c #2C201B",
"T*	c #311C0F",
"U*	c #5C3413",
"V*	c #3F332F",
"W*	c #312C2A",
"X*	c #272222",
"Y*	c #3C2412",
"Z*	c #5A3212",
"`*	c #553117",
" =	c #252323",
".=	c #261F1C",
"+=	c #39200C",
"@=	c #1D0F04",
"#=	c #2B1607",
"$=	c #422C20",
"%=	c #3D2E27",
"&=	c #2F2826",
"*=	c #302E2D",
"==	c #271F1B",
"-=	c #2D1C10",
";=	c #311A0A",
">=	c #3C220C",
",=	c #261305",
"'=	c #492A15",
")=	c #3E2B22",
"!=	c #282424",
"~=	c #211E1C",
"{=	c #231812",
"]=	c #301B0C",
"^=	c #341C08",
"/=	c #482A16",
"(=	c #463127",
"_=	c #281506",
":=	c #5C3514",
"<=	c #603615",
"[=	c #422E23",
"}=	c #2C201C",
"|=	c #342011",
"1=	c #522E13",
"2=	c #381F0C",
"3=	c #1D0F05",
"4=	c #4C2B14",
"5=	c #4C3427",
"6=	c #3F332D",
"7=	c #391F0C",
"8=	c #331C0B",
"9=	c #221206",
"0=	c #4C2A11",
"a=	c #3F2514",
"b=	c #3E322E",
"c=	c #342E2D",
"d=	c #272321",
"e=	c #271E19",
"f=	c #2B190E",
"g=	c #3A200D",
"h=	c #361F0C",
"i=	c #301B0E",
"j=	c #392F2B",
"k=	c #2B2928",
"l=	c #2A201C",
"m=	c #311E10",
"n=	c #331B0B",
"o=	c #3D220D",
"p=	c #2B1C14",
"q=	c #302927",
"r=	c #1F1B1A",
"s=	c #201712",
"t=	c #43240F",
"u=	c #311B0A",
"v=	c #261406",
"w=	c #3A2212",
"x=	c #2F211B",
"y=	c #271C17",
"z=	c #2F1A0D",
"A=	c #1B0D04",
"B=	c #542E10",
"C=	c #2D1F17",
"D=	c #291F1A",
"E=	c #341E10",
"F=	c #1C0E04",
"G=	c #3C2210",
"H=	c #291B16",
"I=	c #1F1817",
"J=	c #311C0B",
"K=	c #3C220E",
"L=	c #341C0B",
"M=	c #1A0D04",
"N=	c #39200E",
"O=	c #261508",
"P=	c #361E0B",
"Q=	c #2E1909",
"R=	c #2F1909",
"S=	c #180C04",
"  . + @ # $ % & * = - ; > , * ' ) ! ~ { ] ^ / ( _ : < [ } | 1 2 3 4 5 6 7 8 9 0 } a b c d e f : g h i : 4 } ^ 7 ^ 0 j k @ l ) m ",
"n + o p j q 9 r s t u ; v w x ! y ! ~ { ^ p h z A B z } @ C D E F 3 m G H + j j j I J K a L M a 4 5 i N p o O P Q n j ] A 8 R ; ",
"S + T U V W ) X Y k Z `  ...U j +.@.A O #.$.< 9 m %.&.*.=.-.;.>.,.'._ g 7 j 0 ).9 j n !.m ~.o {.} + p ].^.H /.(.4 4 j y ^ b < v ",
"@ j _.z :.<.7 ! [.U }.w s |.^ 1.3 M 2.&._ d 3.4.5 %.5.6.7.8.9.0.a.,.b._ R g c.r d.e.%.f.g.f.~.B } g p J h.H < i.< Q 7 j.%.w < ].",
"p 8 k.] l.< z @ } m.Y n.L ^ o.p._.q.^.: 4 r.s.r.t.u.v.w.x.y.z.A.B.C.D.E.M [ @ F.j d.} M 9 G.d.4 < } M m H.f.7 } ! %.<.I.} o J.K.",
"@ y : [ + L.[ : 9 d.4 M.N.A o.; ; _ _ M z %.M.f O.P.Q.R.S.T.U.V.W.X.Y.Z.`.r.< g  + +o N.r.n H c.^ [ L 4 H d.+ .+g.} z l } g V } ",
"n j ++/.c s @+p d.8 c.M #+$+%+&+o.^ M *+4 o =+N -+;+>+,+B.'+)+!+~+{+v d ]+^+m./+H +.! x (+a 5 z ~ g _+} 5 I :+K :+~ a H p %.V } ",
" +<+[+}+@+v v ^.9 |+J ^ b u 1+2+g.9 ^ ^.h.g 3+4+5+6+7+8+0.9+0+a+b+d L } c+d+}+M e+l.6 ^.f+f+} ^.} g d.z g+:+: ]._ A a M z x ) %.",
"n s  .u h+i+..M j+j 2.%.z 3.k+@ l+m+I ^ R :+n+o+p+q+r+s+t+u+v+w+x x 2.~ } x+u }+< y+8 g 4 } } %.z+} n H g c.J ]., T [ U d.` A+< ",
"B+c k C+s N s T 7 H.z L 4 %+3 #.o.D+e+4 4 E+F+>+G+H+8+I+J+K+L+} ~ } o.g+^ _ #+C+M+~ H H H 9 g < ! } < N+j o c.< #.; [.O+y+Y R o ",
"P+} U #+Q+; k ^.~ 5 R+%.} :+r c S+* + T+U+V+W+X+Y+0.I+u+Z+`+ @n j ] } g+.@< +@@@d+}+K m .@9 H A A n } #@.@R+4 (.* /.N $@:.k } Q ",
"! @ } d %@p @+S ! &@m ! o z ^ ; $.*@=@-@;@>@,@'@z.)@!@~@{@ .i g ]@9 } p 5 .@M s ^@/@(@p g+^ h.o T _@4 Q :@o Q } *+x c L y  @4 %.",
"z z <@Q+[@} h+}@]@|+G n d.d.c.M |@1@-+2@3@4@5@6@7@8@9@0@a [.c a 9 a@g+U < ~.#@M x b@c@`.h } U a p :@z : %.z %.|@b O L d@) e@) p ",
"~ ^  +$+= v { p.f@2+:+:+7 H j 4.g@h@i@j@k@l@0.m@n@o@p@p.R o _ c T g g } _+4 (.< ^ a #.{ Y %.T b i 6 n ~ p.m g O K x q@4 4 * + } ",
"^ ! n o.+@x c+d 3 r@f@z Q e.J.s@t@u@v@w@4@I+0.x@v+w+T 2.z z } ; s.[.&.L a A } i : J T s u y@} ^ L : g.j @ : d.z M } } < [.z@z ~ ",
"A 9 ! :+M p ! ! A@(+B@C@; ; D@E@F@G@6@H@I@s+J@K@L@* h.M@c.: 4 } [.1@1@O T } : N x K } ; N@O@Y _+R+g+7 g.# } z :+# : B P@*.s * ! ",
"[  +%+I M } ~ n 8 U } Q@/ R@S@T@U@k@V@I+I+W@X@`+e@&@Y@Z@&@6 j /+} a d `@< d.c.[.c+ #*+*+c+N@*@.#Q 5 5 H :+T _ A d.m o .@R  .b ^ ",
"%.c.4 ^ a i 3 @ 9 :+[.* +#@###$#%#&#>.'+x@*#=#C+N.l+-#).&@! g.G [ K i c r.n H g ~ [ L.;#>#,#'#)#!##@R+~#+ ^ T ^ m m {#m #@a ; ]#",
"_ U [ A T ; x T h.! < ^#/#(#3@H@z._#:#<#[#w+[.=+M+}#|#r@<@I I ~#! a ; c ]#^.:+j P+d.1#2#3#4#5#6#7#`.(.R+N++ g m ~#h.^.M (.^ #...",
"} N.L.n h.} } m.~ z m.8#9#0#a#V@b#V@c#d#e#f#:@z M c o.Q@Q@g.j ! m } c @+].s g#h#&@i#j#k#l#W@m#n#o#p#q#$@~.8 W d.~#7 T k U %._ *+",
"/+} s.~ |+~#&@h.} r#s#7.t#u#6@5@0.u+v#e#1.r m z z L #+ @w#x#g.5 :+d.! } 3 ]#$.U / y#z#A#B#C#A.D#E#5@F#G#H#} I j+R+d.I#_.T n < R ",
":+J#3 O 6 + g.d.K#L#M#$#N#G+z.r+O#P#Q#L 7 g.9 h.4 L c+)#p R#S#H j H g.f.4 T c+]#i T#U#V#W#X#Y#Z#`# $.$+$@$1@r.#$J.5 m } } n [ R ",
"9 h.p x b c.g.$$%$&$*$Y+b#=$5@-$;$>$T : r g.y+,$r p U k Y A '$a@+ g.G.g.d.} [.)$#.d !$~${$]$^$/$($_$:$<$[$}$|$1$G.G..@o B 4 ^ (.",
"g.9 ^ T c /.e@2$3$4$5$T.6$7$8$v+9$s }#S c.5 N+% j c.^ R } s.i |+j ) ) H I K p } h+0$a$b$c$d$e$f c f$g$p#h$i$j$m.k$N+j 4..@g < Q ",
"~#g.~ @ %.l$m$n$o$p$y.q$)+0+r$s$: p b 0 a@7 d.y+V j g t$9 J }+#.J g.V u$m p < m p N v$w$H+x$)#y$z$A$p$B$C$j$i$}$} ! g c.H e+c.R ",
"T r 5 J D$E$F$p+G$H$C#I$J$K$L$L 8 l.^ d M$N$J.n W j 8 W +.|+/+`.x d.y+G.k$z z :+J c w+O$P$Q$o@R$S$T$H$U$s h+0$V$W$X$b M m J. +5 ",
"x T z S Y$Z$3@`$H+8+c$8$ %.%+%M :+% % 3.p @%#%H z @ n g.j+$%e+g O i H g.7 R g j n b h+%%n#H+&%*%=%-%K+;%O b $.>%u [@N@$.L z ! 4.",
"c+b ,%'%)%!%`$I+~%{%O#]%^%K [ } 4 :+H 5 O 2.]@R#/ x a 4 j+9 j y+o j$[./%S#! &.n +.h./.w Q#(%_%:%<%[%}%U } Q } _.@@i$}.#+U _+} %.",
"s.>#|%1%2%3%s+4%I+5%6%7%] :+5 5 /+z ~ A z A@; ]@r@@+( _.5 n m + 7 M j$] l+8%A z G 9 z [.c 9%0%a%b%@ o %.L B I z k c%d%e%y$< m ! ",
"f%g%;+3@B#h%>.)+Q$i%j%].: 8 9 H 8 z @ } m .@M+|.k%l%T @+(..@! ~#J.d.L x+A Q@-#6 :+m 6 5 %.a x+m%]#! + .@^.p &.5 } n%o%p%q%@+(.m ",
"r%s%t%a#u%_#9+v%w%w+p.T M.A 0 P+a@j / :@:+f.x%y%z%A%r@1.z k$:+r e+j+m } d  @k%+ j R ^.n H.R L $+B%r.0 ) d.B M K C%D%E%c$F%G%_.%.",
"H%I%J%5@>.6$]$K%L%: # ] } c+p n +.e+n R g f.H.x%$.<+-#M%Z@%+n < 5 V ~#z ^ N%p O%% 7 < p m 5 P%} c Y K.!.J.5 < Q%R%S%T%U%6$V%W%c+",
"X%Y%{%Z%H+`% &.&+%! e+j J b s.A +&+.d.k$5 7 G.j+4 #+(+@&R#j f.} : 8 8 ! c.} s.A +.H I (.} ^ ^ B L #.N@U m R+#&$&%&&&I@)+>.D#*&=&",
"} L%-&u+-$6%;&w U } n +&-#T v ; ] a@~#k$m ! j y+H.} m%; 9 + W 4.:@I H.4.^ ! %.(+]#! e+9 6 @ M U o U Y #.f%>&,&'&:$.$)&!&W.~&{&]&",
"o c Q#^&/&(&,#} [ a p n l+J p.p i :+g.W g %.B j W m p ]#; 0 _&H.#@m H.m o 5 I p [@$.:&@&H :+o a < < M O <&[&}&|&0.7@)+1&2&3&4&[+",
"n ~ ( 5&6&u v @ &+} T ^ r@X J J ^ } 5 ) e+^ ^.4 H 0 } ^.O H#@&7&7 4 H.H R ! .@.@m.8&9&m+% j ~#:+4 < $@0&a&b&c&H+B.6$d&X@e&v L.v ",
"c.m c.[ d f&}+; < ^ } : ] m I g # ] h ! l.8 (.} 7 ) 9&c+n |$T g&& 5 m h&J } : m ~.b f p + +.d.f.f.4.i&j&k&l&H+r+m&u+n&o&p&b } ^.",
"c.~ ! m h d (@0$b : ^ @ ^ 4.m r 6 <@6 [.4 ) J.m H + I a %.:+U o.q&k%! n m M _ p : } *+r&s&t&+.5 I u&v&S%w&0.=$r+x&y&z&w c+b ^.L ",
"j c.~ :+7 } N A&S+[.^ @ ^ m S ] ~ r 9 g+B&R G.J.J.g.7 :@} ! g L.p.Q@M@~ W m < _ ].a } =+C&A S#:+D&E&F&G&7@9+~%r+H&I&v ^ [ U b c ",
"/+@ z m % X @+> J&@@b p ~ 5 g : T < n n } L.o 8 e+e+9 ^ < #@j 8 K&Y -#%+d.j j g  @T } ^.s.`.} L&M&N&O&P&Q&C.R&n#S&T&B%_+m U&; V&",
"6 @ ^ m W y+~ ; b@C+}+c M 4 m z i x ' I 4 p 3.z g.+.r@o.K ^ :+8 G.|$_ X |#W H j g ^ 4 } [.O W&X&Y&&&8+5@Z&`& *.*v ` B%=+R {.; x ",
"8 I h.g H.g.) 9 4 c+*@[+s ; z g p _.A ~#m z +*b 6 g.+.@*p a } B m o X$T ]@#%e+d.+.J.7 5 #*$*%*&*N#H+0.B.**=*-*@+[ @ ^.H#[.A p x ",
"J.N+%+! ~#g.% m+) g (+J&e$@@b ~ A i.~ H !.^ ;** L.~  +8 n A L :@>*L %.N.,*x#q ~.! g.g.5 f#'*)*P$r+=$c$!*~*j%@+p z m ! b ` N.K {*",
"P%]*z p >*! g.a@) 9 : (+c@^*(+p } 3 } 7 W ^ i 3 ; c < y+l.d.^ R ! @ T 6 N.* ]@j ^ o H /*(*_*|&8+~%:*!*<*j%, p o z o ~#< d b@Y c ",
"^.J.%.[*_.O (.j e+9 g } #.c@}*c+^.[*x 4 J.I ; ,#3 [.$.g |*W m 1*.@7 ~ 6 e.2*T -#Z@@ 3*4*5*6*I+0.7@7*8*9*0*K p R o } ! g _ a*S+b*",
"* R+m : x _.3 ! c*g.+.j : N d*}*O e*w r.d.d.} +%p.} p r.m e+7 4 z m n I 7 4 H#; r@f*g*h*i*j*4%k*0.l*m*e$3 r@:+g 4 } } %.*+N '#v ",
"p < B 9 ^ c.* ^.H n*N+j+9 4 B%)#j$$.x b z 9 n ^ p } ] } M g+8 c.T * } ! f.8 o*p*^%h@q*r*H$s*b#c#t*-*h+d r&o.u*j o } M U k d #.b ",
"7 z M R r ) H z z e+j+m :+~#} N@^**@N@v p r W J..@~ ! 6 < b z I M x x a /+~#d.v*w*x*y*r+U%k*z*A*L$b K T x #.r.X 0 @ M f+ .3.N ; ",
"H P%c+R :+H S#) :+5 H.f.4.g } (+B*Z.C*e ^.o r H I f.H 9 e.[ M.L ^ T w _.M 4 D*E*F*G*H*Y+t+c$I*J*a :+# } M p { a ]@%+} v N < M } ",
"4 z )$~#J.W 7 +.j .@K*u$f.5 A i w '#O@C+b B :+4.^ 5 G.g.8 5 ++c+} Y@J a L*M*N*O*P*H+Q*R*m@S*T*h+} d.7 4 } < [.r&} 0 } d s.q@o m ",
"a (+} y+W U*o %.! ~.~.9 $%j 5 ^ : h v )#0$3.&.o [ } :+e+e+H r m.O ~ _&%+M*4+V*W*0.>.>.X*p%Y*2.@ } 4 .@4.%.Q Q s.j$` [.{ $.; ~.Z*",
">*#.} y+B Z*h.i.p z 4.d.|+|+j n 5 :+c.v )#[@$.z+p U o.:+0 J.y+m N.,*R `*4*5*:$z. ='+{%.=`#+=:++.J M (.~.:@} } c+0$}*i+@=$.x R y ",
"} #.T j } R R+_+%.! m 5 :+d.7 d.~#H P+%.N@/@#=$.q@L M < 4 d.j H z O >$$=%=&=U.*= =C.==-=;=*@>=w#2+U T _+} M 3 s c x N ,=B%#*o H ",
"x h+} .@p } Q :@F.u$j ^ } ~ 4.: 4 g.+ ! O S+Z.{ 1@} %.p } ! g #@4 '=)=;.T%I$!=5@~={=]=d c+#.Z.; Z@: q.b [.*+c s b M v C+^=(.n g ",
"M M %.m M z ^ M %.l._&H.z ~ /+} ^.:+y+J.z *+`.)#S+x } r.; ^ .@%./=(=W+q+8+{%0.7*n&J*i } } M 3.y@b }#@*T @+v v v v p v = _=T d.z ",
"R z m /+b f.4.K.%.G.q :=H.5 I m : z W <=j+! c.3.^*S+b [.N [.P D$[=U@V#4@H+Z%c$}=|=@+< ! o z /+< O |.M@1=; p.N 3 b@3  .2=3=M..@z ",
"B p y+z x ~#! M %.j+g.H J..@5 :+I 4 m e+& d.9 + .#)#j$c d c+4=5=6=V#{%U%I+x&:%T*3 A z c.^ %.z z %.(@N@M@+%h , @+7=c s 8=9=#+%.:@",
".@b l B |@R p O Q c*5 0=r z Q } :@B ^ z j +.d.~#_+x+[@j$N a=%*b=c=u%7@)+d=e=f=8&U&j m z p K.M L M s C*#.#.; g=h=p&7=i+$+0$k +=%.",
"m L q 4 4 k L #.#*J.R :+} M &.} L z : 3 a ! .@$$d.} i+)#i=w*j=`$k=h%)+V.l=m=, c `@] j g } U i.i.x s = (@[@i+g=n=|$~#~#r ..b o=[ ",
"^ } ) @ U (+' v b 4.! 5 ^ _ :@.@~.5 5 h $+i (..@g.H N.'#p=q=N#Z%'+V@r=s={+; p M /./.^ d.6  @x t=v +=N p&u=v=U %.R :.: M b@_.P %.",
"_.} y+L #.b J @+b z /+~ n } } g W j+U*7 h @+M 4 P+y :+^.w=x=5%0.7@R&y=z=$+: m o ^.v M.h 9 A v h+@+4&L x s A=r.7 m + } p i+k B=%.",
"i+%.,$M ; m J#* M :@R a #$H.! ; ~.,$V j+5 } } 5 ~#J.H 5 } n%C=n@'+D=E=x [.} 5 j z x s.Y J p 2.s 3 4&;  .s F=b 7 o a L M ..R 4 z ",
"(+%.P%^ *+f.z : ^ m R _ r 8 J.T O.} m !..@_+} :+y+G.f.m [ 2.G=H=I=9*o=#*U v T ! c.x i+'#[@j$_ J=K=..; ..L=M=O f.:@; [ p 4&7 g L ",
"v %.} G p n A L [ d.d.} _+k$) g 0$e c+[ z %.M o ) g.m g L.} p N=O=c@v ^.x b v c V&P=v p&e$[@V&C$Q=;=(+= R=S=O m %.*+m } 4&R S h+"};
