/* XPM */
static char * SO_xpm[] = {
"64 64 322 2",
"  	c #63533D",
". 	c #62523C",
"+ 	c #5F4F39",
"@ 	c #5B4B35",
"# 	c #594933",
"$ 	c #5C4C36",
"% 	c #685741",
"& 	c #685841",
"* 	c #64543E",
"= 	c #60503A",
"- 	c #5F4F38",
"; 	c #604F39",
"> 	c #605039",
", 	c #62513B",
"' 	c #65553E",
") 	c #675740",
"! 	c #65553F",
"~ 	c #61513A",
"{ 	c #5D4D37",
"] 	c #63533C",
"^ 	c #64533D",
"/ 	c #63523C",
"( 	c #61513B",
"_ 	c #61523C",
": 	c #5C4D37",
"< 	c #5B4B36",
"[ 	c #5E4E38",
"} 	c #62523D",
"| 	c #5D4E38",
"1 	c #584832",
"2 	c #584833",
"3 	c #5C4C37",
"4 	c #5D4D36",
"5 	c #5D4C36",
"6 	c #5E4D37",
"7 	c #675640",
"8 	c #61503A",
"9 	c #65543E",
"0 	c #5E4E37",
"a 	c #5E4F39",
"b 	c #5D4D38",
"c 	c #5E4E39",
"d 	c #61513C",
"e 	c #5F4F3A",
"f 	c #9C8565",
"g 	c #9C8665",
"h 	c #9D8766",
"i 	c #9F8868",
"j 	c #A08969",
"k 	c #9D8666",
"l 	c #9F8968",
"m 	c #66563F",
"n 	c #927B5B",
"o 	c #937C5C",
"p 	c #967F5F",
"q 	c #988261",
"r 	c #988161",
"s 	c #957F5E",
"t 	c #917B5A",
"u 	c #8F7958",
"v 	c #8F7858",
"w 	c #907A59",
"x 	c #927C5C",
"y 	c #947E5E",
"z 	c #968060",
"A 	c #988262",
"B 	c #957F5F",
"C 	c #998364",
"D 	c #9D8767",
"E 	c #9F896A",
"F 	c #9E8969",
"G 	c #9B8666",
"H 	c #937D5E",
"I 	c #957F60",
"J 	c #947F5F",
"K 	c #927C5D",
"L 	c #8E7859",
"M 	c #8A7454",
"N 	c #877252",
"O 	c #897354",
"P 	c #978161",
"Q 	c #968161",
"R 	c #937D5D",
"S 	c #907A5A",
"T 	c #8F7959",
"U 	c #9B8565",
"V 	c #9C8666",
"W 	c #9E8868",
"X 	c #A18A6A",
"Y 	c #A28C6B",
"Z 	c #A28B6B",
"` 	c #9B8564",
" .	c #A08A69",
"..	c #A18B6A",
"+.	c #9E8867",
"@.	c #927B5A",
"#.	c #978160",
"$.	c #96805F",
"%.	c #8E7857",
"&.	c #917B5B",
"*.	c #937D5C",
"=.	c #9A8464",
"-.	c #A18B6C",
";.	c #A08B6B",
">.	c #947E5F",
",.	c #907A5B",
"'.	c #8C7657",
").	c #887253",
"!.	c #877151",
"~.	c #897353",
"{.	c #A48D6D",
"].	c #A48E6D",
"^.	c #9D8665",
"/.	c #9E8766",
"(.	c #947D5C",
"_.	c #947E5D",
":.	c #917A5A",
"<.	c #947D5D",
"[.	c #9F8969",
"}.	c #A18B6B",
"|.	c #A08A6B",
"1.	c #9D8768",
"2.	c #998363",
"3.	c #716E4A",
"4.	c #63543E",
"5.	c #8D7758",
"6.	c #8B7555",
"7.	c #927C5B",
"8.	c #9A8363",
"9.	c #A58E6D",
"0.	c #A58F6E",
"a.	c #A28B6A",
"b.	c #A08968",
"c.	c #9F8867",
"d.	c #9B8464",
"e.	c #5F4E38",
"f.	c #957E5D",
"g.	c #907959",
"h.	c #907958",
"i.	c #917A59",
"j.	c #957E5E",
"k.	c #978060",
"l.	c #9C8767",
"m.	c #9A8465",
"n.	c #988263",
"o.	c #64543F",
"p.	c #8D7757",
"q.	c #8A7555",
"r.	c #8B7556",
"s.	c #8C7757",
"t.	c #8D7858",
"u.	c #8E7858",
"v.	c #62523B",
"w.	c #9A8463",
"x.	c #A38D6C",
"y.	c #A58E6E",
"z.	c #A38C6B",
"A.	c #9A8362",
"B.	c #998261",
"C.	c #988160",
"D.	c #8D7655",
"E.	c #A08A6A",
"F.	c #9B8566",
"G.	c #998464",
"H.	c #978162",
"I.	c #8C7656",
"J.	c #8C7655",
"K.	c #A38C6C",
"L.	c #9B8463",
"M.	c #97815F",
"N.	c #97805F",
"O.	c #998362",
"P.	c #8F7857",
"Q.	c #8C7554",
"R.	c #A38D6D",
"S.	c #A48E6E",
"T.	c #62513A",
"U.	c #66553F",
"V.	c #65543D",
"W.	c #64543D",
"X.	c #5F503A",
"Y.	c #63523B",
"Z.	c #64533C",
"`.	c #67563F",
" +	c #5F4E37",
".+	c #66553E",
"++	c #9C8564",
"@+	c #9E8767",
"#+	c #6F6C47",
"$+	c #967F5E",
"%+	c #937C5B",
"&+	c #998361",
"*+	c #998262",
"=+	c #917B5C",
"-+	c #9C8664",
";+	c #9D8765",
">+	c #947E5C",
",+	c #604F38",
"'+	c #A18A69",
")+	c #685740",
"!+	c #9B8462",
"~+	c #615039",
"{+	c #5D4C35",
"]+	c #695942",
"^+	c #5C4C35",
"/+	c #957F5D",
"(+	c #A08A68",
"_+	c #A48D6C",
":+	c #9A8361",
"<+	c #5C4B34",
"[+	c #9F8967",
"}+	c #A58F6D",
"|+	c #A48E6C",
"1+	c #A28C6C",
"2+	c #8D7756",
"3+	c #8E7756",
"4+	c #A68F6E",
"5+	c #A38D6B",
"6+	c #968061",
"7+	c #8E7757",
"8+	c #A89170",
"9+	c #A7906F",
"0+	c #9C8667",
"a+	c #695842",
"b+	c #695841",
"c+	c #665640",
"d+	c #60513B",
"e+	c #5B4B34",
"f+	c #5B4C36",
"g+	c #907B5B",
"h+	c #927D5D",
"i+	c #988363",
"j+	c #9E8869",
"k+	c #60503B",
"l+	c #917C5C",
"m+	c #978262",
"n+	c #937E5E",
"o+	c #958060",
"p+	c #9A8565",
"q+	c #8F795A",
"r+	c #8F7A5A",
"s+	c #675741",
"t+	c #5A4A34",
"u+	c #5A4A35",
"v+	c #655540",
"w+	c #63533E",
"x+	c #594934",
"y+	c #62533D",
"z+	c #9D8868",
"A+	c #958061",
"B+	c #8E7959",
"C+	c #8E795A",
"D+	c #8D7859",
"E+	c #5A4B35",
"F+	c #8A7455",
"G+	c #877152",
"H+	c #897454",
"I+	c #8D7656",
"J+	c #9A8566",
"K+	c #988364",
"L+	c #594A34",
"M+	c #8C7758",
"N+	c #887353",
"O+	c #897455",
"P+	c #8B7656",
"Q+	c #978263",
"R+	c #907B5C",
"S+	c #887354",
"T+	c #8A7556",
"U+	c #9E896A",
"V+	c #947F60",
"W+	c #877253",
"X+	c #8B7657",
"Y+	c #5F503B",
"Z+	c #5E4F3A",
"`+	c #60513C",
" @	c #5C4D38",
".@	c #584934",
"+@	c #9B8667",
"@@	c #927D5E",
"#@	c #907A5C",
"$@	c #937E5F",
"%@	c #8F7A5B",
"&@	c #998465",
"*@	c #917C5D",
"=@	c #897355",
"-@	c #8C7658",
";@	c #968162",
">@	c #8E785A",
",@	c #8F795B",
"'@	c #947E60",
")@	c #897456",
"!@	c #887355",
"~@	c #917C5E",
"{@	c #5B4C37",
"]@	c #5D4E39",
"^@	c #564732",
"/@	c #584933",
"(@	c #574833",
"_@	c #594A35",
":@	c #998365",
"<@	c #887252",
"[@	c #856F50",
"}@	c #6E6B47",
"|@	c #857051",
"1@	c #877153",
"2@	c #564631",
"3@	c #554630",
"4@	c #968163",
"5@	c #867050",
"6@	c #6E6B46",
"7@	c #9F8A6A",
"8@	c #867152",
"9@	c #564731",
"0@	c #5A4B36",
"a@	c #9C8768",
"b@	c #917B5D",
"c@	c #8D7759",
"d@	c #5C5B3A",
"e@	c #574832",
"f@	c #574732",
"g@	c #74714C",
"  . + @ # $ . % & * = - ; > + + , ' ) ! ~ { { > ] ^ / ( = = + + + = ( . _ + : @ < [ (   } = { < @ < $ | ( * ! _ $ 1 2 3 (       ",
"  = $ @ 4 =   ' ' *   ( [ 5 6 ( ! 7 ' . 8 = = ; + = ] 9 ^ 8 [ 0 > ( ( = + + + a | b + ( _ = b < < : c = d . d e : @ @ { = . * * ",
"( { f g f f h i j i k g h i l h ) m n o p q r s t u v w x y z A = ( A z B z C D E F G A B H H H : | I J K L M N O L y P Q R S T ",
"+ 0 U V h W X Y Z l g ` h  ...+.^ ] w @.s #.$.o u %.u &.*.y B P ; [ ` A P P =.F -.;.D A >.H H >.= = >.R ,.'.).!.~.L y P z x T T ",
"4 8 =.k l Z {.].Y l ^.g /.j  ./.- > @.n (._.*.:.u u :.x R <.y z + $ V U =.=.V [.}.|.1.2.3.>.>.I 4.  K S 5.6.~.~.6.L x y y x &.7.",
"5 . 8.D Z 9.0.{.a.b.c.c.i c.h d.e.- f.o t g.u h.i.n 7.o *.*.j.k.= [ h D D D W W [.W l.m.n.Q z I o.o.S p.6.q.r.s.t.u.T T &.x y $.",
"[ v.w.i x.0.y.z...X a.a.b.g A.B.~ > C.(.u D.D.u 7.<.(.o 7.<.p P / . V [.}.}.E.W V U F.V F.G.H.B   4.5.6.M r.u.S S u.I.J.u.*.P w.",
"= ( k j z.{.K.a.a.z.{.z.l L.M.N.] ; O.f.P.Q.J.h.*.f.<.o *.s #.q * * g  .R.S.}.D 2.n.m.D W V n.y ( ( I.q.6.p.S &.,.p.M M p.R 2.h ",
", . ^ ' ' ] ; 6 0 T.9 m U.' 9 ] ~ e.e.~ 9 7 m V./ , 8 ; - 8 / * W.. = ; ; + + ; = ( ( X.a + = ( = + a + + + + = (     = [ { e.= ",
". * 9 ] > - > Y.W.Z.v./ 9 `.' T. +- ] U..+] , ] ' 9 ~ 0 6 ~ 9 ' / = = . . = { 4 + .   . + c + = e [ { [ = . . ( = + + > = = = ~ ",
"[.K.Y b.^.f +.Z ) ' ..+.^.++L.B.$.(.(.f.N.N.(.i.9 W._.r 8.A.q q 8.V W l i +.@++.+ ( =.2.A A z y &.T u.#+S S T u.+ $ t o y p q ` ",
"+.X X i k ^.c...7 m c.^.^.^.^.A.$+%+%+$+B.&+N.%+T., s B.w.8.*+O.f +.i h ` =.f W + + U P y y >.y R =+&.&.&.S T %.+ $ y #.q r P *+",
"` k @++.c.c.l l m ) g -+^.;+-+&+$+(.>+N.B.A.C.s ,+T.$.q O.A.w.f @+W h =.q q =.+.+ [ =.B x &.R y B y R x &.S u u.[ { k.8.d.8.r k.",
"q q L./. .'+l ^.)+7 L.++^.-+L.B.C.N.N.N.C.C.B.O.~ ' C.#.C.O.f +.i D d.q #.r w.V { + 2.B x S &.R B z z y x S T S { { *+U g ` A $.",
"$.$+r ^. ...c.L.& ' B.L.++L.A.A.A.!+&+M.$+N.A.h V.& B.$.N.A./.l +.` q #.P A 2.2.{ = P $.R &.S x B P A z R &.&.*.[ 6 =.U f ` O.k.",
"$.s k.d.c.l ^.O.U./ C.B.A.B.&+L.++^.L.C.$+C.++b..+`.L.C.C.L.@+c.g O.#.#.A O.r B + + B z B R &.&.y P A P s R y z = = ` =.=.w.8.*+",
"+ ~ ] ' U.9 ] T.~+~+v.Z.V.V.V.V.' W.Y.~+8 / ' ' Z.v.v.W.9 ] > - 8 ]   , > = / ^ . [ $ { = . . = = ( . = { $ { ~   W.] , ( 8 > - ",
"= , W.m % m v.6 {+,+W.) ) ' W.V.V.v.-  +, 7 ]+`.v.,+8 ] W.v.> ~   9 / + 6 ;   * . + { [ = ( ( ( ( . . = { ^+{ = W.! ! . ; 0 0 - ",
"~ W.O.s 7.t %+$+M.N.f.>+/+C.A.L.~+0 ^.b.a.a.(+/./.b.z._+a.h q s ! / O.q B x w u u T T &.R $.P z * . R z U [.E. .+.U w.O.*+2.U D ",
"~ ' O._.h.%.h.*.$+N.$+f.$+N.B.:+{+<+[+z.}+|+'+/.;+b._+0.K.h C.j.! > r $.o w u T T v u.u.&.B A A * . R P V }.1+}.W U w.w.=.d.f k ",
"~ W.r (.h.2+3+i.(.$+N.N.$+$+N.C.{+4 a.9.4+9.a.[+c.'+x.{.a./.O.k.* ~ j.x S u T T T u.p.p.S y P A ( ( z 2.D }.1+..W V U f g g f d.",
"( , s o w %.3+P.t f.N.C.N.$+$+C.~ T.5+9.9._+z.Y Y a.a.'+l @+g 8.  ^ :.u u T g.T u.p.p.u.S x B 6+{ = =.F.D [.j [.W +.D D D V d.q ",
"/ 8 7.n @.w v %.h.%+$+M.N.$+$+B.' .+x.5+z.z._+4+0.z.l k k +.+.f / W.7+p.u.w w u.p.p.u.T S &.x y { = W W D V V W [.E. .l @+g O.$.",
"  ~ w t %+o @.h.P.w %+s N.C.B.` U.7 a.'+'+z.0.8+9+z.@+d.` h +.g ~ = p.2+u.T v p.I.p.S &.&.S S R + + }.E.0+=.=.V [.}.}.[.D =.P _.",
"/ ~ [ 5 6 ~ U.a+b+' ~ 6 6 ; v.W..+7 )+`./ 6 <+6 ] ) % 9 ( 8 ( ~ e.{ +   c+9 > $ $ + . . X.[ + d+= [ : [ . *   + $ @ [ (         ",
"( + 0 0 - ( 9 % & ' > 5 5 ,+] ' `.)+) ' 8 ^+e+ +W.& & ' / 8 + 6 5 [ v.! c+  + $ $ [ + = ( d d = [ 3 { + ( . _ = [ { { + ( W.9   ",
"S S t 7.*._.f.<.' W.u @.N.^. .'++.++++/.'+K.x.Z ] ' j +.L.z _._.p #.B n p.M 6.u.[ f+&.,.g+h+B H.A i+C U l.1.D V d = V U =.P B <.",
"&.o <.<.*.o *.(.v., %+_.C.++c.c./.g ^.c.'+.. .i / ] l +.w.s x o s #.z x u.I.s.T { @ g+,.x I A n.P B I n.0+[.j+V . k+A 2.A P B j.",
"_.B $.j.o t t *.= > C.C.q A.d.g ^.h +.i l c.h g   ^ h g O.p R *.y s y x S T S g+$ { ,.l+>.m+C n.I H n+P F.W W U = + B o+z z z z ",
"#.P #.j.x :.t *.; ; g ++A.C.#.O.f c.b.l h ++L.w.W.W.w.O.A P $.y o n x R y y H l+{ = &.y P i+n.Q >.H y 6+i+p+U G.+ e R h+R B k.P ",
"2.A z y x 7.o s e.8 i @+L.k.s k.d.c. .c.f O.q q / 8 k.k.r *+A B &.T S R P A 6+h+( . h+6+n.A 6+J >.B I I I o+P m+= _ x S &.H z A ",
"=.A B _.<.y p r { ( l i f r $+$.8.h c.h w.r $.$.> ^+_.s P O.A B &.T S y n.=.A >.! } B H.m+6+>.>.I Q 6+>.l+=+h+B .   x q+r+x z P ",
"+ = .     ( [ 4 6 8 W.c+m   = e.[ e.+ ~ W.s+& * [ t+t+[ . * *     . + t+1 u+k+! v+_ | $ 3 : 3 $ [ d w+. | u+u+b k+d d+X.+ + + [ ",
"+ ( . ~ = = ( 8 > > , W.9   = [ [ ; ( ] * ' * v.- 4 4 [ (   * * . + < t+@ [ ( . . d = [ @ x+u+| d y+d a b { b : 3 [ k+} . + { { ",
"+ ( P =.V W [.l @+U w.w.f @++.g + 8 *.*._._.o &.:.&.x x &.t &.y ( $ C P B B A G z+l.C I H n+I A+y+_ g+r+B+t.'.q.r.t.&.H H =+q+T ",
"a b i+V [.E.E. .+.U 2.2.U +.[.D / / w T S 7.x n &.&.&.S T u.S >.[ 3 U A B I n.l.F 1.G.A+>.J I J e c B+C+q+D+r.).).r.r+H y =+B+u.",
"[ @ =.W E.}.E.j W g =.w.U @+i h c+! v 2+7+g.&.x n S T u.p.u.&.o+< + U 2.H.H.C G 1.l.p+n.Q o+>.K E+< D+L B+5.F+G+G+H+L =+K &.r+S ",
"+ { m.W E.}.E.[.@+V V g V k V =.c+c+T I+I.%.S n &.T p.I.p.S R 6+@ k+=.m.m.m.m.m.m.J+F.J+K+A+K q+L+u+D+D+M+r.O ).N+O+P+t.q+g+x y ",
"d+( m.D [.E.[.W D @+W W D ` A k.* ! t u.I+2+u.g.w u.I.I.L x B 6+$ X.i+F.1.1.F.K+Q+C F.0+m.A+R+D+3 E+D+'.F+S+O F+T+F+H+H+'.,.B n.",
". . =.U D W W W W [.E.E.D 2.s o . . R &.u.I+I.I.p.p.p.u.&.y I I [ a m+G F U+0+K+H.n.m.F.C V+R+L b u+M+F+W+W+O+X+M+T+).N q.g+P m.",
"d = a [ c + + + = ( ( = + > ( v.( = + > = > + = (   . = { $ { c + X.k+d d a < x+L+3 e k+Y+e Z+b < x+x+f+Z+`+d+e |  @3 f+f+{ X.d ",
"= [ [ = ( + : $ + .   . = + = ( = + [ + ( /   ( + [ [ a + a [ c X.( ( e 3 E+f+| a c  @ @Z+k+Z+< .@x+ @X.e b 3 | Y+X.: L+t+| d . ",
"G.G G G.H.P C D [ ( W U P y x x x *.<.y x T 6.~.+ $ x I z B H H J Q n.i+C m.+@0+d e @@#@R+$@V+$@%@T+W+W+O+X+X+T+e e 5.r+R+=+l+n+",
"H.G.p+C m+H.C D + [ U P y y B B y x &.&.&.S u.p.a f+K B I >.n+>.o+H.Q+H.H.n.&@J+d k+*@%@%@@@$@@@C+T+=@O+X+-@r.O+3 3 R+H H =+r+R+",
">.6+n.2.2.C p+G [ { z y y B P P B x T T S &.x x [ $ x R n+y J I Q H.H.Q A+6+;@Q+k+`+@@R+#@R+R+%@D+M+M+M+M+X+T+O+u+3 @@V+$@=+r+g+",
"l+h+I A p+V G C { [ x K B P 2.A p x T u.T x B z : $ x =+x n+o+H.H.H.Q A+I >.n+H _ k+$@@@R+>@M+-@D+,@#@%@D+X+T+X+f+X.$@>.$@h+*@K ",
"g+,.K P F.1.U z 3 + S R z A A P B x S T S R P =.{ 3 R g+&.H 6+n.n.H.A+V+$@*@,.%@} Z+V+'@R+M+O+)@D+*@@@*@C+-@M+C+a } @@@@H >.I I ",
"g+r+=+z m.G n.R [ + T y P A P B y R x &.x y A U e + B l+=+H 6+n.n.Q V+H *@%@D+D+X.: $@$@%@X+!@)@D+*@$@~@%@C+%@*@e d+K *@$@6+Q+H.",
"{ X.k++ [ a ( . ( b $ { = . ( = = ( . = { $ { = . } ( = + [ { $ $ b e k+d+X.| {@E+E+{@ @]@]@| ]@]@b {@u+u+3 a Z+| 3  @a X.c 3 < ",
"= d = : f+[ d   ( [ $ { X.( ( ( ( . . = { @ $ + y+*   k+b f+< $ { [ X._ y+d+: 2 ^@L+]@k+Y+c b ]@| < /@(@< k+} k+3 _@< c e | 3 b ",
"_ e o+=+I.~.M u.x y y x S r+S x *   =.V D V =.A H.2.U 0+F.i+o+H | k+,.B+t.5.D+D+M+O+S+S+X+%@~@*@_@(@C+@@;@:@K+;@I V+A+H.H.A+J >.",
". { I L <@[@<@u.y z y S }@u.S R * . V W [.W U A P i+0+[.j+p+o+=+| d L L D+D+D+M+T+W+|@1@X+R+$@$@2@3@%@@@4@&@&@K+H.Q+i+i+;@>.h+H ",
"( [ x P+!.5@~.T R y x T 6@u.S y ( ( D [.E.F V 2.A G.D 7@E G z g+| k+5.D+B+L M+T+S+8@|@W+X+%@@@$@9@^@*@$@;@K+&@m.J+J+&@n.A+H K H ",
"k+( t.F+~.M I.u.S S T T T S x B [ ~ W [.[.W V U U V 1.j+z+p+z =+c c '.t.L t.r.S+8@8@W+O+X+>@R+@@0@< V+V+A+;@&@+@1.a@m.H.J H H n+",
"X.d F+6.5.T T p.6.6.p.T &.o y z { = W W D D D F [.[.1.F.=.A z R X.b s.M+5.X+H+G+8@W+F+X+M+M+>@b@c e Q+;@A+6+C a@F 1.&@Q V+J I >.",
"c [ O p.=+R ,.I.<@<@6.S y p z q = = h V U V [.1+R.}.D A o+B I B d+[ 5.X+q.O W+G+W+F+M+D+c@M+M+,.e k+&@K+;@H.C +@1.+@C ;@6+Q o+H ",
"3 @ { . ! * + @ $ =   ] = + = , ( + { + . ! * > $ @ { = . . d ( = [ < x+t+{ ( 4.w+k+f+/@2 u+: c e d+d d+b /@9@/@c } w+k+| b c [ ",
"u+$ = * !   d@$ 5 [ = ( . / ] ( + 0 d@= .   . = + { { [ k+}   d + : < @ f+| k+w+w+k+< (@e@u+b X.d+d _ X.< f@2@L+e w+4.d + b 3 @ ",
"t.g+h+K g+#+p.%.[ $ u t j.2.V h d.q #.O.D ..x.1+. = 2.z J y y B I y ,.P+).G+N+X+d+e q+C+C+%@R+=+K >.Q++@z+0+K+I a d+K+F.m.6+K r+",
"x J >.=+u.I.p.S [ $ x x j.A U f w.q q ` [.Z }.W   ( A A A z y R h+K g+t.6.H+r.t.| b r+q+%@=+@@@@H >.;@&@+@F.n.I a e n.C A J x &.",
"z Q y S I.I.u.x { [ z B p #.A O.O.2.U +. . .h 2.( = A =.=.A y &.S S ,.S T L B+q+: 3 r+%@R+h+>.V+V+V+A+;@Q+n.m+Q X.= 6+o+>.H h+R ",
"n.z K T p.u.t y [ v.=.2.P p s p A g [.E.[.g q s = 8 O.` U A >.g+u.u.q+l+H H K =+3 3 r+R+K >.o+Q ;@A+>.H n+I H.i+k+k+H =+&.K y I ",
"A B &.S S x y $.] * h V O.s o _.O.i Y ..V #.<.*..   *+8.2.A B &.u.p.q+R Q m+6+R f+b ,.K >.o+;@m+H.A+H g+,.K 6+C e | =+L B+l+B 6+",
"P R 7.x y z P q s+9 +.@+g@p *.s w.j ..W *+R &.o * ! q P #.z B x S T ,.>.n.m.i+B E+c =+>.6+H.m+H.Q V+K r+q+R+J m+b x+,.t.L =+>.z "};
