/* XPM */
static char * Accordeon_xpm[] = {
"32 32 6 1",
" 	c #653414",
".	c #CE2828",
"+	c #3E1E09",
"@	c #462109",
"#	c #F0DC9E",
"$	c #1E5B13",
"                                ",
"                                ",
"                                ",
"                                ",
"           .......      ++      ",
"          ............. ++      ",
"         +@@@@###@#             ",
"         @@#@####@###           ",
"    $ $  @@#@@####@###          ",
"    $$$  @@@#####@@@@           ",
"      $$$@@@######## $ $        ",
"      $$    #######  $$$        ",
"          @@@@.@@@.+  $$$       ",
"         @@@@..@@..@@  $        ",
"         @@@@......@@@ $        ",
"         @@@..#..#.@@@          ",
"         ##@.......@##          ",
"    +++  ###.......###          ",
"    ++   ##.........##   ++     ",
"           ...   ...     ++     ",
"          @@@     @@@           ",
"         @@@@     @@@@          ",
"         ++                     ",
"         ++                     ",
"                                ",
"                $               ",
"                $$$  ++         ",
"              $ $$   ++         ",
"              $$$               ",
"               $$               ",
"         ++              +++    ",
"         ++              +++    "};
