/* XPM */
static char * path_xpm[] = {
"32 32 3 1",
" 	c #653414",
".	c #3E1E09",
"+	c #1E5B13",
"                                ",
"                                ",
"                                ",
"                                ",
"                        ..      ",
"                        ..      ",
"         ..                     ",
"         ..                     ",
"    + +                         ",
"    +++                         ",
"      +++            + +        ",
"      ++             +++        ",
"                 ...  +++       ",
"                 ...   +        ",
"                       +        ",
"                                ",
"                                ",
"    ...                         ",
"    ..                   ..     ",
"                         ..     ",
"                                ",
"         ..                     ",
"         ..                     ",
"         ..                     ",
"                                ",
"                +               ",
"                +++  ..         ",
"              + ++   ..         ",
"              +++               ",
"               ++               ",
"         ..              ...    ",
"         ..              ...    "};
