/* XPM */
static char * Joueur_chemin_xpm[] = {
"32 32 9 1",
" 	c #653414",
".	c #3E1E09",
"+	c #653618",
"@	c #14D4C0",
"#	c #1E5B13",
"$	c #FFFFFF",
"%	c #1E5E1E",
"&	c #1E5C17",
"*	c #000000",
"                                ",
"                                ",
"                                ",
"                                ",
"                        ..      ",
"                        ..      ",
"         ..                     ",
"         .. + @@@@              ",
"    # #      @@@$@@             ",
"    ###   +@@@@@@@@@@           ",
"      %&@@@@@$@@@@@$@@@@++      ",
"      @@@@@@@@@@@@@@@@@@@@      ",
"    @@@@$@@@@@@@@$@@@@@@$@@@    ",
"   @@@$@@@$@@@$@@@@@$@@@@@@@@+  ",
"  @@@@@@@@@@@@@@@@@@@@@@@@@@@@  ",
"  $ $ $ $ $ $ $$$$ $ $ $ $ $ $  ",
"              *@*@              ",
"    ...       *$*$              ",
"    ..     $$$$$$$$$$    ..     ",
"          $   @@$$   $   ..     ",
"              $@@$              ",
"         ..   $$$@              ",
"         ..   @@$$              ",
"         ..   $@@$              ",
"              $$$@              ",
"              $$$$              ",
"              @@$$#  ..         ",
"              $@@$   ..         ",
"              $$$@              ",
"             $$$$$$             ",
"         ..  $$$$$$      ...    ",
"         ..              ...    "};
