/* XPM */
static char * mur_xpm[] = {
"32 32 5 1",
" 	c #653414",
".	c #1E5B13",
"+	c #3E1E09",
"@	c #49821C",
"#	c #0D3C04",
"   .       ..      +     +  ++  ",
" ...............@#+++++++++++++ ",
" ...............@@#++++++++++++ ",
" ................@@#+++++++++++ ",
" .................@#+++++++++++ ",
" ............@@@@@@#+++++++++++ ",
" ............@#####++++++####+++",
".............@@@#++++++##....## ",
"######.........@##++++#.......##",
" ....###.......@@#+++#......... ",
" .......##@@@@@@##+++##........ ",
" ........########+++++#........ ",
" ........#++++++++++++#.........",
"........##++++++++++#####...... ",
"......######+++++++#....#...... ",
"......#@@@@@#+++++#............ ",
"...........@@#++++#............ ",
"............@@#.++#@........... ",
".............@#.+++#@...........",
" ............@#..++##@..........",
" ...........@@#..++..#@@@...... ",
" ..........@@#........##@...... ",
" .......#####.#####..####@@@@@@ ",
" ......#########..##############",
" ......#########.###############",
"##########..####.############+##",
"###########.##+#.#####+######+##",
"#.#+#.#####.##+#.####++####++## ",
"#.#++..####..#+####++#+++++#### ",
"#..#+#.###++##+++++##++#########",
"##.#++..###++#++#####+##### ####",
"# ###+    ##++++  ###+  ###     "};
