/* XPM */
static char * Teldrassyl_xpm[] = {
"32 32 8 1",
" 	c #653414",
".	c #0D3C04",
"+	c #1E5B13",
"@	c #3E1E09",
"#	c #614314",
"$	c #633C14",
"%	c #633A14",
"&	c #623D14",
"                                ",
"                                ",
"   ...     ...........++...     ",
"   .+.......++++.....+++++..    ",
"   .++.....+.....++.++@++++..   ",
"  ....++++...+++++.++@++ +++.   ",
"  .+.+@+++++.++ +.++@++ +++..   ",
"  .+.+@@++++.++ +++@++ +++....  ",
"  ...+++@@++.++ +@@+  ++++.+... ",
"   ..+..+@@+..  @@+  +++..+..+. ",
"  ....+.++@++. +@+  ++..+++.+@. ",
"  .++. ..+@++. +@+ +..+++ .++@. ",
" ..++.  ..@+.. @   ..++  ..+@@. ",
" .+@@.+ ++@+.+ @ +.++  ++.+@@+. ",
" .++@..  +@@++ @ ..+ +++++@@++. ",
" .++@+.+ ++@++ @+.+ ++@@@@+++.. ",
" ..+@@.+  +@@+ +.++ @@++++++..+.",
" .+.+@+++ ++@+ +.+ +@++++ +..++.",
" .+.+@++++ +@+ +.  @+++   ++..+.",
"....++@+++ +++ +. +@+  ++++...+.",
".++.++@@@@@@@@+ +@@+  +++..+..+.",
".++++.+++++++@+ +@+  ...+.....+.",
".++++....@@@@ @@  .@@@+++++++.+.",
".+++++++@+++@ @@  ....@@+++++@@.",
"..+++@@@.+++@ @@  ...  @@+++@.+.",
" .@@@@++++..@ @@@@.@@.# @@++@...",
" .@++++++.@@.@@@@.@  .   .@@@$  ",
" .++++@@.@  @. @.. @@ . %  .    ",
" ..++@@ .@  @..@.@  @@.@@     & ",
"  .@@@ @.  @@ .@  @  @..@@@$    ",
"@@@ @@@@. @@  .@   @@  .@@ @@@  ",
"@@@@@@@@. @   .      @@.@@@@@@@@"};
