/* XPM */
static char * Victoire_xpm[] = {
"32 32 28 1",
" 	c #5ADFDF",
".	c #298618",
"+	c #0D3C04",
"@	c #1E5B13",
"#	c #3E1E09",
"$	c #653414",
"%	c #0D3E0B",
"&	c #1E6025",
"*	c #14D4C0",
"=	c #1E642F",
"-	c #3E210F",
";	c #3E2414",
">	c #1E5C17",
",	c #1E5E1E",
"'	c #0D4926",
")	c #FFFFFF",
"!	c #653618",
"~	c #3D2F21",
"{	c #1E5D1A",
"]	c #1E5F23",
"^	c #1E5F20",
"/	c #0D441C",
"(	c #000000",
"_	c #66371B",
":	c #56D8D4",
"<	c #58DCDA",
"[	c #59DCDB",
"}	c #58DBD9",
"      .             .           ",
"       .     .  .        .   .  ",
" . +++     +++++++++++@@+++     ",
"   +@+++++++@@@@+++.+@@@@@++    ",
"   +@@.++++@+++++@@+@@#@@@.++ . ",
"  ++++@@@@+++@@@@@+@@#@@$@@@+   ",
"  +@+@#@@@@@+@@$@+@@#@@.@@@++   ",
"  +@+@##@@.@%&****=-@@$@@@++++  ",
"  +++@@@#;>,'***)**@!$>@@@+@.++ ",
"   ++@+'@;~**********@{>++@++@+ ",
"  .+++]'*****)*****)****^>@+@#+ ",
"  +@@/*.*****.**.*********+@@#. ",
" ++@****)********)******)***##+ ",
" +@***)***)***)*****)********>+ ",
" +****************************+ ",
".+)@)@)@)@)#)@))))@)@)#)#)@)@)+ ",
" ++@##+@$$@##@(*(*@$##@@@@@@++@+",
" +@+@#@@@$)@#@)())$@#)@@@$@++@@+",
" +@+@#@@@@$))))))))))@@$$$@@++@+",
"++++@@#@@@_@@@**))@#@_$.@@@+++@+",
"+@@+@@########)**)#@$$@@@++.++@+",
"+@@@.+@@@@@@@#)).*@$$+++@+++++@+",
"+@@@@++++.###$**))+###@@@@@@@+@+",
"+@@@@@@@#@@@#$)**)++++##@.@@@##+",
"++@@@###+@@@#$)))*+++  ##@@@#+@+",
" +####@@@@++#$))))+##+: ##@@#+++",
" +#@@@@@@+##+#**))#$$+   +###<  ",
" +@.@@##+#$$#+)**)$##$+ [  +  . ",
" ++@@#.$+#$$#+)))*$$##+##   . } ",
"  +###$#+$$##))))))$$#++###<   .",
"###$####+$##$))))))##$.+##$###  ",
"########+$#$$$+$$$$$$##+########"};
