/* XPM */
static char * Visite_sortie_xpm[] = {
"32 32 25 1",
" 	c #653414",
".	c #0D3C04",
"+	c #1E5B13",
"@	c #3E1E09",
"#	c #0D3E0B",
"$	c #1E6025",
"%	c #14D4C0",
"&	c #1E642F",
"*	c #3E210F",
"=	c #3E2414",
"-	c #1E5C17",
";	c #1E5E1E",
">	c #0D4926",
",	c #FFFFFF",
"'	c #653618",
")	c #3D2F21",
"!	c #1E5D1A",
"~	c #1E5F23",
"{	c #1E5F20",
"]	c #0D441C",
"^	c #000000",
"/	c #614314",
"(	c #633C14",
"_	c #633A14",
":	c #623D14",
"                                ",
"                                ",
"   ...     ...........++...     ",
"   .+.......++++.....+++++..    ",
"   .++.....+.....++.++@++++..   ",
"  ....++++...+++++.++@++ +++.   ",
"  .+.+@+++++.++ +.++@++ +++..   ",
"  .+.+@@++++#$%%%%&*++ +++....  ",
"  ...+++@=-;>%%%,%%+' -+++.+... ",
"   ..+.>+=)%%%%%%%%%%+!-..+..+. ",
"  ....~>%%%%%,%%%%%,%%%%{-+.+@. ",
"  .++]%%%%%%%%%%%%%%%%%%%%.++@. ",
" ..+%%%%,%%%%%%%%,%%%%%%,%%%@@. ",
" .+%%%,%%%,%%%,%%%%%,%%%%%%%%-. ",
" .%%%%%%%%%%%%%%%%%%%%%%%%%%%%. ",
" .,+,+,+,+,@,+,,,,+,+,@,@,+,+,. ",
" ..+@@.+  +@@+^%^%+ @@++++++..+.",
" .+.+@+++ ++@+^,^, +@++++ +..++.",
" .+.+@++++ ,,,,,,,,,,++   ++..+.",
"....++@+++,+++%%,,+@+, ++++...+.",
".++.++@@@@@@@@,%%,@+  +++..+..+.",
".++++.+++++++@,,,%+  ...+.....+.",
".++++....@@@@ %%,,.@@@+++++++.+.",
".+++++++@+++@ ,%%,....@@+++++@@.",
"..+++@@@.+++@ ,,,%...  @@+++@.+.",
" .@@@@++++..@ ,,,,.@@./ @@++@...",
" .@++++++.@@.@%%,,@  .   .@@@(  ",
" .++++@@.@  @.,%%, @@ . _  .    ",
" ..++@@ .@  @.,,,%  @@.@@     : ",
"  .@@@ @.  @@,,,,,,  @..@@@(    ",
"@@@ @@@@. @@ ,,,,,,@@  .@@ @@@  ",
"@@@@@@@@. @   .      @@.@@@@@@@@"};
